%
(Plaque)
(plaque)
(T1  D=6.35 CR=0 - ZMIN=-10.795 - flat end mill)
N0 G90
N1 G17
N3 S10000 M3
N5 G0 X81.321 Y47.339
N6 Z15.24
N7 Z3.176
N8 G1 Z2.541 F1016
N9 G3 X79.773 Y42.984 Z2.269 I1.229 J-2.89
N10 X84.228 Y41.808 Z1.997 I2.769 J1.461
N11 X85.026 Y46.332 Z1.725 I-1.682 J2.629
N12 X80.465 Y46.749 Z1.452 I-2.472 J-1.889
N13 X80.43 Y42.183 Z1.18 I2.083 J-2.299
N14 X84.969 Y42.528 Z0.908 I2.111 J2.26
N15 X84.249 Y47.009 Z0.636 I-2.421 J1.909
N16 X79.858 Y45.921 Z0.363 I-1.695 J-2.564
N17 X81.303 Y41.649 Z0.091 I2.688 J-1.471
N18 X85.427 Y43.44 Z-0.181 I1.238 J2.792
N19 X83.305 Y47.388 Z-0.453 I-2.877 J0.998
N20 X79.559 Y44.952 Z-0.726 I-0.752 J-2.941
N21 X82.291 Y41.433 Z-0.998 I2.984 J-0.503
N22 X85.559 Y44.439 Z-1.27 I0.252 J3.006
N23 X79.526 I-3.017 J0
N24 X85.452 Y43.641 I3.017 J0
N25 X85.559 Y44.439 I-2.909 J0.798
N26 G1 X85.563 Y44.669
N27 X85.72 Y45.574
N28 G3 X85.561 Y47.252 I-1.845 J0.671
N29 X83.772 Y48.818 I-2.886 J-1.493
N30 X79.234 Y47.88 I-1.533 J-4.034
N31 X80.386 Y40.128 I3.251 J-3.478
N32 X86.808 Y42.174 I2.169 J4.294
N33 G1 X87.217 Y42.969
N34 G3 X87.815 Y45.051 I-6.141 J2.891
N35 X84.466 Y50.581 I-5.29 J0.575
N36 X79.2 Y50.28 I-2.32 J-5.636
N37 X75.992 Y42.486 I3.164 J-5.86
N38 X87.572 Y39.784 I6.556 J1.931
N39 X89.95 Y45.189 I-5.961 J5.849
N40 X85.337 Y52.482 I-7.566 J0.32
N41 X78.905 Y52.498 I-3.234 J-7.506
N42 X73.636 Y45.564 I3.366 J-8.027
N43 X84.562 Y35.66 I8.895 J-1.166
N44 X87.913 Y37.191 I-1.996 J8.796
N45 X92.146 Y44.884 I-6.083 J8.359
N46 X87.063 Y54.086 I-9.81 J0.586
N47 X80.655 Y55.263 I-4.965 J-8.995
N48 X74.574 Y52.247 I1.474 J-10.611
N49 X71.307 Y44.246 I7.768 J-7.84
N50 X78.655 Y33.867 I11.212 J0.147
N51 X86.64 Y33.94 I3.895 J10.557
N52 X90.495 Y36.39 I-4.305 J11.033
N53 X94.294 Y43.572 I-8.628 J9.161
N54 X92.795 Y51.547 I-12.029 J1.868
N55 X84.853 Y57.334 I-10.575 J-6.17
N56 X75.946 Y56.083 I-2.792 J-12.461
N57 X70.336 Y50.19 I6.237 J-11.554
N58 X70.722 Y37.815 I12.089 J-5.816
N59 X86.494 Y31.462 I11.823 J6.597
N60 X93.85 Y36.706 I-4.193 J13.663
N61 X95.778 Y50.666 I-11.693 J8.728
N62 X84.041 Y59.826 I-13.578 J-5.299
N63 X72.8 Y56.803 I-1.995 J-14.995
N64 X66.695 Y44.941 I9.471 J-12.376
N65 X87.343 Y29.289 I15.841 J-0.548
N66 X96.04 Y35.739 I-5.001 J15.831
N67 X95.736 Y55.522 I-13.828 J9.682
N68 X83.181 Y62.269 I-13.598 J-10.247
N69 X69.147 Y56.654 I-1.116 J-17.554
N70 X66.31 Y36.138 I13.228 J-12.284
N71 X89.868 Y27.716 I16.243 J8.276
N72 X99.561 Y37.099 I-7.634 J17.584
N73 X86.98 Y64.046 I-17.317 J8.325
N74 X69.644 Y60.331 I-4.955 J-19.185
N75 X63.28 Y37.132 I12.675 J-15.95
N76 X90.502 Y25.403 I19.271 J7.272
N77 X101.202 Y35.068 I-8.2 J19.834
N78 X94.905 Y62.918 I-18.954 J10.351
N79 G1 X94.04 Y63.447
N80 X93.441 Y63.816
N81 G3 X89.686 Y65.491 I-12.212 J-22.338
N82 X87.599 Y66.079 I-10.363 J-32.761
N83 X84.261 Y66.596 I-5.243 J-22.814
N84 X77.583 Y66.095 I-1.683 J-22.323
N85 G1 X76.332 Y65.78
N86 G3 X74.246 Y65.054 I10.57 J-33.75
N87 G1 X72.785 Y64.402
N88 G3 X67.668 Y60.943 I10.194 J-20.59
N89 X63.811 Y56.385 I15.811 J-17.291
N90 X61.969 Y52.799 I20.548 J-12.825
N91 G1 X61.505 Y51.546
N92 G3 X60.855 Y49.25 I28.838 J-9.4
N93 G1 X60.632 Y47.997
N94 G3 X65.072 Y30.748 I21.89 J-3.562
N95 G1 X65.124 Y30.668
N96 X66.197 Y29.416
N97 G3 X67.982 Y27.678 I20.533 J19.317
N98 X72.368 Y24.711 I15.07 J17.546
N99 G1 X72.576 Y24.595
N100 G3 X76.222 Y23.153 I11.388 J23.457
N101 X79.879 Y22.402 I6.735 J23.53
N102 X84.261 Y22.303 I2.709 J22.986
N103 X87.808 Y22.871 I-1.9 J23.254
N104 X89.895 Y23.48 I-8.863 J34.227
N105 X91.982 Y24.343 I-9.957 J27.051
N106 G1 X93.35 Y25.031
N107 X93.442 Y25.084
N108 G3 X96.444 Y27.12 I-12.832 J22.155
N109 X98.104 Y28.581 I-22.617 J27.377
N110 G1 X99.284 Y29.841
N111 X99.464 Y30.042
N112 X100.536 Y31.411
N113 G3 X102.681 Y35.053 I-20.683 J14.634
N114 G1 X103.248 Y36.4
N115 X103.38 Y36.723
N116 X103.457 Y36.943
N117 X103.921 Y38.393
N118 G3 X104.665 Y46.535 I-21.751 J6.093
N119 X104.366 Y48.623 I-33.188 J-3.69
N120 X103.254 Y52.502 I-23.285 J-4.576
N121 X101.566 Y55.931 I-22.181 J-8.79
N122 G1 X100.744 Y57.195
N123 G3 X96.78 Y61.505 I-18.678 J-13.201
N124 X95.002 Y62.842 I-20.194 J-25.002
N125 G1 X94.952 Y62.864 Z-1.264
N126 X94.904 Y62.884 Z-1.245
N127 X94.861 Y62.903 Z-1.215
N128 X94.825 Y62.919 Z-1.176
N129 X94.797 Y62.931 Z-1.129
N130 X94.779 Y62.935 Z-1.076
N131 X94.773 Y62.936 Z-1.021
N132 G0 Z5.08
N133 X81.299 Y47.33
N134 Z1.905
N135 G1 Z1.27 F1016
N136 G3 X79.783 Y42.965 Z0.998 I1.25 J-2.88
N137 X84.245 Y41.819 Z0.726 I2.758 J1.48
N138 X85.015 Y46.347 Z0.454 I-1.698 J2.618
N139 X80.453 Y46.738 Z0.181 I-2.461 J-1.904
N140 X80.441 Y42.173 Z-0.091 I2.095 J-2.288
N141 X84.977 Y42.538 Z-0.363 I2.1 J2.27
N142 X84.24 Y47.015 Z-0.635 I-2.429 J1.899
N143 X79.853 Y45.912 Z-0.907 I-1.686 J-2.57
N144 X81.311 Y41.645 Z-1.179 I2.692 J-1.463
N145 X85.43 Y43.446 Z-1.451 I1.231 J2.796
N146 X83.3 Y47.389 Z-1.724 I-2.879 J0.992
N147 X79.559 Y44.948 Z-1.996 I-0.748 J-2.942
N148 X82.293 Y41.433 Z-2.268 I2.985 J-0.5
N149 X85.559 Y44.439 Z-2.54 I0.25 J3.006
N150 X79.526 I-3.017 J0
N151 X85.452 Y43.641 I3.017 J0
N152 X85.559 Y44.439 I-2.909 J0.798
N153 G1 X85.563 Y44.669
N154 X85.72 Y45.574
N155 G3 X85.561 Y47.252 I-1.845 J0.671
N156 X83.772 Y48.817 I-2.886 J-1.493
N157 X79.234 Y47.88 I-1.533 J-4.034
N158 X80.386 Y40.128 I3.251 J-3.478
N159 X86.808 Y42.174 I2.169 J4.294
N160 G1 X87.217 Y42.969
N161 G3 X87.815 Y45.051 I-6.141 J2.891
N162 X84.466 Y50.581 I-5.29 J0.575
N163 X79.2 Y50.28 I-2.32 J-5.636
N164 X75.992 Y42.486 I3.164 J-5.86
N165 X87.572 Y39.784 I6.556 J1.931
N166 X89.95 Y45.189 I-5.961 J5.849
N167 X85.337 Y52.482 I-7.566 J0.32
N168 X78.905 Y52.498 I-3.234 J-7.506
N169 X73.636 Y45.564 I3.366 J-8.027
N170 X84.562 Y35.659 I8.895 J-1.166
N171 X87.913 Y37.191 I-1.996 J8.796
N172 X92.146 Y44.884 I-6.083 J8.359
N173 X87.063 Y54.086 I-9.81 J0.586
N174 X80.655 Y55.263 I-4.965 J-8.995
N175 X74.574 Y52.247 I1.474 J-10.611
N176 X71.307 Y44.245 I7.769 J-7.84
N177 X78.655 Y33.867 I11.212 J0.147
N178 X86.64 Y33.94 I3.895 J10.557
N179 X90.495 Y36.39 I-4.305 J11.033
N180 X94.294 Y43.572 I-8.628 J9.161
N181 X92.795 Y51.547 I-12.029 J1.868
N182 X84.853 Y57.334 I-10.575 J-6.17
N183 X75.946 Y56.083 I-2.792 J-12.461
N184 X70.336 Y50.19 I6.238 J-11.554
N185 X70.722 Y37.815 I12.089 J-5.816
N186 X86.494 Y31.462 I11.823 J6.597
N187 X93.85 Y36.706 I-4.193 J13.663
N188 X95.778 Y50.666 I-11.693 J8.728
N189 X84.041 Y59.826 I-13.578 J-5.299
N190 X72.8 Y56.803 I-1.995 J-14.995
N191 X66.695 Y44.941 I9.471 J-12.376
N192 X87.343 Y29.289 I15.841 J-0.548
N193 X96.04 Y35.739 I-5.001 J15.831
N194 X95.736 Y55.522 I-13.828 J9.682
N195 X83.181 Y62.269 I-13.598 J-10.247
N196 X69.147 Y56.654 I-1.116 J-17.554
N197 X66.31 Y36.138 I13.228 J-12.284
N198 X89.868 Y27.716 I16.243 J8.276
N199 X99.561 Y37.099 I-7.634 J17.584
N200 X86.979 Y64.046 I-17.317 J8.325
N201 X69.644 Y60.331 I-4.955 J-19.185
N202 X63.28 Y37.132 I12.675 J-15.95
N203 X90.502 Y25.403 I19.271 J7.272
N204 X101.202 Y35.068 I-8.2 J19.834
N205 X94.905 Y62.918 I-18.954 J10.351
N206 G1 X94.04 Y63.447
N207 X93.441 Y63.816
N208 G3 X89.686 Y65.491 I-12.212 J-22.338
N209 X87.599 Y66.079 I-10.363 J-32.761
N210 X84.261 Y66.596 I-5.243 J-22.814
N211 X77.583 Y66.095 I-1.683 J-22.323
N212 G1 X76.332 Y65.78
N213 G3 X74.246 Y65.054 I10.57 J-33.75
N214 G1 X72.785 Y64.402
N215 G3 X67.668 Y60.943 I10.194 J-20.59
N216 X63.811 Y56.385 I15.811 J-17.291
N217 X61.969 Y52.799 I20.548 J-12.825
N218 G1 X61.505 Y51.546
N219 G3 X60.855 Y49.25 I28.838 J-9.4
N220 G1 X60.632 Y47.997
N221 G3 X65.072 Y30.748 I21.89 J-3.562
N222 G1 X65.124 Y30.668
N223 X66.197 Y29.416
N224 G3 X67.982 Y27.678 I20.533 J19.317
N225 X72.368 Y24.711 I15.07 J17.546
N226 G1 X72.576 Y24.595
N227 G3 X76.222 Y23.153 I11.388 J23.457
N228 X79.879 Y22.402 I6.735 J23.53
N229 X84.261 Y22.303 I2.709 J22.986
N230 X87.808 Y22.871 I-1.9 J23.254
N231 X89.895 Y23.48 I-8.863 J34.227
N232 X91.982 Y24.343 I-9.957 J27.051
N233 G1 X93.35 Y25.031
N234 X93.442 Y25.084
N235 G3 X96.444 Y27.12 I-12.832 J22.155
N236 X98.104 Y28.581 I-22.617 J27.377
N237 G1 X99.284 Y29.841
N238 X99.464 Y30.042
N239 X100.536 Y31.411
N240 G3 X102.681 Y35.053 I-20.683 J14.634
N241 G1 X103.248 Y36.4
N242 X103.38 Y36.723
N243 X103.457 Y36.943
N244 X103.921 Y38.393
N245 G3 X104.665 Y46.535 I-21.751 J6.093
N246 X104.366 Y48.623 I-33.188 J-3.69
N247 X103.254 Y52.502 I-23.285 J-4.576
N248 X101.566 Y55.931 I-22.181 J-8.79
N249 G1 X100.744 Y57.195
N250 G3 X96.78 Y61.505 I-18.678 J-13.201
N251 X95.003 Y62.841 I-20.192 J-24.999
N252 G1 X94.952 Y62.863 Z-2.534
N253 X94.904 Y62.884 Z-2.515
N254 X94.861 Y62.903 Z-2.485
N255 X94.825 Y62.919 Z-2.446
N256 X94.798 Y62.93 Z-2.399
N257 X94.78 Y62.934 Z-2.346
N258 X94.773 Y62.936 Z-2.291
N259 G0 Z5.08
N260 X81.299 Y47.33
N261 Z0.635
N262 G1 Z0 F1016
N263 G3 X79.783 Y42.965 Z-0.272 I1.25 J-2.88
N264 X84.245 Y41.819 Z-0.544 I2.758 J1.48
N265 X85.015 Y46.347 Z-0.816 I-1.698 J2.618
N266 X80.453 Y46.738 Z-1.089 I-2.461 J-1.904
N267 X80.441 Y42.173 Z-1.361 I2.095 J-2.288
N268 X84.977 Y42.538 Z-1.633 I2.1 J2.27
N269 X84.24 Y47.015 Z-1.905 I-2.429 J1.899
N270 X79.853 Y45.912 Z-2.177 I-1.686 J-2.57
N271 X81.311 Y41.645 Z-2.449 I2.692 J-1.463
N272 X85.43 Y43.446 Z-2.721 I1.231 J2.796
N273 X83.3 Y47.389 Z-2.994 I-2.879 J0.992
N274 X79.559 Y44.948 Z-3.266 I-0.748 J-2.942
N275 X82.293 Y41.433 Z-3.538 I2.985 J-0.5
N276 X85.559 Y44.439 Z-3.81 I0.25 J3.006
N277 X79.526 I-3.017 J0
N278 X85.452 Y43.641 I3.017 J0
N279 X85.559 Y44.439 I-2.909 J0.798
N280 G1 X85.563 Y44.669
N281 X85.72 Y45.574
N282 G3 X85.561 Y47.252 I-1.845 J0.671
N283 X83.772 Y48.817 I-2.886 J-1.493
N284 X79.234 Y47.88 I-1.533 J-4.034
N285 X80.386 Y40.128 I3.251 J-3.478
N286 X86.808 Y42.174 I2.169 J4.294
N287 G1 X87.217 Y42.969
N288 G3 X87.815 Y45.051 I-6.141 J2.891
N289 X84.466 Y50.581 I-5.29 J0.575
N290 X79.2 Y50.28 I-2.32 J-5.636
N291 X75.992 Y42.486 I3.164 J-5.86
N292 X87.572 Y39.784 I6.556 J1.931
N293 X89.95 Y45.189 I-5.961 J5.849
N294 X85.337 Y52.482 I-7.566 J0.32
N295 X78.905 Y52.498 I-3.234 J-7.506
N296 X73.636 Y45.564 I3.366 J-8.027
N297 X84.562 Y35.659 I8.895 J-1.166
N298 X87.913 Y37.191 I-1.996 J8.796
N299 X92.146 Y44.884 I-6.083 J8.359
N300 X87.063 Y54.086 I-9.81 J0.586
N301 X80.655 Y55.263 I-4.965 J-8.995
N302 X74.574 Y52.247 I1.474 J-10.611
N303 X71.307 Y44.245 I7.769 J-7.84
N304 X78.655 Y33.867 I11.212 J0.147
N305 X86.64 Y33.94 I3.895 J10.557
N306 X90.495 Y36.39 I-4.305 J11.033
N307 X94.294 Y43.572 I-8.628 J9.161
N308 X92.795 Y51.547 I-12.029 J1.868
N309 X84.853 Y57.334 I-10.575 J-6.17
N310 X75.946 Y56.083 I-2.792 J-12.461
N311 X70.336 Y50.19 I6.238 J-11.554
N312 X70.722 Y37.815 I12.089 J-5.816
N313 X86.494 Y31.462 I11.823 J6.597
N314 X93.85 Y36.706 I-4.193 J13.663
N315 X95.778 Y50.666 I-11.693 J8.728
N316 X84.041 Y59.826 I-13.578 J-5.299
N317 X72.8 Y56.803 I-1.995 J-14.995
N318 X66.695 Y44.941 I9.471 J-12.376
N319 X87.343 Y29.289 I15.841 J-0.548
N320 X96.04 Y35.739 I-5.001 J15.831
N321 X95.736 Y55.522 I-13.828 J9.682
N322 X83.181 Y62.269 I-13.598 J-10.247
N323 X69.147 Y56.654 I-1.116 J-17.554
N324 X66.31 Y36.138 I13.228 J-12.284
N325 X89.868 Y27.716 I16.243 J8.276
N326 X99.561 Y37.099 I-7.634 J17.584
N327 X86.979 Y64.046 I-17.317 J8.325
N328 X69.644 Y60.331 I-4.955 J-19.185
N329 X63.28 Y37.132 I12.675 J-15.95
N330 X90.502 Y25.403 I19.271 J7.272
N331 X101.202 Y35.068 I-8.2 J19.834
N332 X94.905 Y62.918 I-18.954 J10.351
N333 G1 X94.04 Y63.447
N334 X93.441 Y63.816
N335 G3 X89.686 Y65.491 I-12.212 J-22.338
N336 X87.599 Y66.079 I-10.363 J-32.761
N337 X84.261 Y66.596 I-5.243 J-22.814
N338 X77.583 Y66.095 I-1.683 J-22.323
N339 G1 X76.332 Y65.78
N340 G3 X74.246 Y65.054 I10.57 J-33.75
N341 G1 X72.785 Y64.402
N342 G3 X67.668 Y60.943 I10.194 J-20.59
N343 X63.811 Y56.385 I15.811 J-17.291
N344 X61.969 Y52.799 I20.548 J-12.825
N345 G1 X61.505 Y51.546
N346 G3 X60.855 Y49.25 I28.838 J-9.4
N347 G1 X60.632 Y47.997
N348 G3 X65.072 Y30.748 I21.89 J-3.562
N349 G1 X65.124 Y30.668
N350 X66.197 Y29.416
N351 G3 X67.982 Y27.678 I20.533 J19.317
N352 X72.368 Y24.711 I15.07 J17.546
N353 G1 X72.576 Y24.595
N354 G3 X76.222 Y23.153 I11.388 J23.457
N355 X79.879 Y22.402 I6.735 J23.53
N356 X84.261 Y22.303 I2.709 J22.986
N357 X87.808 Y22.871 I-1.9 J23.254
N358 X89.895 Y23.48 I-8.863 J34.227
N359 X91.982 Y24.343 I-9.957 J27.051
N360 G1 X93.35 Y25.031
N361 X93.442 Y25.084
N362 G3 X96.444 Y27.12 I-12.832 J22.155
N363 X98.104 Y28.581 I-22.617 J27.377
N364 G1 X99.284 Y29.841
N365 X99.464 Y30.042
N366 X100.536 Y31.411
N367 G3 X102.681 Y35.053 I-20.683 J14.634
N368 G1 X103.248 Y36.4
N369 X103.38 Y36.723
N370 X103.457 Y36.943
N371 X103.921 Y38.393
N372 G3 X104.665 Y46.535 I-21.751 J6.093
N373 X104.366 Y48.623 I-33.188 J-3.69
N374 X103.254 Y52.502 I-23.285 J-4.576
N375 X101.566 Y55.931 I-22.181 J-8.79
N376 G1 X100.744 Y57.195
N377 G3 X96.78 Y61.505 I-18.678 J-13.201
N378 X95.003 Y62.841 I-20.192 J-24.999
N379 G1 X94.952 Y62.863 Z-3.804
N380 X94.904 Y62.884 Z-3.785
N381 X94.861 Y62.903 Z-3.755
N382 X94.825 Y62.919 Z-3.716
N383 X94.798 Y62.93 Z-3.669
N384 X94.78 Y62.934 Z-3.616
N385 X94.773 Y62.936 Z-3.561
N386 G0 Z-0.635
N387 X81.299 Y47.33
N388 G1 Z-1.27 F1016
N389 G3 X79.783 Y42.965 Z-1.542 I1.25 J-2.88
N390 X84.245 Y41.819 Z-1.814 I2.758 J1.48
N391 X85.015 Y46.347 Z-2.086 I-1.698 J2.618
N392 X80.453 Y46.738 Z-2.359 I-2.461 J-1.904
N393 X80.441 Y42.173 Z-2.631 I2.095 J-2.288
N394 X84.977 Y42.538 Z-2.903 I2.1 J2.27
N395 X84.24 Y47.015 Z-3.175 I-2.429 J1.899
N396 X79.853 Y45.912 Z-3.447 I-1.686 J-2.57
N397 X81.311 Y41.645 Z-3.719 I2.692 J-1.463
N398 X85.43 Y43.446 Z-3.991 I1.231 J2.796
N399 X83.3 Y47.389 Z-4.264 I-2.879 J0.992
N400 X79.559 Y44.948 Z-4.536 I-0.748 J-2.942
N401 X82.293 Y41.433 Z-4.808 I2.985 J-0.5
N402 X85.559 Y44.439 Z-5.08 I0.25 J3.006
N403 X79.526 I-3.017 J0
N404 X85.452 Y43.641 I3.017 J0
N405 X85.559 Y44.439 I-2.909 J0.798
N406 G1 X85.563 Y44.669
N407 X85.72 Y45.574
N408 G3 X85.561 Y47.252 I-1.845 J0.671
N409 X83.772 Y48.817 I-2.886 J-1.493
N410 X79.234 Y47.88 I-1.533 J-4.034
N411 X80.386 Y40.128 I3.251 J-3.478
N412 X86.808 Y42.174 I2.169 J4.294
N413 G1 X87.217 Y42.969
N414 G3 X87.815 Y45.051 I-6.141 J2.891
N415 X84.466 Y50.581 I-5.29 J0.575
N416 X79.2 Y50.28 I-2.32 J-5.636
N417 X75.992 Y42.486 I3.164 J-5.86
N418 X87.572 Y39.784 I6.556 J1.931
N419 X89.95 Y45.189 I-5.961 J5.849
N420 X85.337 Y52.482 I-7.566 J0.32
N421 X78.905 Y52.498 I-3.234 J-7.506
N422 X73.636 Y45.564 I3.366 J-8.027
N423 X84.562 Y35.659 I8.895 J-1.166
N424 X87.913 Y37.191 I-1.996 J8.796
N425 X92.146 Y44.884 I-6.083 J8.359
N426 X87.063 Y54.086 I-9.81 J0.586
N427 X80.655 Y55.263 I-4.965 J-8.995
N428 X74.574 Y52.247 I1.474 J-10.611
N429 X71.307 Y44.245 I7.769 J-7.84
N430 X78.655 Y33.867 I11.212 J0.147
N431 X86.64 Y33.94 I3.895 J10.557
N432 X90.495 Y36.39 I-4.305 J11.033
N433 X94.294 Y43.572 I-8.628 J9.161
N434 X92.795 Y51.547 I-12.029 J1.868
N435 X84.853 Y57.334 I-10.575 J-6.17
N436 X75.946 Y56.083 I-2.792 J-12.461
N437 X70.336 Y50.19 I6.238 J-11.554
N438 X70.722 Y37.815 I12.089 J-5.816
N439 X86.494 Y31.462 I11.823 J6.597
N440 X93.85 Y36.706 I-4.193 J13.663
N441 X95.778 Y50.666 I-11.693 J8.728
N442 X84.041 Y59.826 I-13.578 J-5.299
N443 X72.8 Y56.803 I-1.995 J-14.995
N444 X66.695 Y44.941 I9.471 J-12.376
N445 X87.343 Y29.289 I15.841 J-0.548
N446 X96.04 Y35.739 I-5.001 J15.831
N447 X95.736 Y55.522 I-13.828 J9.682
N448 X83.181 Y62.269 I-13.598 J-10.247
N449 X69.147 Y56.654 I-1.116 J-17.554
N450 X66.31 Y36.138 I13.228 J-12.284
N451 X89.868 Y27.716 I16.243 J8.276
N452 X99.561 Y37.099 I-7.634 J17.584
N453 X86.979 Y64.046 I-17.317 J8.325
N454 X69.644 Y60.331 I-4.955 J-19.185
N455 X63.28 Y37.132 I12.675 J-15.95
N456 X90.502 Y25.403 I19.271 J7.272
N457 X101.202 Y35.068 I-8.2 J19.834
N458 X94.905 Y62.918 I-18.954 J10.351
N459 G1 X94.04 Y63.447
N460 X93.441 Y63.816
N461 G3 X89.686 Y65.491 I-12.212 J-22.338
N462 X87.599 Y66.079 I-10.363 J-32.761
N463 X84.261 Y66.596 I-5.243 J-22.814
N464 X77.583 Y66.095 I-1.683 J-22.323
N465 G1 X76.332 Y65.78
N466 G3 X74.246 Y65.054 I10.57 J-33.75
N467 G1 X72.785 Y64.402
N468 G3 X67.668 Y60.943 I10.194 J-20.59
N469 X63.811 Y56.385 I15.811 J-17.291
N470 X61.969 Y52.799 I20.548 J-12.825
N471 G1 X61.505 Y51.546
N472 G3 X60.855 Y49.25 I28.838 J-9.4
N473 G1 X60.632 Y47.997
N474 G3 X65.072 Y30.748 I21.89 J-3.562
N475 G1 X65.124 Y30.668
N476 X66.197 Y29.416
N477 G3 X67.982 Y27.678 I20.533 J19.317
N478 X72.368 Y24.711 I15.07 J17.546
N479 G1 X72.576 Y24.595
N480 G3 X76.222 Y23.153 I11.388 J23.457
N481 X79.879 Y22.402 I6.735 J23.53
N482 X84.261 Y22.303 I2.709 J22.986
N483 X87.808 Y22.871 I-1.9 J23.254
N484 X89.895 Y23.48 I-8.863 J34.227
N485 X91.982 Y24.343 I-9.957 J27.051
N486 G1 X93.35 Y25.031
N487 X93.442 Y25.084
N488 G3 X96.444 Y27.12 I-12.832 J22.155
N489 X98.104 Y28.581 I-22.617 J27.377
N490 G1 X99.284 Y29.841
N491 X99.464 Y30.042
N492 X100.536 Y31.411
N493 G3 X102.681 Y35.053 I-20.683 J14.634
N494 G1 X103.248 Y36.4
N495 X103.38 Y36.723
N496 X103.457 Y36.943
N497 X103.921 Y38.393
N498 G3 X104.665 Y46.535 I-21.751 J6.093
N499 X104.366 Y48.623 I-33.188 J-3.69
N500 X103.254 Y52.502 I-23.285 J-4.576
N501 X101.566 Y55.931 I-22.181 J-8.79
N502 G1 X100.744 Y57.195
N503 G3 X96.78 Y61.505 I-18.678 J-13.201
N504 X95.003 Y62.841 I-20.192 J-24.999
N505 G1 X94.952 Y62.863 Z-5.074
N506 X94.904 Y62.884 Z-5.055
N507 X94.861 Y62.903 Z-5.025
N508 X94.825 Y62.919 Z-4.986
N509 X94.798 Y62.93 Z-4.939
N510 X94.78 Y62.934 Z-4.886
N511 X94.773 Y62.936 Z-4.831
N512 G0 Z-1.905
N513 X81.278 Y47.321
N514 G1 Z-2.54 F1016
N515 G3 X79.793 Y42.946 Z-2.812 I1.272 J-2.871
N516 X84.262 Y41.83 Z-3.084 I2.748 J1.499
N517 X85.004 Y46.361 Z-3.356 I-1.715 J2.608
N518 X80.441 Y46.727 Z-3.628 I-2.45 J-1.918
N519 X80.452 Y42.163 Z-3.9 I2.107 J-2.277
N520 X84.985 Y42.549 Z-4.172 I2.089 J2.28
N521 X84.23 Y47.021 Z-4.444 I-2.437 J1.889
N522 X79.848 Y45.904 Z-4.716 I-1.676 J-2.576
N523 X81.318 Y41.642 Z-4.988 I2.697 J-1.454
N524 X85.432 Y43.452 Z-5.261 I1.223 J2.799
N525 X83.296 Y47.39 Z-5.533 I-2.881 J0.986
N526 X79.559 Y44.945 Z-5.805 I-0.743 J-2.943
N527 X82.294 Y41.433 Z-6.077 I2.985 J-0.497
N528 X85.559 Y44.439 Z-6.349 I0.248 J3.006
N529 X79.526 I-3.017 J0
N530 X85.559 I3.017 J0
N531 G1 X85.563 Y44.669
N532 X85.72 Y45.574
N533 G3 X85.561 Y47.252 I-1.845 J0.671
N534 X83.772 Y48.817 I-2.886 J-1.493
N535 X79.234 Y47.88 I-1.533 J-4.034
N536 X80.386 Y40.128 I3.251 J-3.478
N537 X86.808 Y42.174 I2.169 J4.294
N538 G1 X87.217 Y42.969
N539 G3 X87.815 Y45.051 I-6.141 J2.891
N540 X84.466 Y50.581 I-5.29 J0.575
N541 X79.2 Y50.28 I-2.32 J-5.636
N542 X75.992 Y42.486 I3.164 J-5.86
N543 X87.572 Y39.784 I6.556 J1.931
N544 X89.95 Y45.189 I-5.961 J5.849
N545 X85.337 Y52.482 I-7.566 J0.32
N546 X78.905 Y52.497 I-3.234 J-7.506
N547 X73.636 Y45.563 I3.366 J-8.027
N548 X84.562 Y35.659 I8.895 J-1.166
N549 X87.913 Y37.191 I-1.996 J8.796
N550 X92.146 Y44.884 I-6.083 J8.359
N551 X87.063 Y54.086 I-9.81 J0.586
N552 X80.655 Y55.263 I-4.965 J-8.995
N553 X74.574 Y52.247 I1.474 J-10.611
N554 X71.307 Y44.245 I7.769 J-7.84
N555 X78.655 Y33.867 I11.212 J0.147
N556 X86.64 Y33.94 I3.895 J10.557
N557 X90.495 Y36.39 I-4.305 J11.033
N558 X94.294 Y43.572 I-8.628 J9.161
N559 X92.795 Y51.547 I-12.029 J1.868
N560 X84.853 Y57.334 I-10.575 J-6.17
N561 X75.946 Y56.083 I-2.792 J-12.461
N562 X70.336 Y50.19 I6.238 J-11.554
N563 X70.722 Y37.815 I12.089 J-5.816
N564 X86.494 Y31.462 I11.823 J6.597
N565 X93.85 Y36.706 I-4.193 J13.663
N566 X95.778 Y50.666 I-11.693 J8.728
N567 X84.041 Y59.826 I-13.578 J-5.299
N568 X72.8 Y56.803 I-1.995 J-14.995
N569 X66.695 Y44.941 I9.471 J-12.376
N570 X87.343 Y29.289 I15.841 J-0.547
N571 X96.04 Y35.739 I-5.001 J15.831
N572 X95.736 Y55.522 I-13.828 J9.682
N573 X83.181 Y62.269 I-13.598 J-10.247
N574 X69.147 Y56.654 I-1.116 J-17.554
N575 X66.31 Y36.138 I13.228 J-12.284
N576 X89.868 Y27.716 I16.243 J8.276
N577 X99.561 Y37.1 I-7.634 J17.584
N578 X86.979 Y64.046 I-17.317 J8.325
N579 X69.644 Y60.331 I-4.955 J-19.185
N580 X63.28 Y37.132 I12.675 J-15.95
N581 X90.502 Y25.403 I19.271 J7.272
N582 X101.202 Y35.068 I-8.201 J19.834
N583 X94.905 Y62.918 I-18.954 J10.351
N584 G1 X94.04 Y63.447
N585 X93.441 Y63.816
N586 G3 X89.686 Y65.491 I-12.212 J-22.338
N587 X87.599 Y66.079 I-10.363 J-32.761
N588 X84.261 Y66.596 I-5.243 J-22.814
N589 X77.583 Y66.095 I-1.683 J-22.323
N590 G1 X76.332 Y65.78
N591 G3 X74.246 Y65.054 I10.57 J-33.75
N592 G1 X72.785 Y64.402
N593 G3 X67.668 Y60.943 I10.194 J-20.59
N594 X63.811 Y56.385 I15.811 J-17.291
N595 X61.969 Y52.799 I20.548 J-12.825
N596 G1 X61.505 Y51.546
N597 G3 X60.855 Y49.25 I28.838 J-9.4
N598 G1 X60.632 Y47.997
N599 G3 X65.072 Y30.748 I21.89 J-3.562
N600 G1 X65.124 Y30.668
N601 X66.197 Y29.416
N602 G3 X67.982 Y27.678 I20.533 J19.317
N603 X72.368 Y24.711 I15.07 J17.546
N604 G1 X72.576 Y24.595
N605 G3 X76.222 Y23.153 I11.388 J23.457
N606 X79.879 Y22.402 I6.735 J23.53
N607 X84.261 Y22.303 I2.709 J22.986
N608 X87.808 Y22.871 I-1.9 J23.254
N609 X89.895 Y23.48 I-8.863 J34.227
N610 X91.982 Y24.343 I-9.957 J27.051
N611 G1 X93.35 Y25.031
N612 X93.442 Y25.084
N613 G3 X96.444 Y27.12 I-12.832 J22.155
N614 X98.104 Y28.581 I-22.617 J27.377
N615 G1 X99.284 Y29.841
N616 X99.464 Y30.042
N617 X100.536 Y31.411
N618 G3 X102.681 Y35.053 I-20.683 J14.634
N619 G1 X103.248 Y36.4
N620 X103.38 Y36.723
N621 X103.457 Y36.943
N622 X103.921 Y38.393
N623 G3 X104.665 Y46.535 I-21.751 J6.093
N624 X104.366 Y48.623 I-33.188 J-3.69
N625 X103.254 Y52.502 I-23.285 J-4.576
N626 X101.566 Y55.931 I-22.181 J-8.79
N627 G1 X100.744 Y57.195
N628 G3 X96.78 Y61.505 I-18.678 J-13.201
N629 X95.003 Y62.841 I-20.19 J-24.997
N630 G1 X94.952 Y62.863 Z-6.342
N631 X94.904 Y62.884 Z-6.324
N632 X94.861 Y62.903 Z-6.294
N633 X94.825 Y62.918 Z-6.255
N634 X94.798 Y62.93 Z-6.208
N635 X94.78 Y62.934 Z-6.155
N636 X94.774 Y62.935 Z-6.099
N637 G0 Z-3.174
N638 X81.32 Y47.34
N639 G1 Z-3.809 F1016
N640 G3 X79.772 Y42.985 Z-4.081 I1.229 J-2.89
N641 X84.228 Y41.809 Z-4.353 I2.769 J1.461
N642 X85.026 Y46.333 Z-4.625 I-1.682 J2.629
N643 X80.465 Y46.75 Z-4.898 I-2.472 J-1.889
N644 X80.43 Y42.184 Z-5.17 I2.083 J-2.299
N645 X84.969 Y42.529 Z-5.442 I2.111 J2.26
N646 X84.249 Y47.01 Z-5.714 I-2.421 J1.909
N647 X79.857 Y45.922 Z-5.987 I-1.695 J-2.564
N648 X81.303 Y41.65 Z-6.259 I2.688 J-1.471
N649 X85.427 Y43.441 Z-6.531 I1.238 J2.792
N650 X83.305 Y47.389 Z-6.803 I-2.877 J0.998
N651 X79.559 Y44.952 Z-7.076 I-0.752 J-2.941
N652 X82.291 Y41.434 Z-7.348 I2.984 J-0.503
N653 X85.559 Y44.44 Z-7.62 I0.252 J3.006
N654 X79.526 I-3.017 J0
N655 X85.452 Y43.642 I3.017 J0
N656 X85.559 Y44.44 I-2.909 J0.798
N657 G1 X85.563 Y44.67
N658 X85.72 Y45.575
N659 G3 X85.56 Y47.253 I-1.845 J0.671
N660 X83.772 Y48.818 I-2.886 J-1.493
N661 X79.234 Y47.881 I-1.533 J-4.034
N662 X80.386 Y40.129 I3.251 J-3.478
N663 X86.807 Y42.175 I2.169 J4.294
N664 G1 X87.216 Y42.97
N665 G3 X87.815 Y45.052 I-6.141 J2.891
N666 X84.466 Y50.582 I-5.29 J0.575
N667 X79.2 Y50.281 I-2.32 J-5.636
N668 X75.992 Y42.487 I3.164 J-5.86
N669 X87.571 Y39.785 I6.556 J1.931
N670 X89.95 Y45.19 I-5.961 J5.849
N671 X85.337 Y52.483 I-7.566 J0.32
N672 X78.905 Y52.498 I-3.234 J-7.506
N673 X73.636 Y45.564 I3.366 J-8.027
N674 X84.562 Y35.66 I8.895 J-1.166
N675 X87.912 Y37.192 I-1.996 J8.796
N676 X92.146 Y44.885 I-6.083 J8.359
N677 X87.063 Y54.087 I-9.81 J0.586
N678 X80.655 Y55.264 I-4.965 J-8.995
N679 X74.574 Y52.248 I1.474 J-10.611
N680 X71.307 Y44.246 I7.769 J-7.84
N681 X78.654 Y33.868 I11.212 J0.147
N682 X86.639 Y33.941 I3.895 J10.557
N683 X90.494 Y36.391 I-4.305 J11.033
N684 X94.294 Y43.573 I-8.628 J9.161
N685 X92.795 Y51.548 I-12.029 J1.868
N686 X84.853 Y57.335 I-10.575 J-6.17
N687 X75.946 Y56.084 I-2.792 J-12.461
N688 X70.336 Y50.191 I6.238 J-11.554
N689 X70.722 Y37.816 I12.089 J-5.816
N690 X86.494 Y31.463 I11.823 J6.597
N691 X93.85 Y36.707 I-4.193 J13.663
N692 X95.778 Y50.667 I-11.693 J8.728
N693 X84.04 Y59.827 I-13.578 J-5.299
N694 X72.799 Y56.804 I-1.995 J-14.995
N695 X66.694 Y44.942 I9.471 J-12.376
N696 X87.343 Y29.29 I15.841 J-0.548
N697 X96.039 Y35.74 I-5.001 J15.831
N698 X99.066 Y46.327 I-13.851 J9.686
N699 X98.406 Y49.459 I-18.278 J-2.214
N700 G1 X97.95 Y50.711
N701 X97.867 Y50.92
N702 G3 X97.162 Y52.381 I-21.584 J-9.505
N703 X95.142 Y55.305 I-15.606 J-8.625
N704 G1 X94.276 Y56.236
N705 G3 X85.722 Y60.768 I-11.825 J-11.98
N706 X80.505 Y60.952 I-3.219 J-17.27
N707 X77.167 Y60.181 I2.518 J-18.511
N708 G1 X76.123 Y59.773
N709 G3 X67.149 Y50.686 I6.384 J-15.279
N710 G1 X66.943 Y50.181
N711 X66.904 Y50.085
N712 X66.517 Y48.832
N713 G3 X65.958 Y43.404 I16.654 J-4.459
N714 X68.563 Y35.468 I16.814 J1.126
N715 X70.531 Y32.961 I15.831 J10.396
N716 X71.738 Y31.819 I17.097 J16.873
N717 X75.47 Y29.414 I11.306 J13.447
N718 X81.966 Y27.838 I7.106 J15.11
N719 X85.722 Y28.131 I0.47 J18.172
N720 X99.172 Y44.448 I-3.19 J16.331
N721 X99.076 Y46.19 I-21.653 J-0.32
N722 G1 X99.058 Y46.243 Z-7.614
N723 X99.042 Y46.292 Z-7.595
N724 X99.027 Y46.337 Z-7.566
N725 X99.014 Y46.374 Z-7.526
N726 X99.005 Y46.402 Z-7.479
N727 X98.996 Y46.419 Z-7.426
N728 X98.993 Y46.424 Z-7.371
N729 G0 Z-4.445
N730 X81.299 Y47.331
N731 G1 Z-5.08 F1016
N732 G3 X79.782 Y42.966 Z-5.352 I1.25 J-2.88
N733 X84.245 Y41.82 Z-5.624 I2.758 J1.48
N734 X85.015 Y46.348 Z-5.896 I-1.698 J2.618
N735 X80.452 Y46.739 Z-6.169 I-2.461 J-1.904
N736 X80.441 Y42.174 Z-6.441 I2.095 J-2.288
N737 X84.977 Y42.539 Z-6.713 I2.1 J2.27
N738 X84.239 Y47.016 Z-6.985 I-2.429 J1.899
N739 X79.853 Y45.913 Z-7.257 I-1.686 J-2.57
N740 X81.31 Y41.646 Z-7.529 I2.692 J-1.463
N741 X85.429 Y43.447 Z-7.801 I1.231 J2.796
N742 X83.3 Y47.39 Z-8.074 I-2.879 J0.992
N743 X79.559 Y44.949 Z-8.346 I-0.748 J-2.942
N744 X82.293 Y41.434 Z-8.618 I2.985 J-0.5
N745 X85.559 Y44.44 Z-8.89 I0.25 J3.006
N746 X79.526 I-3.017 J0
N747 X85.452 Y43.642 I3.017 J0
N748 X85.559 Y44.44 I-2.909 J0.798
N749 G1 X85.563 Y44.67
N750 X85.72 Y45.575
N751 G3 X85.56 Y47.253 I-1.845 J0.671
N752 X83.772 Y48.818 I-2.886 J-1.493
N753 X79.234 Y47.881 I-1.533 J-4.034
N754 X80.386 Y40.129 I3.251 J-3.478
N755 X86.807 Y42.175 I2.169 J4.294
N756 G1 X87.217 Y42.97
N757 G3 X87.815 Y45.052 I-6.141 J2.891
N758 X84.466 Y50.582 I-5.29 J0.575
N759 X79.2 Y50.281 I-2.32 J-5.636
N760 X75.992 Y42.487 I3.164 J-5.86
N761 X87.571 Y39.785 I6.556 J1.931
N762 X89.95 Y45.189 I-5.961 J5.849
N763 X85.337 Y52.483 I-7.566 J0.32
N764 X78.905 Y52.498 I-3.234 J-7.506
N765 X73.636 Y45.564 I3.366 J-8.027
N766 X84.562 Y35.66 I8.895 J-1.166
N767 X87.912 Y37.192 I-1.996 J8.796
N768 X92.146 Y44.885 I-6.083 J8.359
N769 X87.063 Y54.087 I-9.81 J0.586
N770 X80.655 Y55.264 I-4.965 J-8.995
N771 X74.574 Y52.248 I1.474 J-10.611
N772 X71.307 Y44.246 I7.769 J-7.84
N773 X78.654 Y33.868 I11.212 J0.147
N774 X86.639 Y33.941 I3.895 J10.557
N775 X90.494 Y36.391 I-4.305 J11.033
N776 X94.294 Y43.573 I-8.628 J9.161
N777 X92.795 Y51.548 I-12.029 J1.868
N778 X84.853 Y57.335 I-10.575 J-6.17
N779 X75.946 Y56.084 I-2.792 J-12.461
N780 X70.336 Y50.191 I6.238 J-11.554
N781 X70.722 Y37.816 I12.089 J-5.816
N782 X86.494 Y31.463 I11.823 J6.597
N783 X93.85 Y36.707 I-4.193 J13.663
N784 X95.778 Y50.667 I-11.693 J8.728
N785 X84.04 Y59.827 I-13.578 J-5.299
N786 X72.799 Y56.804 I-1.995 J-14.995
N787 X66.694 Y44.942 I9.471 J-12.376
N788 X87.343 Y29.29 I15.841 J-0.548
N789 X96.039 Y35.74 I-5.001 J15.831
N790 X99.066 Y46.327 I-13.852 J9.686
N791 X98.406 Y49.459 I-18.287 J-2.217
N792 G1 X97.95 Y50.711
N793 X97.867 Y50.92
N794 G3 X97.162 Y52.381 I-21.584 J-9.505
N795 X95.142 Y55.305 I-15.606 J-8.625
N796 G1 X94.276 Y56.236
N797 G3 X85.722 Y60.768 I-11.825 J-11.98
N798 X80.505 Y60.952 I-3.219 J-17.27
N799 X77.167 Y60.181 I2.518 J-18.511
N800 G1 X76.123 Y59.773
N801 G3 X67.149 Y50.686 I6.384 J-15.279
N802 G1 X66.943 Y50.181
N803 X66.904 Y50.085
N804 X66.517 Y48.832
N805 G3 X65.958 Y43.404 I16.654 J-4.459
N806 X68.563 Y35.468 I16.814 J1.126
N807 X70.531 Y32.961 I15.831 J10.396
N808 X71.738 Y31.819 I17.097 J16.873
N809 X75.47 Y29.414 I11.306 J13.447
N810 X81.966 Y27.838 I7.106 J15.11
N811 X85.722 Y28.131 I0.47 J18.172
N812 X99.172 Y44.448 I-3.19 J16.331
N813 X99.076 Y46.189 I-21.666 J-0.32
N814 G1 X99.059 Y46.241 Z-8.884
N815 X99.042 Y46.291 Z-8.865
N816 X99.027 Y46.336 Z-8.836
N817 X99.015 Y46.373 Z-8.796
N818 X99.005 Y46.401 Z-8.749
N819 X98.996 Y46.417 Z-8.696
N820 X98.993 Y46.423 Z-8.641
N821 G0 Z-5.715
N822 X81.299 Y47.331
N823 G1 Z-6.35 F1016
N824 G3 X79.782 Y42.966 Z-6.622 I1.25 J-2.88
N825 X84.245 Y41.82 Z-6.894 I2.758 J1.48
N826 X85.015 Y46.348 Z-7.166 I-1.698 J2.618
N827 X80.452 Y46.739 Z-7.439 I-2.461 J-1.904
N828 X80.441 Y42.174 Z-7.711 I2.095 J-2.288
N829 X84.977 Y42.539 Z-7.983 I2.1 J2.27
N830 X84.239 Y47.016 Z-8.255 I-2.429 J1.899
N831 X79.853 Y45.913 Z-8.527 I-1.686 J-2.57
N832 X81.31 Y41.646 Z-8.799 I2.692 J-1.463
N833 X85.429 Y43.447 Z-9.071 I1.231 J2.796
N834 X83.3 Y47.39 Z-9.344 I-2.879 J0.992
N835 X79.559 Y44.949 Z-9.616 I-0.748 J-2.942
N836 X82.293 Y41.434 Z-9.888 I2.985 J-0.5
N837 X85.559 Y44.44 Z-10.16 I0.25 J3.006
N838 X79.526 I-3.017 J0
N839 X85.452 Y43.642 I3.017 J0
N840 X85.559 Y44.44 I-2.909 J0.798
N841 G1 X85.563 Y44.67
N842 X85.72 Y45.575
N843 G3 X85.56 Y47.253 I-1.845 J0.671
N844 X83.772 Y48.818 I-2.886 J-1.493
N845 X79.234 Y47.881 I-1.533 J-4.034
N846 X80.386 Y40.129 I3.251 J-3.478
N847 X86.807 Y42.175 I2.169 J4.294
N848 G1 X87.217 Y42.97
N849 G3 X87.815 Y45.052 I-6.141 J2.891
N850 X84.466 Y50.582 I-5.29 J0.575
N851 X79.2 Y50.281 I-2.32 J-5.636
N852 X75.992 Y42.487 I3.164 J-5.86
N853 X87.571 Y39.785 I6.556 J1.931
N854 X89.95 Y45.189 I-5.961 J5.849
N855 X85.337 Y52.483 I-7.566 J0.32
N856 X78.905 Y52.498 I-3.234 J-7.506
N857 X73.636 Y45.564 I3.366 J-8.027
N858 X84.562 Y35.66 I8.895 J-1.166
N859 X87.912 Y37.192 I-1.996 J8.796
N860 X92.146 Y44.885 I-6.083 J8.359
N861 X87.063 Y54.087 I-9.81 J0.586
N862 X80.655 Y55.264 I-4.965 J-8.995
N863 X74.574 Y52.248 I1.474 J-10.611
N864 X71.307 Y44.246 I7.769 J-7.84
N865 X78.654 Y33.868 I11.212 J0.147
N866 X86.639 Y33.941 I3.895 J10.557
N867 X90.494 Y36.391 I-4.305 J11.033
N868 X94.294 Y43.573 I-8.628 J9.161
N869 X92.795 Y51.548 I-12.029 J1.868
N870 X84.853 Y57.335 I-10.575 J-6.17
N871 X75.946 Y56.084 I-2.792 J-12.461
N872 X70.336 Y50.191 I6.238 J-11.554
N873 X70.722 Y37.816 I12.089 J-5.816
N874 X86.494 Y31.463 I11.823 J6.597
N875 X93.85 Y36.707 I-4.193 J13.663
N876 X95.778 Y50.667 I-11.693 J8.728
N877 X84.04 Y59.827 I-13.578 J-5.299
N878 X72.799 Y56.804 I-1.995 J-14.995
N879 X66.694 Y44.942 I9.471 J-12.376
N880 X87.343 Y29.29 I15.841 J-0.548
N881 X96.039 Y35.74 I-5.001 J15.831
N882 X99.066 Y46.327 I-13.852 J9.686
N883 X98.406 Y49.459 I-18.287 J-2.217
N884 G1 X97.95 Y50.711
N885 X97.867 Y50.92
N886 G3 X97.162 Y52.381 I-21.584 J-9.505
N887 X95.142 Y55.305 I-15.606 J-8.625
N888 G1 X94.276 Y56.236
N889 G3 X85.722 Y60.768 I-11.825 J-11.98
N890 X80.505 Y60.952 I-3.219 J-17.27
N891 X77.167 Y60.181 I2.518 J-18.511
N892 G1 X76.123 Y59.773
N893 G3 X67.149 Y50.686 I6.384 J-15.279
N894 G1 X66.943 Y50.181
N895 X66.904 Y50.085
N896 X66.517 Y48.832
N897 G3 X65.958 Y43.404 I16.654 J-4.459
N898 X68.563 Y35.468 I16.814 J1.126
N899 X70.531 Y32.961 I15.831 J10.396
N900 X71.738 Y31.819 I17.097 J16.873
N901 X75.47 Y29.414 I11.306 J13.447
N902 X81.966 Y27.838 I7.106 J15.11
N903 X85.722 Y28.131 I0.47 J18.172
N904 X99.172 Y44.448 I-3.19 J16.331
N905 X99.076 Y46.189 I-21.666 J-0.32
N906 G1 X99.059 Y46.241 Z-10.154
N907 X99.042 Y46.291 Z-10.135
N908 X99.027 Y46.336 Z-10.106
N909 X99.015 Y46.373 Z-10.066
N910 X99.005 Y46.401 Z-10.019
N911 X98.996 Y46.417 Z-9.966
N912 X98.993 Y46.423 Z-9.911
N913 G0 Z-6.985
N914 X85.172 Y42.764
N915 G1 Z-7.62 F1016
N916 G3 X84.109 Y47.151 Z-7.884 I-2.623 J1.686
N917 X79.791 Y45.884 Z-8.149 I-1.555 J-2.692
N918 X81.258 Y41.643 Z-8.413 I2.755 J-1.421
N919 X85.411 Y43.305 Z-8.678 I1.284 J2.811
N920 X83.559 Y47.363 Z-8.942 I-2.86 J1.146
N921 X79.606 Y45.326 Z-9.207 I-1.005 J-2.903
N922 X81.822 Y41.486 Z-9.471 I2.939 J-0.863
N923 X85.541 Y43.875 Z-9.736 I0.72 J2.967
N924 X82.985 Y47.465 Z-10 I-2.989 J0.576
N925 X79.531 Y44.749 Z-10.265 I-0.432 J-3.004
N926 X82.4 Y41.439 Z-10.529 I3.012 J-0.288
N927 X85.56 Y44.452 Z-10.794 I0.144 J3.013
N928 X79.527 I-3.017 J0
N929 X85.56 I3.017 J0
N930 G1 X85.564 Y44.682
N931 X85.721 Y45.588
N932 G3 X85.561 Y47.265 I-1.845 J0.671
N933 X83.773 Y48.831 I-2.886 J-1.493
N934 X79.234 Y47.893 I-1.533 J-4.034
N935 X80.387 Y40.141 I3.251 J-3.479
N936 X86.808 Y42.187 I2.169 J4.294
N937 G1 X87.217 Y42.982
N938 G3 X87.815 Y45.064 I-6.141 J2.891
N939 X84.467 Y50.594 I-5.29 J0.576
N940 X79.201 Y50.294 I-2.32 J-5.636
N941 X75.992 Y42.5 I3.164 J-5.86
N942 X87.572 Y39.797 I6.556 J1.931
N943 X89.951 Y45.202 I-5.961 J5.849
N944 X85.338 Y52.495 I-7.567 J0.32
N945 X78.906 Y52.511 I-3.234 J-7.506
N946 X73.636 Y45.577 I3.366 J-8.028
N947 X84.562 Y35.673 I8.895 J-1.166
N948 X87.913 Y37.204 I-1.996 J8.796
N949 X92.146 Y44.897 I-6.083 J8.359
N950 X87.064 Y54.099 I-9.811 J0.586
N951 X80.656 Y55.276 I-4.965 J-8.995
N952 X74.575 Y52.261 I1.474 J-10.612
N953 X71.307 Y44.259 I7.768 J-7.84
N954 X78.655 Y33.88 I11.212 J0.147
N955 X86.64 Y33.953 I3.896 J10.557
N956 X90.495 Y36.403 I-4.305 J11.033
N957 X94.295 Y43.585 I-8.628 J9.161
N958 X92.796 Y51.56 I-12.029 J1.868
N959 X84.854 Y57.347 I-10.576 J-6.17
N960 X75.947 Y56.097 I-2.792 J-12.46
N961 X70.337 Y50.204 I6.237 J-11.555
N962 X70.722 Y37.829 I12.089 J-5.817
N963 X86.494 Y31.475 I11.823 J6.596
N964 X93.85 Y36.718 I-4.192 J13.663
N965 X95.779 Y50.678 I-11.692 J8.729
N966 X84.043 Y59.839 I-13.579 J-5.297
N967 X72.801 Y56.818 I-1.996 J-14.995
N968 X66.695 Y44.956 I9.47 J-12.377
N969 X87.342 Y29.302 I15.841 J-0.549
N970 X96.039 Y35.75 I-4.999 J15.831
N971 X99.067 Y46.327 I-13.844 J9.685
N972 X98.406 Y49.459 I-18.459 J-2.258
N973 G1 X97.95 Y50.711
N974 X97.867 Y50.92
N975 G3 X97.162 Y52.381 I-21.584 J-9.505
N976 X95.142 Y55.305 I-15.606 J-8.625
N977 G1 X94.276 Y56.236
N978 G3 X85.722 Y60.768 I-11.825 J-11.98
N979 X80.505 Y60.952 I-3.219 J-17.27
N980 X77.167 Y60.181 I2.518 J-18.511
N981 G1 X76.123 Y59.773
N982 G3 X67.149 Y50.686 I6.384 J-15.279
N983 G1 X66.943 Y50.181
N984 X66.904 Y50.085
N985 X66.517 Y48.832
N986 G3 X65.958 Y43.404 I16.654 J-4.459
N987 X68.563 Y35.468 I16.814 J1.126
N988 X70.531 Y32.961 I15.831 J10.396
N989 X71.738 Y31.819 I17.097 J16.873
N990 X75.47 Y29.414 I11.306 J13.447
N991 X81.966 Y27.838 I7.106 J15.11
N992 X85.722 Y28.131 I0.47 J18.172
N993 X99.172 Y44.448 I-3.19 J16.331
N994 X99.075 Y46.2 I-21.568 J-0.316
N995 G1 X99.057 Y46.282
N996 X99.03 Y46.36
N997 X98.992 Y46.434
N998 X98.942 Y46.52 Z-10.786
N999 X98.893 Y46.603 Z-10.763
N1000 X98.846 Y46.683 Z-10.725
N1001 X98.803 Y46.756 Z-10.672
N1002 X98.765 Y46.822 Z-10.608
N1003 X98.733 Y46.878 Z-10.532
N1004 X98.706 Y46.923 Z-10.447
N1005 X98.687 Y46.955 Z-10.355
N1006 X98.675 Y46.976 Z-10.258
N1007 X98.671 Y46.982 Z-10.159
N1008 G0 Z15.24
(Contour1)
N1010 X67.502 Y43.99
N1011 Z15.24
N1012 Z1.626
N1013 G1 Z-5.715 F1016
N1014 X67.495 Y43.989 Z-5.814
N1015 X67.471 Y43.987 Z-5.911
N1016 X67.433 Y43.984 Z-6.003
N1017 X67.382 Y43.979 Z-6.088
N1018 X67.317 Y43.974 Z-6.164
N1019 X67.242 Y43.968 Z-6.229
N1020 X67.157 Y43.96 Z-6.281
N1021 X67.065 Y43.953 Z-6.319
N1022 X66.969 Y43.944 Z-6.342
N1023 X66.87 Y43.936 Z-6.35
N1024 X60.971 Y43.436
N1025 G3 X60.392 Y42.75 I0.054 J-0.633
N1026 G1 X60.428 Y42.325
N1027 X60.449 Y42.122
N1028 X60.495 Y41.718
N1029 X60.521 Y41.515
N1030 X60.579 Y41.11
N1031 X60.594 Y41.004
N1032 X60.68 Y40.503
N1033 X60.717 Y40.301
N1034 X60.798 Y39.896
N1035 X60.841 Y39.694
N1036 X60.934 Y39.289
N1037 X60.983 Y39.087
N1038 X61.088 Y38.682
N1039 X61.144 Y38.479
N1040 X61.261 Y38.075
N1041 X61.322 Y37.872
N1042 X61.452 Y37.467
N1043 X61.52 Y37.265
N1044 X61.663 Y36.86
N1045 X61.738 Y36.658
N1046 X61.893 Y36.253
N1047 X61.975 Y36.051
N1048 X62.144 Y35.646
N1049 X62.213 Y35.49
N1050 X62.325 Y35.241
N1051 X62.416 Y35.041
N1052 X62.618 Y34.623
N1053 X62.712 Y34.431
N1054 X62.923 Y34.027
N1055 X63.023 Y33.84
N1056 X63.257 Y33.419
N1057 X63.375 Y33.217
N1058 X63.495 Y33.015
N1059 X63.617 Y32.812
N1060 X63.872 Y32.407
N1061 X64.005 Y32.205
N1062 X64.277 Y31.8
N1063 X64.421 Y31.598
N1064 X64.641 Y31.289
N1065 X64.714 Y31.193
N1066 X65.02 Y30.788
N1067 X65.046 Y30.756
N1068 X65.345 Y30.383
N1069 X65.451 Y30.254
N1070 X65.685 Y29.979
N1071 X65.856 Y29.78
N1072 X66.223 Y29.371
N1073 X66.26 Y29.332
N1074 X66.665 Y28.907
N1075 X66.808 Y28.764
N1076 X67.07 Y28.504
N1077 X67.222 Y28.36
N1078 X67.474 Y28.122
N1079 X67.658 Y27.955
N1080 X67.886 Y27.752
N1081 X68.081 Y27.581
N1082 X68.486 Y27.242
N1083 X68.607 Y27.145
N1084 X68.891 Y26.92
N1085 X69.093 Y26.764
N1086 X69.498 Y26.462
N1087 X69.677 Y26.336
N1088 X69.965 Y26.133
N1089 X70.105 Y26.038
N1090 X70.51 Y25.77
N1091 X70.574 Y25.728
N1092 X70.914 Y25.517
N1093 X71.117 Y25.392
N1094 X71.582 Y25.121
N1095 X71.724 Y25.042
N1096 X72.129 Y24.821
N1097 X72.331 Y24.716
N1098 X72.533 Y24.613
N1099 X72.727 Y24.514
N1100 X73.153 Y24.312
N1101 X73.343 Y24.223
N1102 X73.747 Y24.044
N1103 X73.95 Y23.958
N1104 X74.355 Y23.793
N1105 X74.557 Y23.714
N1106 X74.962 Y23.562
N1107 X75.13 Y23.502
N1108 X75.569 Y23.351
N1109 X75.728 Y23.3
N1110 X76.176 Y23.16
N1111 X76.378 Y23.101
N1112 X76.783 Y22.987
N1113 X76.985 Y22.935
N1114 X77.39 Y22.833
N1115 X77.592 Y22.787
N1116 X78.019 Y22.692
N1117 X78.199 Y22.657
N1118 X78.604 Y22.579
N1119 X78.806 Y22.545
N1120 X79.211 Y22.478
N1121 X79.413 Y22.449
N1122 X79.818 Y22.395
N1123 X80.021 Y22.371
N1124 X80.425 Y22.328
N1125 X80.628 Y22.31
N1126 X81.032 Y22.278
N1127 X81.235 Y22.265
N1128 X81.639 Y22.245
N1129 X81.842 Y22.238
N1130 X82.246 Y22.229
N1131 X82.449 Y22.226
N1132 X82.854 Y22.229
N1133 X83.056 Y22.232
N1134 X83.461 Y22.246
N1135 X83.663 Y22.253
N1136 X84.27 Y22.292
N1137 X84.675 Y22.329
N1138 X84.877 Y22.348
N1139 X85.079 Y22.372
N1140 X85.484 Y22.42
N1141 X85.687 Y22.45
N1142 X86.091 Y22.51
N1143 X86.294 Y22.545
N1144 X86.698 Y22.617
N1145 X86.901 Y22.657
N1146 X87.305 Y22.741
N1147 X87.508 Y22.787
N1148 X87.963 Y22.895
N1149 X88.115 Y22.935
N1150 X88.52 Y23.043
N1151 X88.709 Y23.097
N1152 X89.127 Y23.221
N1153 X89.329 Y23.286
N1154 X89.734 Y23.419
N1155 X89.936 Y23.49
N1156 X90.341 Y23.636
N1157 X90.517 Y23.704
N1158 X90.745 Y23.794
N1159 X90.948 Y23.873
N1160 X91.504 Y24.109
N1161 X91.555 Y24.132
N1162 X91.96 Y24.317
N1163 X92.162 Y24.412
N1164 X92.567 Y24.612
N1165 X92.769 Y24.716
N1166 X93.174 Y24.929
N1167 X93.376 Y25.043
N1168 X93.578 Y25.157
N1169 X93.781 Y25.272
N1170 X94.202 Y25.526
N1171 X94.388 Y25.642
N1172 X94.793 Y25.902
N1173 X94.837 Y25.931
N1174 X95.197 Y26.177
N1175 X95.4 Y26.318
N1176 X95.804 Y26.611
N1177 X95.975 Y26.74
N1178 X96.238 Y26.943
N1179 X96.411 Y27.079
N1180 X96.816 Y27.409
N1181 X96.98 Y27.55
N1182 X97.221 Y27.757
N1183 X97.423 Y27.938
N1184 X97.663 Y28.157
N1185 X97.828 Y28.311
N1186 X98.088 Y28.562
N1187 X98.233 Y28.703
N1188 X98.637 Y29.116
N1189 X98.687 Y29.169
N1190 X99.061 Y29.574
N1191 X99.239 Y29.776
N1192 X99.447 Y30.014
N1193 X99.587 Y30.181
N1194 X99.851 Y30.501
N1195 X99.919 Y30.586
N1196 X100.256 Y31.018
N1197 X100.386 Y31.193
N1198 X100.534 Y31.395
N1199 X100.661 Y31.569
N1200 X100.961 Y32.003
N1201 X101.066 Y32.16
N1202 X101.268 Y32.47
N1203 X101.358 Y32.61
N1204 X101.605 Y33.015
N1205 X101.673 Y33.125
N1206 X101.958 Y33.622
N1207 X102.068 Y33.824
N1208 X102.177 Y34.027
N1209 X102.28 Y34.219
N1210 X102.488 Y34.634
N1211 X102.587 Y34.836
N1212 X102.776 Y35.241
N1213 X102.866 Y35.443
N1214 X103.042 Y35.848
N1215 X103.089 Y35.962
N1216 X103.292 Y36.468
N1217 X103.362 Y36.658
N1218 X103.511 Y37.063
N1219 X103.579 Y37.265
N1220 X103.715 Y37.67
N1221 X103.777 Y37.872
N1222 X103.839 Y38.075
N1223 X103.899 Y38.272
N1224 X104.011 Y38.682
N1225 X104.066 Y38.884
N1226 X104.165 Y39.289
N1227 X104.214 Y39.491
N1228 X104.303 Y39.906
N1229 X104.344 Y40.098
N1230 X104.457 Y40.706
N1231 X104.489 Y40.908
N1232 X104.552 Y41.313
N1233 X104.578 Y41.515
N1234 X104.63 Y41.92
N1235 X104.651 Y42.122
N1236 X104.691 Y42.527
N1237 X104.706 Y42.73
N1238 X104.735 Y43.134
N1239 X104.745 Y43.337
N1240 X104.762 Y43.742
N1241 X104.768 Y43.944
N1242 X104.773 Y44.349
N1243 Y44.551
N1244 X104.768 Y44.956
N1245 X104.762 Y45.158
N1246 X104.745 Y45.563
N1247 X104.735 Y45.766
N1248 X104.706 Y46.17
N1249 X104.691 Y46.373
N1250 X104.651 Y46.778
N1251 X104.63 Y46.98
N1252 X104.578 Y47.385
N1253 X104.552 Y47.587
N1254 X104.489 Y47.992
N1255 X104.457 Y48.194
N1256 X104.344 Y48.802
N1257 X104.301 Y49.004
N1258 X104.214 Y49.409
N1259 X104.165 Y49.611
N1260 X104.066 Y50.016
N1261 X104.011 Y50.218
N1262 X103.899 Y50.628
N1263 X103.839 Y50.825
N1264 X103.777 Y51.028
N1265 X103.715 Y51.23
N1266 X103.579 Y51.635
N1267 X103.511 Y51.837
N1268 X103.362 Y52.242
N1269 X103.292 Y52.432
N1270 X103.089 Y52.938
N1271 X103.042 Y53.052
N1272 X102.866 Y53.457
N1273 X102.776 Y53.659
N1274 X102.587 Y54.064
N1275 X102.488 Y54.266
N1276 X102.28 Y54.681
N1277 X102.177 Y54.873
N1278 X102.068 Y55.076
N1279 X101.958 Y55.278
N1280 X101.673 Y55.775
N1281 X101.605 Y55.885
N1282 X101.358 Y56.29
N1283 X101.268 Y56.43
N1284 X101.066 Y56.74
N1285 X100.961 Y56.897
N1286 X100.661 Y57.331
N1287 X100.534 Y57.505
N1288 X100.386 Y57.707
N1289 X100.256 Y57.882
N1290 X99.919 Y58.314
N1291 X99.851 Y58.399
N1292 X99.587 Y58.719
N1293 X99.447 Y58.886
N1294 X99.239 Y59.124
N1295 X99.061 Y59.326
N1296 X98.687 Y59.731
N1297 X98.637 Y59.784
N1298 X98.233 Y60.197
N1299 X98.088 Y60.338
N1300 X97.828 Y60.589
N1301 X97.663 Y60.743
N1302 X97.423 Y60.962
N1303 X97.221 Y61.143
N1304 X96.98 Y61.35
N1305 X96.816 Y61.491
N1306 X96.411 Y61.821
N1307 X96.238 Y61.957
N1308 X95.975 Y62.16
N1309 X95.804 Y62.289
N1310 X95.4 Y62.582
N1311 X95.197 Y62.723
N1312 X94.837 Y62.969
N1313 X94.793 Y62.998
N1314 X94.388 Y63.258
N1315 X94.202 Y63.374
N1316 X93.781 Y63.628
N1317 X93.578 Y63.743
N1318 X93.376 Y63.857
N1319 X93.174 Y63.971
N1320 X92.769 Y64.184
N1321 X92.567 Y64.288
N1322 X92.162 Y64.488
N1323 X91.96 Y64.583
N1324 X91.555 Y64.768
N1325 X91.504 Y64.791
N1326 X90.948 Y65.027
N1327 X90.745 Y65.106
N1328 X90.517 Y65.196
N1329 X90.341 Y65.264
N1330 X89.936 Y65.41
N1331 X89.734 Y65.481
N1332 X89.329 Y65.614
N1333 X89.127 Y65.679
N1334 X88.709 Y65.803
N1335 X88.52 Y65.857
N1336 X88.115 Y65.965
N1337 X87.963 Y66.005
N1338 X87.508 Y66.113
N1339 X87.305 Y66.159
N1340 X86.901 Y66.243
N1341 X86.698 Y66.283
N1342 X86.294 Y66.355
N1343 X86.091 Y66.39
N1344 X85.687 Y66.45
N1345 X85.484 Y66.48
N1346 X85.079 Y66.528
N1347 X84.877 Y66.552
N1348 X84.472 Y66.589
N1349 X84.27 Y66.608
N1350 X83.663 Y66.647
N1351 X83.461 Y66.654
N1352 X83.056 Y66.668
N1353 X82.854 Y66.671
N1354 X82.449 Y66.674
N1355 X82.246 Y66.671
N1356 X81.842 Y66.662
N1357 X81.639 Y66.655
N1358 X81.235 Y66.635
N1359 X81.032 Y66.622
N1360 X80.628 Y66.59
N1361 X80.425 Y66.572
N1362 X80.021 Y66.529
N1363 X79.818 Y66.505
N1364 X79.413 Y66.451
N1365 X79.211 Y66.422
N1366 X78.806 Y66.355
N1367 X78.604 Y66.321
N1368 X78.199 Y66.243
N1369 X78.019 Y66.208
N1370 X77.592 Y66.113
N1371 X77.39 Y66.067
N1372 X76.985 Y65.965
N1373 X76.783 Y65.913
N1374 X76.378 Y65.799
N1375 X76.176 Y65.74
N1376 X75.728 Y65.6
N1377 X75.569 Y65.549
N1378 X75.13 Y65.398
N1379 X74.962 Y65.338
N1380 X74.557 Y65.186
N1381 X74.355 Y65.107
N1382 X73.95 Y64.942
N1383 X73.747 Y64.856
N1384 X73.343 Y64.677
N1385 X73.153 Y64.588
N1386 X72.727 Y64.386
N1387 X72.533 Y64.287
N1388 X72.33 Y64.184
N1389 X72.129 Y64.079
N1390 X71.724 Y63.858
N1391 X71.582 Y63.779
N1392 X71.117 Y63.508
N1393 X70.914 Y63.383
N1394 X70.574 Y63.172
N1395 X70.51 Y63.13
N1396 X70.105 Y62.862
N1397 X69.965 Y62.767
N1398 X69.677 Y62.564
N1399 X69.498 Y62.438
N1400 X69.093 Y62.136
N1401 X68.891 Y61.98
N1402 X68.607 Y61.755
N1403 X68.486 Y61.658
N1404 X68.081 Y61.319
N1405 X67.886 Y61.148
N1406 X67.658 Y60.945
N1407 X67.474 Y60.778
N1408 X67.222 Y60.54
N1409 X67.07 Y60.396
N1410 X66.808 Y60.136
N1411 X66.665 Y59.993
N1412 X66.26 Y59.568
N1413 X66.223 Y59.529
N1414 X65.856 Y59.12
N1415 X65.685 Y58.921
N1416 X65.451 Y58.646
N1417 X65.345 Y58.517
N1418 X65.046 Y58.144
N1419 X65.02 Y58.112
N1420 X64.714 Y57.707
N1421 X64.641 Y57.611
N1422 X64.421 Y57.302
N1423 X64.277 Y57.1
N1424 X64.005 Y56.695
N1425 X63.872 Y56.493
N1426 X63.617 Y56.088
N1427 X63.495 Y55.885
N1428 X63.375 Y55.683
N1429 X63.257 Y55.481
N1430 X63.023 Y55.06
N1431 X62.923 Y54.873
N1432 X62.712 Y54.469
N1433 X62.618 Y54.277
N1434 X62.416 Y53.859
N1435 X62.325 Y53.659
N1436 X62.213 Y53.41
N1437 X62.144 Y53.254
N1438 X61.975 Y52.849
N1439 X61.893 Y52.647
N1440 X61.738 Y52.242
N1441 X61.663 Y52.04
N1442 X61.52 Y51.635
N1443 X61.452 Y51.433
N1444 X61.322 Y51.028
N1445 X61.261 Y50.825
N1446 X61.144 Y50.421
N1447 X61.088 Y50.218
N1448 X60.983 Y49.813
N1449 X60.934 Y49.611
N1450 X60.841 Y49.206
N1451 X60.798 Y49.004
N1452 X60.717 Y48.599
N1453 X60.68 Y48.397
N1454 X60.594 Y47.896
N1455 X60.579 Y47.79
N1456 X60.521 Y47.385
N1457 X60.495 Y47.182
N1458 X60.449 Y46.778
N1459 X60.428 Y46.575
N1460 X60.392 Y46.15
N1461 X60.378 Y45.968
N1462 X60.355 Y45.563
N1463 X60.344 Y45.361
N1464 X60.333 Y44.956
N1465 X60.328 Y44.754
N1466 Y44.146
N1467 X60.333 Y43.944
N1468 X60.344 Y43.539
N1469 X60.355 Y43.337
N1470 X60.378 Y42.932
N1471 X60.392 Y42.75
N1472 G3 X61.074 Y42.166 I0.633 J0.049
N1473 G1 X66.36 Y40.628
N1474 X66.365 Y40.606
N1475 X66.388 Y40.503 Z-6.354
N1476 X66.494 Y40.098 Z-6.369
N1477 X66.55 Y39.896 Z-6.376
N1478 X66.67 Y39.491 Z-6.391
N1479 X66.736 Y39.289 Z-6.398
N1480 X66.803 Y39.087 Z-6.406
N1481 X66.867 Y38.901 Z-6.412
N1482 X66.948 Y38.682 Z-6.421
N1483 X67.022 Y38.479 Z-6.428
N1484 X67.185 Y38.075 Z-6.443
N1485 X67.271 Y37.872 Z-6.451
N1486 X67.36 Y37.67 Z-6.459
N1487 X67.45 Y37.467 Z-6.467
N1488 X67.644 Y37.063 Z-6.482
N1489 X67.677 Y36.997 Z-6.485
N1490 X67.879 Y36.607 Z-6.5
N1491 X67.962 Y36.455 Z-6.506
N1492 X68.081 Y36.242 Z-6.515
N1493 X68.19 Y36.051 Z-6.522
N1494 X68.434 Y35.646 Z-6.539
N1495 X68.486 Y35.565 Z-6.542
N1496 X68.696 Y35.241 Z-6.556
N1497 X68.834 Y35.039 Z-6.564
N1498 X68.974 Y34.836 Z-6.573
N1499 X69.093 Y34.67 Z-6.58
N1500 X69.296 Y34.397 Z-6.592
N1501 X69.425 Y34.229 Z-6.599
N1502 X69.586 Y34.027 Z-6.608
N1503 X69.7 Y33.884 Z-6.615
N1504 X69.922 Y33.622 Z-6.627
N1505 X70.098 Y33.419 Z-6.636
N1506 X70.307 Y33.187 Z-6.647
N1507 X70.469 Y33.015 Z-6.655
N1508 X70.712 Y32.761 Z-6.667
N1509 X70.866 Y32.61 Z-6.675
N1510 X71.117 Y32.365 Z-6.687
N1511 X71.291 Y32.205 Z-6.696
N1512 X71.319 Y32.179 Z-6.697
N1513 X71.512 Y32.003 Z-6.706
N1514 X71.748 Y31.8 Z-6.717
N1515 X71.926 Y31.648 Z-6.725
N1516 X72.239 Y31.395 Z-6.739
N1517 X72.331 Y31.322 Z-6.743
N1518 X72.736 Y31.017 Z-6.761
N1519 X72.772 Y30.991 Z-6.762
N1520 X73.14 Y30.731 Z-6.778
N1521 X73.343 Y30.596 Z-6.787
N1522 X73.545 Y30.463 Z-6.795
N1523 X73.668 Y30.383 Z-6.8
N1524 X73.998 Y30.181 Z-6.814
N1525 X74.152 Y30.09 Z-6.82
N1526 X74.355 Y29.974 Z-6.828
N1527 X74.557 Y29.86 Z-6.836
N1528 X74.962 Y29.646 Z-6.852
N1529 X75.105 Y29.574 Z-6.858
N1530 X75.366 Y29.446 Z-6.868
N1531 X75.522 Y29.371 Z-6.874
N1532 X75.771 Y29.259 Z-6.884
N1533 X75.972 Y29.169 Z-6.891
N1534 X76.378 Y29.002 Z-6.907
N1535 X76.464 Y28.967 Z-6.91
N1536 X76.783 Y28.847 Z-6.922
N1537 X76.985 Y28.772 Z-6.929
N1538 X77.39 Y28.635 Z-6.944
N1539 X77.592 Y28.571 Z-6.952
N1540 X77.795 Y28.51 Z-6.959
N1541 X77.997 Y28.449 Z-6.966
N1542 X78.402 Y28.34 Z-6.981
N1543 X78.604 Y28.29 Z-6.988
N1544 X78.806 Y28.242 Z-6.996
N1545 X79.009 Y28.195 Z-7.003
N1546 X79.413 Y28.113 Z-7.017
N1547 X79.616 Y28.076 Z-7.024
N1548 X80.021 Y28.007 Z-7.039
N1549 X80.223 Y27.979 Z-7.046
N1550 X80.425 Y27.951 Z-7.053
N1551 X80.628 Y27.926 Z-7.06
N1552 X81.032 Y27.884 Z-7.074
N1553 X81.235 Y27.867 Z-7.081
N1554 X81.437 Y27.853 Z-7.089
N1555 X81.639 Y27.839 Z-7.096
N1556 X82.044 Y27.822 Z-7.11
N1557 X82.246 Y27.817 Z-7.117
N1558 X82.651 Y27.814 Z-7.131
N1559 X82.854 Y27.818 Z-7.138
N1560 X83.056 Y27.823 Z-7.145
N1561 X83.258 Y27.829 Z-7.152
N1562 X83.663 Y27.852 Z-7.166
N1563 X83.865 Y27.867 Z-7.173
N1564 X84.27 Y27.903 Z-7.188
N1565 X84.472 Y27.927 Z-7.195
N1566 X84.704 Y27.955 Z-7.203
N1567 X84.877 Y27.978 Z-7.209
N1568 X85.282 Y28.04 Z-7.223
N1569 X85.484 Y28.076 Z-7.23
N1570 X85.687 Y28.114 Z-7.238
N1571 X85.889 Y28.153 Z-7.245
N1572 X86.294 Y28.241 Z-7.259
N1573 X86.496 Y28.29 Z-7.267
N1574 X86.772 Y28.36 Z-7.277
N1575 X86.901 Y28.393 Z-7.281
N1576 X87.305 Y28.509 Z-7.296
N1577 X87.48 Y28.562 Z-7.302
N1578 X87.71 Y28.636 Z-7.311
N1579 X87.912 Y28.702 Z-7.318
N1580 X88.317 Y28.846 Z-7.333
N1581 X88.52 Y28.923 Z-7.341
N1582 X88.722 Y29.003 Z-7.348
N1583 X88.924 Y29.084 Z-7.356
N1584 X89.329 Y29.258 Z-7.371
N1585 X89.531 Y29.351 Z-7.379
N1586 X89.734 Y29.446 Z-7.387
N1587 X89.936 Y29.544 Z-7.395
N1588 X90.138 Y29.647 Z-7.403
N1589 X90.341 Y29.751 Z-7.411
N1590 X90.756 Y29.979 Z-7.427
N1591 X90.948 Y30.091 Z-7.435
N1592 X91.15 Y30.21 Z-7.443
N1593 X91.353 Y30.335 Z-7.451
N1594 X91.555 Y30.463 Z-7.46
N1595 X91.744 Y30.586 Z-7.468
N1596 X92.041 Y30.788 Z-7.48
N1597 X92.162 Y30.872 Z-7.485
N1598 X92.364 Y31.019 Z-7.494
N1599 X92.567 Y31.167 Z-7.503
N1600 X92.971 Y31.482 Z-7.521
N1601 X93.111 Y31.598 Z-7.527
N1602 X93.376 Y31.818 Z-7.539
N1603 X93.578 Y31.997 Z-7.548
N1604 X93.781 Y32.176 Z-7.558
N1605 X93.811 Y32.205 Z-7.559
N1606 X94.025 Y32.407 Z-7.57
N1607 X94.186 Y32.56 Z-7.577
N1608 X94.436 Y32.812 Z-7.59
N1609 X94.59 Y32.97 Z-7.598
N1610 X94.82 Y33.217 Z-7.609
N1611 X94.995 Y33.412 Z-7.618
N1612 X95.197 Y33.643 Z-7.629
N1613 X95.349 Y33.824 Z-7.637
N1614 X95.515 Y34.027 Z-7.647
N1615 X95.602 Y34.134 Z-7.651
N1616 X95.83 Y34.431 Z-7.664
N1617 X95.98 Y34.634 Z-7.673
N1618 X96.209 Y34.953 Z-7.687
N1619 X96.267 Y35.039 Z-7.691
N1620 X96.411 Y35.254 Z-7.7
N1621 X96.537 Y35.443 Z-7.708
N1622 X96.79 Y35.848 Z-7.724
N1623 X96.816 Y35.892 Z-7.726
N1624 X97.026 Y36.253 Z-7.741
N1625 X97.138 Y36.455 Z-7.749
N1626 X97.247 Y36.658 Z-7.757
N1627 X97.353 Y36.86 Z-7.765
N1628 X97.555 Y37.265 Z-7.781
N1629 X97.626 Y37.418 Z-7.786
N1630 X97.741 Y37.67 Z-7.796
N1631 X97.828 Y37.869 Z-7.804
N1632 X97.914 Y38.075 Z-7.811
N1633 X97.998 Y38.277 Z-7.819
N1634 X98.154 Y38.682 Z-7.834
N1635 X98.226 Y38.884 Z-7.842
N1636 X98.296 Y39.087 Z-7.849
N1637 X98.365 Y39.289 Z-7.857
N1638 X98.491 Y39.694 Z-7.872
N1639 X98.549 Y39.896 Z-7.879
N1640 X98.637 Y40.213 Z-7.89
N1641 X98.66 Y40.301 Z-7.894
N1642 X98.759 Y40.706 Z-7.908
N1643 X98.803 Y40.908 Z-7.915
N1644 X98.846 Y41.11 Z-7.923
N1645 X98.888 Y41.313 Z-7.93
N1646 X98.959 Y41.718 Z-7.944
N1647 X98.992 Y41.92 Z-7.951
N1648 X99.05 Y42.325 Z-7.966
N1649 X99.073 Y42.527 Z-7.973
N1650 X99.096 Y42.73 Z-7.98
N1651 X99.116 Y42.932 Z-7.987
N1652 X99.149 Y43.337 Z-8.001
N1653 X99.16 Y43.539 Z-8.008
N1654 X99.17 Y43.742 Z-8.015
N1655 X99.179 Y43.944 Z-8.022
N1656 X99.185 Y44.349 Z-8.036
N1657 Y44.551 Z-8.043
N1658 X99.179 Y44.956 Z-8.058
N1659 X99.17 Y45.158 Z-8.065
N1660 X99.16 Y45.361 Z-8.072
N1661 X99.149 Y45.563 Z-8.079
N1662 X99.116 Y45.968 Z-8.093
N1663 X99.096 Y46.17 Z-8.1
N1664 X99.073 Y46.373 Z-8.107
N1665 X99.05 Y46.575 Z-8.114
N1666 X98.992 Y46.98 Z-8.129
N1667 X98.959 Y47.182 Z-8.136
N1668 X98.888 Y47.587 Z-8.15
N1669 X98.846 Y47.79 Z-8.157
N1670 X98.803 Y47.992 Z-8.165
N1671 X98.759 Y48.194 Z-8.172
N1672 X98.66 Y48.599 Z-8.186
N1673 X98.637 Y48.687 Z-8.19
N1674 X98.549 Y49.004 Z-8.201
N1675 X98.491 Y49.206 Z-8.208
N1676 X98.365 Y49.611 Z-8.223
N1677 X98.296 Y49.813 Z-8.231
N1678 X98.226 Y50.016 Z-8.238
N1679 X98.154 Y50.218 Z-8.246
N1680 X97.998 Y50.623 Z-8.261
N1681 X97.914 Y50.825 Z-8.268
N1682 X97.828 Y51.031 Z-8.276
N1683 X97.741 Y51.23 Z-8.284
N1684 X97.626 Y51.482 Z-8.293
N1685 X97.555 Y51.635 Z-8.299
N1686 X97.353 Y52.04 Z-8.315
N1687 X97.247 Y52.242 Z-8.323
N1688 X97.138 Y52.445 Z-8.331
N1689 X97.026 Y52.647 Z-8.339
N1690 X96.816 Y53.008 Z-8.354
N1691 X96.79 Y53.052 Z-8.356
N1692 X96.537 Y53.457 Z-8.372
N1693 X96.411 Y53.646 Z-8.38
N1694 X96.267 Y53.861 Z-8.389
N1695 X96.209 Y53.947 Z-8.393
N1696 X95.98 Y54.266 Z-8.407
N1697 X95.83 Y54.469 Z-8.415
N1698 X95.602 Y54.766 Z-8.428
N1699 X95.515 Y54.873 Z-8.433
N1700 X95.349 Y55.076 Z-8.442
N1701 X95.197 Y55.257 Z-8.451
N1702 X94.995 Y55.488 Z-8.461
N1703 X94.82 Y55.683 Z-8.471
N1704 X94.59 Y55.93 Z-8.482
N1705 X94.436 Y56.088 Z-8.49
N1706 X94.186 Y56.34 Z-8.502
N1707 X94.025 Y56.493 Z-8.51
N1708 X93.811 Y56.695 Z-8.52
N1709 X93.781 Y56.724 Z-8.522
N1710 X93.578 Y56.903 Z-8.531
N1711 X93.376 Y57.082 Z-8.541
N1712 X93.111 Y57.302 Z-8.553
N1713 X92.971 Y57.418 Z-8.559
N1714 X92.567 Y57.733 Z-8.577
N1715 X92.364 Y57.881 Z-8.586
N1716 X92.162 Y58.028 Z-8.595
N1717 X92.041 Y58.112 Z-8.6
N1718 X91.744 Y58.314 Z-8.612
N1719 X91.555 Y58.437 Z-8.62
N1720 X91.353 Y58.565 Z-8.629
N1721 X91.15 Y58.69 Z-8.637
N1722 X90.948 Y58.809 Z-8.645
N1723 X90.756 Y58.921 Z-8.653
N1724 X90.341 Y59.149 Z-8.669
N1725 X90.138 Y59.253 Z-8.677
N1726 X89.936 Y59.356 Z-8.685
N1727 X89.734 Y59.454 Z-8.693
N1728 X89.531 Y59.549 Z-8.701
N1729 X89.329 Y59.642 Z-8.709
N1730 X88.924 Y59.816 Z-8.724
N1731 X88.722 Y59.897 Z-8.732
N1732 X88.52 Y59.977 Z-8.739
N1733 X88.317 Y60.054 Z-8.747
N1734 X87.912 Y60.198 Z-8.762
N1735 X87.71 Y60.264 Z-8.769
N1736 X87.48 Y60.338 Z-8.778
N1737 X87.305 Y60.391 Z-8.784
N1738 X86.901 Y60.507 Z-8.799
N1739 X86.772 Y60.54 Z-8.803
N1740 X86.496 Y60.61 Z-8.813
N1741 X86.294 Y60.659 Z-8.821
N1742 X85.889 Y60.747 Z-8.835
N1743 X85.687 Y60.786 Z-8.842
N1744 X85.484 Y60.824 Z-8.849
N1745 X85.282 Y60.86 Z-8.857
N1746 X84.877 Y60.922 Z-8.871
N1747 X84.704 Y60.945 Z-8.877
N1748 X84.472 Y60.973 Z-8.885
N1749 X84.27 Y60.997 Z-8.892
N1750 X83.865 Y61.033 Z-8.906
N1751 X83.663 Y61.048 Z-8.914
N1752 X83.258 Y61.071 Z-8.928
N1753 X83.056 Y61.077 Z-8.935
N1754 X82.854 Y61.082 Z-8.942
N1755 X82.651 Y61.086 Z-8.949
N1756 X82.246 Y61.083 Z-8.963
N1757 X82.044 Y61.078 Z-8.97
N1758 X81.639 Y61.061 Z-8.984
N1759 X81.437 Y61.047 Z-8.991
N1760 X81.235 Y61.033 Z-8.998
N1761 X81.032 Y61.016 Z-9.006
N1762 X80.628 Y60.974 Z-9.02
N1763 X80.425 Y60.949 Z-9.027
N1764 X80.223 Y60.921 Z-9.034
N1765 X80.021 Y60.893 Z-9.041
N1766 X79.616 Y60.824 Z-9.055
N1767 X79.413 Y60.787 Z-9.063
N1768 X79.009 Y60.705 Z-9.077
N1769 X78.806 Y60.658 Z-9.084
N1770 X78.604 Y60.61 Z-9.092
N1771 X78.402 Y60.56 Z-9.099
N1772 X77.997 Y60.451 Z-9.113
N1773 X77.795 Y60.39 Z-9.121
N1774 X77.592 Y60.329 Z-9.128
N1775 X77.39 Y60.265 Z-9.136
N1776 X76.985 Y60.128 Z-9.151
N1777 X76.783 Y60.053 Z-9.158
N1778 X76.464 Y59.933 Z-9.17
N1779 X76.378 Y59.898 Z-9.173
N1780 X75.972 Y59.731 Z-9.189
N1781 X75.771 Y59.641 Z-9.196
N1782 X75.522 Y59.529 Z-9.206
N1783 X75.366 Y59.454 Z-9.212
N1784 X75.105 Y59.326 Z-9.222
N1785 X74.962 Y59.254 Z-9.228
N1786 X74.557 Y59.04 Z-9.244
N1787 X74.355 Y58.926 Z-9.252
N1788 X74.152 Y58.81 Z-9.26
N1789 X73.998 Y58.719 Z-9.266
N1790 X73.668 Y58.517 Z-9.28
N1791 X73.545 Y58.437 Z-9.285
N1792 X73.343 Y58.304 Z-9.293
N1793 X73.14 Y58.169 Z-9.302
N1794 X72.772 Y57.909 Z-9.317
N1795 X72.736 Y57.883 Z-9.319
N1796 X72.331 Y57.578 Z-9.337
N1797 X72.239 Y57.505 Z-9.341
N1798 X71.926 Y57.252 Z-9.355
N1799 X71.748 Y57.1 Z-9.363
N1800 X71.512 Y56.897 Z-9.374
N1801 X71.319 Y56.721 Z-9.383
N1802 X71.291 Y56.695 Z-9.384
N1803 X71.117 Y56.535 Z-9.393
N1804 X70.866 Y56.29 Z-9.405
N1805 X70.712 Y56.139 Z-9.412
N1806 X70.469 Y55.885 Z-9.425
N1807 X70.307 Y55.713 Z-9.433
N1808 X70.098 Y55.481 Z-9.444
N1809 X69.922 Y55.278 Z-9.453
N1810 X69.7 Y55.016 Z-9.465
N1811 X69.586 Y54.873 Z-9.472
N1812 X69.425 Y54.671 Z-9.481
N1813 X69.296 Y54.503 Z-9.488
N1814 X69.093 Y54.23 Z-9.5
N1815 X68.974 Y54.064 Z-9.507
N1816 X68.834 Y53.861 Z-9.516
N1817 X68.696 Y53.659 Z-9.524
N1818 X68.486 Y53.335 Z-9.538
N1819 X68.434 Y53.254 Z-9.541
N1820 X68.19 Y52.849 Z-9.557
N1821 X68.081 Y52.658 Z-9.565
N1822 X67.962 Y52.445 Z-9.574
N1823 X67.879 Y52.293 Z-9.58
N1824 X67.677 Y51.903 Z-9.595
N1825 X67.644 Y51.837 Z-9.598
N1826 X67.45 Y51.433 Z-9.613
N1827 X67.36 Y51.23 Z-9.621
N1828 X67.271 Y51.028 Z-9.629
N1829 X67.185 Y50.825 Z-9.636
N1830 X67.022 Y50.421 Z-9.652
N1831 X66.948 Y50.218 Z-9.659
N1832 X66.867 Y49.999 Z-9.667
N1833 X66.803 Y49.813 Z-9.674
N1834 X66.736 Y49.611 Z-9.682
N1835 X66.67 Y49.409 Z-9.689
N1836 X66.55 Y49.004 Z-9.704
N1837 X66.494 Y48.802 Z-9.711
N1838 X66.388 Y48.397 Z-9.726
N1839 X66.342 Y48.194 Z-9.733
N1840 X66.296 Y47.992 Z-9.74
N1841 X66.26 Y47.826 Z-9.746
N1842 X66.175 Y47.385 Z-9.762
N1843 X66.141 Y47.182 Z-9.769
N1844 X66.109 Y46.98 Z-9.776
N1845 X66.078 Y46.778 Z-9.783
N1846 X66.026 Y46.373 Z-9.798
N1847 X66.004 Y46.17 Z-9.805
N1848 X65.985 Y45.968 Z-9.812
N1849 X65.966 Y45.766 Z-9.819
N1850 X65.94 Y45.361 Z-9.833
N1851 X65.93 Y45.158 Z-9.84
N1852 X65.917 Y44.754 Z-9.854
N1853 X65.916 Y44.551 Z-9.861
N1854 Y44.349 Z-9.868
N1855 X65.917 Y44.146 Z-9.876
N1856 X65.93 Y43.742 Z-9.89
N1857 X65.94 Y43.539 Z-9.897
N1858 X65.966 Y43.134 Z-9.911
N1859 X65.985 Y42.932 Z-9.918
N1860 X66.004 Y42.73 Z-9.925
N1861 X66.026 Y42.527 Z-9.932
N1862 X66.078 Y42.122 Z-9.947
N1863 X66.109 Y41.92 Z-9.954
N1864 X66.141 Y41.718 Z-9.961
N1865 X66.175 Y41.515 Z-9.968
N1866 X66.26 Y41.074 Z-9.984
N1867 X66.296 Y40.908 Z-9.99
N1868 X66.342 Y40.706 Z-9.997
N1869 X66.388 Y40.503 Z-10.004
N1870 X66.494 Y40.098 Z-10.019
N1871 X66.55 Y39.896 Z-10.026
N1872 X66.67 Y39.491 Z-10.041
N1873 X66.736 Y39.289 Z-10.048
N1874 X66.803 Y39.087 Z-10.056
N1875 X66.867 Y38.901 Z-10.063
N1876 X66.948 Y38.682 Z-10.071
N1877 X67.022 Y38.479 Z-10.078
N1878 X67.185 Y38.075 Z-10.093
N1879 X67.271 Y37.872 Z-10.101
N1880 X67.36 Y37.67 Z-10.109
N1881 X67.45 Y37.467 Z-10.117
N1882 X67.644 Y37.063 Z-10.132
N1883 X67.677 Y36.997 Z-10.135
N1884 X67.879 Y36.607 Z-10.15
N1885 X67.962 Y36.455 Z-10.156
N1886 X68.081 Y36.242 Z-10.165
N1887 X68.19 Y36.051 Z-10.172
N1888 X68.434 Y35.646 Z-10.189
N1889 X68.486 Y35.565 Z-10.192
N1890 X68.696 Y35.241 Z-10.206
N1891 X68.834 Y35.039 Z-10.214
N1892 X68.974 Y34.836 Z-10.223
N1893 X69.093 Y34.67 Z-10.23
N1894 X69.296 Y34.397 Z-10.242
N1895 X69.425 Y34.229 Z-10.249
N1896 X69.586 Y34.027 Z-10.258
N1897 X69.7 Y33.884 Z-10.265
N1898 X69.922 Y33.622 Z-10.277
N1899 X70.098 Y33.419 Z-10.286
N1900 X70.307 Y33.187 Z-10.297
N1901 X70.469 Y33.015 Z-10.305
N1902 X70.712 Y32.761 Z-10.318
N1903 X70.866 Y32.61 Z-10.325
N1904 X71.117 Y32.365 Z-10.337
N1905 X71.291 Y32.205 Z-10.346
N1906 X71.319 Y32.179 Z-10.347
N1907 X71.512 Y32.003 Z-10.356
N1908 X71.748 Y31.8 Z-10.367
N1909 X71.926 Y31.648 Z-10.375
N1910 X72.239 Y31.395 Z-10.389
N1911 X72.331 Y31.322 Z-10.393
N1912 X72.736 Y31.017 Z-10.411
N1913 X72.772 Y30.991 Z-10.412
N1914 X73.14 Y30.731 Z-10.428
N1915 X73.343 Y30.596 Z-10.437
N1916 X73.545 Y30.463 Z-10.445
N1917 X73.668 Y30.383 Z-10.45
N1918 X73.998 Y30.181 Z-10.464
N1919 X74.152 Y30.09 Z-10.47
N1920 X74.355 Y29.974 Z-10.478
N1921 X74.557 Y29.86 Z-10.486
N1922 X74.962 Y29.646 Z-10.502
N1923 X75.105 Y29.574 Z-10.508
N1924 X75.366 Y29.446 Z-10.518
N1925 X75.522 Y29.371 Z-10.524
N1926 X75.771 Y29.259 Z-10.534
N1927 X75.972 Y29.169 Z-10.541
N1928 X76.378 Y29.002 Z-10.557
N1929 X76.464 Y28.967 Z-10.56
N1930 X76.783 Y28.847 Z-10.572
N1931 X76.985 Y28.772 Z-10.579
N1932 X77.39 Y28.635 Z-10.594
N1933 X77.592 Y28.571 Z-10.602
N1934 X77.795 Y28.51 Z-10.609
N1935 X77.997 Y28.449 Z-10.616
N1936 X78.402 Y28.34 Z-10.631
N1937 X78.604 Y28.29 Z-10.638
N1938 X78.806 Y28.242 Z-10.646
N1939 X79.009 Y28.195 Z-10.653
N1940 X79.413 Y28.113 Z-10.667
N1941 X79.616 Y28.076 Z-10.674
N1942 X80.021 Y28.007 Z-10.689
N1943 X80.223 Y27.979 Z-10.696
N1944 X80.425 Y27.951 Z-10.703
N1945 X80.628 Y27.926 Z-10.71
N1946 X81.032 Y27.884 Z-10.724
N1947 X81.235 Y27.867 Z-10.731
N1948 X81.437 Y27.853 Z-10.739
N1949 X81.639 Y27.839 Z-10.746
N1950 X82.044 Y27.822 Z-10.76
N1951 X82.246 Y27.817 Z-10.767
N1952 X82.651 Y27.814 Z-10.781
N1953 X82.854 Y27.818 Z-10.788
N1954 X83.041 Y27.823 Z-10.795
N1955 X83.056
N1956 X83.063
N1957 X83.258 Y27.829
N1958 X83.663 Y27.852
N1959 X83.865 Y27.867
N1960 X84.27 Y27.903
N1961 X84.472 Y27.927
N1962 X84.704 Y27.955
N1963 X84.877 Y27.978
N1964 X85.282 Y28.04
N1965 X85.484 Y28.076
N1966 X85.687 Y28.114
N1967 X85.889 Y28.153
N1968 X86.294 Y28.241
N1969 X86.496 Y28.29
N1970 X86.772 Y28.36
N1971 X86.901 Y28.393
N1972 X87.305 Y28.509
N1973 X87.48 Y28.562
N1974 X87.71 Y28.636
N1975 X87.912 Y28.702
N1976 X88.317 Y28.846
N1977 X88.52 Y28.923
N1978 X88.722 Y29.003
N1979 X88.924 Y29.084
N1980 X89.329 Y29.258
N1981 X89.531 Y29.351
N1982 X89.734 Y29.446
N1983 X89.936 Y29.544
N1984 X90.138 Y29.647
N1985 X90.341 Y29.751
N1986 X90.756 Y29.979
N1987 X90.948 Y30.091
N1988 X91.15 Y30.21
N1989 X91.353 Y30.335
N1990 X91.555 Y30.463
N1991 X91.744 Y30.586
N1992 X92.041 Y30.788
N1993 X92.162 Y30.872
N1994 X92.364 Y31.019
N1995 X92.567 Y31.167
N1996 X92.971 Y31.482
N1997 X93.111 Y31.598
N1998 X93.376 Y31.818
N1999 X93.578 Y31.997
N2000 X93.781 Y32.176
N2001 X93.811 Y32.205
N2002 X94.025 Y32.407
N2003 X94.186 Y32.56
N2004 X94.436 Y32.812
N2005 X94.59 Y32.97
N2006 X94.82 Y33.217
N2007 X94.995 Y33.412
N2008 X95.197 Y33.643
N2009 X95.349 Y33.824
N2010 X95.515 Y34.027
N2011 X95.602 Y34.134
N2012 X95.83 Y34.431
N2013 X95.98 Y34.634
N2014 X96.209 Y34.953
N2015 X96.267 Y35.039
N2016 X96.411 Y35.254
N2017 X96.537 Y35.443
N2018 X96.79 Y35.848
N2019 X96.816 Y35.892
N2020 X97.026 Y36.253
N2021 X97.138 Y36.455
N2022 X97.247 Y36.658
N2023 X97.353 Y36.86
N2024 X97.555 Y37.265
N2025 X97.626 Y37.418
N2026 X97.741 Y37.67
N2027 X97.828 Y37.869
N2028 X97.914 Y38.075
N2029 X97.998 Y38.277
N2030 X98.154 Y38.682
N2031 X98.226 Y38.884
N2032 X98.296 Y39.087
N2033 X98.365 Y39.289
N2034 X98.491 Y39.694
N2035 X98.549 Y39.896
N2036 X98.637 Y40.213
N2037 X98.66 Y40.301
N2038 X98.759 Y40.706
N2039 X98.803 Y40.908
N2040 X98.846 Y41.11
N2041 X98.888 Y41.313
N2042 X98.959 Y41.718
N2043 X98.992 Y41.92
N2044 X99.05 Y42.325
N2045 X99.073 Y42.527
N2046 X99.096 Y42.73
N2047 X99.116 Y42.932
N2048 X99.149 Y43.337
N2049 X99.16 Y43.539
N2050 X99.17 Y43.742
N2051 X99.179 Y43.944
N2052 X99.185 Y44.349
N2053 Y44.551
N2054 X99.179 Y44.956
N2055 X99.17 Y45.158
N2056 X99.16 Y45.361
N2057 X99.149 Y45.563
N2058 X99.116 Y45.968
N2059 X99.096 Y46.17
N2060 X99.073 Y46.373
N2061 X99.05 Y46.575
N2062 X98.992 Y46.98
N2063 X98.959 Y47.182
N2064 X98.888 Y47.587
N2065 X98.846 Y47.79
N2066 X98.803 Y47.992
N2067 X98.759 Y48.194
N2068 X98.66 Y48.599
N2069 X98.637 Y48.687
N2070 X98.549 Y49.004
N2071 X98.491 Y49.206
N2072 X98.365 Y49.611
N2073 X98.296 Y49.813
N2074 X98.226 Y50.016
N2075 X98.154 Y50.218
N2076 X97.998 Y50.623
N2077 X97.914 Y50.825
N2078 X97.828 Y51.031
N2079 X97.741 Y51.23
N2080 X97.626 Y51.482
N2081 X97.555 Y51.635
N2082 X97.353 Y52.04
N2083 X97.247 Y52.242
N2084 X97.138 Y52.445
N2085 X97.026 Y52.647
N2086 X96.816 Y53.008
N2087 X96.79 Y53.052
N2088 X96.537 Y53.457
N2089 X96.411 Y53.646
N2090 X96.267 Y53.861
N2091 X96.209 Y53.947
N2092 X95.98 Y54.266
N2093 X95.83 Y54.469
N2094 X95.602 Y54.766
N2095 X95.515 Y54.873
N2096 X95.349 Y55.076
N2097 X95.197 Y55.257
N2098 X94.995 Y55.488
N2099 X94.82 Y55.683
N2100 X94.59 Y55.93
N2101 X94.436 Y56.088
N2102 X94.186 Y56.34
N2103 X94.025 Y56.493
N2104 X93.811 Y56.695
N2105 X93.781 Y56.724
N2106 X93.578 Y56.903
N2107 X93.376 Y57.082
N2108 X93.111 Y57.302
N2109 X92.971 Y57.418
N2110 X92.567 Y57.733
N2111 X92.364 Y57.881
N2112 X92.162 Y58.028
N2113 X92.041 Y58.112
N2114 X91.744 Y58.314
N2115 X91.555 Y58.437
N2116 X91.353 Y58.565
N2117 X91.15 Y58.69
N2118 X90.948 Y58.809
N2119 X90.756 Y58.921
N2120 X90.341 Y59.149
N2121 X90.138 Y59.253
N2122 X89.936 Y59.356
N2123 X89.734 Y59.454
N2124 X89.531 Y59.549
N2125 X89.329 Y59.642
N2126 X88.924 Y59.816
N2127 X88.722 Y59.897
N2128 X88.52 Y59.977
N2129 X88.317 Y60.054
N2130 X87.912 Y60.198
N2131 X87.71 Y60.264
N2132 X87.48 Y60.338
N2133 X87.305 Y60.391
N2134 X86.901 Y60.507
N2135 X86.772 Y60.54
N2136 X86.496 Y60.61
N2137 X86.294 Y60.659
N2138 X85.889 Y60.747
N2139 X85.687 Y60.786
N2140 X85.484 Y60.824
N2141 X85.282 Y60.86
N2142 X84.877 Y60.922
N2143 X84.704 Y60.945
N2144 X84.472 Y60.973
N2145 X84.27 Y60.997
N2146 X83.865 Y61.033
N2147 X83.663 Y61.048
N2148 X83.258 Y61.071
N2149 X83.056 Y61.077
N2150 X82.854 Y61.082
N2151 X82.651 Y61.086
N2152 X82.246 Y61.083
N2153 X82.044 Y61.078
N2154 X81.639 Y61.061
N2155 X81.437 Y61.047
N2156 X81.235 Y61.033
N2157 X81.032 Y61.016
N2158 X80.628 Y60.974
N2159 X80.425 Y60.949
N2160 X80.223 Y60.921
N2161 X80.021 Y60.893
N2162 X79.616 Y60.824
N2163 X79.413 Y60.787
N2164 X79.009 Y60.705
N2165 X78.806 Y60.658
N2166 X78.604 Y60.61
N2167 X78.402 Y60.56
N2168 X77.997 Y60.451
N2169 X77.795 Y60.39
N2170 X77.592 Y60.329
N2171 X77.39 Y60.265
N2172 X76.985 Y60.128
N2173 X76.783 Y60.053
N2174 X76.464 Y59.933
N2175 X76.378 Y59.898
N2176 X75.972 Y59.731
N2177 X75.771 Y59.641
N2178 X75.522 Y59.529
N2179 X75.366 Y59.454
N2180 X75.105 Y59.326
N2181 X74.962 Y59.254
N2182 X74.557 Y59.04
N2183 X74.355 Y58.926
N2184 X74.152 Y58.81
N2185 X73.998 Y58.719
N2186 X73.668 Y58.517
N2187 X73.545 Y58.437
N2188 X73.343 Y58.304
N2189 X73.14 Y58.169
N2190 X72.772 Y57.909
N2191 X72.736 Y57.883
N2192 X72.331 Y57.578
N2193 X72.239 Y57.505
N2194 X71.926 Y57.252
N2195 X71.748 Y57.1
N2196 X71.512 Y56.897
N2197 X71.319 Y56.721
N2198 X71.291 Y56.695
N2199 X71.117 Y56.535
N2200 X70.866 Y56.29
N2201 X70.712 Y56.139
N2202 X70.469 Y55.885
N2203 X70.307 Y55.713
N2204 X70.098 Y55.481
N2205 X69.922 Y55.278
N2206 X69.7 Y55.016
N2207 X69.586 Y54.873
N2208 X69.425 Y54.671
N2209 X69.296 Y54.503
N2210 X69.093 Y54.23
N2211 X68.974 Y54.064
N2212 X68.834 Y53.861
N2213 X68.696 Y53.659
N2214 X68.486 Y53.335
N2215 X68.434 Y53.254
N2216 X68.19 Y52.849
N2217 X68.081 Y52.658
N2218 X67.962 Y52.445
N2219 X67.879 Y52.293
N2220 X67.677 Y51.903
N2221 X67.644 Y51.837
N2222 X67.45 Y51.433
N2223 X67.36 Y51.23
N2224 X67.271 Y51.028
N2225 X67.185 Y50.825
N2226 X67.022 Y50.421
N2227 X66.948 Y50.218
N2228 X66.867 Y49.999
N2229 X66.803 Y49.813
N2230 X66.736 Y49.611
N2231 X66.67 Y49.409
N2232 X66.55 Y49.004
N2233 X66.494 Y48.802
N2234 X66.388 Y48.397
N2235 X66.342 Y48.194
N2236 X66.296 Y47.992
N2237 X66.26 Y47.826
N2238 X66.175 Y47.385
N2239 X66.141 Y47.182
N2240 X66.109 Y46.98
N2241 X66.078 Y46.778
N2242 X66.026 Y46.373
N2243 X66.004 Y46.17
N2244 X65.985 Y45.968
N2245 X65.966 Y45.766
N2246 X65.94 Y45.361
N2247 X65.93 Y45.158
N2248 X65.917 Y44.754
N2249 X65.916 Y44.551
N2250 Y44.349
N2251 X65.917 Y44.146
N2252 X65.93 Y43.742
N2253 X65.94 Y43.539
N2254 X65.966 Y43.134
N2255 X65.985 Y42.932
N2256 X66.004 Y42.73
N2257 X66.026 Y42.527
N2258 X66.058 Y42.277
N2259 X66.078 Y42.122
N2260 X66.109 Y41.92
N2261 X66.141 Y41.718
N2262 X66.175 Y41.515
N2263 X66.26 Y41.074
N2264 X66.296 Y40.908
N2265 X66.342 Y40.706
N2266 X66.388 Y40.503
N2267 X66.494 Y40.098
N2268 X66.55 Y39.896
N2269 X66.67 Y39.491
N2270 X66.736 Y39.289
N2271 X66.803 Y39.087
N2272 X66.867 Y38.901
N2273 X66.948 Y38.682
N2274 X67.022 Y38.479
N2275 X67.185 Y38.075
N2276 X67.271 Y37.872
N2277 X67.36 Y37.67
N2278 X67.45 Y37.467
N2279 X67.644 Y37.063
N2280 X67.677 Y36.997
N2281 X67.879 Y36.607
N2282 X67.962 Y36.455
N2283 X68.081 Y36.242
N2284 X68.19 Y36.051
N2285 X68.434 Y35.646
N2286 X68.486 Y35.565
N2287 X68.696 Y35.241
N2288 X68.834 Y35.039
N2289 X68.974 Y34.836
N2290 X69.093 Y34.67
N2291 X69.296 Y34.397
N2292 X69.425 Y34.229
N2293 X69.586 Y34.027
N2294 X69.7 Y33.884
N2295 X69.922 Y33.622
N2296 X70.098 Y33.419
N2297 X70.307 Y33.187
N2298 X70.469 Y33.015
N2299 X70.712 Y32.761
N2300 X70.866 Y32.61
N2301 X71.117 Y32.365
N2302 X71.291 Y32.205
N2303 X71.319 Y32.179
N2304 X71.512 Y32.003
N2305 X71.748 Y31.8
N2306 X71.926 Y31.648
N2307 X72.239 Y31.395
N2308 X72.331 Y31.322
N2309 X72.736 Y31.017
N2310 X72.772 Y30.991
N2311 X73.14 Y30.731
N2312 X73.343 Y30.596
N2313 X73.545 Y30.463
N2314 X73.668 Y30.383
N2315 X73.998 Y30.181
N2316 X74.152 Y30.09
N2317 X74.355 Y29.974
N2318 X74.557 Y29.86
N2319 X74.962 Y29.646
N2320 X75.105 Y29.574
N2321 X75.366 Y29.446
N2322 X75.522 Y29.371
N2323 X75.771 Y29.259
N2324 X75.972 Y29.169
N2325 X76.378 Y29.002
N2326 X76.464 Y28.967
N2327 X76.783 Y28.847
N2328 X76.985 Y28.772
N2329 X77.39 Y28.635
N2330 X77.592 Y28.571
N2331 X77.795 Y28.51
N2332 X77.997 Y28.449
N2333 X78.402 Y28.34
N2334 X78.604 Y28.29
N2335 X78.806 Y28.242
N2336 X79.009 Y28.195
N2337 X79.413 Y28.113
N2338 X79.616 Y28.076
N2339 X80.021 Y28.007
N2340 X80.223 Y27.979
N2341 X80.425 Y27.951
N2342 X80.628 Y27.926
N2343 X81.032 Y27.884
N2344 X81.235 Y27.867
N2345 X81.437 Y27.853
N2346 X81.639 Y27.839
N2347 X82.044 Y27.822
N2348 X82.246 Y27.817
N2349 X82.651 Y27.814
N2350 X82.854 Y27.818
N2351 X83.056 Y27.823
N2352 X83.063
N2353 G3 X83.678 Y28.477 I-0.02 J0.635
N2354 G1 X83.675 Y28.577 Z-10.787
N2355 X83.672 Y28.674 Z-10.764
N2356 X83.669 Y28.766 Z-10.726
N2357 X83.666 Y28.851 Z-10.674
N2358 X83.664 Y28.926 Z-10.609
N2359 X83.662 Y28.991 Z-10.533
N2360 X83.661 Y29.043 Z-10.448
N2361 X83.659 Y29.081 Z-10.356
N2362 Y29.104 Z-10.259
N2363 X83.658 Y29.112 Z-10.16
N2364 G0 Z15.24
N2366 Z40
N2366 X160. Y 120.
N2367 M5
N2368 M30
