%
(1001)
(T3  D=0.25 CR=0 - ZMIN=-0.1181 - flat end mill)
(T8  D=0.5 CR=0.25 - ZMIN=-0.374 - ball end mill)
N0 G90
N1 G17
(Parallel1)
N2 T8 M6
(T8 1/2 Ballnose)
N3 S10000 M3
N5 G0 X7.9174 Y0.0268
N6 Z0.6
N7 Z0.076
N8 G1 Z0.05 F24
N9 X7.9172 Y0.0266 Z0.0448
N10 X7.9164 Y0.0262 Z0.0396
N11 X7.9153 Y0.0255 Z0.0345
N12 X7.9136 Y0.0246 Z0.0296
N13 X7.9116 Y0.0234 Z0.025
N14 X7.9091 Y0.022 Z0.0206
N15 X7.9062 Y0.0203 Z0.0165
N16 X7.903 Y0.0185 Z0.0128
N17 X7.8995 Y0.0164 Z0.0095
N18 X7.8957 Y0.0143 Z0.0067
N19 X7.8917 Y0.0119 Z0.0043
N20 X7.8874 Y0.0095 Z0.0024
N21 X7.883 Y0.0069 Z0.0011
N22 X7.8785 Y0.0043 Z0.0003
N23 X7.874 Y0.0017 Z0
N24 X7.871 Y0 F60
N25 X7.8662 Y-0.0028 Z0.0003 F24
N26 X7.8614 Y-0.0056 Z0.0013
N27 X7.8567 Y-0.0082 Z0.0028
N28 X7.8523 Y-0.0108 Z0.005
N29 X7.848 Y-0.0133 Z0.0077
N30 X7.8441 Y-0.0156 Z0.0109
N31 X7.8404 Y-0.0176 Z0.0147
N32 X7.8372 Y-0.0195 Z0.0189
N33 X7.8344 Y-0.0211 Z0.0234
N34 X7.8321 Y-0.0225 Z0.0283
N35 X7.8302 Y-0.0236 Z0.0335
N36 X7.8289 Y-0.0243 Z0.0389
N37 X7.8281 Y-0.0248 Z0.0444
N38 X7.8278 Y-0.025 Z0.05
N39 G0 Z0.2
N40 X7.9272 Y0.3787
N41 Z-0.0796
N42 G1 Z-0.1002 F24
N43 X7.9269 Y0.3785 Z-0.1054
N44 X7.9262 Y0.3781 Z-0.1107
N45 X7.925 Y0.3774 Z-0.1158
N46 X7.9234 Y0.3765 Z-0.1207
N47 X7.9213 Y0.3753 Z-0.1254
N48 X7.9187 Y0.3738 Z-0.1298
N49 X7.9158 Y0.3721 Z-0.1339
N50 X7.9125 Y0.3702 Z-0.1376
N51 X7.909 Y0.3682 Z-0.1409
N52 X7.9051 Y0.3659 Z-0.1438
N53 X7.901 Y0.3636 Z-0.1461
N54 X7.8967 Y0.3611 Z-0.1479
N55 X7.8922 Y0.3585 Z-0.1492
N56 X7.8877 Y0.3559 Z-0.15
N57 X7.8831 Y0.3532 Z-0.1501
N58 X7.8785 Y0.3506 Z-0.1498
N59 X7.874 Y0.348 Z-0.1488
N60 X7.7985 Y0.3044 Z-0.1284 F60
N61 X7.7232 Y0.2609 Z-0.1071
N62 X7.6481 Y0.2176 Z-0.0847
N63 X7.5732 Y0.1743 Z-0.0614
N64 X7.4733 Y0.1166 Z-0.0289
N65 X7.4478 Y0.1019 Z-0.0217
N66 X7.4221 Y0.0871 Z-0.0157
N67 X7.3962 Y0.0721 Z-0.0106
N68 X7.3702 Y0.0571 Z-0.0066
N69 X7.344 Y0.042 Z-0.0036
N70 X7.3178 Y0.0269 Z-0.0014
N71 X7.2916 Y0.0117 Z-0.0003
N72 X7.2713 Y0 Z0
N73 X7.2681 Y-0.0018 Z0.0003
N74 X7.265 Y-0.0036 Z0.0012
N75 X7.262 Y-0.0054 Z0.0025
N76 X7.259 Y-0.0071 Z0.004
N77 X7.2558 Y-0.009 Z0.0048
N78 X7.2525 Y-0.0109 Z0.0051
N79 X6.8028 Y-0.2705
N80 G2 X6.7003 Y-0.243 I-0.0375 J0.065
N81 G1 X6.6254 Y-0.1133
N82 G2 X6.6528 Y-0.0108 I0.065 J0.0375
N83 G1 X6.6561 Y-0.0089 Z0.0048
N84 X6.6593 Y-0.0071 Z0.004
N85 X6.6624 Y-0.0053 Z0.0025
N86 X6.6653 Y-0.0036 Z0.0012
N87 X6.6684 Y-0.0018 Z0.0003
N88 X6.6715 Y0 Z0
N89 X6.6986 Y0.0156 Z-0.0005
N90 X6.7248 Y0.0308 Z-0.0019
N91 X6.751 Y0.0459 Z-0.0042
N92 X6.7772 Y0.061 Z-0.0075
N93 X6.8032 Y0.076 Z-0.0118
N94 X6.829 Y0.0909 Z-0.0171
N95 X6.8547 Y0.1057 Z-0.0235
N96 X6.8801 Y0.1204 Z-0.0309
N97 X6.9306 Y0.1496 Z-0.0475
N98 X7.0168 Y0.1993 Z-0.0751
N99 X7.1033 Y0.2492 Z-0.1012
N100 X7.1785 Y0.2927 Z-0.1228
N101 X7.254 Y0.3363 Z-0.1434
N102 X7.3283 Y0.3792 Z-0.1627
N103 X7.4157 Y0.4296 Z-0.1843
N104 X7.5047 Y0.481 Z-0.2048
N105 X7.5809 Y0.525 Z-0.2213
N106 X7.6572 Y0.5691 Z-0.237
N107 X7.7207 Y0.6057 Z-0.2493
N108 X7.7973 Y0.65 Z-0.2634
N109 X7.874 Y0.6942 Z-0.2766
N110 X7.8786 Y0.6969 Z-0.2771 F24
N111 X7.8833 Y0.6996 Z-0.277
N112 X7.8879 Y0.7023 Z-0.2764
N113 X7.8924 Y0.7049 Z-0.2751
N114 X7.8968 Y0.7074 Z-0.2734
N115 X7.901 Y0.7098 Z-0.2711
N116 X7.905 Y0.7121 Z-0.2683
N117 X7.9087 Y0.7143 Z-0.265
N118 X7.912 Y0.7162 Z-0.2613
N119 X7.915 Y0.7179 Z-0.2572
N120 X7.9176 Y0.7194 Z-0.2527
N121 X7.9198 Y0.7207 Z-0.2479
N122 X7.9215 Y0.7216 Z-0.243
N123 X7.9227 Y0.7224 Z-0.2378
N124 X7.9234 Y0.7228 Z-0.2325
N125 X7.9237 Y0.7229 Z-0.2271
N126 G0 Z0.2
N127 X7.9206 Y1.0674
N128 Z-0.2763
N129 G1 Z-0.3002 F24
N130 X7.9203 Y1.0672 Z-0.3057
N131 X7.9195 Y1.0668 Z-0.3111
N132 X7.9183 Y1.0661 Z-0.3163
N133 X7.9165 Y1.065 Z-0.3214
N134 X7.9142 Y1.0637 Z-0.3263
N135 X7.9115 Y1.0622 Z-0.3308
N136 X7.9084 Y1.0604 Z-0.3349
N137 X7.9049 Y1.0584 Z-0.3387
N138 X7.9011 Y1.0562 Z-0.3419
N139 X7.897 Y1.0538 Z-0.3447
N140 X7.8927 Y1.0513 Z-0.3469
N141 X7.8882 Y1.0487 Z-0.3486
N142 X7.8835 Y1.046 Z-0.3497
N143 X7.8788 Y1.0432 Z-0.3502
N144 X7.874 Y1.0405 Z-0.35
N145 X7.7718 Y0.9815 Z-0.3411 F60
N146 X7.6815 Y0.9293 Z-0.332
N147 X7.6043 Y0.8848 Z-0.3233
N148 X7.5011 Y0.8252 Z-0.3105
N149 X7.4123 Y0.774 Z-0.2981
N150 X7.3368 Y0.7303 Z-0.2866
N151 X7.247 Y0.6785 Z-0.272
N152 X7.1587 Y0.6275 Z-0.2564
N153 X7.0705 Y0.5766 Z-0.2396
N154 X6.9825 Y0.5258 Z-0.2216
N155 X6.9076 Y0.4826 Z-0.2054
N156 X6.8187 Y0.4312 Z-0.1849
N157 X6.7326 Y0.3815 Z-0.1638
N158 X6.6582 Y0.3386 Z-0.1445
N159 X6.5841 Y0.2958 Z-0.1242
N160 X6.5229 Y0.2604 Z-0.1068
N161 X6.449 Y0.2178 Z-0.0849
N162 X6.3755 Y0.1753 Z-0.0619
N163 X6.2768 Y0.1184 Z-0.0298
N164 X6.2514 Y0.1037 Z-0.0225
N165 X6.2257 Y0.0888 Z-0.0163
N166 X6.1998 Y0.0739 Z-0.0112
N167 X6.1738 Y0.0589 Z-0.007
N168 X6.1477 Y0.0438 Z-0.0039
N169 X6.1215 Y0.0287 Z-0.0017
N170 X6.0952 Y0.0135 Z-0.0004
N171 X6.0718 Y0 Z0
N172 X6.0686 Y-0.0018 Z0.0003
N173 X6.0655 Y-0.0036 Z0.0012
N174 X6.0626 Y-0.0053 Z0.0025
N175 X6.0595 Y-0.0071 Z0.004
N176 X6.0563 Y-0.0089 Z0.0048
N177 X6.053 Y-0.0108 Z0.0051
N178 X5.6032 Y-0.2706
N179 G2 X5.5007 Y-0.2431 I-0.0375 J0.065
N180 G1 X5.4258 Y-0.1133
N181 G2 X5.4533 Y-0.0109 I0.065 J0.0375
N182 G1 X5.4565 Y-0.009 Z0.0048
N183 X5.4597 Y-0.0071 Z0.004
N184 X5.4628 Y-0.0054 Z0.0025
N185 X5.4658 Y-0.0036 Z0.0012
N186 X5.4689 Y-0.0018 Z0.0003
N187 X5.4721 Y0 Z0
N188 X5.4911 Y0.011 Z-0.0002
N189 X5.5174 Y0.0262 Z-0.0014
N190 X5.5436 Y0.0413 Z-0.0034
N191 X5.5697 Y0.0564 Z-0.0064
N192 X5.5958 Y0.0714 Z-0.0104
N193 X5.6217 Y0.0864 Z-0.0154
N194 X5.6474 Y0.1012 Z-0.0214
N195 X5.6729 Y0.1159 Z-0.0285
N196 X5.7045 Y0.1342 Z-0.0387
N197 X5.7778 Y0.1765 Z-0.0626
N198 X5.8514 Y0.219 Z-0.0855
N199 X5.9239 Y0.2609 Z-0.1071
N200 X5.9979 Y0.3036 Z-0.1281
N201 X6.0837 Y0.3531 Z-0.1512
N202 X6.171 Y0.4035 Z-0.1732
N203 X6.2456 Y0.4466 Z-0.1911
N204 X6.3204 Y0.4898 Z-0.2081
N205 X6.394 Y0.5322 Z-0.224
N206 X6.4936 Y0.5898 Z-0.2441
N207 X6.5832 Y0.6415 Z-0.2608
N208 X6.6585 Y0.685 Z-0.2739
N209 X6.747 Y0.7361 Z-0.2882
N210 X6.8487 Y0.7948 Z-0.3032
N211 X6.9374 Y0.846 Z-0.3151
N212 X7.0132 Y0.8898 Z-0.3243
N213 X7.1021 Y0.9411 Z-0.3342
N214 X7.2043 Y1.0001 Z-0.3441
N215 X7.2947 Y1.0523 Z-0.3516
N216 X7.3721 Y1.097 Z-0.3572
N217 X7.4627 Y1.1493 Z-0.3628
N218 X7.5651 Y1.2084 Z-0.3677
N219 X7.6562 Y1.261 Z-0.3708
N220 X7.7351 Y1.3066 Z-0.3727
N221 G0 Z0.2
N222 X7.295 Y1.3987
N223 Z-0.1179
N224 G1 Z-0.3739 F24
N225 X7.2075 Y1.3482 Z-0.3736 F60
N226 X7.1273 Y1.3019 Z-0.3725
N227 X7.043 Y1.2532 Z-0.3704
N228 X6.9389 Y1.1931 Z-0.3666
N229 X6.851 Y1.1424 Z-0.3621
N230 X6.7604 Y1.0901 Z-0.3564
N231 X6.6581 Y1.031 Z-0.3487
N232 X6.5586 Y0.9736 Z-0.3398
N233 X6.4827 Y0.9298 Z-0.3321
N234 X6.3938 Y0.8784 Z-0.322
N235 X6.2932 Y0.8204 Z-0.3093
N236 X6.2059 Y0.7699 Z-0.297
N237 X6.1303 Y0.7263 Z-0.2855
N238 X6.0549 Y0.6827 Z-0.2732
N239 X5.9665 Y0.6317 Z-0.2577
N240 X5.8667 Y0.5741 Z-0.2388
N241 X5.7917 Y0.5308 Z-0.2235
N242 X5.7052 Y0.4808 Z-0.2047
N243 X5.6176 Y0.4303 Z-0.1845
N244 X5.5315 Y0.3806 Z-0.1634
N245 X5.4571 Y0.3376 Z-0.144
N246 X5.3829 Y0.2948 Z-0.1238
N247 X5.3103 Y0.2529 Z-0.103
N248 X5.2365 Y0.2103 Z-0.0809
N249 X5.1503 Y0.1605 Z-0.0537
N250 X5.077 Y0.1182 Z-0.0297
N251 X5.0516 Y0.1035 Z-0.0224
N252 X5.0259 Y0.0886 Z-0.0162
N253 X5 Y0.0737 Z-0.0111
N254 X4.974 Y0.0587 Z-0.007
N255 X4.9479 Y0.0436 Z-0.0038
N256 X4.9216 Y0.0285 Z-0.0016
N257 X4.8954 Y0.0133 Z-0.0004
N258 X4.8723 Y0 Z0
N259 X4.8692 Y-0.0018 Z0.0003
N260 X4.8661 Y-0.0036 Z0.0012
N261 X4.8631 Y-0.0053 Z0.0025
N262 X4.86 Y-0.0071 Z0.004
N263 X4.8568 Y-0.0089 Z0.0048
N264 X4.8536 Y-0.0108 Z0.0051
N265 X4.4038 Y-0.2705
N266 G2 X4.3013 Y-0.2431 I-0.0375 J0.065
N267 G1 X4.2264 Y-0.1133
N268 G2 X4.2538 Y-0.0108 I0.065 J0.0375
N269 G1 X4.2571 Y-0.0089 Z0.0048
N270 X4.2603 Y-0.0071 Z0.004
N271 X4.2634 Y-0.0053 Z0.0025
N272 X4.2663 Y-0.0036 Z0.0012
N273 X4.2694 Y-0.0018 Z0.0003
N274 X4.2726 Y0 Z0
N275 X4.2958 Y0.0134 Z-0.0004
N276 X4.3221 Y0.0286 Z-0.0016
N277 X4.3483 Y0.0437 Z-0.0038
N278 X4.3744 Y0.0588 Z-0.007
N279 X4.4004 Y0.0738 Z-0.0111
N280 X4.4263 Y0.0887 Z-0.0163
N281 X4.452 Y0.1036 Z-0.0225
N282 X4.4774 Y0.1183 Z-0.0297
N283 X4.533 Y0.1504 Z-0.048
N284 X4.5938 Y0.1855 Z-0.0675
N285 X4.6674 Y0.228 Z-0.0902
N286 X4.7655 Y0.2846 Z-0.1188
N287 X4.8397 Y0.3274 Z-0.1393
N288 X4.9127 Y0.3695 Z-0.1585
N289 X4.9871 Y0.4125 Z-0.1771
N290 X5.0618 Y0.4556 Z-0.1948
N291 X5.1611 Y0.513 Z-0.217
N292 X5.2491 Y0.5638 Z-0.2352
N293 X5.3229 Y0.6064 Z-0.2496
N294 X5.4111 Y0.6573 Z-0.2657
N295 X5.5112 Y0.7151 Z-0.2825
N296 X5.5998 Y0.7663 Z-0.2961
N297 X5.6754 Y0.8099 Z-0.3068
N298 X5.7746 Y0.8672 Z-0.3197
N299 X5.8766 Y0.9261 Z-0.3314
N300 X5.9656 Y0.9775 Z-0.3404
N301 X6.0652 Y1.0349 Z-0.3493
N302 X6.1674 Y1.094 Z-0.3569
N303 X6.2567 Y1.1455 Z-0.3624
N304 X6.3695 Y1.2107 Z-0.3678
N305 X6.4593 Y1.2625 Z-0.3709
N306 X6.5501 Y1.3149 Z-0.373
N307 X6.6562 Y1.3762 Z-0.3739
N308 X6.7501 Y1.4304 Z-0.3735
N309 X6.8373 Y1.4807 Z-0.3721
N310 X6.9565 Y1.5495 Z-0.3687
N311 G0 Z0.2
N312 X6.6832 Y1.738
N313 Z-0.1165
N314 G1 Z-0.3491 F24
N315 X6.5782 Y1.6774 Z-0.357 F60
N316 X6.4732 Y1.6168 Z-0.3633
N317 X6.3681 Y1.5561 Z-0.3682
N318 X6.249 Y1.4874 Z-0.3719
N319 X6.1484 Y1.4293 Z-0.3736
N320 X6.047 Y1.3707 Z-0.374
N321 X5.94 Y1.309 Z-0.3728
N322 X5.8489 Y1.2563 Z-0.3706
N323 X5.7461 Y1.197 Z-0.3669
N324 X5.6464 Y1.1394 Z-0.3618
N325 X5.5441 Y1.0803 Z-0.3553
N326 X5.4431 Y1.0221 Z-0.3474
N327 X5.3554 Y0.9714 Z-0.3394
N328 X5.2533 Y0.9125 Z-0.3289
N329 X5.1527 Y0.8544 Z-0.3169
N330 X5.0653 Y0.8039 Z-0.3054
N331 X4.9635 Y0.7452 Z-0.2907
N332 X4.8764 Y0.6948 Z-0.2768
N333 X4.788 Y0.6438 Z-0.2615
N334 X4.6881 Y0.5862 Z-0.2429
N335 X4.5885 Y0.5286 Z-0.2227
N336 X4.5136 Y0.4854 Z-0.2065
N337 X4.4273 Y0.4356 Z-0.1867
N338 X4.3283 Y0.3784 Z-0.1624
N339 X4.254 Y0.3355 Z-0.143
N340 X4.1798 Y0.2927 Z-0.1228
N341 X4.1058 Y0.25 Z-0.1015
N342 X4.0207 Y0.2008 Z-0.0759
N343 X3.9358 Y0.1518 Z-0.0488
N344 X3.8739 Y0.1161 Z-0.0286
N345 X3.8484 Y0.1013 Z-0.0215
N346 X3.8227 Y0.0865 Z-0.0154
N347 X3.7968 Y0.0715 Z-0.0105
N348 X3.7707 Y0.0565 Z-0.0065
N349 X3.7446 Y0.0414 Z-0.0035
N350 X3.7184 Y0.0263 Z-0.0014
N351 X3.6921 Y0.0111 Z-0.0002
N352 X3.6729 Y0 Z0
N353 X3.6697 Y-0.0018 Z0.0003
N354 X3.6665 Y-0.0036 Z0.0012
N355 X3.6636 Y-0.0054 Z0.0025
N356 X3.6605 Y-0.0071 Z0.004
N357 X3.6573 Y-0.009 Z0.0048
N358 X3.654 Y-0.0109 Z0.0051
N359 X3.2044 Y-0.2705
N360 G2 X3.1019 Y-0.243 I-0.0375 J0.065
N361 G1 X3.027 Y-0.1132
N362 G2 X3.0544 Y-0.0108 I0.065 J0.0375
N363 G1 X3.0577 Y-0.0089 Z0.0048
N364 X3.0609 Y-0.0071 Z0.004
N365 X3.0639 Y-0.0053 Z0.0025
N366 X3.064
N367 X3.0669 Y-0.0036 Z0.0012
N368 X3.07 Y-0.0018 Z0.0003
N369 X3.0731 Y0 Z0
N370 X3.1017 Y0.0165 Z-0.0005
N371 X3.128 Y0.0317 Z-0.002
N372 X3.1542 Y0.0468 Z-0.0044
N373 X3.1803 Y0.0619 Z-0.0078
N374 X3.2062 Y0.0769 Z-0.0121
N375 X3.2321 Y0.0918 Z-0.0175
N376 X3.2577 Y0.1066 Z-0.0239
N377 X3.2831 Y0.1213 Z-0.0314
N378 X3.3261 Y0.1461 Z-0.0455
N379 X3.3995 Y0.1884 Z-0.0691
N380 X3.4719 Y0.2302 Z-0.0914
N381 X3.5585 Y0.2802 Z-0.1167
N382 X3.6441 Y0.3297 Z-0.1403
N383 X3.7184 Y0.3726 Z-0.1598
N384 X3.7929 Y0.4156 Z-0.1784
N385 X3.8792 Y0.4654 Z-0.1987
N386 X3.9785 Y0.5227 Z-0.2205
N387 X4.0665 Y0.5735 Z-0.2386
N388 X4.1534 Y0.6237 Z-0.2552
N389 X4.2547 Y0.6822 Z-0.2731
N390 X4.3418 Y0.7325 Z-0.2872
N391 X4.4422 Y0.7904 Z-0.3022
N392 X4.5426 Y0.8484 Z-0.3156
N393 X4.6315 Y0.8997 Z-0.3263
N394 X4.7322 Y0.9579 Z-0.3372
N395 X4.833 Y1.0161 Z-0.3465
N396 X4.9222 Y1.0676 Z-0.3537
N397 X5.0232 Y1.1259 Z-0.3605
N398 X5.1242 Y1.1842 Z-0.3658
N399 X5.2253 Y1.2426 Z-0.3699
N400 X5.3229 Y1.2989 Z-0.3724
N401 X5.4232 Y1.3568 Z-0.3738
N402 X5.5302 Y1.4186
N403 X5.6308 Y1.4767 Z-0.3723
N404 X5.7305 Y1.5343 Z-0.3696
N405 X5.8343 Y1.5942 Z-0.3653
N406 X5.9393 Y1.6548 Z-0.3595
N407 X6.0443 Y1.7154 Z-0.3522
N408 X6.1492 Y1.776 Z-0.3434
N409 X6.254 Y1.8365 Z-0.3331
N410 X6.3587 Y1.8969 Z-0.3213
N411 X6.4632 Y1.9573 Z-0.3079
N412 G0 Z0.2
N413 X6.3028 Y2.2109
N414 Z-0.0788
N415 G1 Z-0.2258 F24
N416 X6.3027 Y2.2108 Z-0.2282
N417 X6.3022 Y2.2106 Z-0.2304
N418 X6.3014 Y2.2101 Z-0.2326
N419 X6.3004 Y2.2095 Z-0.2346
N420 X6.2096 Y2.1571 Z-0.2522 F60
N421 X6.1057 Y2.0971 Z-0.2708
N422 X6.0146 Y2.0445 Z-0.2858
N423 X5.9103 Y1.9843 Z-0.3014
N424 X5.8059 Y1.924 Z-0.3155
N425 X5.7013 Y1.8636 Z-0.328
N426 X5.5966 Y1.8032 Z-0.339
N427 X5.5048 Y1.7502 Z-0.3473
N428 X5.3999 Y1.6896 Z-0.3555
N429 X5.2949 Y1.629 Z-0.3622
N430 X5.2029 Y1.5759 Z-0.3668
N431 X5.111 Y1.5228 Z-0.3702
N432 X5.0043 Y1.4612 Z-0.3728
N433 X4.8969 Y1.3992 Z-0.3739
N434 X4.7926 Y1.339 Z-0.3735
N435 X4.6869 Y1.2779 Z-0.3717
N436 X4.5914 Y1.2228 Z-0.3687
N437 X4.489 Y1.1637 Z-0.3641
N438 X4.388 Y1.1054 Z-0.3582
N439 X4.287 Y1.0471 Z-0.351
N440 X4.1861 Y0.9889 Z-0.3423
N441 X4.084 Y0.9299 Z-0.3321
N442 X3.9834 Y0.8718 Z-0.3207
N443 X3.8828 Y0.8137 Z-0.3078
N444 X3.7941 Y0.7625 Z-0.2952
N445 X3.6939 Y0.7047 Z-0.2796
N446 X3.6068 Y0.6544 Z-0.2648
N447 X3.5186 Y0.6034 Z-0.2486
N448 X3.4188 Y0.5459 Z-0.2289
N449 X3.3323 Y0.4959 Z-0.2105
N450 X3.2575 Y0.4527 Z-0.1936
N451 X3.1829 Y0.4096 Z-0.1758
N452 X3.1084 Y0.3666 Z-0.1572
N453 X3.0226 Y0.3171 Z-0.1345
N454 X2.9371 Y0.2677 Z-0.1105
N455 X2.8632 Y0.2251 Z-0.0887
N456 X2.7896 Y0.1826 Z-0.0659
N457 X2.7289 Y0.1475 Z-0.0463
N458 X2.6796 Y0.1191 Z-0.0302
N459 X2.6542 Y0.1044 Z-0.0228
N460 X2.6285 Y0.0895 Z-0.0166
N461 X2.6026 Y0.0746 Z-0.0114
N462 X2.5766 Y0.0596 Z-0.0072
N463 X2.5505 Y0.0445 Z-0.004
N464 X2.5243 Y0.0294 Z-0.0017
N465 X2.498 Y0.0142 Z-0.0004
N466 X2.4734 Y0 Z0
N467 X2.4702 Y-0.0018 Z0.0003
N468 X2.4671 Y-0.0036 Z0.0012
N469 X2.4642 Y-0.0053 Z0.0025
N470 X2.4611 Y-0.0071 Z0.004
N471 X2.4579 Y-0.0089 Z0.0048
N472 X2.4546 Y-0.0108 Z0.0051
N473 X2.0048 Y-0.2705
N474 G2 X1.9023 Y-0.2431 I-0.0375 J0.065
N475 G1 X1.8274 Y-0.1133
N476 G2 X1.8549 Y-0.0109 I0.065 J0.0375
N477 G1 X1.8581 Y-0.009 Z0.0048
N478 X1.8613 Y-0.0071 Z0.004
N479 X1.8644 Y-0.0054 Z0.0025
N480 X1.8674 Y-0.0036 Z0.0012
N481 X1.8705 Y-0.0018 Z0.0003
N482 X1.8736 Y0 Z0
N483 X1.8945 Y0.012 Z-0.0003
N484 X1.9207 Y0.0272 Z-0.0015
N485 X1.9469 Y0.0423 Z-0.0036
N486 X1.9731 Y0.0574 Z-0.0067
N487 X1.9991 Y0.0724 Z-0.0107
N488 X2.025 Y0.0874 Z-0.0158
N489 X2.0507 Y0.1022 Z-0.0218
N490 X2.0762 Y0.1169 Z-0.029
N491 X2.1318 Y0.149 Z-0.0472
N492 X2.1925 Y0.1841 Z-0.0668
N493 X2.2534 Y0.2193 Z-0.0856
N494 X2.3273 Y0.2619 Z-0.1076
N495 X2.3885 Y0.2973 Z-0.125
N496 X2.4627 Y0.3401 Z-0.1452
N497 X2.537 Y0.383 Z-0.1644
N498 X2.6231 Y0.4327 Z-0.1855
N499 X2.7095 Y0.4826 Z-0.2054
N500 X2.7973 Y0.5333 Z-0.2244
N501 X2.884 Y0.5833 Z-0.2419
N502 X2.9838 Y0.641 Z-0.2606
N503 X3.0722 Y0.692 Z-0.2759
N504 X3.1724 Y0.7498 Z-0.2919
N505 X3.2728 Y0.8078 Z-0.3064
N506 X3.3616 Y0.859 Z-0.3179
N507 X3.4622 Y0.9171 Z-0.3298
N508 X3.5629 Y0.9753 Z-0.3401
N509 X3.6638 Y1.0335 Z-0.3491
N510 X3.7661 Y1.0926 Z-0.3567
N511 X3.8671 Y1.1509 Z-0.3629
N512 X3.9682 Y1.2093 Z-0.3678
N513 X4.0765 Y1.2718 Z-0.3714
N514 X4.1822 Y1.3329 Z-0.3734
N515 X4.2934 Y1.3971 Z-0.374
N516 X4.4007 Y1.459 Z-0.3729
N517 X4.5076 Y1.5207 Z-0.3703
N518 X4.5996 Y1.5738 Z-0.3669
N519 X4.6915 Y1.6269 Z-0.3623
N520 X4.7965 Y1.6875 Z-0.3558
N521 X4.9015 Y1.7481 Z-0.3476
N522 X5.0063 Y1.8086 Z-0.338
N523 X5.111 Y1.8691 Z-0.3269
N524 X5.2156 Y1.9295 Z-0.3143
N525 X5.3201 Y1.9898 Z-0.3
N526 X5.4113 Y2.0425 Z-0.2863
N527 X5.5154 Y2.1026 Z-0.2692
N528 X5.6063 Y2.1551 Z-0.2529
N529 X5.6971 Y2.2075 Z-0.2353
N530 X5.7876 Y2.2597 Z-0.2165
N531 X5.878 Y2.3119 Z-0.1964
N532 X5.9681 Y2.3639 Z-0.175
N533 X6.058 Y2.4158 Z-0.1523
N534 X6.1476 Y2.4676 Z-0.1282
N535 X6.1504 Y2.4692 Z-0.1255 F24
N536 X6.1528 Y2.4706 Z-0.1224
N537 X6.1549 Y2.4718 Z-0.119
N538 X6.1565 Y2.4727 Z-0.1152
N539 X6.1577 Y2.4734 Z-0.1113
N540 X6.1585 Y2.4738 Z-0.1072
N541 X6.1587 Y2.474 Z-0.103
N542 G0 Z0.2
N543 X5.8678 Y2.6523
N544 Z0.0577
N545 G1 Z0.0075 F24
N546 X5.8675 Y2.6521 Z0.0021
N547 X5.8668 Y2.6517 Z-0.0033
N548 X5.8655 Y2.651 Z-0.0085
N549 X5.8638 Y2.65 Z-0.0135
N550 X5.8616 Y2.6487 Z-0.0183
N551 X5.859 Y2.6472 Z-0.0228
N552 X5.856 Y2.6454 Z-0.0269
N553 X5.8526 Y2.6435 Z-0.0306
N554 X5.8488 Y2.6413 Z-0.0339
N555 X5.8448 Y2.639 Z-0.0367
N556 X5.8406 Y2.6366 Z-0.039
N557 X5.8362 Y2.634 Z-0.0407
N558 X5.7476 Y2.5829 Z-0.0693 F60
N559 X5.6586 Y2.5315 Z-0.0965
N560 X5.5694 Y2.48 Z-0.1223
N561 X5.4798 Y2.4283 Z-0.1467
N562 X5.39 Y2.3764 Z-0.1697
N563 X5.2999 Y2.3244 Z-0.1914
N564 X5.2096 Y2.2723 Z-0.2118
N565 X5.1191 Y2.22 Z-0.2309
N566 X5.0284 Y2.1677 Z-0.2488
N567 X4.9375 Y2.1152 Z-0.2654
N568 X4.8335 Y2.0551 Z-0.2829
N569 X4.7423 Y2.0025 Z-0.2968
N570 X4.6509 Y1.9497 Z-0.3096
N571 X4.5464 Y1.8894 Z-0.3228
N572 X4.4548 Y1.8365 Z-0.3331
N573 X4.3631 Y1.7835 Z-0.3422
N574 X4.2582 Y1.723 Z-0.3512
N575 X4.1664 Y1.67 Z-0.3578
N576 X4.0745 Y1.6169 Z-0.3633
N577 X3.9694 Y1.5562 Z-0.3682
N578 X3.857 Y1.4914 Z-0.3717
N579 X3.7564 Y1.4333 Z-0.3735
N580 X3.6491 Y1.3713 Z-0.3739
N581 X3.545 Y1.3112 Z-0.3729
N582 X3.4341 Y1.2472 Z-0.3701
N583 X3.3329 Y1.1888 Z-0.3662
N584 X3.2319 Y1.1304 Z-0.3609
N585 X3.1309 Y1.0721 Z-0.3542
N586 X3.0418 Y1.0207 Z-0.3472
N587 X2.9527 Y0.9693 Z-0.3391
N588 X2.852 Y0.9111 Z-0.3286
N589 X2.7644 Y0.8605 Z-0.3182
N590 X2.6756 Y0.8093 Z-0.3067
N591 X2.5752 Y0.7513 Z-0.2923
N592 X2.475 Y0.6935 Z-0.2763
N593 X2.3867 Y0.6424 Z-0.2611
N594 X2.2868 Y0.5848 Z-0.2424
N595 X2.2001 Y0.5347 Z-0.2249
N596 X2.1252 Y0.4915 Z-0.2088
N597 X2.0504 Y0.4483 Z-0.1918
N598 X1.9629 Y0.3978 Z-0.1708
N599 X1.8654 Y0.3415 Z-0.1458
N600 X1.7913 Y0.2987 Z-0.1257
N601 X1.73 Y0.2633 Z-0.1083
N602 X1.6562 Y0.2207 Z-0.0864
N603 X1.5953 Y0.1855 Z-0.0676
N604 X1.5345 Y0.1505 Z-0.048
N605 X1.4789 Y0.1184 Z-0.0298
N606 X1.4535 Y0.1037 Z-0.0225
N607 X1.4278 Y0.0888 Z-0.0163
N608 X1.4019 Y0.0739 Z-0.0112
N609 X1.3759 Y0.0589 Z-0.007
N610 X1.3498 Y0.0438 Z-0.0039
N611 X1.3236 Y0.0287 Z-0.0016
N612 X1.2973 Y0.0135 Z-0.0004
N613 X1.2739 Y0 Z0
N614 X1.2707 Y-0.0018 Z0.0003
N615 X1.2676 Y-0.0036 Z0.0012
N616 X1.2647 Y-0.0053 Z0.0025
N617 X1.2616 Y-0.0071 Z0.004
N618 X1.2584 Y-0.0089 Z0.0048
N619 X1.2551 Y-0.0108 Z0.0051
N620 X0.8053 Y-0.2705
N621 G2 X0.7029 Y-0.2431 I-0.0375 J0.065
N622 G1 X0.6279 Y-0.1133
N623 G2 X0.6554 Y-0.0108 I0.065 J0.0375
N624 G1 X0.6587 Y-0.009 Z0.0048
N625 X0.6619 Y-0.0071 Z0.004
N626 X0.6649 Y-0.0053 Z0.0025
N627 X0.6679 Y-0.0036 Z0.0012
N628 X0.671 Y-0.0018 Z0.0003
N629 X0.6742 Y0 Z0
N630 X0.6963 Y0.0128 Z-0.0003
N631 X0.7225 Y0.0279 Z-0.0016
N632 X0.7487 Y0.0431 Z-0.0037
N633 X0.7749 Y0.0581 Z-0.0069
N634 X0.8009 Y0.0732 Z-0.0109
N635 X0.8268 Y0.0881 Z-0.016
N636 X0.8525 Y0.1029 Z-0.0222
N637 X0.8779 Y0.1176 Z-0.0294
N638 X0.9335 Y0.1497 Z-0.0476
N639 X0.9943 Y0.1848 Z-0.0672
N640 X1.0565 Y0.2207 Z-0.0864
N641 X1.1316 Y0.2641 Z-0.1087
N642 X1.1929 Y0.2995 Z-0.126
N643 X1.2556 Y0.3357 Z-0.1431
N644 X1.3299 Y0.3786 Z-0.1625
N645 X1.3916 Y0.4142 Z-0.1778
N646 X1.4662 Y0.4573 Z-0.1954
N647 X1.541 Y0.5005 Z-0.2122
N648 X1.6392 Y0.5572 Z-0.2329
N649 X1.7273 Y0.608 Z-0.2501
N650 X1.8026 Y0.6515 Z-0.2639
N651 X1.878 Y0.695 Z-0.2768
N652 X1.9782 Y0.7529 Z-0.2927
N653 X2.0786 Y0.8108 Z-0.3071
N654 X2.1674 Y0.8621 Z-0.3186
N655 X2.2549 Y0.9127 Z-0.3289
N656 X2.3557 Y0.9708 Z-0.3394
N657 X2.4448 Y1.0222 Z-0.3474
N658 X2.5339 Y1.0737 Z-0.3544
N659 X2.6349 Y1.132 Z-0.3611
N660 X2.7359 Y1.1904 Z-0.3663
N661 X2.837 Y1.2487 Z-0.3702
N662 X2.948 Y1.3128 Z-0.3729
N663 X3.0486 Y1.3709 Z-0.3739
N664 X3.1514 Y1.4302 Z-0.3736
N665 X3.252 Y1.4883 Z-0.3719
N666 X3.358 Y1.5495 Z-0.3686
N667 X3.4617 Y1.6094 Z-0.364
N668 X3.5536 Y1.6624 Z-0.3586
N669 X3.6455 Y1.7155 Z-0.3522
N670 X3.7504 Y1.776 Z-0.3434
N671 X3.8421 Y1.829 Z-0.3344
N672 X3.9337 Y1.8819 Z-0.3243
N673 X4.0382 Y1.9422 Z-0.3114
N674 X4.1296 Y1.995 Z-0.2987
N675 X4.2208 Y2.0476 Z-0.2849
N676 X4.3249 Y2.1077 Z-0.2676
N677 X4.4158 Y2.1602 Z-0.2512
N678 X4.5065 Y2.2126 Z-0.2335
N679 X4.61 Y2.2723 Z-0.2118
N680 X4.7003 Y2.3245 Z-0.1914
N681 X4.7904 Y2.3765 Z-0.1697
N682 X4.8802 Y2.4283 Z-0.1466
N683 X4.9697 Y2.48 Z-0.1222
N684 X5.059 Y2.5316 Z-0.0965
N685 X5.1479 Y2.5829 Z-0.0693
N686 X5.2365 Y2.6341 Z-0.0407
N687 X5.2386 Y2.6353 Z-0.0399
N688 X5.2412 Y2.6369 Z-0.0386
N689 X5.2438 Y2.6386 Z-0.0373
N690 X5.2463 Y2.6404 Z-0.0359
N691 X5.2487 Y2.6423 Z-0.0344
N692 X5.2509 Y2.6442 Z-0.0328
N693 X5.2531 Y2.6463 Z-0.0312
N694 X5.2551 Y2.6484 Z-0.0296
N695 X5.257 Y2.6506 Z-0.0279
N696 X5.2588 Y2.6528 Z-0.0261
N697 X5.2604 Y2.6551 Z-0.0243
N698 X5.2619 Y2.6575 Z-0.0225
N699 X5.2633 Y2.6599 Z-0.0206
N700 X5.2646 Y2.6624 Z-0.0186
N701 X5.2657 Y2.6649 Z-0.0167
N702 X5.2666 Y2.6674 Z-0.0147
N703 X5.2674 Y2.67 Z-0.0127
N704 X5.2681 Y2.6726 Z-0.0107
N705 X5.2686 Y2.6752 Z-0.0086
N706 X5.269 Y2.6779 Z-0.0065
N707 X5.2692 Y2.6805 Z-0.0045
N708 Y2.6831 Z-0.0024
N709 X5.2691 Y2.6858 Z-0.0003
N710 X5.2689 Y2.6884 Z0.0017
N711 X5.2685 Y2.6911 Z0.0038
N712 X5.268 Y2.6937 Z0.0059
N713 X5.2673 Y2.6963 Z0.0079
N714 X5.2664 Y2.6989 Z0.0099
N715 X5.2655 Y2.7014 Z0.0119
N716 X5.2643 Y2.7039 Z0.0138
N717 X5.2631 Y2.7063 Z0.0157
N718 X5.2617 Y2.7088 Z0.0176
N719 X5.2601 Y2.7111 Z0.0195
N720 X5.2585 Y2.7134 Z0.0213
N721 X5.2566 Y2.7157 Z0.023
N722 X5.2547 Y2.7178 Z0.0247
N723 X5.1338 Y2.8478 Z0.1264
N724 X5.1317 Y2.8499 Z0.128
N725 X5.1296 Y2.8519 Z0.1296
N726 X5.1273 Y2.8539 Z0.1311
N727 X5.1249 Y2.8557 Z0.1326
N728 X5.1224 Y2.8575 Z0.134
N729 X5.1198 Y2.8592 Z0.1353
N730 X5.1171 Y2.8608 Z0.1366
N731 X5.1144 Y2.8623 Z0.1377
N732 X5.1115 Y2.8637 Z0.1388
N733 X5.1086 Y2.865 Z0.1398
N734 X5.1056 Y2.8662 Z0.1408
N735 X5.1025 Y2.8673 Z0.1416
N736 X5.0994 Y2.8682 Z0.1424
N737 X5.0962 Y2.8691 Z0.1431
N738 X5.0929 Y2.8699 Z0.1437
N739 X5.0897 Y2.8705 Z0.1441
N740 X5.0864 Y2.871 Z0.1446
N741 X5.0831 Y2.8714 Z0.1449
N742 X5.0797 Y2.8717 Z0.1451
N743 X5.0763 Y2.8719 Z0.1452
N744 X5.073 Z0.1453
N745 X5.0696 Z0.1452
N746 X5.0663 Y2.8717 Z0.1451
N747 X5.0629 Y2.8714 Z0.1448
N748 X5.0596 Y2.8709 Z0.1445
N749 X5.0563 Y2.8704 Z0.1441
N750 X5.053 Y2.8697 Z0.1435
N751 X5.0498 Y2.869 Z0.1429
N752 X5.0466 Y2.8681 Z0.1422
N753 X5.0435 Y2.8671 Z0.1415
N754 X5.0405 Y2.866 Z0.1406
N755 X5.0375 Y2.8647 Z0.1397
N756 X5.0346 Y2.8634 Z0.1386
N757 X5.0317 Y2.862 Z0.1375
N758 X5.029 Y2.8605 Z0.1363
N759 X4.639 Y2.6353 Z-0.0398
N760 X4.6369 Y2.6342 Z-0.0406
N761 X4.5483 Y2.583 Z-0.0692
N762 X4.4594 Y2.5316 Z-0.0964
N763 X4.3701 Y2.4801 Z-0.1222
N764 X4.2805 Y2.4284 Z-0.1466
N765 X4.1907 Y2.3765 Z-0.1696
N766 X4.1006 Y2.3245 Z-0.1913
N767 X4.0104 Y2.2724 Z-0.2117
N768 X3.9069 Y2.2127 Z-0.2335
N769 X3.8162 Y2.1603 Z-0.2512
N770 X3.7253 Y2.1078 Z-0.2676
N771 X3.6212 Y2.0477 Z-0.2849
N772 X3.5299 Y1.995 Z-0.2987
N773 X3.4386 Y1.9423 Z-0.3114
N774 X3.334 Y1.8819 Z-0.3243
N775 X3.2424 Y1.829 Z-0.3344
N776 X3.1507 Y1.7761 Z-0.3434
N777 X3.0458 Y1.7155 Z-0.3522
N778 X2.954 Y1.6625 Z-0.3586
N779 X2.8621 Y1.6094 Z-0.364
N780 X2.757 Y1.5488 Z-0.3687
N781 X2.6577 Y1.4915 Z-0.3717
N782 X2.5571 Y1.4334 Z-0.3735
N783 X2.4516 Y1.3724 Z-0.3739
N784 X2.351 Y1.3144 Z-0.3729
N785 X2.2519 Y1.2572 Z-0.3707
N786 X2.152 Y1.1995 Z-0.367
N787 X2.0627 Y1.1479 Z-0.3626
N788 X1.9604 Y1.0888 Z-0.3563
N789 X1.8608 Y1.0313 Z-0.3487
N790 X1.7717 Y0.9799 Z-0.3408
N791 X1.6827 Y0.9285 Z-0.3319
N792 X1.582 Y0.8704 Z-0.3204
N793 X1.4946 Y0.8199 Z-0.3092
N794 X1.4059 Y0.7687 Z-0.2967
N795 X1.3043 Y0.71 Z-0.2811
N796 X1.2172 Y0.6598 Z-0.2664
N797 X1.1406 Y0.6155 Z-0.2525
N798 X1.0654 Y0.5721 Z-0.2381
N799 X1.002 Y0.5355 Z-0.2252
N800 X0.9257 Y0.4915 Z-0.2088
N801 X0.8497 Y0.4476 Z-0.1915
N802 X0.7622 Y0.3971 Z-0.1705
N803 X0.6749 Y0.3467 Z-0.1482
N804 X0.6007 Y0.3038 Z-0.1282
N805 X0.5254 Y0.2604 Z-0.1068
N806 X0.4643 Y0.2251 Z-0.0887
N807 X0.3894 Y0.1818 Z-0.0655
N808 X0.3274 Y0.146 Z-0.0455
N809 X0.2838 Y0.1209 Z-0.0312
N810 X0.259 Y0.1066 Z-0.0238
N811 X0.2334 Y0.0918 Z-0.0174
N812 X0.2075 Y0.0768 Z-0.0121
N813 X0.1815 Y0.0618 Z-0.0078
N814 X0.1554 Y0.0468 Z-0.0044
N815 X0.1292 Y0.0316 Z-0.002
N816 X0.103 Y0.0165 Z-0.0005
N817 X0.0744 Y0 Z0
N818 X0.0696 Y-0.0028 Z0.0004 F24
N819 X0.0649 Y-0.0055 Z0.0014
N820 X0.0603 Y-0.0081 Z0.003
N821 X0.0559 Y-0.0107 Z0.0052
N822 X0.0517 Y-0.0131 Z0.0079
N823 X0.0478 Y-0.0154 Z0.0112
N824 X0.0443 Y-0.0174 Z0.0149
N825 X0.0411 Y-0.0192 Z0.0191
N826 X0.0384 Y-0.0208 Z0.0236
N827 X0.0361 Y-0.0222 Z0.0285
N828 X0.0342 Y-0.0232 Z0.0336
N829 X0.0329 Y-0.024 Z0.039
N830 X0.0321 Y-0.0244 Z0.0445
N831 X0.0319 Y-0.0246 Z0.05
N832 G0 Z0.2
N833 X-0.0334 Y0.284
N834 Z-0.031
N835 G1 Z-0.0792 F24
N836 X-0.0331 Y0.2842 Z-0.0848
N837 X-0.0323 Y0.2846 Z-0.0903
N838 X-0.031 Y0.2854 Z-0.0956
N839 X-0.0291 Y0.2865 Z-0.1008
N840 X-0.0268 Y0.2878 Z-0.1057
N841 X-0.024 Y0.2894 Z-0.1103
N842 X-0.0208 Y0.2913 Z-0.1144
N843 X-0.0172 Y0.2933 Z-0.1182
N844 X-0.0133 Y0.2956 Z-0.1214
N845 X-0.0091 Y0.298 Z-0.1241
N846 X-0.0046 Y0.3006 Z-0.1263
N847 X0 Y0.3033 Z-0.1279
N848 X0.0572 Y0.3363 Z-0.1434 F60
N849 X0.1328 Y0.38 Z-0.1631
N850 X0.2086 Y0.4237 Z-0.1818
N851 X0.2962 Y0.4743 Z-0.2022
N852 X0.3854 Y0.5258 Z-0.2216
N853 X0.4617 Y0.5699 Z-0.2373
N854 X0.5382 Y0.614 Z-0.252
N855 X0.6148 Y0.6582 Z-0.2659
N856 X0.6902 Y0.7018 Z-0.2787
N857 X0.7787 Y0.7529 Z-0.2927
N858 X0.8818 Y0.8124 Z-0.3074
N859 X0.9589 Y0.8569 Z-0.3174
N860 X1.0347 Y0.9006 Z-0.3265
N861 X1.1105 Y0.9444 Z-0.3347
N862 X1.2113 Y1.0026 Z-0.3445
N863 X1.3136 Y1.0617 Z-0.3529
N864 X1.4027 Y1.1132 Z-0.3591
N865 X1.5024 Y1.1707 Z-0.3648
N866 X1.6049 Y1.2298 Z-0.3691
N867 X1.6952 Y1.282 Z-0.3718
N868 X1.7875 Y1.3353 Z-0.3735
N869 X1.8972 Y1.3986 Z-0.3739
N870 X1.9911 Y1.4529 Z-0.373
N871 X2.0916 Y1.5109 Z-0.3709
N872 X2.1968 Y1.5716 Z-0.367
N873 X2.2888 Y1.6247 Z-0.3625
N874 X2.3807 Y1.6778 Z-0.3569
N875 X2.4856 Y1.7383 Z-0.349
N876 X2.5774 Y1.7913 Z-0.3409
N877 X2.669 Y1.8442 Z-0.3317
N878 X2.7737 Y1.9047 Z-0.3196
N879 X2.8651 Y1.9575 Z-0.3078
N880 X2.9565 Y2.0102 Z-0.2949
N881 X3.0607 Y2.0704 Z-0.2786
N882 X3.1517 Y2.1229 Z-0.263
N883 X3.2426 Y2.1754 Z-0.2462
N884 X3.3462 Y2.2352 Z-0.2255
N885 X3.4366 Y2.2874 Z-0.206
N886 X3.5269 Y2.3395 Z-0.1852
N887 X3.6169 Y2.3915 Z-0.1631
N888 X3.7066 Y2.4433 Z-0.1397
N889 X3.7961 Y2.495 Z-0.1149
N890 X3.8852 Y2.5464 Z-0.0887
N891 X3.9614 Y2.5904 Z-0.0652
N892 X4.0374 Y2.6343 Z-0.0405
N893 X4.0394 Y2.6355 Z-0.0397
N894 X4.0421 Y2.6371 Z-0.0385
N895 X4.0447 Y2.6388 Z-0.0371
N896 X4.0472 Y2.6406 Z-0.0357
N897 X4.0495 Y2.6425 Z-0.0342
N898 X4.0518 Y2.6444 Z-0.0327
N899 X4.0539 Y2.6465 Z-0.0311
N900 X4.056 Y2.6486 Z-0.0294
N901 X4.0579 Y2.6508 Z-0.0277
N902 X4.0596 Y2.653 Z-0.026
N903 X4.0613 Y2.6553 Z-0.0242
N904 X4.0628 Y2.6577 Z-0.0223
N905 X4.0642 Y2.6601 Z-0.0204
N906 X4.0654 Y2.6626 Z-0.0185
N907 X4.0665 Y2.6651 Z-0.0165
N908 X4.0675 Y2.6676 Z-0.0145
N909 X4.0683 Y2.6702 Z-0.0125
N910 X4.0689 Y2.6728 Z-0.0105
N911 X4.0694 Y2.6754 Z-0.0084
N912 X4.0698 Y2.678 Z-0.0063
N913 X4.07 Y2.6807 Z-0.0043
N914 X4.0701 Y2.6833 Z-0.0022
N915 X4.07 Y2.686 Z-0.0001
N916 X4.0697 Y2.6886 Z0.002
N917 X4.0693 Y2.6912 Z0.004
N918 X4.0688 Y2.6938 Z0.0061
N919 X4.0681 Y2.6964 Z0.0081
N920 X4.0673 Y2.699 Z0.0101
N921 X4.0663 Y2.7015 Z0.0121
N922 X4.0652 Y2.704 Z0.0141
N923 X4.0639 Y2.7065 Z0.016
N924 X4.0625 Y2.7089 Z0.0179
N925 X4.0609 Y2.7112 Z0.0197
N926 X4.0593 Y2.7135 Z0.0215
N927 X4.0575 Y2.7158 Z0.0233
N928 X4.0555 Y2.7179 Z0.025
N929 X3.9344 Y2.8479 Z0.1269
N930 X3.9323 Y2.85 Z0.1285
N931 X3.9302 Y2.852 Z0.1301
N932 X3.9279 Y2.8539 Z0.1316
N933 X3.9255 Y2.8558 Z0.1331
N934 X3.923 Y2.8576 Z0.1345
N935 X3.9204 Y2.8593 Z0.1358
N936 X3.9177 Y2.8609 Z0.1371
N937 X3.9149 Y2.8624 Z0.1382
N938 X3.9121 Y2.8638 Z0.1393
N939 X3.9092 Y2.865 Z0.1403
N940 X3.9061 Y2.8662 Z0.1413
N941 X3.9031 Y2.8673 Z0.1421
N942 X3.8999 Y2.8683 Z0.1429
N943 X3.8968 Y2.8692 Z0.1436
N944 X3.8935 Y2.8699 Z0.1442
N945 X3.8903 Y2.8705 Z0.1447
N946 X3.887 Y2.8711 Z0.1451
N947 X3.8836 Y2.8715 Z0.1454
N948 X3.8803 Y2.8718 Z0.1456
N949 X3.8769 Y2.8719 Z0.1457
N950 X3.8736 Y2.872 Z0.1458
N951 X3.8702 Y2.8719 Z0.1457
N952 X3.8668 Y2.8717 Z0.1456
N953 X3.8635 Y2.8714 Z0.1453
N954 X3.8602 Y2.871 Z0.145
N955 X3.8569 Y2.8704 Z0.1446
N956 X3.8536 Y2.8698 Z0.144
N957 X3.8504 Y2.869 Z0.1434
N958 X3.8472 Y2.8681 Z0.1427
N959 X3.8441 Y2.8671 Z0.142
N960 X3.8411 Y2.866 Z0.1411
N961 X3.8381 Y2.8648 Z0.1401
N962 X3.8352 Y2.8635 Z0.1391
N963 X3.8323 Y2.8621 Z0.138
N964 X3.8296 Y2.8605 Z0.1368
N965 X3.44 Y2.6356 Z-0.0396
N966 X3.4379 Y2.6344 Z-0.0404
N967 X3.362 Y2.5906 Z-0.065
N968 X3.2858 Y2.5466 Z-0.0886
N969 X3.1966 Y2.4951 Z-0.1149
N970 X3.1072 Y2.4435 Z-0.1396
N971 X3.0303 Y2.3991 Z-0.1598
N972 X2.9403 Y2.3471 Z-0.1821
N973 X2.8501 Y2.2951 Z-0.2031
N974 X2.7597 Y2.2429 Z-0.2227
N975 X2.682 Y2.198 Z-0.2385
N976 X2.5913 Y2.1456 Z-0.2559
N977 X2.5003 Y2.0931 Z-0.272
N978 X2.4092 Y2.0405 Z-0.2868
N979 X2.331 Y1.9953 Z-0.2986
N980 X2.2396 Y1.9426 Z-0.3113
N981 X2.1351 Y1.8822 Z-0.3243
N982 X2.0565 Y1.8369 Z-0.333
N983 X1.9649 Y1.784 Z-0.3421
N984 X1.86 Y1.7234 Z-0.3511
N985 X1.7681 Y1.6704 Z-0.3577
N986 X1.6894 Y1.6249 Z-0.3625
N987 X1.5974 Y1.5718 Z-0.367
N988 X1.4923 Y1.5111 Z-0.3709
N989 X1.3918 Y1.4531 Z-0.373
N990 X1.3046 Y1.4028 Z-0.3739
N991 X1.2039 Y1.3446 Z-0.3737
N992 X1.1045 Y1.2872 Z-0.372
N993 X1.0206 Y1.2388 Z-0.3696
N994 X0.9445 Y1.1948 Z-0.3666
N995 X0.8683 Y1.1509 Z-0.3629
N996 X0.7778 Y1.0986 Z-0.3574
N997 X0.6755 Y1.0395 Z-0.3499
N998 X0.5864 Y0.9881 Z-0.3422
N999 X0.496 Y0.9359 Z-0.3332
N1000 X0.4058 Y0.8838 Z-0.3231
N1001 X0.3039 Y0.825 Z-0.3103
N1002 X0.2269 Y0.7805 Z-0.2997
N1003 X0.15 Y0.7361 Z-0.2882
N1004 X0.0732 Y0.6918 Z-0.2758
N1005 X0 Y0.6495 Z-0.2632
N1006 X-0.0046 Y0.6469 Z-0.2621 F24
N1007 X-0.0091 Y0.6443 Z-0.2605
N1008 X-0.0135 Y0.6418 Z-0.2582
N1009 X-0.0176 Y0.6394 Z-0.2555
N1010 X-0.0214 Y0.6372 Z-0.2522
N1011 X-0.0248 Y0.6352 Z-0.2485
N1012 X-0.0279 Y0.6334 Z-0.2443
N1013 X-0.0306 Y0.6319 Z-0.2398
N1014 X-0.0328 Y0.6306 Z-0.235
N1015 X-0.0346 Y0.6296 Z-0.2299
N1016 X-0.0359 Y0.6288 Z-0.2247
N1017 X-0.0367 Y0.6284 Z-0.2193
N1018 X-0.0369 Y0.6282 Z-0.2138
N1019 G0 Z0.2
N1020 X-0.0401 Y0.9727
N1021 Z-0.261
N1022 G1 Z-0.2935 F24
N1023 X-0.0398 Y0.9728 Z-0.2989
N1024 X-0.0391 Y0.9732 Z-0.3041
N1025 X-0.0379 Y0.9739 Z-0.3093
N1026 X-0.0362 Y0.9749 Z-0.3143
N1027 X-0.034 Y0.9761 Z-0.319
N1028 X-0.0315 Y0.9776 Z-0.3235
N1029 X-0.0285 Y0.9793 Z-0.3276
N1030 X-0.0252 Y0.9812 Z-0.3313
N1031 X-0.0215 Y0.9834 Z-0.3346
N1032 X-0.0176 Y0.9856 Z-0.3374
N1033 X-0.0134 Y0.988 Z-0.3397
N1034 X-0.0091 Y0.9905 Z-0.3415
N1035 X-0.0046 Y0.9931 Z-0.3427
N1036 X0 Y0.9958 Z-0.3434
N1037 X0.0743 Y1.0387 Z-0.3498 F60
N1038 X0.1766 Y1.0978 Z-0.3573
N1039 X0.2672 Y1.15 Z-0.3628
N1040 X0.3446 Y1.1948 Z-0.3666
N1041 X0.4222 Y1.2395 Z-0.3697
N1042 X0.5075 Y1.2888 Z-0.3721
N1043 X0.6136 Y1.3501 Z-0.3737
N1044 X0.7065 Y1.4037 Z-0.3739
N1045 X0.787 Y1.4502 Z-0.3731
N1046 X0.8742 Y1.5005 Z-0.3713
N1047 X0.9848 Y1.5644 Z-0.3676
N1048 X1.0767 Y1.6175 Z-0.3632
N1049 X1.1555 Y1.6629 Z-0.3585
N1050 X1.2342 Y1.7084 Z-0.3531
N1051 X1.3129 Y1.7538 Z-0.3467
N1052 X1.3916 Y1.7992 Z-0.3396
N1053 X1.4963 Y1.8597 Z-0.3287
N1054 X1.5878 Y1.9125 Z-0.3179
N1055 X1.6662 Y1.9578 Z-0.3077
N1056 X1.7575 Y2.0105 Z-0.2948
N1057 X1.8487 Y2.0632 Z-0.2806
N1058 X1.9398 Y2.1157 Z-0.2652
N1059 X2.0177 Y2.1607 Z-0.251
N1060 X2.0955 Y2.2056 Z-0.2359
N1061 X2.1731 Y2.2504 Z-0.2199
N1062 X2.2635 Y2.3026 Z-0.2001
N1063 X2.3536 Y2.3547 Z-0.1789
N1064 X2.4307 Y2.3992 Z-0.1597
N1065 X2.5076 Y2.4436 Z-0.1395
N1066 X2.5971 Y2.4952 Z-0.1148
N1067 X2.6863 Y2.5467 Z-0.0886
N1068 X2.7624 Y2.5907 Z-0.065
N1069 X2.8384 Y2.6346 Z-0.0403
N1070 X2.8405 Y2.6357 Z-0.0395
N1071 X2.8431 Y2.6374 Z-0.0383
N1072 X2.8457 Y2.6391 Z-0.0369
N1073 X2.8482 Y2.6409 Z-0.0355
N1074 X2.8505 Y2.6427 Z-0.0341
N1075 X2.8528 Y2.6447 Z-0.0325
N1076 X2.8549 Y2.6467 Z-0.0309
N1077 X2.857 Y2.6489 Z-0.0293
N1078 X2.8589 Y2.651 Z-0.0275
N1079 X2.8607 Y2.6533 Z-0.0258
N1080 X2.8623 Y2.6556 Z-0.024
N1081 X2.8638 Y2.658 Z-0.0221
N1082 X2.8652 Y2.6604 Z-0.0202
N1083 X2.8664 Y2.6628 Z-0.0183
N1084 X2.8675 Y2.6653 Z-0.0163
N1085 X2.8685 Y2.6679 Z-0.0143
N1086 X2.8693 Y2.6705 Z-0.0123
N1087 X2.8699 Y2.673 Z-0.0103
N1088 X2.8705 Y2.6757 Z-0.0082
N1089 X2.8708 Y2.6783 Z-0.0062
N1090 X2.871 Y2.6809 Z-0.0041
N1091 X2.8711 Y2.6836 Z-0.002
N1092 X2.871 Y2.6862 Z0.0001
N1093 X2.8708 Y2.6889 Z0.0021
N1094 X2.8704 Y2.6915 Z0.0042
N1095 X2.8698 Y2.6941 Z0.0063
N1096 X2.8691 Y2.6967 Z0.0083
N1097 X2.8683 Y2.6993 Z0.0103
N1098 X2.8673 Y2.7018 Z0.0123
N1099 X2.8662 Y2.7043 Z0.0142
N1100 X2.8649 Y2.7068 Z0.0162
N1101 X2.8635 Y2.7092 Z0.0181
N1102 X2.862 Y2.7115 Z0.0199
N1103 X2.8603 Y2.7138 Z0.0217
N1104 X2.8585 Y2.7161 Z0.0235
N1105 X2.8566 Y2.7182 Z0.0252
N1106 X2.7354 Y2.8481 Z0.1271
N1107 X2.7333 Y2.8502 Z0.1287
N1108 X2.7312 Y2.8523 Z0.1303
N1109 X2.7289 Y2.8542 Z0.1318
N1110 X2.7265 Y2.8561 Z0.1333
N1111 X2.724 Y2.8578 Z0.1347
N1112 X2.7214 Y2.8595 Z0.136
N1113 X2.7187 Y2.8611 Z0.1373
N1114 X2.7159 Y2.8626 Z0.1384
N1115 X2.7131 Y2.864 Z0.1395
N1116 X2.7101 Y2.8653 Z0.1406
N1117 X2.7071 Y2.8665 Z0.1415
N1118 X2.7041 Y2.8676 Z0.1423
N1119 X2.7009 Y2.8686 Z0.1431
N1120 X2.6978 Y2.8694 Z0.1438
N1121 X2.6945 Y2.8702 Z0.1444
N1122 X2.6913 Y2.8708 Z0.1449
N1123 X2.688 Y2.8713 Z0.1453
N1124 X2.6846 Y2.8717 Z0.1456
N1125 X2.6813 Y2.872 Z0.1458
N1126 X2.6779 Y2.8722 Z0.1459
N1127 X2.6746 Z0.146
N1128 X2.6712 Z0.1459
N1129 X2.6678 Y2.872 Z0.1458
N1130 X2.6645 Y2.8717 Z0.1455
N1131 X2.6612 Y2.8712 Z0.1452
N1132 X2.6579 Y2.8707 Z0.1448
N1133 X2.6546 Y2.87 Z0.1443
N1134 X2.6514 Y2.8693 Z0.1436
N1135 X2.6482 Y2.8684 Z0.143
N1136 X2.6451 Y2.8674 Z0.1422
N1137 X2.6421 Y2.8663 Z0.1413
N1138 X2.6391 Y2.8651 Z0.1403
N1139 X2.6361 Y2.8637 Z0.1393
N1140 X2.6333 Y2.8623 Z0.1382
N1141 X2.6305 Y2.8608 Z0.137
N1142 X2.241 Y2.6359 Z-0.0395
N1143 X2.2389 Y2.6347 Z-0.0402
N1144 X2.163 Y2.5909 Z-0.0649
N1145 X2.0868 Y2.5469 Z-0.0885
N1146 X1.9977 Y2.4954 Z-0.1147
N1147 X1.9082 Y2.4438 Z-0.1394
N1148 X1.8313 Y2.3994 Z-0.1596
N1149 X1.7542 Y2.3548 Z-0.1788
N1150 X1.664 Y2.3028 Z-0.2
N1151 X1.5737 Y2.2506 Z-0.2199
N1152 X1.496 Y2.2058 Z-0.2358
N1153 X1.4182 Y2.1609 Z-0.2509
N1154 X1.3403 Y2.1159 Z-0.2651
N1155 X1.2493 Y2.0633 Z-0.2806
N1156 X1.1581 Y2.0107 Z-0.2947
N1157 X1.0668 Y1.958 Z-0.3077
N1158 X0.9884 Y1.9127 Z-0.3179
N1159 X0.8969 Y1.8599 Z-0.3287
N1160 X0.7921 Y1.7994 Z-0.3395
N1161 X0.7135 Y1.754 Z-0.3467
N1162 X0.6348 Y1.7086 Z-0.353
N1163 X0.5561 Y1.6631 Z-0.3585
N1164 X0.4773 Y1.6176 Z-0.3632
N1165 X0.3854 Y1.5645 Z-0.3676
N1166 X0.2799 Y1.5037 Z-0.3712
N1167 X0.1927 Y1.4533 Z-0.373
N1168 X0.1055 Y1.403 Z-0.3739
N1169 X0.0153 Y1.3509 Z-0.3737
N1170 X0 Y1.3421 Z-0.3736
N1171 X-0.0048 Y1.3393 Z-0.3733 F24
N1172 X-0.0096 Y1.3365 Z-0.3723
N1173 X-0.0142 Y1.3338 Z-0.3707
N1174 X-0.0187 Y1.3313 Z-0.3686
N1175 X-0.0229 Y1.3288 Z-0.3659
N1176 X-0.0269 Y1.3265 Z-0.3626
N1177 X-0.0305 Y1.3245 Z-0.3589
N1178 X-0.0337 Y1.3226 Z-0.3547
N1179 X-0.0365 Y1.321 Z-0.3501
N1180 X-0.0388 Y1.3196 Z-0.3452
N1181 X-0.0407 Y1.3186 Z-0.3401
N1182 X-0.042 Y1.3178 Z-0.3347
N1183 X-0.0428 Y1.3173 Z-0.3292
N1184 X-0.0431 Y1.3172 Z-0.3236
N1185 G0 Z0.2
N1186 X-0.0461 Y1.6617
N1187 Z-0.2814
N1188 G1 Z-0.3057 F24
N1189 X-0.0458 Y1.6619 Z-0.3112
N1190 X-0.045 Y1.6623 Z-0.3165
N1191 X-0.0438 Y1.663 Z-0.3218
N1192 X-0.042 Y1.6641 Z-0.3268
N1193 X-0.0398 Y1.6653 Z-0.3316
N1194 X-0.0371 Y1.6669 Z-0.3361
N1195 X-0.0341 Y1.6686 Z-0.3403
N1196 X-0.0306 Y1.6706 Z-0.344
N1197 X-0.0269 Y1.6728 Z-0.3473
N1198 X-0.0228 Y1.6751 Z-0.35
N1199 X-0.0185 Y1.6776 Z-0.3523
N1200 X-0.014 Y1.6802 Z-0.354
N1201 X-0.0094 Y1.6829 Z-0.3551
N1202 X-0.0047 Y1.6856 Z-0.3557
N1203 X0 Y1.6883 Z-0.3556
N1204 X0.0353 Y1.7087 Z-0.353 F60
N1205 X0.114 Y1.7541 Z-0.3467
N1206 X0.1926 Y1.7995 Z-0.3395
N1207 X0.2973 Y1.86 Z-0.3286
N1208 X0.3889 Y1.9128 Z-0.3178
N1209 X0.4672 Y1.9581 Z-0.3076
N1210 X0.5586 Y2.0108 Z-0.2947
N1211 X0.6498 Y2.0634 Z-0.2805
N1212 X0.7408 Y2.116 Z-0.2651
N1213 X0.8187 Y2.161 Z-0.2509
N1214 X0.8965 Y2.2059 Z-0.2358
N1215 X0.9741 Y2.2507 Z-0.2198
N1216 X1.0645 Y2.3029 Z-0.2
N1217 X1.1547 Y2.355 Z-0.1788
N1218 X1.2318 Y2.3995 Z-0.1596
N1219 X1.3087 Y2.4439 Z-0.1394
N1220 X1.3726 Y2.4808 Z-0.1218
N1221 X1.4364 Y2.5176 Z-0.1035
N1222 X1.5 Y2.5543 Z-0.0845
N1223 X1.5634 Y2.591 Z-0.0648
N1224 X1.6394 Y2.6348 Z-0.0402
N1225 X1.6415 Y2.636 Z-0.0394
N1226 X1.6441 Y2.6376 Z-0.0381
N1227 X1.6467 Y2.6393 Z-0.0368
N1228 X1.6492 Y2.6411 Z-0.0353
N1229 X1.6516 Y2.643 Z-0.0339
N1230 X1.6538 Y2.645 Z-0.0323
N1231 X1.656 Y2.647 Z-0.0307
N1232 X1.658 Y2.6491 Z-0.0291
N1233 X1.6599 Y2.6513 Z-0.0274
N1234 X1.6617 Y2.6536 Z-0.0256
N1235 X1.6633 Y2.6559 Z-0.0238
N1236 X1.6648 Y2.6582 Z-0.0219
N1237 X1.6662 Y2.6607 Z-0.02
N1238 X1.6674 Y2.6631 Z-0.0181
N1239 X1.6685 Y2.6656 Z-0.0161
N1240 X1.6695 Y2.6682 Z-0.0141
N1241 X1.6703 Y2.6707 Z-0.0121
N1242 X1.671 Y2.6733 Z-0.0101
N1243 X1.6715 Y2.6759 Z-0.008
N1244 X1.6718 Y2.6786 Z-0.006
N1245 X1.672 Y2.6812 Z-0.0039
N1246 X1.6721 Y2.6839 Z-0.0018
N1247 X1.672 Y2.6865 Z0.0003
N1248 X1.6718 Y2.6892 Z0.0023
N1249 X1.6714 Y2.6918 Z0.0044
N1250 X1.6708 Y2.6944 Z0.0064
N1251 X1.6701 Y2.697 Z0.0085
N1252 X1.6693 Y2.6996 Z0.0105
N1253 X1.6683 Y2.7021 Z0.0125
N1254 X1.6672 Y2.7046 Z0.0144
N1255 X1.6659 Y2.707 Z0.0164
N1256 X1.6645 Y2.7094 Z0.0183
N1257 X1.663 Y2.7118 Z0.0201
N1258 X1.6613 Y2.7141 Z0.0219
N1259 X1.6595 Y2.7163 Z0.0237
N1260 X1.6576 Y2.7185 Z0.0254
N1261 X1.5364 Y2.8484 Z0.1273
N1262 X1.5343 Y2.8505 Z0.1289
N1263 X1.5322 Y2.8525 Z0.1305
N1264 X1.5299 Y2.8545 Z0.1321
N1265 X1.5275 Y2.8563 Z0.1335
N1266 X1.525 Y2.8581 Z0.1349
N1267 X1.5224 Y2.8598 Z0.1362
N1268 X1.5197 Y2.8614 Z0.1375
N1269 X1.5169 Y2.8629 Z0.1387
N1270 X1.5141 Y2.8643 Z0.1398
N1271 X1.5111 Y2.8656 Z0.1408
N1272 X1.5081 Y2.8668 Z0.1417
N1273 X1.5051 Y2.8679 Z0.1426
N1274 X1.5019 Y2.8688 Z0.1433
N1275 X1.4987 Y2.8697 Z0.144
N1276 X1.4955 Y2.8705 Z0.1446
N1277 X1.4923 Y2.8711 Z0.1451
N1278 X1.489 Y2.8716 Z0.1455
N1279 X1.4856 Y2.872 Z0.1458
N1280 X1.4823 Y2.8723 Z0.146
N1281 X1.4789 Y2.8725 Z0.1462
N1282 X1.4756
N1283 X1.4722 Y2.8724 Z0.1461
N1284 X1.4688 Y2.8722 Z0.146
N1285 X1.4655 Y2.8719 Z0.1457
N1286 X1.4622 Y2.8715 Z0.1454
N1287 X1.4589 Y2.871 Z0.145
N1288 X1.4556 Y2.8703 Z0.1445
N1289 X1.4524 Y2.8695 Z0.1439
N1290 X1.4492 Y2.8686 Z0.1432
N1291 X1.4461 Y2.8676 Z0.1424
N1292 X1.443 Y2.8665 Z0.1415
N1293 X1.4401 Y2.8653 Z0.1406
N1294 X1.4371 Y2.864 Z0.1395
N1295 X1.4343 Y2.8626 Z0.1384
N1296 X1.4315 Y2.8611 Z0.1372
N1297 X1.042 Y2.6362 Z-0.0393
N1298 X1.0399 Y2.635 Z-0.0401
N1299 X0.964 Y2.5911 Z-0.0647
N1300 X0.9005 Y2.5545 Z-0.0844
N1301 X0.8369 Y2.5178 Z-0.1034
N1302 X0.7731 Y2.4809 Z-0.1217
N1303 X0.7092 Y2.444 Z-0.1393
N1304 X0.6323 Y2.3996 Z-0.1595
N1305 X0.5552 Y2.3551 Z-0.1787
N1306 X0.4779 Y2.3105 Z-0.1969
N1307 X0.3747 Y2.2509 Z-0.2197
N1308 X0.297 Y2.2061 Z-0.2357
N1309 X0.2192 Y2.1611 Z-0.2508
N1310 X0.1413 Y2.1162 Z-0.265
N1311 X0.0503 Y2.0636 Z-0.2805
N1312 X0 Y2.0346 Z-0.2884
N1313 X-0.0046 Y2.0319 Z-0.2888 F24
N1314 X-0.0092 Y2.0293 Z-0.2887
N1315 X-0.0138 Y2.0266 Z-0.288
N1316 X-0.0183 Y2.024 Z-0.2868
N1317 X-0.0226 Y2.0215 Z-0.285
N1318 X-0.0268 Y2.0191 Z-0.2826
N1319 X-0.0307 Y2.0168 Z-0.2798
N1320 X-0.0343 Y2.0148 Z-0.2765
N1321 X-0.0376 Y2.0128 Z-0.2728
N1322 X-0.0406 Y2.0111 Z-0.2687
N1323 X-0.0431 Y2.0097 Z-0.2643
N1324 X-0.0453 Y2.0084 Z-0.2595
N1325 X-0.047 Y2.0075 Z-0.2546
N1326 X-0.0482 Y2.0068 Z-0.2494
N1327 X-0.0489 Y2.0063 Z-0.2442
N1328 X-0.0492 Y2.0062 Z-0.2389
N1329 G0 Z0.2
N1330 X-0.0527 Y2.3504
N1331 Z-0.0984
N1332 G1 Z-0.119 F24
N1333 X-0.0524 Y2.3506 Z-0.1245
N1334 X-0.0516 Y2.351 Z-0.13
N1335 X-0.0502 Y2.3518 Z-0.1354
N1336 X-0.0484 Y2.3529 Z-0.1406
N1337 X-0.0461 Y2.3542 Z-0.1455
N1338 X-0.0433 Y2.3558 Z-0.15
N1339 X-0.0401 Y2.3577 Z-0.1542
N1340 X-0.0365 Y2.3598 Z-0.158
N1341 X-0.0325 Y2.362 Z-0.1612
N1342 X-0.0283 Y2.3645 Z-0.1639
N1343 X-0.0238 Y2.3671 Z-0.1661
N1344 X-0.0192 Y2.3697 Z-0.1677
N1345 X-0.0144 Y2.3725 Z-0.1686
N1346 X-0.0096 Y2.3753 Z-0.169
N1347 X-0.0048 Y2.3781 Z-0.1687
N1348 X0 Y2.3808 Z-0.1678
N1349 X0.0328 Y2.3998 Z-0.1594 F60
N1350 X0.1097 Y2.4442 Z-0.1392
N1351 X0.1736 Y2.4811 Z-0.1216
N1352 X0.2374 Y2.5179 Z-0.1034
N1353 X0.301 Y2.5546 Z-0.0844
N1354 X0.3645 Y2.5913 Z-0.0646
N1355 X0.4404 Y2.6351 Z-0.04
N1356 X0.4449 Y2.6377 Z-0.0382 F24
N1357 X0.4491 Y2.6401 Z-0.036
N1358 X0.4531 Y2.6424 Z-0.0332
N1359 X0.4568 Y2.6446 Z-0.0299
N1360 X0.4602 Y2.6465 Z-0.0262
N1361 X0.4632 Y2.6483 Z-0.022
N1362 X0.4659 Y2.6498 Z-0.0176
N1363 X0.468 Y2.6511 Z-0.0128
N1364 X0.4698 Y2.6521 Z-0.0078
N1365 X0.471 Y2.6528 Z-0.0026
N1366 X0.4718 Y2.6532 Z0.0028
N1367 X0.472 Y2.6534 Z0.0082
N1368 G0 Z0.6
(Parallel1 (2))
N1370 X7.9228 Y0.0978
N1371 Z0.6
N1372 Z0.0614
N1373 G1 Z0.0397 F24
N1374 X7.9226 Y0.0977 Z0.0344
N1375 X7.9219 Y0.0972 Z0.0292
N1376 X7.9206 Y0.0965 Z0.024
N1377 X7.919 Y0.0956 Z0.0191
N1378 X7.9169 Y0.0944 Z0.0144
N1379 X7.9143 Y0.0929 Z0.01
N1380 X7.9114 Y0.0912 Z0.0059
N1381 X7.9081 Y0.0893 Z0.0022
N1382 X7.9045 Y0.0872 Z-0.0011
N1383 X7.9006 Y0.085 Z-0.004
N1384 X7.8965 Y0.0826 Z-0.0063
N1385 X7.8922 Y0.0801 Z-0.0081
N1386 X7.8877 Y0.0775 Z-0.0094
N1387 X7.8832 Y0.0749 Z-0.0101
N1388 X7.8786 Y0.0723 Z-0.0103
N1389 X7.874 Y0.0696 Z-0.0099
N1390 X7.848 Y0.0546 Z-0.006 F90
N1391 X7.8218 Y0.0395 Z-0.0031
N1392 X7.7956 Y0.0243 Z-0.0012
N1393 X7.7693 Y0.0092 Z-0.0002
N1394 X7.7534 Y0 Z0
N1395 X7.7502 Y-0.0019 Z0.0003
N1396 X7.7471 Y-0.0037 Z0.0012
N1397 X7.7441 Y-0.0054 Z0.0025
N1398 X7.741 Y-0.0071 Z0.004
N1399 X7.7378 Y-0.009 Z0.0048
N1400 X7.7346 Y-0.0109 Z0.0051
N1401 X7.6447 Y-0.0628
N1402 G2 X7.6147 Y-0.0108 I-0.015 J0.026
N1403 G1 X7.618 Y-0.0089 Z0.0048
N1404 X7.6212 Y-0.0071 Z0.004
N1405 X7.6242 Y-0.0053 Z0.0025
N1406 X7.6243
N1407 X7.6272 Y-0.0036 Z0.0012
N1408 X7.6303 Y-0.0018 Z0.0003
N1409 X7.6334 Y0 Z0
N1410 X7.661 Y0.0159 Z-0.0005
N1411 X7.6872 Y0.031 Z-0.0019
N1412 X7.7134 Y0.0462 Z-0.0043
N1413 X7.7395 Y0.0612 Z-0.0076
N1414 X7.7655 Y0.0762 Z-0.0119
N1415 X7.7913 Y0.0912 Z-0.0172
N1416 X7.817 Y0.106 Z-0.0236
N1417 X7.8424 Y0.1207 Z-0.031
N1418 X7.874 Y0.1389 Z-0.0414
N1419 X7.8771 Y0.1407 Z-0.0422
N1420 X7.8803 Y0.1425 Z-0.0424
N1421 X7.8834 Y0.1443 Z-0.0421
N1422 X7.8865 Y0.1461 Z-0.0412
N1423 X7.8895 Y0.1478 Z-0.0398
N1424 X7.8925 Y0.1496 Z-0.0384
N1425 X7.8957 Y0.1514 Z-0.0376
N1426 X7.899 Y0.1533 Z-0.0373
N1427 X7.9288 Y0.1705
N1428 X7.9308 Y0.1717
N1429 X7.9327 Y0.1731 Z-0.0374
N1430 X7.9345 Y0.1745 Z-0.0376
N1431 X7.9362 Y0.176 Z-0.0379
N1432 X7.9379 Y0.1776 Z-0.0383
N1433 X7.9394 Y0.1793 Z-0.0387
N1434 X7.9409 Y0.1811 Z-0.0393
N1435 X7.9422 Y0.1829 Z-0.0398
N1436 X7.9434 Y0.1848 Z-0.0405
N1437 X7.9444 Y0.1867 Z-0.0412
N1438 X7.9454 Y0.1887 Z-0.042
N1439 X7.9462 Y0.1907 Z-0.0429
N1440 X7.9468 Y0.1927 Z-0.0438
N1441 X7.9474 Y0.1948 Z-0.0448
N1442 X7.9477 Y0.1969 Z-0.0458
N1443 X7.948 Y0.1989 Z-0.0469
N1444 X7.9481 Y0.201 Z-0.048
N1445 X7.948 Y0.203 Z-0.0491
N1446 X7.9478 Y0.205 Z-0.0503
N1447 X7.9474 Y0.207 Z-0.0515
N1448 X7.9469 Y0.2089 Z-0.0527
N1449 X7.9463 Y0.2107 Z-0.0539
N1450 X7.9455 Y0.2126 Z-0.0552
N1451 X7.9446 Y0.2143 Z-0.0564
N1452 X7.9436 Y0.2159 Z-0.0577
N1453 X7.9424 Y0.2175 Z-0.0589
N1454 X7.9411 Y0.219 Z-0.0602
N1455 X7.9397 Y0.2204 Z-0.0614
N1456 X7.9381 Y0.2217 Z-0.0626
N1457 X7.9365 Y0.2229 Z-0.0637
N1458 X7.9348 Y0.2239 Z-0.0649
N1459 X7.933 Y0.2249 Z-0.066
N1460 X7.9311 Y0.2257 Z-0.0671
N1461 X7.9291 Y0.2264 Z-0.0681
N1462 X7.9271 Y0.227 Z-0.069
N1463 X7.925 Y0.2274 Z-0.07
N1464 X7.9228 Y0.2278 Z-0.0708
N1465 X7.9206 Y0.2279 Z-0.0716
N1466 X7.9184 Y0.228 Z-0.0723
N1467 X7.9162 Y0.2279 Z-0.073
N1468 X7.914 Y0.2277 Z-0.0736
N1469 X7.9117 Y0.2273 Z-0.0741
N1470 X7.9095 Y0.2268 Z-0.0745
N1471 X7.9073 Y0.2262 Z-0.0749
N1472 X7.9051 Y0.2254 Z-0.0752
N1473 X7.9029 Y0.2246 Z-0.0754
N1474 X7.9008 Y0.2236 Z-0.0755
N1475 X7.8988 Y0.2225 Z-0.0756
N1476 X7.8955 Y0.2206 Z-0.0759
N1477 X7.8923 Y0.2187 Z-0.0767
N1478 X7.8893 Y0.217 Z-0.0781
N1479 X7.8864 Y0.2153 Z-0.0795
N1480 X7.8833 Y0.2135 Z-0.0803
N1481 X7.8802 Y0.2117 Z-0.0807
N1482 X7.8771 Y0.2099 Z-0.0805
N1483 X7.874 Y0.2082 Z-0.0798
N1484 X7.7865 Y0.1576 Z-0.0521
N1485 X7.7183 Y0.1182 Z-0.0297
N1486 X7.6928 Y0.1035 Z-0.0225
N1487 X7.6671 Y0.0887 Z-0.0163
N1488 X7.6412 Y0.0738 Z-0.0111
N1489 X7.6152 Y0.0588 Z-0.007
N1490 X7.5891 Y0.0437 Z-0.0038
N1491 X7.5629 Y0.0285 Z-0.0016
N1492 X7.5366 Y0.0134 Z-0.0004
N1493 X7.5134 Y0 Z0
N1494 X7.5103 Y-0.0018 Z0.0003
N1495 X7.5072 Y-0.0036 Z0.0012
N1496 X7.5042 Y-0.0053 Z0.0025
N1497 X7.5012 Y-0.0071 Z0.004
N1498 X7.498 Y-0.0089 Z0.0048
N1499 X7.4947 Y-0.0108 Z0.0051
N1500 X7.4047 Y-0.0628
N1501 G2 X7.3637 Y-0.0518 I-0.015 J0.026
N1502 X7.3747 Y-0.0108 I0.026 J0.015
N1503 G1 X7.378 Y-0.0089 Z0.0048
N1504 X7.3812 Y-0.0071 Z0.004
N1505 X7.3842 Y-0.0053 Z0.0025
N1506 X7.3872 Y-0.0036 Z0.0012
N1507 X7.3903 Y-0.0018 Z0.0003
N1508 X7.3935 Y0 Z0
N1509 X7.4183 Y0.0144 Z-0.0004
N1510 X7.4446 Y0.0295 Z-0.0017
N1511 X7.4708 Y0.0447 Z-0.004
N1512 X7.4969 Y0.0597 Z-0.0072
N1513 X7.5229 Y0.0747 Z-0.0114
N1514 X7.5488 Y0.0897 Z-0.0166
N1515 X7.5745 Y0.1045 Z-0.0229
N1516 X7.5999 Y0.1192 Z-0.0302
N1517 X7.6505 Y0.1484 Z-0.0468
N1518 X7.7125 Y0.1842 Z-0.0668
N1519 X7.7874 Y0.2274 Z-0.0899
N1520 X7.874 Y0.2775 Z-0.1154
N1521 X7.877 Y0.2792 Z-0.116
N1522 X7.8801 Y0.2809 Z-0.1161
N1523 X7.8831 Y0.2827 Z-0.1158
N1524 X7.8861 Y0.2844 Z-0.1149
N1525 X7.8889 Y0.286 Z-0.1136
N1526 X7.8919 Y0.2878 Z-0.1122
N1527 X7.8951 Y0.2896 Z-0.1113
N1528 X7.8984 Y0.2915 Z-0.111
N1529 X7.928 Y0.3086
N1530 X7.93 Y0.3099 Z-0.1111
N1531 X7.9319 Y0.3112 Z-0.1112
N1532 X7.9337 Y0.3127 Z-0.1114
N1533 X7.9355 Y0.3142 Z-0.1116
N1534 X7.9371 Y0.3159 Z-0.112
N1535 X7.9386 Y0.3176 Z-0.1124
N1536 X7.94 Y0.3194 Z-0.1129
N1537 X7.9412 Y0.3213 Z-0.1134
N1538 X7.9424 Y0.3232 Z-0.114
N1539 X7.9434 Y0.3253 Z-0.1147
N1540 X7.9442 Y0.3273 Z-0.1154
N1541 X7.9449 Y0.3294 Z-0.1162
N1542 X7.9455 Y0.3315 Z-0.1171
N1543 X7.9459 Y0.3336 Z-0.118
N1544 X7.9461 Y0.3357 Z-0.1189
N1545 X7.9462 Y0.3378 Z-0.1199
N1546 Y0.3399 Z-0.1209
N1547 X7.946 Y0.342 Z-0.1219
N1548 X7.9456 Y0.3441 Z-0.123
N1549 X7.9451 Y0.3461 Z-0.1241
N1550 X7.9444 Y0.348 Z-0.1252
N1551 X7.9436 Y0.3499 Z-0.1263
N1552 X7.9426 Y0.3517 Z-0.1274
N1553 X7.9415 Y0.3534 Z-0.1285
N1554 X7.9403 Y0.3551 Z-0.1297
N1555 X7.939 Y0.3566 Z-0.1308
N1556 X7.9375 Y0.3581 Z-0.1318
N1557 X7.9359 Y0.3594 Z-0.1329
N1558 X7.9342 Y0.3606 Z-0.134
N1559 X7.9324 Y0.3617 Z-0.135
N1560 X7.9305 Y0.3627 Z-0.1359
N1561 X7.9286 Y0.3636 Z-0.1369
N1562 X7.9265 Y0.3643 Z-0.1378
N1563 X7.9244 Y0.3648 Z-0.1386
N1564 X7.9223 Y0.3653 Z-0.1394
N1565 X7.9201 Y0.3656 Z-0.1401
N1566 X7.9179 Y0.3657 Z-0.1408
N1567 X7.9156 Z-0.1414
N1568 X7.9133 Y0.3655 Z-0.142
N1569 X7.9111 Y0.3653 Z-0.1425
N1570 X7.9088 Y0.3648 Z-0.1429
N1571 X7.9066 Y0.3642 Z-0.1432
N1572 X7.9044 Y0.3635 Z-0.1435
N1573 X7.9022 Y0.3627 Z-0.1437
N1574 X7.9001 Y0.3617 Z-0.1438
N1575 X7.898 Y0.3606
N1576 X7.8948 Y0.3587 Z-0.1441
N1577 X7.8916 Y0.3569 Z-0.145
N1578 X7.8885 Y0.3551 Z-0.1464
N1579 X7.8858 Y0.3535 Z-0.1477
N1580 X7.8829 Y0.3518 Z-0.1485
N1581 X7.8799 Y0.3501 Z-0.1489
N1582 X7.8769 Y0.3484 Z-0.1488
N1583 X7.874 Y0.3467 Z-0.1483
N1584 X7.7857 Y0.2958 Z-0.1242
N1585 X7.7232 Y0.2596 Z-0.1064
N1586 X7.6608 Y0.2236 Z-0.0879
N1587 X7.5859 Y0.1804 Z-0.0647
N1588 X7.5112 Y0.1373 Z-0.0405
N1589 X7.4733 Y0.1154 Z-0.0282
N1590 X7.4478 Y0.1006 Z-0.0212
N1591 X7.4221 Y0.0858 Z-0.0152
N1592 X7.3961 Y0.0708 Z-0.0102
N1593 X7.3701 Y0.0558 Z-0.0063
N1594 X7.344 Y0.0407 Z-0.0033
N1595 X7.3177 Y0.0256 Z-0.0013
N1596 X7.2915 Y0.0104 Z-0.0002
N1597 X7.2735 Y0 Z0
N1598 X7.2703 Y-0.0018 Z0.0003
N1599 X7.2671 Y-0.0037 Z0.0012
N1600 X7.2642 Y-0.0054 Z0.0025
N1601 X7.2611 Y-0.0071 Z0.004
N1602 X7.2579 Y-0.009 Z0.0048
N1603 X7.2546 Y-0.0109 Z0.0051
N1604 X7.1647 Y-0.0628
N1605 G2 X7.1347 Y-0.0108 I-0.015 J0.026
N1606 G1 X7.138 Y-0.0089 Z0.0048
N1607 X7.1412 Y-0.0071 Z0.004
N1608 X7.1443 Y-0.0053 Z0.0025
N1609 X7.1472 Y-0.0036 Z0.0012
N1610 X7.1503 Y-0.0018 Z0.0003
N1611 X7.1535 Y0 Z0
N1612 X7.1787 Y0.0145 Z-0.0004
N1613 X7.2049 Y0.0297 Z-0.0018
N1614 X7.2311 Y0.0448 Z-0.0041
N1615 X7.2572 Y0.0599 Z-0.0073
N1616 X7.2832 Y0.0749 Z-0.0115
N1617 X7.3091 Y0.0899 Z-0.0167
N1618 X7.3348 Y0.1047 Z-0.023
N1619 X7.3602 Y0.1194 Z-0.0303
N1620 X7.4221 Y0.1551 Z-0.0507
N1621 X7.4969 Y0.1983 Z-0.0745
N1622 X7.5847 Y0.2489 Z-0.101
N1623 X7.6599 Y0.2924 Z-0.1226
N1624 X7.7354 Y0.336 Z-0.1433
N1625 X7.7982 Y0.3722 Z-0.1596
N1626 X7.874 Y0.416 Z-0.1785
N1627 X7.8769 Y0.4177 Z-0.179
N1628 X7.8798 Y0.4193 Z-0.1791
N1629 X7.8826 Y0.421 Z-0.1787
N1630 X7.8854 Y0.4226 Z-0.1778
N1631 X7.8881 Y0.4241 Z-0.1766
N1632 X7.8912 Y0.4259 Z-0.1751
N1633 X7.8944 Y0.4277 Z-0.1743
N1634 X7.8976 Y0.4296 Z-0.174
N1635 X7.9273 Y0.4468
N1636 X7.9292 Y0.4479
N1637 X7.931 Y0.4492 Z-0.1741
N1638 X7.9328 Y0.4507 Z-0.1743
N1639 X7.9344 Y0.4522 Z-0.1745
N1640 X7.936 Y0.4538 Z-0.1748
N1641 X7.9374 Y0.4555 Z-0.1752
N1642 X7.9388 Y0.4573 Z-0.1756
N1643 X7.94 Y0.4591 Z-0.176
N1644 X7.941 Y0.461 Z-0.1765
N1645 X7.942 Y0.463 Z-0.1771
N1646 X7.9428 Y0.465 Z-0.1777
N1647 X7.9434 Y0.4671 Z-0.1784
N1648 X7.944 Y0.4692 Z-0.1791
N1649 X7.9443 Y0.4713 Z-0.1799
N1650 X7.9445 Y0.4734 Z-0.1807
N1651 X7.9446 Y0.4755 Z-0.1815
N1652 X7.9445 Y0.4775 Z-0.1824
N1653 X7.9443 Y0.4796 Z-0.1832
N1654 X7.9439 Y0.4816 Z-0.1841
N1655 X7.9434 Y0.4836 Z-0.1851
N1656 X7.9427 Y0.4856 Z-0.186
N1657 X7.9419 Y0.4874 Z-0.1869
N1658 X7.9409 Y0.4893 Z-0.1879
N1659 X7.9398 Y0.491 Z-0.1888
N1660 X7.9386 Y0.4926 Z-0.1898
N1661 X7.9373 Y0.4942 Z-0.1907
N1662 X7.9358 Y0.4957 Z-0.1916
N1663 X7.9342 Y0.497 Z-0.1925
N1664 X7.9326 Y0.4982 Z-0.1934
N1665 X7.9308 Y0.4994 Z-0.1943
N1666 X7.9289 Y0.5004 Z-0.1951
N1667 X7.927 Y0.5012 Z-0.1959
N1668 X7.925 Y0.5019 Z-0.1967
N1669 X7.923 Y0.5025 Z-0.1974
N1670 X7.9209 Y0.503 Z-0.198
N1671 X7.9187 Y0.5033 Z-0.1987
N1672 X7.9165 Y0.5035 Z-0.1992
N1673 X7.9143 Z-0.1998
N1674 X7.9121 Y0.5034 Z-0.2002
N1675 X7.9099 Y0.5031 Z-0.2006
N1676 X7.9077 Y0.5027 Z-0.201
N1677 X7.9056 Y0.5022 Z-0.2013
N1678 X7.9034 Y0.5015 Z-0.2015
N1679 X7.9013 Y0.5007 Z-0.2017
N1680 X7.8993 Y0.4998 Z-0.2018
N1681 X7.8973 Y0.4987
N1682 X7.894 Y0.4968 Z-0.2021
N1683 X7.8908 Y0.495 Z-0.2029
N1684 X7.8878 Y0.4932 Z-0.2043
N1685 X7.8851 Y0.4917 Z-0.2056
N1686 X7.8824 Y0.4901 Z-0.2064
N1687 X7.8796 Y0.4885 Z-0.2068
N1688 X7.8768 Y0.4869
N1689 X7.874 Y0.4853 Z-0.2064
N1690 X7.7979 Y0.4414 Z-0.189
N1691 X7.722 Y0.3975 Z-0.1707
N1692 X7.622 Y0.3397 Z-0.145
N1693 X7.5465 Y0.2962 Z-0.1244
N1694 X7.4839 Y0.2601 Z-0.1066
N1695 X7.4215 Y0.224 Z-0.0881
N1696 X7.3466 Y0.1808 Z-0.0649
N1697 X7.272 Y0.1377 Z-0.0407
N1698 X7.234 Y0.1158 Z-0.0284
N1699 X7.2085 Y0.1011 Z-0.0213
N1700 X7.1828 Y0.0862 Z-0.0153
N1701 X7.1569 Y0.0713 Z-0.0104
N1702 X7.1309 Y0.0562 Z-0.0064
N1703 X7.1047 Y0.0411 Z-0.0034
N1704 X7.0785 Y0.026 Z-0.0014
N1705 X7.0522 Y0.0108 Z-0.0002
N1706 X7.0335 Y0 Z0
N1707 X7.0303 Y-0.0018 Z0.0003
N1708 X7.0272 Y-0.0036 Z0.0012
N1709 X7.0242 Y-0.0054 Z0.0025
N1710 X7.0211 Y-0.0071 Z0.004
N1711 X7.0179 Y-0.009 Z0.0048
N1712 X7.0147 Y-0.0109 Z0.0051
N1713 X6.9248 Y-0.0628
N1714 G2 X6.8838 Y-0.0518 I-0.015 J0.026
N1715 X6.8948 Y-0.0108 I0.026 J0.015
N1716 G1 X6.898 Y-0.0089 Z0.0048
N1717 X6.9012 Y-0.0071 Z0.004
N1718 X6.9043 Y-0.0053 Z0.0025
N1719 X6.9072 Y-0.0036 Z0.0012
N1720 X6.9103 Y-0.0018 Z0.0003
N1721 X6.9135 Y0 Z0
N1722 X6.94 Y0.0153 Z-0.0005
N1723 X6.9662 Y0.0304 Z-0.0019
N1724 X6.9924 Y0.0456 Z-0.0042
N1725 X7.0185 Y0.0606 Z-0.0075
N1726 X7.0445 Y0.0757 Z-0.0117
N1727 X7.0704 Y0.0906 Z-0.017
N1728 X7.096 Y0.1054 Z-0.0233
N1729 X7.1215 Y0.1201 Z-0.0307
N1730 X7.172 Y0.1493 Z-0.0473
N1731 X7.2341 Y0.1851 Z-0.0673
N1732 X7.295 Y0.2203 Z-0.0862
N1733 X7.3816 Y0.2702 Z-0.1118
N1734 X7.4697 Y0.3211 Z-0.1364
N1735 X7.5453 Y0.3648 Z-0.1563
N1736 X7.6211 Y0.4085 Z-0.1754
N1737 X7.6971 Y0.4524 Z-0.1935
N1738 X7.7732 Y0.4963 Z-0.2107
N1739 X7.874 Y0.5546 Z-0.232
N1740 X7.8768 Y0.5561 Z-0.2323
N1741 X7.8795 Y0.5577
N1742 X7.8822 Y0.5593 Z-0.2319
N1743 X7.8849 Y0.5608 Z-0.231
N1744 X7.8874 Y0.5623 Z-0.2298
N1745 X7.8905 Y0.5641 Z-0.2284
N1746 X7.8937 Y0.5659 Z-0.2276
N1747 X7.897 Y0.5678 Z-0.2273
N1748 X7.9266 Y0.5849
N1749 X7.9285 Y0.5861
N1750 X7.9303 Y0.5874 Z-0.2274
N1751 X7.932 Y0.5887 Z-0.2275
N1752 X7.9336 Y0.5902 Z-0.2277
N1753 X7.9351 Y0.5918 Z-0.2279
N1754 X7.9365 Y0.5935 Z-0.2282
N1755 X7.9378 Y0.5952 Z-0.2286
N1756 X7.9389 Y0.5971 Z-0.229
N1757 X7.9399 Y0.599 Z-0.2294
N1758 X7.9408 Y0.6009 Z-0.2299
N1759 X7.9416 Y0.6029 Z-0.2304
N1760 X7.9422 Y0.6049 Z-0.231
N1761 X7.9427 Y0.607 Z-0.2316
N1762 X7.943 Y0.6091 Z-0.2322
N1763 X7.9432 Y0.6111 Z-0.2329
N1764 X7.9433 Y0.6132 Z-0.2335
N1765 X7.9432 Y0.6153 Z-0.2343
N1766 X7.9429 Y0.6174 Z-0.235
N1767 X7.9425 Y0.6194 Z-0.2358
N1768 X7.942 Y0.6214 Z-0.2365
N1769 X7.9413 Y0.6233 Z-0.2373
N1770 X7.9404 Y0.6252 Z-0.2381
N1771 X7.9395 Y0.627 Z-0.2389
N1772 X7.9384 Y0.6287 Z-0.2397
N1773 X7.9372 Y0.6304 Z-0.2405
N1774 X7.9358 Y0.6319 Z-0.2413
N1775 X7.9344 Y0.6334 Z-0.242
N1776 X7.9329 Y0.6348 Z-0.2428
N1777 X7.9312 Y0.636 Z-0.2435
N1778 X7.9295 Y0.6371 Z-0.2442
N1779 X7.9276 Y0.6381 Z-0.2449
N1780 X7.9257 Y0.639 Z-0.2456
N1781 X7.9238 Y0.6398 Z-0.2462
N1782 X7.9217 Y0.6404 Z-0.2468
N1783 X7.9197 Y0.6409 Z-0.2474
N1784 X7.9176 Y0.6412 Z-0.2479
N1785 X7.9154 Y0.6414 Z-0.2484
N1786 X7.9133 Y0.6415 Z-0.2488
N1787 X7.9111 Y0.6414 Z-0.2492
N1788 X7.909 Y0.6411 Z-0.2496
N1789 X7.9068 Y0.6408 Z-0.2498
N1790 X7.9047 Y0.6403 Z-0.2501
N1791 X7.9026 Y0.6396 Z-0.2503
N1792 X7.9006 Y0.6388 Z-0.2504
N1793 X7.8986 Y0.6379 Z-0.2505
N1794 X7.8966 Y0.6369
N1795 X7.8933 Y0.635 Z-0.2508
N1796 X7.8901 Y0.6331 Z-0.2517
N1797 X7.8871 Y0.6314 Z-0.2531
N1798 X7.884 Y0.6296 Z-0.2545
N1799 X7.8807 Y0.6277 Z-0.2554
N1800 X7.8774 Y0.6258 Z-0.2556
N1801 X7.874 Y0.6238 Z-0.2553
N1802 X7.7859 Y0.5729 Z-0.2384
N1803 X7.7095 Y0.5288 Z-0.2227
N1804 X7.6333 Y0.4848 Z-0.2062
N1805 X7.5572 Y0.4409 Z-0.1888
N1806 X7.4685 Y0.3897 Z-0.1674
N1807 X7.3812 Y0.3393 Z-0.1448
N1808 X7.3058 Y0.2958 Z-0.1242
N1809 X7.2446 Y0.2604 Z-0.1068
N1810 X7.1822 Y0.2244 Z-0.0883
N1811 X7.1072 Y0.1811 Z-0.0651
N1812 X7.0326 Y0.138 Z-0.0409
N1813 X6.9947 Y0.1161 Z-0.0286
N1814 X6.9692 Y0.1014 Z-0.0215
N1815 X6.9434 Y0.0866 Z-0.0155
N1816 X6.9175 Y0.0716 Z-0.0105
N1817 X6.8915 Y0.0566 Z-0.0065
N1818 X6.8654 Y0.0415 Z-0.0035
N1819 X6.8392 Y0.0264 Z-0.0014
N1820 X6.8129 Y0.0112 Z-0.0003
N1821 X6.7935 Y0 Z0
N1822 X6.7903 Y-0.0018 Z0.0003
N1823 X6.7872 Y-0.0036 Z0.0012
N1824 X6.7842 Y-0.0054 Z0.0025
N1825 X6.7812 Y-0.0071 Z0.004
N1826 X6.778 Y-0.009 Z0.0048
N1827 X6.7747 Y-0.0109 Z0.0051
N1828 X6.6848 Y-0.0628
N1829 G2 X6.6438 Y-0.0518 I-0.015 J0.026
N1830 X6.6548 Y-0.0108 I0.026 J0.015
N1831 G1 X6.6581 Y-0.0089 Z0.0048
N1832 X6.6613 Y-0.0071 Z0.004
N1833 X6.6643 Y-0.0053 Z0.0025
N1834 X6.6673 Y-0.0036 Z0.0012
N1835 X6.6704 Y-0.0018 Z0.0003
N1836 X6.6735 Y0 Z0
N1837 X6.6986 Y0.0145 Z-0.0004
N1838 X6.7248 Y0.0296 Z-0.0018
N1839 X6.751 Y0.0448 Z-0.004
N1840 X6.7772 Y0.0598 Z-0.0073
N1841 X6.8032 Y0.0749 Z-0.0115
N1842 X6.829 Y0.0898 Z-0.0167
N1843 X6.8547 Y0.1046 Z-0.0229
N1844 X6.8801 Y0.1193 Z-0.0303
N1845 X6.9547 Y0.1624 Z-0.0548
N1846 X7.041 Y0.2121 Z-0.0819
N1847 X7.116 Y0.2555 Z-0.1043
N1848 X7.1913 Y0.299 Z-0.1258
N1849 X7.254 Y0.3352 Z-0.1429
N1850 X7.3155 Y0.3707 Z-0.1589
N1851 X7.3913 Y0.4144 Z-0.1779
N1852 X7.4673 Y0.4583 Z-0.1959
N1853 X7.555 Y0.5089 Z-0.2155
N1854 X7.6443 Y0.5605 Z-0.234
N1855 X7.7207 Y0.6046 Z-0.249
N1856 X7.7973 Y0.6488 Z-0.263
N1857 X7.874 Y0.6931 Z-0.2762
N1858 X7.8773 Y0.695 Z-0.2765
N1859 X7.8805 Y0.6969 Z-0.2762
N1860 X7.8837 Y0.6987 Z-0.2754
N1861 X7.8867 Y0.7004 Z-0.274
N1862 X7.8898 Y0.7022 Z-0.2726
N1863 X7.893 Y0.7041 Z-0.2717
N1864 X7.8963 Y0.706 Z-0.2714
N1865 X7.9259 Y0.7231
N1866 X7.9278 Y0.7242
N1867 X7.9295 Y0.7255 Z-0.2715
N1868 X7.9312 Y0.7268 Z-0.2716
N1869 X7.9327 Y0.7283 Z-0.2718
N1870 X7.9342 Y0.7298 Z-0.272
N1871 X7.9355 Y0.7315 Z-0.2722
N1872 X7.9368 Y0.7332 Z-0.2725
N1873 X7.9379 Y0.735 Z-0.2728
N1874 X7.9389 Y0.7369 Z-0.2731
N1875 X7.9398 Y0.7388 Z-0.2735
N1876 X7.9405 Y0.7408 Z-0.2739
N1877 X7.9411 Y0.7428 Z-0.2744
N1878 X7.9415 Y0.7449 Z-0.2749
N1879 X7.9418 Y0.7469 Z-0.2754
N1880 X7.942 Y0.749 Z-0.2759
N1881 Y0.7511 Z-0.2765
N1882 X7.9419 Y0.7531 Z-0.2771
N1883 X7.9416 Y0.7552 Z-0.2777
N1884 X7.9412 Y0.7572 Z-0.2783
N1885 X7.9406 Y0.7592 Z-0.2789
N1886 X7.94 Y0.7611 Z-0.2795
N1887 X7.9391 Y0.763 Z-0.2802
N1888 X7.9382 Y0.7648 Z-0.2808
N1889 X7.9371 Y0.7665 Z-0.2815
N1890 X7.9359 Y0.7682 Z-0.2821
N1891 X7.9345 Y0.7697 Z-0.2827
N1892 X7.9331 Y0.7712 Z-0.2833
N1893 X7.9316 Y0.7726 Z-0.284
N1894 X7.9299 Y0.7738 Z-0.2846
N1895 X7.9282 Y0.775 Z-0.2851
N1896 X7.9264 Y0.776 Z-0.2857
N1897 X7.9245 Y0.7769 Z-0.2862
N1898 X7.9226 Y0.7777 Z-0.2867
N1899 X7.9206 Y0.7783 Z-0.2872
N1900 X7.9186 Y0.7788 Z-0.2877
N1901 X7.9165 Y0.7791 Z-0.2881
N1902 X7.9144 Y0.7794 Z-0.2885
N1903 X7.9123 Z-0.2888
N1904 X7.9102 Z-0.2892
N1905 X7.908 Y0.7792 Z-0.2894
N1906 X7.9059 Y0.7788 Z-0.2897
N1907 X7.9038 Y0.7783 Z-0.2899
N1908 X7.9018 Y0.7777 Z-0.29
N1909 X7.8998 Y0.7769 Z-0.2901
N1910 X7.8978 Y0.7761 Z-0.2902
N1911 X7.8959 Y0.775
N1912 X7.8927 Y0.7732 Z-0.2905
N1913 X7.8895 Y0.7713 Z-0.2914
N1914 X7.8864 Y0.7695 Z-0.2928
N1915 X7.8835 Y0.7678 Z-0.2941
N1916 X7.8804 Y0.766 Z-0.295
N1917 X7.8772 Y0.7642 Z-0.2953
N1918 X7.874 Y0.7624 Z-0.2951
N1919 X7.7841 Y0.7105 Z-0.2812
N1920 X7.6827 Y0.6519 Z-0.264
N1921 X7.6061 Y0.6077 Z-0.25
N1922 X7.5297 Y0.5636 Z-0.2351
N1923 X7.4533 Y0.5195 Z-0.2193
N1924 X7.3655 Y0.4688 Z-0.2001
N1925 X7.278 Y0.4183 Z-0.1795
N1926 X7.2022 Y0.3745 Z-0.1606
N1927 X7.1265 Y0.3308 Z-0.1409
N1928 X7.0511 Y0.2873 Z-0.1201
N1929 X6.9644 Y0.2372 Z-0.0951
N1930 X6.878 Y0.1873 Z-0.0685
N1931 X6.8033 Y0.1442 Z-0.0445
N1932 X6.7591 Y0.1187 Z-0.03
N1933 X6.7336 Y0.104 Z-0.0226
N1934 X6.7079 Y0.0891 Z-0.0164
N1935 X6.6821 Y0.0742 Z-0.0113
N1936 X6.656 Y0.0592 Z-0.0071
N1937 X6.6299 Y0.0441 Z-0.0039
N1938 X6.6037 Y0.029 Z-0.0017
N1939 X6.5775 Y0.0138 Z-0.0004
N1940 X6.5535 Y0 Z0
N1941 X6.5504 Y-0.0018 Z0.0003
N1942 X6.5473 Y-0.0036 Z0.0012
N1943 X6.5443 Y-0.0053 Z0.0025
N1944 X6.5413 Y-0.0071 Z0.004
N1945 X6.5381 Y-0.0089 Z0.0048
N1946 X6.5348 Y-0.0108 Z0.0051
N1947 X6.4448 Y-0.0628
N1948 G2 X6.4148 Y-0.0108 I-0.015 J0.026
N1949 G1 X6.4181 Y-0.0089 Z0.0048
N1950 X6.4213 Y-0.0071 Z0.004
N1951 X6.4243 Y-0.0053 Z0.0025
N1952 X6.4273 Y-0.0036 Z0.0012
N1953 X6.4304 Y-0.0018 Z0.0003
N1954 X6.4335 Y0 Z0
N1955 X6.4575 Y0.0138 Z-0.0004
N1956 X6.4837 Y0.029 Z-0.0017
N1957 X6.5099 Y0.0441 Z-0.0039
N1958 X6.5361 Y0.0592 Z-0.0071
N1959 X6.5621 Y0.0742 Z-0.0113
N1960 X6.5879 Y0.0891 Z-0.0164
N1961 X6.6136 Y0.104 Z-0.0226
N1962 X6.6391 Y0.1187 Z-0.03
N1963 X6.6896 Y0.1479 Z-0.0465
N1964 X6.7504 Y0.1829 Z-0.0661
N1965 X6.824 Y0.2254 Z-0.0889
N1966 X6.9106 Y0.2754 Z-0.1144
N1967 X6.9975 Y0.3256 Z-0.1384
N1968 X7.0731 Y0.3692 Z-0.1583
N1969 X7.1489 Y0.413 Z-0.1773
N1970 X7.212 Y0.4494 Z-0.1923
N1971 X7.2881 Y0.4934 Z-0.2095
N1972 X7.363 Y0.5366 Z-0.2256
N1973 X7.4524 Y0.5882 Z-0.2436
N1974 X7.5419 Y0.6399 Z-0.2603
N1975 X7.6186 Y0.6842 Z-0.2736
N1976 X7.6954 Y0.7285 Z-0.2861
N1977 X7.7722 Y0.7729 Z-0.2978
N1978 X7.874 Y0.8317 Z-0.3119
N1979 X7.8771 Y0.8335 Z-0.3121
N1980 X7.8802 Y0.8352 Z-0.3117
N1981 X7.8832 Y0.837 Z-0.3109
N1982 X7.8861 Y0.8386 Z-0.3095
N1983 X7.8892 Y0.8404 Z-0.3081
N1984 X7.8924 Y0.8423 Z-0.3073
N1985 X7.8957 Y0.8442 Z-0.307
N1986 X7.9253 Y0.8613
N1987 X7.9272 Y0.8624
N1988 X7.929 Y0.8637
N1989 X7.9307 Y0.8652 Z-0.3071
N1990 X7.9322 Y0.8667 Z-0.3073
N1991 X7.9337 Y0.8683 Z-0.3074
N1992 X7.9351 Y0.87 Z-0.3076
N1993 X7.9363 Y0.8719 Z-0.3079
N1994 X7.9374 Y0.8737 Z-0.3081
N1995 X7.9384 Y0.8757 Z-0.3084
N1996 X7.9392 Y0.8777 Z-0.3088
N1997 X7.9398 Y0.8798 Z-0.3091
N1998 X7.9404 Y0.8819 Z-0.3095
N1999 X7.9407 Y0.884 Z-0.3099
N2000 X7.9409 Y0.8862 Z-0.3103
N2001 X7.941 Y0.8884 Z-0.3108
N2002 X7.9409 Y0.8905 Z-0.3113
N2003 X7.9406 Y0.8926 Z-0.3117
N2004 X7.9402 Y0.8948 Z-0.3122
N2005 X7.9396 Y0.8968 Z-0.3127
N2006 X7.9389 Y0.8988 Z-0.3132
N2007 X7.9381 Y0.9008 Z-0.3138
N2008 X7.9371 Y0.9027 Z-0.3143
N2009 X7.9359 Y0.9045 Z-0.3148
N2010 X7.9347 Y0.9062 Z-0.3153
N2011 X7.9333 Y0.9079 Z-0.3158
N2012 X7.9318 Y0.9094 Z-0.3164
N2013 X7.9301 Y0.9108 Z-0.3168
N2014 X7.9284 Y0.9121 Z-0.3173
N2015 X7.9266 Y0.9133 Z-0.3178
N2016 X7.9247 Y0.9143 Z-0.3182
N2017 X7.9227 Y0.9152 Z-0.3187
N2018 X7.9207 Y0.9159 Z-0.3191
N2019 X7.9186 Y0.9165 Z-0.3195
N2020 X7.9165 Y0.917 Z-0.3198
N2021 X7.9143 Y0.9173 Z-0.3202
N2022 X7.9122 Y0.9175 Z-0.3205
N2023 X7.91 Z-0.3207
N2024 X7.9078 Y0.9173 Z-0.321
N2025 X7.9056 Y0.917 Z-0.3212
N2026 X7.9035 Y0.9165 Z-0.3213
N2027 X7.9014 Y0.9159 Z-0.3214
N2028 X7.8993 Y0.9152 Z-0.3215
N2029 X7.8973 Y0.9143 Z-0.3216
N2030 X7.8953 Y0.9132
N2031 X7.892 Y0.9113 Z-0.3219
N2032 X7.8888 Y0.9095 Z-0.3228
N2033 X7.8858 Y0.9077 Z-0.3242
N2034 X7.883 Y0.9061 Z-0.3255
N2035 X7.8801 Y0.9044 Z-0.3263
N2036 X7.877 Y0.9027 Z-0.3267
N2037 X7.874 Y0.9009 Z-0.3266
N2038 X7.7838 Y0.8489 Z-0.3157
N2039 X7.7068 Y0.8044 Z-0.3055
N2040 X7.6168 Y0.7524 Z-0.2925
N2041 X7.5152 Y0.6938 Z-0.2764
N2042 X7.4385 Y0.6495 Z-0.2632
N2043 X7.3619 Y0.6053 Z-0.2492
N2044 X7.2868 Y0.5619 Z-0.2345
N2045 X7.1975 Y0.5104 Z-0.216
N2046 X7.1085 Y0.4589 Z-0.1961
N2047 X7.0209 Y0.4084 Z-0.1753
N2048 X6.9465 Y0.3654 Z-0.1566
N2049 X6.8709 Y0.3218 Z-0.1367
N2050 X6.7827 Y0.2709 Z-0.1121
N2051 X6.6987 Y0.2224 Z-0.0873
N2052 X6.6365 Y0.1865 Z-0.0681
N2053 X6.5744 Y0.1506 Z-0.0481
N2054 X6.5175 Y0.1178 Z-0.0295
N2055 X6.4921 Y0.1031 Z-0.0222
N2056 X6.4664 Y0.0882 Z-0.0161
N2057 X6.4405 Y0.0733 Z-0.011
N2058 X6.4145 Y0.0583 Z-0.0069
N2059 X6.3884 Y0.0432 Z-0.0038
N2060 X6.3622 Y0.0281 Z-0.0016
N2061 X6.3359 Y0.0129 Z-0.0003
N2062 X6.3136 Y0 Z0
N2063 X6.3104 Y-0.0018 Z0.0003
N2064 X6.3073 Y-0.0036 Z0.0012
N2065 X6.3043 Y-0.0053 Z0.0025
N2066 X6.3013 Y-0.0071 Z0.004
N2067 X6.2981 Y-0.0089 Z0.0048
N2068 X6.2948 Y-0.0108 Z0.0051
N2069 X6.2048 Y-0.0628
N2070 G2 X6.1748 Y-0.0108 I-0.015 J0.026
N2071 G1 X6.1781 Y-0.009 Z0.0048
N2072 X6.1813 Y-0.0071 Z0.004
N2073 X6.1843 Y-0.0053 Z0.0025
N2074 X6.1873 Y-0.0036 Z0.0012
N2075 X6.1904 Y-0.0018 Z0.0003
N2076 X6.1936 Y0 Z0
N2077 X6.2156 Y0.0127 Z-0.0003
N2078 X6.2418 Y0.0279 Z-0.0016
N2079 X6.268 Y0.043 Z-0.0037
N2080 X6.2942 Y0.0581 Z-0.0068
N2081 X6.3202 Y0.0731 Z-0.0109
N2082 X6.3461 Y0.088 Z-0.016
N2083 X6.3718 Y0.1029 Z-0.0222
N2084 X6.3972 Y0.1176 Z-0.0294
N2085 X6.4352 Y0.1395 Z-0.0418
N2086 X6.5085 Y0.1818 Z-0.0655
N2087 X6.5822 Y0.2244 Z-0.0883
N2088 X6.6445 Y0.2604 Z-0.1068
N2089 X6.7172 Y0.3023 Z-0.1274
N2090 X6.8043 Y0.3526 Z-0.1509
N2091 X6.8929 Y0.4037 Z-0.1733
N2092 X6.9675 Y0.4468 Z-0.1912
N2093 X7.0436 Y0.4908 Z-0.2085
N2094 X7.1069 Y0.5273 Z-0.2222
N2095 X7.1832 Y0.5714 Z-0.2378
N2096 X7.2844 Y0.6298 Z-0.2571
N2097 X7.374 Y0.6815 Z-0.2729
N2098 X7.4508 Y0.7259 Z-0.2854
N2099 X7.5277 Y0.7703 Z-0.2971
N2100 X7.6047 Y0.8147 Z-0.308
N2101 X7.6934 Y0.866 Z-0.3195
N2102 X7.7968 Y0.9256 Z-0.3313
N2103 X7.874 Y0.9702 Z-0.3392
N2104 X7.877 Y0.9719 Z-0.3393
N2105 X7.8799 Y0.9736 Z-0.3389
N2106 X7.8827 Y0.9752 Z-0.338
N2107 X7.8855 Y0.9768 Z-0.3367
N2108 X7.8885 Y0.9786 Z-0.3353
N2109 X7.8917 Y0.9804 Z-0.3345
N2110 X7.895 Y0.9823 Z-0.3342
N2111 X7.9247 Y0.9995
N2112 X7.9266 Y1.0006
N2113 X7.9283 Y1.0019 Z-0.3343
N2114 X7.93 Y1.0033
N2115 X7.9315 Y1.0048 Z-0.3344
N2116 X7.933 Y1.0064 Z-0.3345
N2117 X7.9343 Y1.0082 Z-0.3347
N2118 X7.9355 Y1.01 Z-0.3349
N2119 X7.9366 Y1.0118 Z-0.335
N2120 X7.9375 Y1.0138 Z-0.3353
N2121 X7.9383 Y1.0158 Z-0.3355
N2122 X7.939 Y1.0179 Z-0.3358
N2123 X7.9395 Y1.02 Z-0.336
N2124 X7.9398 Y1.0221 Z-0.3363
N2125 X7.94 Y1.0242 Z-0.3366
N2126 X7.9401 Y1.0264 Z-0.337
N2127 X7.9399 Y1.0285 Z-0.3373
N2128 X7.9397 Y1.0307 Z-0.3377
N2129 X7.9393 Y1.0328 Z-0.338
N2130 X7.9387 Y1.0348 Z-0.3384
N2131 X7.938 Y1.0368 Z-0.3388
N2132 X7.9371 Y1.0388 Z-0.3392
N2133 X7.9361 Y1.0407 Z-0.3395
N2134 X7.935 Y1.0425 Z-0.3399
N2135 X7.9337 Y1.0442 Z-0.3403
N2136 X7.9323 Y1.0459 Z-0.3407
N2137 X7.9308 Y1.0474 Z-0.341
N2138 X7.9292 Y1.0488 Z-0.3414
N2139 X7.9275 Y1.0501 Z-0.3418
N2140 X7.9257 Y1.0513 Z-0.3421
N2141 X7.9238 Y1.0523 Z-0.3424
N2142 X7.9218 Y1.0532 Z-0.3427
N2143 X7.9198 Y1.054 Z-0.343
N2144 X7.9178 Y1.0546 Z-0.3433
N2145 X7.9157 Y1.0551 Z-0.3436
N2146 X7.9135 Y1.0554 Z-0.3438
N2147 X7.9114 Y1.0555 Z-0.344
N2148 X7.9092 Y1.0556 Z-0.3442
N2149 X7.907 Y1.0554 Z-0.3444
N2150 X7.9049 Y1.0551 Z-0.3445
N2151 X7.9028 Y1.0547 Z-0.3447
N2152 X7.9007 Y1.0541
N2153 X7.8986 Y1.0533 Z-0.3448
N2154 X7.8966 Y1.0525 Z-0.3449
N2155 X7.8947 Y1.0514
N2156 X7.8914 Y1.0495 Z-0.3452
N2157 X7.8882 Y1.0477 Z-0.346
N2158 X7.8852 Y1.0459 Z-0.3474
N2159 X7.8825 Y1.0444 Z-0.3487
N2160 X7.8797 Y1.0428 Z-0.3495
N2161 X7.8769 Y1.0411 Z-0.3499
N2162 X7.874 Y1.0395
N2163 X7.7718 Y0.9805 Z-0.3409
N2164 X7.6946 Y0.9359 Z-0.3332
N2165 X7.6174 Y0.8913 Z-0.3246
N2166 X7.5403 Y0.8468 Z-0.3152
N2167 X7.4632 Y0.8023 Z-0.305
N2168 X7.3602 Y0.7428 Z-0.2901
N2169 X7.2717 Y0.6917 Z-0.2758
N2170 X7.195 Y0.6475 Z-0.2626
N2171 X7.1184 Y0.6032 Z-0.2485
N2172 X7.042 Y0.5591 Z-0.2335
N2173 X6.954 Y0.5083 Z-0.2152
N2174 X6.8663 Y0.4577 Z-0.1956
N2175 X6.7917 Y0.4146 Z-0.1779
N2176 X6.7172 Y0.3716 Z-0.1594
N2177 X6.6557 Y0.3361 Z-0.1433
N2178 X6.5802 Y0.2925 Z-0.1227
N2179 X6.5062 Y0.2498 Z-0.1014
N2180 X6.4198 Y0.1999 Z-0.0754
N2181 X6.3336 Y0.1501 Z-0.0478
N2182 X6.278 Y0.118 Z-0.0296
N2183 X6.2525 Y0.1033 Z-0.0224
N2184 X6.2269 Y0.0885 Z-0.0162
N2185 X6.201 Y0.0736 Z-0.0111
N2186 X6.175 Y0.0585 Z-0.007
N2187 X6.1488 Y0.0435 Z-0.0038
N2188 X6.1226 Y0.0283 Z-0.0016
N2189 X6.0964 Y0.0132 Z-0.0003
N2190 X6.0736 Y0 Z0
N2191 X6.0704 Y-0.0018 Z0.0003
N2192 X6.0673 Y-0.0036 Z0.0012
N2193 X6.0643 Y-0.0053 Z0.0025
N2194 X6.0613 Y-0.0071 Z0.004
N2195 X6.0581 Y-0.0089 Z0.0048
N2196 X6.0548 Y-0.0108 Z0.0051
N2197 X5.9648 Y-0.0628
N2198 G2 X5.9348 Y-0.0108 I-0.015 J0.026
N2199 G1 X5.9381 Y-0.0089 Z0.0048
N2200 X5.9413 Y-0.0071 Z0.004
N2201 X5.9444 Y-0.0053 Z0.0025
N2202 X5.9473 Y-0.0036 Z0.0012
N2203 X5.9504 Y-0.0018 Z0.0003
N2204 X5.9536 Y0 Z0
N2205 X5.9771 Y0.0136 Z-0.0004
N2206 X6.0034 Y0.0287 Z-0.0017
N2207 X6.0296 Y0.0439 Z-0.0039
N2208 X6.0557 Y0.0589 Z-0.007
N2209 X6.0817 Y0.074 Z-0.0112
N2210 X6.1076 Y0.0889 Z-0.0163
N2211 X6.1333 Y0.1037 Z-0.0225
N2212 X6.1587 Y0.1184 Z-0.0298
N2213 X6.2093 Y0.1476 Z-0.0464
N2214 X6.2928 Y0.1958 Z-0.0732
N2215 X6.3792 Y0.2458 Z-0.0994
N2216 X6.4545 Y0.2892 Z-0.1211
N2217 X6.5286 Y0.332 Z-0.1414
N2218 X6.603 Y0.3749 Z-0.1608
N2219 X6.6646 Y0.4105 Z-0.1762
N2220 X6.7392 Y0.4536 Z-0.194
N2221 X6.8386 Y0.5109 Z-0.2162
N2222 X6.9278 Y0.5625 Z-0.2347
N2223 X7.003 Y0.6059 Z-0.2494
N2224 X7.0795 Y0.6501 Z-0.2634
N2225 X7.1562 Y0.6944 Z-0.2766
N2226 X7.2578 Y0.753 Z-0.2927
N2227 X7.3478 Y0.8049 Z-0.3056
N2228 X7.4235 Y0.8487 Z-0.3156
N2229 X7.5254 Y0.9075 Z-0.3279
N2230 X7.6289 Y0.9672 Z-0.3387
N2231 X7.7062 Y1.0118 Z-0.3459
N2232 X7.7835 Y1.0565 Z-0.3522
N2233 X7.874 Y1.1088 Z-0.3586
N2234 X7.8768 Y1.1104
N2235 X7.8796 Y1.112 Z-0.3582
N2236 X7.8823 Y1.1135 Z-0.3573
N2237 X7.8849 Y1.115 Z-0.3561
N2238 X7.8879 Y1.1168 Z-0.3547
N2239 X7.8911 Y1.1186 Z-0.3538
N2240 X7.8944 Y1.1205 Z-0.3535
N2241 X7.9241 Y1.1377
N2242 X7.9259 Y1.1388
N2243 X7.9276 Y1.1401 Z-0.3536
N2244 X7.9293 Y1.1415
N2245 X7.9308 Y1.143 Z-0.3537
N2246 X7.9323 Y1.1446 Z-0.3538
N2247 X7.9336 Y1.1463
N2248 X7.9348 Y1.1481 Z-0.3539
N2249 X7.9358 Y1.1499 Z-0.3541
N2250 X7.9368 Y1.1519 Z-0.3542
N2251 X7.9375 Y1.1539 Z-0.3544
N2252 X7.9382 Y1.1559 Z-0.3545
N2253 X7.9387 Y1.158 Z-0.3547
N2254 X7.939 Y1.1602 Z-0.3549
N2255 X7.9392 Y1.1623 Z-0.3551
N2256 Y1.1644 Z-0.3553
N2257 X7.9391 Y1.1666 Z-0.3555
N2258 X7.9388 Y1.1687 Z-0.3557
N2259 X7.9384 Y1.1708 Z-0.3559
N2260 X7.9378 Y1.1729 Z-0.3562
N2261 X7.9371 Y1.1749 Z-0.3564
N2262 X7.9362 Y1.1768 Z-0.3566
N2263 X7.9352 Y1.1787 Z-0.3569
N2264 X7.9341 Y1.1805 Z-0.3571
N2265 X7.9328 Y1.1823 Z-0.3574
N2266 X7.9314 Y1.1839 Z-0.3576
N2267 X7.9299 Y1.1854 Z-0.3578
N2268 X7.9283 Y1.1869 Z-0.358
N2269 X7.9266 Y1.1882 Z-0.3583
N2270 X7.9248 Y1.1893 Z-0.3585
N2271 X7.923 Y1.1904 Z-0.3587
N2272 X7.921 Y1.1913 Z-0.3589
N2273 X7.919 Y1.1921 Z-0.3591
N2274 X7.917 Y1.1927 Z-0.3592
N2275 X7.9149 Y1.1932 Z-0.3594
N2276 X7.9127 Y1.1935 Z-0.3596
N2277 X7.9106 Y1.1937 Z-0.3597
N2278 X7.9084 Z-0.3598
N2279 X7.9063 Y1.1935 Z-0.3599
N2280 X7.9042 Y1.1933 Z-0.36
N2281 X7.9021 Y1.1928 Z-0.3601
N2282 X7.9 Y1.1922
N2283 X7.898 Y1.1915 Z-0.3602
N2284 X7.896 Y1.1906
N2285 X7.8941 Y1.1896
N2286 X7.8908 Y1.1877 Z-0.3605
N2287 X7.8876 Y1.1859 Z-0.3614
N2288 X7.8846 Y1.1841 Z-0.3628
N2289 X7.882 Y1.1827 Z-0.364
N2290 X7.8794 Y1.1812 Z-0.3648
N2291 X7.8767 Y1.1796 Z-0.3652
N2292 X7.874 Y1.178 Z-0.3653
N2293 X7.7834 Y1.1257 Z-0.3604
N2294 X7.6811 Y1.0667 Z-0.3535
N2295 X7.5906 Y1.0144 Z-0.3462
N2296 X7.5133 Y0.9698 Z-0.3391
N2297 X7.423 Y0.9177 Z-0.3298
N2298 X7.321 Y0.8588 Z-0.3179
N2299 X7.2309 Y0.8068 Z-0.3061
N2300 X7.1553 Y0.7631 Z-0.2953
N2301 X7.0654 Y0.7112 Z-0.2814
N2302 X6.9653 Y0.6534 Z-0.2645
N2303 X6.8901 Y0.61 Z-0.2507
N2304 X6.8136 Y0.5658 Z-0.2359
N2305 X6.7386 Y0.5225 Z-0.2204
N2306 X6.6495 Y0.471 Z-0.2009
N2307 X6.5619 Y0.4205 Z-0.1804
N2308 X6.4758 Y0.3708 Z-0.159
N2309 X6.4015 Y0.3279 Z-0.1395
N2310 X6.3146 Y0.2777 Z-0.1155
N2311 X6.2293 Y0.2285 Z-0.0905
N2312 X6.1556 Y0.1859 Z-0.0678
N2313 X6.0835 Y0.1443 Z-0.0445
N2314 X6.0393 Y0.1188 Z-0.03
N2315 X6.0138 Y0.1041 Z-0.0227
N2316 X5.9881 Y0.0892 Z-0.0165
N2317 X5.9623 Y0.0743 Z-0.0113
N2318 X5.9363 Y0.0593 Z-0.0071
N2319 X5.9102 Y0.0442 Z-0.0039
N2320 X5.8839 Y0.0291 Z-0.0017
N2321 X5.8577 Y0.0139 Z-0.0004
N2322 X5.8336 Y0 Z0
N2323 X5.8304 Y-0.0018 Z0.0003
N2324 X5.8273 Y-0.0036 Z0.0012
N2325 X5.8244 Y-0.0053 Z0.0025
N2326 X5.8213 Y-0.0071 Z0.004
N2327 X5.8181 Y-0.0089 Z0.0048
N2328 X5.8148 Y-0.0108 Z0.0051
N2329 X5.7248 Y-0.0628
N2330 G2 X5.6948 Y-0.0108 I-0.015 J0.026
N2331 G1 X5.6981 Y-0.0089 Z0.0048
N2332 X5.7013 Y-0.0071 Z0.004
N2333 X5.7044 Y-0.0053 Z0.0025
N2334 X5.7073 Y-0.0036 Z0.0012
N2335 X5.7104 Y-0.0018 Z0.0003
N2336 X5.7136 Y0 Z0
N2337 X5.7367 Y0.0134 Z-0.0004
N2338 X5.763 Y0.0285 Z-0.0016
N2339 X5.7892 Y0.0436 Z-0.0038
N2340 X5.8153 Y0.0587 Z-0.007
N2341 X5.8413 Y0.0738 Z-0.0111
N2342 X5.8672 Y0.0887 Z-0.0163
N2343 X5.8929 Y0.1035 Z-0.0224
N2344 X5.9184 Y0.1182 Z-0.0297
N2345 X6.017 Y0.1752 Z-0.0619
N2346 X6.0906 Y0.2176 Z-0.0848
N2347 X6.1644 Y0.2603 Z-0.1067
N2348 X6.2256 Y0.2956 Z-0.1242
N2349 X6.31 Y0.3443 Z-0.1471
N2350 X6.3972 Y0.3947 Z-0.1695
N2351 X6.4847 Y0.4452 Z-0.1906
N2352 X6.5594 Y0.4883 Z-0.2076
N2353 X6.6343 Y0.5316 Z-0.2238
N2354 X6.734 Y0.5891 Z-0.2439
N2355 X6.8235 Y0.6408 Z-0.2606
N2356 X6.8989 Y0.6843 Z-0.2737
N2357 X6.9757 Y0.7287 Z-0.2862
N2358 X7.0512 Y0.7723 Z-0.2976
N2359 X7.1282 Y0.8167 Z-0.3084
N2360 X7.2301 Y0.8755 Z-0.3214
N2361 X7.3204 Y0.9277 Z-0.3317
N2362 X7.3976 Y0.9723 Z-0.3396
N2363 X7.4998 Y1.0312 Z-0.3488
N2364 X7.6034 Y1.0911 Z-0.3565
N2365 X7.694 Y1.1434 Z-0.3622
N2366 X7.7714 Y1.1881 Z-0.3661
N2367 X7.874 Y1.2473 Z-0.3701
N2368 X7.8786 Y1.25 Z-0.37 F24
N2369 X7.8832 Y1.2526 Z-0.3694
N2370 X7.8877 Y1.2552 Z-0.3681
N2371 X7.8921 Y1.2578 Z-0.3663
N2372 X7.8963 Y1.2602 Z-0.364
N2373 X7.9002 Y1.2624 Z-0.3612
N2374 X7.9039 Y1.2645 Z-0.3579
N2375 X7.9072 Y1.2665 Z-0.3542
N2376 X7.9102 Y1.2682 Z-0.3501
N2377 X7.9127 Y1.2697 Z-0.3456
N2378 X7.9149 Y1.2709 Z-0.3409
N2379 X7.9166 Y1.2719 Z-0.3359
N2380 X7.9178 Y1.2726 Z-0.3308
N2381 X7.9185 Y1.273 Z-0.3255
N2382 X7.9188 Y1.2732 Z-0.3202
N2383 G0 Z0.2
N2384 X7.8451 Y1.2999
N2385 Z-0.1178
N2386 G1 Z-0.3725 F24
N2387 X7.7529 Y1.2467 Z-0.3701 F90
N2388 X7.6503 Y1.1874 Z-0.3661
N2389 X7.5729 Y1.1427 Z-0.3621
N2390 X7.4823 Y1.0904 Z-0.3565
N2391 X7.3787 Y1.0306 Z-0.3487
N2392 X7.2896 Y0.9792 Z-0.3407
N2393 X7.2137 Y0.9354 Z-0.3331
N2394 X7.1234 Y0.8832 Z-0.323
N2395 X7.0333 Y0.8312 Z-0.3118
N2396 X6.9315 Y0.7724 Z-0.2977
N2397 X6.8559 Y0.7288 Z-0.2862
N2398 X6.7791 Y0.6845 Z-0.2737
N2399 X6.7038 Y0.641 Z-0.2606
N2400 X6.6143 Y0.5893 Z-0.2439
N2401 X6.5146 Y0.5317 Z-0.2238
N2402 X6.4397 Y0.4885 Z-0.2077
N2403 X6.3649 Y0.4453 Z-0.1906
N2404 X6.2775 Y0.3948 Z-0.1696
N2405 X6.1902 Y0.3444 Z-0.1472
N2406 X6.1059 Y0.2957 Z-0.1242
N2407 X6.0433 Y0.2596 Z-0.1064
N2408 X5.9708 Y0.2178 Z-0.0849
N2409 X5.8972 Y0.1753 Z-0.0619
N2410 X5.7986 Y0.1184 Z-0.0298
N2411 X5.7732 Y0.1037 Z-0.0225
N2412 X5.7475 Y0.0888 Z-0.0163
N2413 X5.7216 Y0.0739 Z-0.0112
N2414 X5.6956 Y0.0589 Z-0.007
N2415 X5.6695 Y0.0438 Z-0.0039
N2416 X5.6433 Y0.0287 Z-0.0016
N2417 X5.617 Y0.0135 Z-0.0004
N2418 X5.5936 Y0 Z0
N2419 X5.5904 Y-0.0018 Z0.0003
N2420 X5.5873 Y-0.0036 Z0.0012
N2421 X5.5844 Y-0.0053 Z0.0025
N2422 X5.5813 Y-0.0071 Z0.004
N2423 X5.5781 Y-0.0089 Z0.0048
N2424 X5.5749 Y-0.0108 Z0.0051
N2425 X5.4848 Y-0.0628
N2426 G2 X5.4548 Y-0.0109 I-0.015 J0.026
N2427 G1 X5.4581 Y-0.009 Z0.0048
N2428 X5.4613 Y-0.0071 Z0.004
N2429 X5.4643 Y-0.0054 Z0.0025
N2430 X5.4673 Y-0.0036 Z0.0012
N2431 X5.4704 Y-0.0018 Z0.0003
N2432 X5.4736 Y0 Z0
N2433 X5.4924 Y0.0109 Z-0.0002
N2434 X5.5187 Y0.026 Z-0.0014
N2435 X5.5449 Y0.0412 Z-0.0034
N2436 X5.5711 Y0.0563 Z-0.0064
N2437 X5.5971 Y0.0713 Z-0.0104
N2438 X5.623 Y0.0862 Z-0.0153
N2439 X5.6487 Y0.1011 Z-0.0213
N2440 X5.6742 Y0.1158 Z-0.0284
N2441 X5.7058 Y0.1341 Z-0.0387
N2442 X5.7792 Y0.1764 Z-0.0625
N2443 X5.8528 Y0.2189 Z-0.0854
N2444 X5.9253 Y0.2608 Z-0.107
N2445 X5.9993 Y0.3035 Z-0.128
N2446 X6.085 Y0.353 Z-0.1511
N2447 X6.1723 Y0.4034 Z-0.1732
N2448 X6.2469 Y0.4464 Z-0.1911
N2449 X6.3217 Y0.4896 Z-0.2081
N2450 X6.3953 Y0.5321 Z-0.2239
N2451 X6.4949 Y0.5896 Z-0.2441
N2452 X6.5845 Y0.6413 Z-0.2607
N2453 X6.6598 Y0.6848 Z-0.2738
N2454 X6.7483 Y0.7359 Z-0.2882
N2455 X6.85 Y0.7946 Z-0.3032
N2456 X6.9387 Y0.8459 Z-0.315
N2457 X7.0159 Y0.8904 Z-0.3244
N2458 X7.1166 Y0.9485 Z-0.3355
N2459 X7.22 Y1.0083 Z-0.3453
N2460 X7.2974 Y1.0529 Z-0.3517
N2461 X7.3734 Y1.0969 Z-0.3572
N2462 X7.464 Y1.1491 Z-0.3628
N2463 X7.5664 Y1.2083 Z-0.3677
N2464 X7.6575 Y1.2609 Z-0.3708
N2465 X7.7365 Y1.3065 Z-0.3727
N2466 G0 Z0.2
N2467 X7.6366 Y1.3181
N2468 Z-0.1179
N2469 G1 Z-0.373 F24
N2470 X7.5443 Y1.2648 Z-0.371 F90
N2471 X7.4661 Y1.2196 Z-0.3684
N2472 X7.3755 Y1.1673 Z-0.3644
N2473 X7.2731 Y1.1082 Z-0.3585
N2474 X7.1839 Y1.0567 Z-0.3522
N2475 X7.1066 Y1.0121 Z-0.3459
N2476 X7.0306 Y0.9682 Z-0.3389
N2477 X6.9403 Y0.9161 Z-0.3295
N2478 X6.8397 Y0.858 Z-0.3177
N2479 X6.7509 Y0.8067 Z-0.3061
N2480 X6.6753 Y0.763 Z-0.2953
N2481 X6.5867 Y0.7119 Z-0.2816
N2482 X6.4866 Y0.6541 Z-0.2647
N2483 X6.4113 Y0.6107 Z-0.251
N2484 X6.3232 Y0.5598 Z-0.2338
N2485 X6.2353 Y0.509 Z-0.2155
N2486 X6.1489 Y0.4591 Z-0.1962
N2487 X6.0627 Y0.4094 Z-0.1757
N2488 X5.9882 Y0.3664 Z-0.157
N2489 X5.9011 Y0.3161 Z-0.134
N2490 X5.8156 Y0.2667 Z-0.11
N2491 X5.7417 Y0.2241 Z-0.0882
N2492 X5.6694 Y0.1823 Z-0.0658
N2493 X5.6074 Y0.1465 Z-0.0458
N2494 X5.5581 Y0.118 Z-0.0296
N2495 X5.5326 Y0.1033 Z-0.0224
N2496 X5.5069 Y0.0885 Z-0.0162
N2497 X5.4811 Y0.0736 Z-0.0111
N2498 X5.4551 Y0.0586 Z-0.007
N2499 X5.4289 Y0.0435 Z-0.0038
N2500 X5.4027 Y0.0283 Z-0.0016
N2501 X5.3765 Y0.0132 Z-0.0003
N2502 X5.3536 Y0 Z0
N2503 X5.3505 Y-0.0018 Z0.0003
N2504 X5.3474 Y-0.0036 Z0.0012
N2505 X5.3444 Y-0.0053 Z0.0025
N2506 X5.3413 Y-0.0071 Z0.004
N2507 X5.3381 Y-0.0089 Z0.0048
N2508 X5.3349 Y-0.0108 Z0.0051
N2509 X5.2449 Y-0.0628
N2510 G2 X5.2039 Y-0.0518 I-0.015 J0.026
N2511 X5.2149 Y-0.0108 I0.026 J0.015
N2512 G1 X5.2182 Y-0.0089 Z0.0048
N2513 X5.2214 Y-0.0071 Z0.004
N2514 X5.2244 Y-0.0053 Z0.0025
N2515 X5.2274 Y-0.0036 Z0.0012
N2516 X5.2305 Y-0.0018 Z0.0003
N2517 X5.2336 Y0 Z0
N2518 X5.2569 Y0.0134 Z-0.0004
N2519 X5.2831 Y0.0286 Z-0.0016
N2520 X5.3094 Y0.0437 Z-0.0039
N2521 X5.3355 Y0.0588 Z-0.007
N2522 X5.3615 Y0.0738 Z-0.0111
N2523 X5.3874 Y0.0887 Z-0.0163
N2524 X5.4131 Y0.1036 Z-0.0225
N2525 X5.4385 Y0.1183 Z-0.0297
N2526 X5.4878 Y0.1467 Z-0.0459
N2527 X5.5498 Y0.1825 Z-0.0659
N2528 X5.6221 Y0.2243 Z-0.0883
N2529 X5.696 Y0.2669 Z-0.1101
N2530 X5.7815 Y0.3163 Z-0.1341
N2531 X5.8686 Y0.3666 Z-0.1571
N2532 X5.9431 Y0.4096 Z-0.1758
N2533 X6.0293 Y0.4594 Z-0.1963
N2534 X6.1157 Y0.5093 Z-0.2156
N2535 X6.2036 Y0.56 Z-0.2339
N2536 X6.2917 Y0.6109 Z-0.251
N2537 X6.367 Y0.6543 Z-0.2648
N2538 X6.4671 Y0.7121 Z-0.2817
N2539 X6.5557 Y0.7633 Z-0.2953
N2540 X6.6313 Y0.8069 Z-0.3061
N2541 X6.7201 Y0.8582 Z-0.3178
N2542 X6.8207 Y0.9163 Z-0.3296
N2543 X6.911 Y0.9684 Z-0.3389
N2544 X7.0001 Y1.0199 Z-0.3471
N2545 X7.0892 Y1.0713 Z-0.3542
N2546 X7.1916 Y1.1304 Z-0.3609
N2547 X7.2822 Y1.1827 Z-0.3657
N2548 X7.3596 Y1.2274 Z-0.3689
N2549 X7.438 Y1.2727 Z-0.3714
N2550 X7.5435 Y1.3336 Z-0.3734
N2551 G0 Z0.2
N2552 X7.4562 Y1.3525
N2553 Z-0.1179
N2554 G1 Z-0.3737 F24
N2555 X7.376 Y1.3062 Z-0.3727 F90
N2556 X7.2983 Y1.2613 Z-0.3708
N2557 X7.2072 Y1.2087 Z-0.3677
N2558 X7.1048 Y1.1496 Z-0.3628
N2559 X7.0155 Y1.0981 Z-0.3574
N2560 X6.9382 Y1.0534 Z-0.3518
N2561 X6.849 Y1.0019 Z-0.3444
N2562 X6.7469 Y0.943 Z-0.3345
N2563 X6.6593 Y0.8924 Z-0.3249
N2564 X6.5822 Y0.8478 Z-0.3155
N2565 X6.4934 Y0.7966 Z-0.3037
N2566 X6.3931 Y0.7387 Z-0.2889
N2567 X6.3059 Y0.6883 Z-0.2749
N2568 X6.2305 Y0.6448 Z-0.2618
N2569 X6.1553 Y0.6014 Z-0.2479
N2570 X6.0672 Y0.5505 Z-0.2306
N2571 X5.9677 Y0.4931 Z-0.2094
N2572 X5.8942 Y0.4507 Z-0.1928
N2573 X5.8196 Y0.4076 Z-0.175
N2574 X5.7451 Y0.3646 Z-0.1563
N2575 X5.6581 Y0.3143 Z-0.1332
N2576 X5.5725 Y0.2649 Z-0.1091
N2577 X5.4987 Y0.2223 Z-0.0872
N2578 X5.4264 Y0.1806 Z-0.0648
N2579 X5.353 Y0.1382 Z-0.041
N2580 X5.3151 Y0.1163 Z-0.0287
N2581 X5.2896 Y0.1016 Z-0.0216
N2582 X5.2639 Y0.0867 Z-0.0155
N2583 X5.238 Y0.0718 Z-0.0105
N2584 X5.212 Y0.0568 Z-0.0065
N2585 X5.1858 Y0.0417 Z-0.0035
N2586 X5.1596 Y0.0265 Z-0.0014
N2587 X5.1333 Y0.0114 Z-0.0003
N2588 X5.1137 Y0 Z0
N2589 X5.1105 Y-0.0018 Z0.0003
N2590 X5.1073 Y-0.0036 Z0.0012
N2591 X5.1044 Y-0.0054 Z0.0025
N2592 X5.1013 Y-0.0071 Z0.004
N2593 X5.0981 Y-0.009 Z0.0048
N2594 X5.0948 Y-0.0109 Z0.0051
N2595 X5.0049 Y-0.0628
N2596 G2 X4.9749 Y-0.0109 I-0.015 J0.026
N2597 G1 X4.9781 Y-0.009 Z0.0048
N2598 X4.9813 Y-0.0071 Z0.004
N2599 X4.9844 Y-0.0054 Z0.0025
N2600 X4.9874 Y-0.0036 Z0.0012
N2601 X4.9905 Y-0.0018 Z0.0003
N2602 X4.9937 Y0 Z0
N2603 X5.0135 Y0.0114 Z-0.0003
N2604 X5.0397 Y0.0266 Z-0.0014
N2605 X5.0659 Y0.0417 Z-0.0035
N2606 X5.0921 Y0.0568 Z-0.0065
N2607 X5.1181 Y0.0718 Z-0.0105
N2608 X5.144 Y0.0868 Z-0.0156
N2609 X5.1697 Y0.1016 Z-0.0216
N2610 X5.1952 Y0.1164 Z-0.0287
N2611 X5.2331 Y0.1383 Z-0.0411
N2612 X5.3065 Y0.1806 Z-0.0649
N2613 X5.3788 Y0.2224 Z-0.0873
N2614 X5.4399 Y0.2576 Z-0.1054
N2615 X5.5139 Y0.3004 Z-0.1265
N2616 X5.5881 Y0.3432 Z-0.1466
N2617 X5.674 Y0.3928 Z-0.1687
N2618 X5.7615 Y0.4433 Z-0.1898
N2619 X5.8362 Y0.4865 Z-0.2069
N2620 X5.9228 Y0.5364 Z-0.2255
N2621 X6.0224 Y0.594 Z-0.2455
N2622 X6.1107 Y0.6449 Z-0.2618
N2623 X6.186 Y0.6884 Z-0.2749
N2624 X6.2732 Y0.7387 Z-0.2889
N2625 X6.3735 Y0.7967 Z-0.3037
N2626 X6.4623 Y0.8479 Z-0.3155
N2627 X6.5394 Y0.8924 Z-0.3249
N2628 X6.627 Y0.943 Z-0.3345
N2629 X6.7292 Y1.002 Z-0.3444
N2630 X6.8183 Y1.0534 Z-0.3518
N2631 X6.8943 Y1.0973 Z-0.3573
N2632 X6.9953 Y1.1557 Z-0.3634
N2633 X7.0991 Y1.2156 Z-0.3681
N2634 X7.1904 Y1.2683 Z-0.3712
N2635 X7.2682 Y1.3132 Z-0.3729
N2636 X7.3738 Y1.3742 Z-0.3739
N2637 G0 Z0.2
N2638 X7.2958 Y1.3984
N2639 Z-0.1179
N2640 G1 Z-0.3739 F24
N2641 X7.2088 Y1.3482 Z-0.3736 F90
N2642 X7.1287 Y1.3019 Z-0.3725
N2643 X7.0444 Y1.2533 Z-0.3704
N2644 X6.9403 Y1.1931 Z-0.3666
N2645 X6.8523 Y1.1424 Z-0.3621
N2646 X6.7618 Y1.0901 Z-0.3564
N2647 X6.6595 Y1.0311 Z-0.3488
N2648 X6.56 Y0.9736 Z-0.3398
N2649 X6.4841 Y0.9298 Z-0.3321
N2650 X6.3952 Y0.8784 Z-0.322
N2651 X6.2946 Y0.8204 Z-0.3093
N2652 X6.2073 Y0.7699 Z-0.297
N2653 X6.1317 Y0.7263 Z-0.2856
N2654 X6.0563 Y0.6828 Z-0.2732
N2655 X5.9679 Y0.6318 Z-0.2578
N2656 X5.8681 Y0.5741 Z-0.2388
N2657 X5.7931 Y0.5308 Z-0.2235
N2658 X5.7066 Y0.4809 Z-0.2047
N2659 X5.6189 Y0.4303 Z-0.1845
N2660 X5.5329 Y0.3806 Z-0.1634
N2661 X5.4585 Y0.3376 Z-0.144
N2662 X5.3843 Y0.2948 Z-0.1238
N2663 X5.3117 Y0.2529 Z-0.103
N2664 X5.2379 Y0.2103 Z-0.0809
N2665 X5.1517 Y0.1605 Z-0.0538
N2666 X5.0784 Y0.1182 Z-0.0297
N2667 X5.0529 Y0.1035 Z-0.0224
N2668 X5.0272 Y0.0887 Z-0.0163
N2669 X5.0014 Y0.0737 Z-0.0111
N2670 X4.9754 Y0.0587 Z-0.007
N2671 X4.9492 Y0.0436 Z-0.0038
N2672 X4.923 Y0.0285 Z-0.0016
N2673 X4.8968 Y0.0133 Z-0.0004
N2674 X4.8737 Y0 Z0
N2675 X4.8705 Y-0.0018 Z0.0003
N2676 X4.8674 Y-0.0036 Z0.0012
N2677 X4.8644 Y-0.0053 Z0.0025
N2678 X4.8614 Y-0.0071 Z0.004
N2679 X4.8582 Y-0.0089 Z0.0048
N2680 X4.8549 Y-0.0108 Z0.0051
N2681 X4.7649 Y-0.0628
N2682 G2 X4.7239 Y-0.0518 I-0.015 J0.026
N2683 X4.7349 Y-0.0108 I0.026 J0.015
N2684 G1 X4.7382 Y-0.0089 Z0.0048
N2685 X4.7414 Y-0.0071 Z0.004
N2686 X4.7445 Y-0.0053 Z0.0025
N2687 X4.7474 Y-0.0036 Z0.0012
N2688 X4.7505 Y-0.0018 Z0.0003
N2689 X4.7537 Y0 Z0
N2690 X4.7773 Y0.0136 Z-0.0004
N2691 X4.8036 Y0.0288 Z-0.0017
N2692 X4.8298 Y0.0439 Z-0.0039
N2693 X4.8559 Y0.059 Z-0.0071
N2694 X4.8819 Y0.074 Z-0.0112
N2695 X4.9078 Y0.089 Z-0.0164
N2696 X4.9335 Y0.1038 Z-0.0226
N2697 X4.9589 Y0.1185 Z-0.0299
N2698 X5.0575 Y0.1754 Z-0.062
N2699 X5.1298 Y0.2172 Z-0.0845
N2700 X5.2036 Y0.2598 Z-0.1065
N2701 X5.2648 Y0.2951 Z-0.1239
N2702 X5.339 Y0.3379 Z-0.1442
N2703 X5.4134 Y0.3809 Z-0.1635
N2704 X5.4995 Y0.4306 Z-0.1847
N2705 X5.5871 Y0.4812 Z-0.2048
N2706 X5.6736 Y0.5311 Z-0.2236
N2707 X5.7486 Y0.5744 Z-0.2389
N2708 X5.8484 Y0.6321 Z-0.2578
N2709 X5.9368 Y0.6831 Z-0.2733
N2710 X6.0239 Y0.7334 Z-0.2875
N2711 X6.1112 Y0.7838 Z-0.3006
N2712 X6.213 Y0.8425 Z-0.3143
N2713 X6.3019 Y0.8938 Z-0.3252
N2714 X6.3895 Y0.9444 Z-0.3348
N2715 X6.4903 Y1.0026 Z-0.3445
N2716 X6.5794 Y1.0541 Z-0.3519
N2717 X6.6568 Y1.0988 Z-0.3574
N2718 X6.7447 Y1.1495 Z-0.3628
N2719 X6.8471 Y1.2086 Z-0.3677
N2720 X6.9382 Y1.2612 Z-0.3708
N2721 X7.0227 Y1.31 Z-0.3728
N2722 X7.1211 Y1.3668 Z-0.3739
N2723 X7.2217 Y1.4249 Z-0.3736
N2724 G0 Z0.2
N2725 X7.1511 Y1.4534
N2726 Z-0.1179
N2727 G1 Z-0.3731 F24
N2728 X7.0505 Y1.3953 Z-0.3739 F90
N2729 X6.9632 Y1.3449 Z-0.3736
N2730 X6.8697 Y1.2909 Z-0.3722
N2731 X6.767 Y1.2317 Z-0.3692
N2732 X6.6777 Y1.1801 Z-0.3655
N2733 X6.5885 Y1.1286 Z-0.3607
N2734 X6.4862 Y1.0695 Z-0.3539
N2735 X6.3984 Y1.0188 Z-0.3469
N2736 X6.3093 Y0.9674 Z-0.3387
N2737 X6.2072 Y0.9085 Z-0.3281
N2738 X6.1079 Y0.8512 Z-0.3162
N2739 X6.0322 Y0.8074 Z-0.3062
N2740 X5.9436 Y0.7563 Z-0.2935
N2741 X5.8433 Y0.6984 Z-0.2778
N2742 X5.7563 Y0.6481 Z-0.2628
N2743 X5.681 Y0.6047 Z-0.249
N2744 X5.5929 Y0.5538 Z-0.2317
N2745 X5.4934 Y0.4963 Z-0.2107
N2746 X5.4186 Y0.4532 Z-0.1938
N2747 X5.3324 Y0.4034 Z-0.1732
N2748 X5.2451 Y0.353 Z-0.1511
N2749 X5.1594 Y0.3035 Z-0.128
N2750 X5.0854 Y0.2608 Z-0.107
N2751 X5.0116 Y0.2182 Z-0.0851
N2752 X4.9393 Y0.1764 Z-0.0626
N2753 X4.866 Y0.1341 Z-0.0387
N2754 X4.8343 Y0.1158 Z-0.0285
N2755 X4.8088 Y0.1011 Z-0.0214
N2756 X4.7831 Y0.0863 Z-0.0154
N2757 X4.7572 Y0.0713 Z-0.0104
N2758 X4.7312 Y0.0563 Z-0.0064
N2759 X4.705 Y0.0412 Z-0.0034
N2760 X4.6788 Y0.0261 Z-0.0014
N2761 X4.6526 Y0.0109 Z-0.0002
N2762 X4.6337 Y0 Z0
N2763 X4.6305 Y-0.0018 Z0.0003
N2764 X4.6274 Y-0.0036 Z0.0012
N2765 X4.6244 Y-0.0054 Z0.0025
N2766 X4.6214 Y-0.0071 Z0.004
N2767 X4.6182 Y-0.009 Z0.0048
N2768 X4.6149 Y-0.0109 Z0.0051
N2769 X4.525 Y-0.0628
N2770 G2 X4.495 Y-0.0108 I-0.015 J0.026
N2771 G1 X4.4983 Y-0.0089 Z0.0048
N2772 X4.5015 Y-0.0071 Z0.004
N2773 X4.5045 Y-0.0053 Z0.0025
N2774 X4.5075 Y-0.0036 Z0.0012
N2775 X4.5106 Y-0.0018 Z0.0003
N2776 X4.5137 Y0 Z0
N2777 X4.541 Y0.0158 Z-0.0005
N2778 X4.5673 Y0.0309 Z-0.0019
N2779 X4.5935 Y0.0461 Z-0.0043
N2780 X4.6196 Y0.0611 Z-0.0076
N2781 X4.6456 Y0.0761 Z-0.0119
N2782 X4.6714 Y0.0911 Z-0.0172
N2783 X4.6971 Y0.1059 Z-0.0235
N2784 X4.7225 Y0.1206 Z-0.031
N2785 X4.7718 Y0.149 Z-0.0472
N2786 X4.8452 Y0.1914 Z-0.0708
N2787 X4.9303 Y0.2405 Z-0.0968
N2788 X5.017 Y0.2906 Z-0.1218
N2789 X5.0899 Y0.3327 Z-0.1417
N2790 X5.1757 Y0.3822 Z-0.1641
N2791 X5.2632 Y0.4327 Z-0.1855
N2792 X5.3508 Y0.4833 Z-0.2057
N2793 X5.4257 Y0.5265 Z-0.2219
N2794 X5.5124 Y0.5766 Z-0.2396
N2795 X5.6122 Y0.6342 Z-0.2585
N2796 X5.7005 Y0.6852 Z-0.274
N2797 X5.776 Y0.7288 Z-0.2862
N2798 X5.875 Y0.7859 Z-0.3011
N2799 X5.9768 Y0.8447 Z-0.3148
N2800 X6.0643 Y0.8952 Z-0.3254
N2801 X6.1519 Y0.9458 Z-0.335
N2802 X6.2541 Y1.0048 Z-0.3448
N2803 X6.3432 Y1.0563 Z-0.3522
N2804 X6.431 Y1.107 Z-0.3584
N2805 X6.5321 Y1.1653 Z-0.3642
N2806 X6.6227 Y1.2176 Z-0.3683
N2807 X6.7127 Y1.2696 Z-0.3712
N2808 X6.8036 Y1.322 Z-0.3732
N2809 X6.9092 Y1.383 Z-0.3739
N2810 X6.9964 Y1.4334 Z-0.3735
N2811 X7.0836 Y1.4837 Z-0.372
N2812 G0 Z0.2
N2813 X7.0189 Y1.5156
N2814 Z-0.118
N2815 G1 Z-0.3706 F24
N2816 X6.9321 Y1.4656 Z-0.3727 F90
N2817 X6.8248 Y1.4036 Z-0.3739
N2818 X6.7311 Y1.3495 Z-0.3737
N2819 X6.6442 Y1.2993 Z-0.3724
N2820 X6.54 Y1.2391 Z-0.3697
N2821 X6.4389 Y1.1808 Z-0.3655
N2822 X6.3497 Y1.1293 Z-0.3608
N2823 X6.2473 Y1.0702 Z-0.354
N2824 X6.1595 Y1.0195 Z-0.347
N2825 X6.0718 Y0.9688 Z-0.339
N2826 X5.9697 Y0.9099 Z-0.3284
N2827 X5.8704 Y0.8526 Z-0.3165
N2828 X5.7817 Y0.8013 Z-0.3048
N2829 X5.68 Y0.7426 Z-0.29
N2830 X5.5928 Y0.6923 Z-0.276
N2831 X5.5058 Y0.642 Z-0.2609
N2832 X5.4175 Y0.5911 Z-0.2445
N2833 X5.3179 Y0.5336 Z-0.2245
N2834 X5.2314 Y0.4836 Z-0.2058
N2835 X5.1437 Y0.433 Z-0.1856
N2836 X5.0563 Y0.3825 Z-0.1642
N2837 X4.9704 Y0.333 Z-0.1419
N2838 X4.8976 Y0.2909 Z-0.1219
N2839 X4.8109 Y0.2409 Z-0.0969
N2840 X4.7258 Y0.1917 Z-0.0709
N2841 X4.6524 Y0.1493 Z-0.0474
N2842 X4.6031 Y0.1209 Z-0.0312
N2843 X4.5777 Y0.1062 Z-0.0237
N2844 X4.552 Y0.0914 Z-0.0173
N2845 X4.5262 Y0.0765 Z-0.012
N2846 X4.5002 Y0.0615 Z-0.0077
N2847 X4.4741 Y0.0464 Z-0.0043
N2848 X4.4479 Y0.0313 Z-0.002
N2849 X4.4216 Y0.0161 Z-0.0005
N2850 X4.3937 Y0 Z0
N2851 X4.3906 Y-0.0018 Z0.0003
N2852 X4.3875 Y-0.0036 Z0.0012
N2853 X4.3845 Y-0.0053 Z0.0025
N2854 X4.3815 Y-0.0071 Z0.004
N2855 X4.3783 Y-0.0089 Z0.0048
N2856 X4.375 Y-0.0108 Z0.0051
N2857 X4.285 Y-0.0628
N2858 G2 X4.255 Y-0.0108 I-0.015 J0.026
N2859 G1 X4.2582 Y-0.0089 Z0.0048
N2860 X4.2614 Y-0.0071 Z0.004
N2861 X4.2645 Y-0.0053 Z0.0025
N2862 X4.2675 Y-0.0036 Z0.0012
N2863 X4.2706 Y-0.0018 Z0.0003
N2864 X4.2737 Y0 Z0
N2865 X4.2969 Y0.0134 Z-0.0004
N2866 X4.3232 Y0.0286 Z-0.0016
N2867 X4.3494 Y0.0437 Z-0.0038
N2868 X4.3755 Y0.0588 Z-0.007
N2869 X4.4015 Y0.0738 Z-0.0111
N2870 X4.4274 Y0.0887 Z-0.0163
N2871 X4.4531 Y0.1036 Z-0.0225
N2872 X4.4786 Y0.1183 Z-0.0297
N2873 X4.5342 Y0.1504 Z-0.048
N2874 X4.5949 Y0.1854 Z-0.0675
N2875 X4.6686 Y0.228 Z-0.0902
N2876 X4.7666 Y0.2846 Z-0.1188
N2877 X4.8408 Y0.3274 Z-0.1393
N2878 X4.9138 Y0.3695 Z-0.1585
N2879 X4.9883 Y0.4125 Z-0.1771
N2880 X5.0629 Y0.4556 Z-0.1948
N2881 X5.1622 Y0.513 Z-0.2169
N2882 X5.2502 Y0.5638 Z-0.2352
N2883 X5.324 Y0.6064 Z-0.2496
N2884 X5.4123 Y0.6573 Z-0.2657
N2885 X5.5124 Y0.7151 Z-0.2825
N2886 X5.6009 Y0.7663 Z-0.2961
N2887 X5.6766 Y0.8099 Z-0.3068
N2888 X5.7758 Y0.8672 Z-0.3197
N2889 X5.8778 Y0.9261 Z-0.3314
N2890 X5.9668 Y0.9775 Z-0.3404
N2891 X6.0663 Y1.0349 Z-0.3493
N2892 X6.1686 Y1.094 Z-0.3569
N2893 X6.2578 Y1.1455 Z-0.3624
N2894 X6.3706 Y1.2106 Z-0.3678
N2895 X6.4604 Y1.2625 Z-0.3709
N2896 X6.5512 Y1.3149 Z-0.373
N2897 X6.6567 Y1.3758 Z-0.3739
N2898 X6.7506 Y1.43 Z-0.3735
N2899 X6.8378 Y1.4804 Z-0.3722
N2900 X6.957 Y1.5492 Z-0.3687
N2901 G0 Z0.2
N2902 X6.8977 Y1.5842
N2903 Z-0.1178
N2904 G1 Z-0.3661 F24
N2905 X6.8057 Y1.5311 Z-0.3698 F90
N2906 X6.7059 Y1.4735 Z-0.3724
N2907 X6.6187 Y1.4231 Z-0.3737
N2908 X6.5123 Y1.3617 Z-0.3739
N2909 X6.4188 Y1.3077 Z-0.3727
N2910 X6.3277 Y1.2551 Z-0.3705
N2911 X6.2249 Y1.1958 Z-0.3668
N2912 X6.1252 Y1.1382 Z-0.3617
N2913 X6.036 Y1.0867 Z-0.356
N2914 X5.9337 Y1.0277 Z-0.3483
N2915 X5.8342 Y0.9702 Z-0.3392
N2916 X5.7322 Y0.9113 Z-0.3286
N2917 X5.6315 Y0.8532 Z-0.3167
N2918 X5.5441 Y0.8027 Z-0.3051
N2919 X5.4424 Y0.744 Z-0.2904
N2920 X5.3552 Y0.6937 Z-0.2764
N2921 X5.2682 Y0.6434 Z-0.2614
N2922 X5.18 Y0.5925 Z-0.245
N2923 X5.0803 Y0.5349 Z-0.225
N2924 X5.0054 Y0.4917 Z-0.2089
N2925 X4.919 Y0.4418 Z-0.1892
N2926 X4.8316 Y0.3913 Z-0.1681
N2927 X4.7457 Y0.3417 Z-0.1459
N2928 X4.6715 Y0.2989 Z-0.1258
N2929 X4.5975 Y0.2562 Z-0.1047
N2930 X4.525 Y0.2143 Z-0.083
N2931 X4.4514 Y0.1719 Z-0.06
N2932 X4.3591 Y0.1186 Z-0.0299
N2933 X4.3337 Y0.1039 Z-0.0226
N2934 X4.308 Y0.089 Z-0.0164
N2935 X4.2821 Y0.0741 Z-0.0112
N2936 X4.2561 Y0.0591 Z-0.0071
N2937 X4.23 Y0.044 Z-0.0039
N2938 X4.2038 Y0.0289 Z-0.0017
N2939 X4.1775 Y0.0137 Z-0.0004
N2940 X4.1537 Y0 Z0
N2941 X4.1506 Y-0.0018 Z0.0003
N2942 X4.1475 Y-0.0036 Z0.0012
N2943 X4.1445 Y-0.0053 Z0.0025
N2944 X4.1415 Y-0.0071 Z0.004
N2945 X4.1383 Y-0.0089 Z0.0048
N2946 X4.135 Y-0.0108 Z0.0051
N2947 X4.045 Y-0.0628
N2948 G2 X4.015 Y-0.0108 I-0.015 J0.026
N2949 G1 X4.0183 Y-0.0089 Z0.0048
N2950 X4.0215 Y-0.0071 Z0.004
N2951 X4.0245 Y-0.0053 Z0.0025
N2952 X4.0275 Y-0.0036 Z0.0012
N2953 X4.0306 Y-0.0018 Z0.0003
N2954 X4.0338 Y0 Z0
N2955 X4.0581 Y0.014 Z-0.0004
N2956 X4.0843 Y0.0292 Z-0.0017
N2957 X4.1105 Y0.0443 Z-0.004
N2958 X4.1366 Y0.0594 Z-0.0072
N2959 X4.1627 Y0.0744 Z-0.0113
N2960 X4.1885 Y0.0894 Z-0.0165
N2961 X4.2142 Y0.1042 Z-0.0227
N2962 X4.2396 Y0.1189 Z-0.0301
N2963 X4.2826 Y0.1437 Z-0.0442
N2964 X4.356 Y0.1861 Z-0.0678
N2965 X4.4297 Y0.2286 Z-0.0905
N2966 X4.515 Y0.2778 Z-0.1156
N2967 X4.6019 Y0.328 Z-0.1396
N2968 X4.6749 Y0.3702 Z-0.1587
N2969 X4.7494 Y0.4132 Z-0.1774
N2970 X4.824 Y0.4563 Z-0.1951
N2971 X4.9234 Y0.5136 Z-0.2172
N2972 X5.0113 Y0.5644 Z-0.2354
N2973 X5.0981 Y0.6145 Z-0.2522
N2974 X5.185 Y0.6647 Z-0.2679
N2975 X5.2865 Y0.7233 Z-0.2847
N2976 X5.3738 Y0.7737 Z-0.298
N2977 X5.4611 Y0.8241 Z-0.3102
N2978 X5.563 Y0.8829 Z-0.3229
N2979 X5.652 Y0.9343 Z-0.3329
N2980 X5.7514 Y0.9917 Z-0.3428
N2981 X5.8536 Y1.0507 Z-0.3514
N2982 X5.9428 Y1.1022 Z-0.3578
N2983 X6.0425 Y1.1597 Z-0.3638
N2984 X6.1449 Y1.2189 Z-0.3684
N2985 X6.2349 Y1.2708 Z-0.3713
N2986 X6.3325 Y1.3272 Z-0.3733
N2987 X6.4357 Y1.3868 Z-0.3739
N2988 X6.5229 Y1.4371 Z-0.3734
N2989 X6.63 Y1.499 Z-0.3714
N2990 X6.7357 Y1.5599 Z-0.3679
N2991 X6.8408 Y1.6206 Z-0.363
N2992 G0 Z0.2
N2993 X6.7862 Y1.6584
N2994 Z-0.1175
N2995 G1 Z-0.3591 F24
N2996 X6.6811 Y1.5977 Z-0.365 F90
N2997 X6.5774 Y1.5378 Z-0.3694
N2998 X6.4711 Y1.4765 Z-0.3723
N2999 X6.3772 Y1.4222 Z-0.3737
N3000 X6.2667 Y1.3585 Z-0.3738
N3001 X6.1732 Y1.3045 Z-0.3726
N3002 X6.0754 Y1.248 Z-0.3702
N3003 X5.9741 Y1.1896 Z-0.3663
N3004 X5.8862 Y1.1388 Z-0.3617
N3005 X5.797 Y1.0873 Z-0.3561
N3006 X5.6947 Y1.0282 Z-0.3483
N3007 X5.5952 Y0.9708 Z-0.3393
N3008 X5.4932 Y0.9119 Z-0.3288
N3009 X5.3925 Y0.8538 Z-0.3168
N3010 X5.3051 Y0.8033 Z-0.3053
N3011 X5.2034 Y0.7446 Z-0.2905
N3012 X5.1162 Y0.6942 Z-0.2766
N3013 X5.0292 Y0.644 Z-0.2616
N3014 X4.9409 Y0.593 Z-0.2452
N3015 X4.8413 Y0.5355 Z-0.2252
N3016 X4.7664 Y0.4922 Z-0.2091
N3017 X4.68 Y0.4424 Z-0.1894
N3018 X4.5926 Y0.3919 Z-0.1683
N3019 X4.5066 Y0.3423 Z-0.1462
N3020 X4.4324 Y0.2995 Z-0.126
N3021 X4.3584 Y0.2567 Z-0.105
N3022 X4.2847 Y0.2141 Z-0.0829
N3023 X4.2124 Y0.1724 Z-0.0603
N3024 X4.1201 Y0.1191 Z-0.0302
N3025 X4.0946 Y0.1044 Z-0.0229
N3026 X4.069 Y0.0896 Z-0.0166
N3027 X4.0431 Y0.0747 Z-0.0114
N3028 X4.0171 Y0.0597 Z-0.0072
N3029 X3.991 Y0.0446 Z-0.004
N3030 X3.9648 Y0.0294 Z-0.0017
N3031 X3.9385 Y0.0143 Z-0.0004
N3032 X3.9138 Y0 Z0
N3033 X3.9106 Y-0.0018 Z0.0003
N3034 X3.9075 Y-0.0036 Z0.0012
N3035 X3.9045 Y-0.0053 Z0.0025
N3036 X3.9015 Y-0.0071 Z0.004
N3037 X3.8983 Y-0.0089 Z0.0048
N3038 X3.895 Y-0.0108 Z0.0051
N3039 X3.805 Y-0.0628
N3040 G2 X3.775 Y-0.0108 I-0.015 J0.026
N3041 G1 X3.7783 Y-0.0089 Z0.0048
N3042 X3.7815 Y-0.0071 Z0.004
N3043 X3.7846 Y-0.0053 Z0.0025
N3044 X3.7875 Y-0.0036 Z0.0012
N3045 X3.7906 Y-0.0018 Z0.0003
N3046 X3.7938 Y0 Z0
N3047 X3.8191 Y0.0146 Z-0.0004
N3048 X3.8453 Y0.0298 Z-0.0018
N3049 X3.8715 Y0.0449 Z-0.0041
N3050 X3.8977 Y0.06 Z-0.0073
N3051 X3.9237 Y0.075 Z-0.0115
N3052 X3.9495 Y0.0899 Z-0.0167
N3053 X3.9752 Y0.1047 Z-0.023
N3054 X4.0006 Y0.1194 Z-0.0304
N3055 X4.0562 Y0.1515 Z-0.0486
N3056 X4.1284 Y0.1932 Z-0.0717
N3057 X4.2148 Y0.2431 Z-0.0981
N3058 X4.3002 Y0.2924 Z-0.1226
N3059 X4.3744 Y0.3352 Z-0.1429
N3060 X4.4487 Y0.3781 Z-0.1623
N3061 X4.5477 Y0.4353 Z-0.1866
N3062 X4.634 Y0.4851 Z-0.2064
N3063 X4.7089 Y0.5283 Z-0.2226
N3064 X4.8085 Y0.5859 Z-0.2428
N3065 X4.9097 Y0.6443 Z-0.2617
N3066 X4.9968 Y0.6945 Z-0.2767
N3067 X5.0839 Y0.7449 Z-0.2906
N3068 X5.1856 Y0.8036 Z-0.3053
N3069 X5.2731 Y0.8541 Z-0.3169
N3070 X5.3606 Y0.9046 Z-0.3273
N3071 X5.4627 Y0.9636 Z-0.3381
N3072 X5.5518 Y1.015 Z-0.3463
N3073 X5.6513 Y1.0725 Z-0.3543
N3074 X5.7537 Y1.1315 Z-0.361
N3075 X5.8429 Y1.1831 Z-0.3657
N3076 X5.9309 Y1.2338 Z-0.3694
N3077 X6.0403 Y1.297 Z-0.3724
N3078 X6.1338 Y1.351 Z-0.3737
N3079 X6.2377 Y1.411 Z-0.3739
N3080 X6.3383 Y1.4691 Z-0.3726
N3081 X6.4316 Y1.523 Z-0.3702
N3082 X6.5237 Y1.5761 Z-0.3668
N3083 X6.6288 Y1.6368 Z-0.3614
N3084 X6.7338 Y1.6974 Z-0.3545
N3085 G0 Z0.2
N3086 X6.6836 Y1.7377
N3087 Z-0.1165
N3088 G1 Z-0.3492 F24
N3089 X6.5786 Y1.6771 Z-0.357 F90
N3090 X6.4735 Y1.6164 Z-0.3634
N3091 X6.3685 Y1.5558 Z-0.3682
N3092 X6.2561 Y1.4909 Z-0.3718
N3093 X6.1555 Y1.4328 Z-0.3735
N3094 X6.0616 Y1.3786 Z-0.3739
N3095 X5.954 Y1.3165 Z-0.373
N3096 X5.8631 Y1.264 Z-0.371
N3097 X5.7602 Y1.2046 Z-0.3674
N3098 X5.6591 Y1.1462 Z-0.3625
N3099 X5.5712 Y1.0955 Z-0.3571
N3100 X5.4689 Y1.0364 Z-0.3495
N3101 X5.3681 Y0.9782 Z-0.3406
N3102 X5.2804 Y0.9276 Z-0.3317
N3103 X5.1784 Y0.8687 Z-0.32
N3104 X5.0779 Y0.8107 Z-0.307
N3105 X4.9905 Y0.7602 Z-0.2946
N3106 X4.889 Y0.7016 Z-0.2787
N3107 X4.8019 Y0.6513 Z-0.2638
N3108 X4.715 Y0.6011 Z-0.2478
N3109 X4.6269 Y0.5503 Z-0.2305
N3110 X4.539 Y0.4995 Z-0.2119
N3111 X4.4526 Y0.4497 Z-0.1924
N3112 X4.378 Y0.4066 Z-0.1746
N3113 X4.292 Y0.3569 Z-0.1529
N3114 X4.205 Y0.3067 Z-0.1295
N3115 X4.1195 Y0.2573 Z-0.1053
N3116 X4.0584 Y0.2221 Z-0.0871
N3117 X3.9975 Y0.1869 Z-0.0683
N3118 X3.9241 Y0.1445 Z-0.0446
N3119 X3.8748 Y0.1161 Z-0.0286
N3120 X3.8493 Y0.1013 Z-0.0215
N3121 X3.8236 Y0.0865 Z-0.0154
N3122 X3.7977 Y0.0715 Z-0.0105
N3123 X3.7717 Y0.0565 Z-0.0065
N3124 X3.7455 Y0.0414 Z-0.0035
N3125 X3.7193 Y0.0263 Z-0.0014
N3126 X3.693 Y0.0111 Z-0.0002
N3127 X3.6738 Y0 Z0
N3128 X3.6706 Y-0.0018 Z0.0003
N3129 X3.6675 Y-0.0036 Z0.0012
N3130 X3.6645 Y-0.0054 Z0.0025
N3131 X3.6614 Y-0.0071 Z0.004
N3132 X3.6582 Y-0.009 Z0.0048
N3133 X3.655 Y-0.0109 Z0.0051
N3134 X3.565 Y-0.0628
N3135 G2 X3.524 Y-0.0518 I-0.015 J0.026
N3136 X3.535 Y-0.0109 I0.026 J0.015
N3137 G1 X3.5383 Y-0.009 Z0.0048
N3138 X3.5415 Y-0.0071 Z0.004
N3139 X3.5445 Y-0.0054 Z0.0025
N3140 X3.5475 Y-0.0036 Z0.0012
N3141 X3.5506 Y-0.0018 Z0.0003
N3142 X3.5538 Y0 Z0
N3143 X3.5736 Y0.0114 Z-0.0003
N3144 X3.5999 Y0.0266 Z-0.0014
N3145 X3.6261 Y0.0417 Z-0.0035
N3146 X3.6522 Y0.0568 Z-0.0065
N3147 X3.6783 Y0.0719 Z-0.0106
N3148 X3.7042 Y0.0868 Z-0.0156
N3149 X3.7299 Y0.1017 Z-0.0216
N3150 X3.7554 Y0.1164 Z-0.0287
N3151 X3.8173 Y0.1521 Z-0.049
N3152 X3.9021 Y0.2011 Z-0.0761
N3153 X3.9873 Y0.2503 Z-0.1017
N3154 X4.0613 Y0.293 Z-0.1229
N3155 X4.1354 Y0.3358 Z-0.1432
N3156 X4.2098 Y0.3787 Z-0.1625
N3157 X4.3087 Y0.4359 Z-0.1868
N3158 X4.3951 Y0.4857 Z-0.2066
N3159 X4.47 Y0.529 Z-0.2228
N3160 X4.5696 Y0.5865 Z-0.243
N3161 X4.6695 Y0.6441 Z-0.2616
N3162 X4.7578 Y0.6952 Z-0.2769
N3163 X4.845 Y0.7455 Z-0.2908
N3164 X4.9467 Y0.8042 Z-0.3055
N3165 X5.0342 Y0.8547 Z-0.317
N3166 X5.1348 Y0.9128 Z-0.3289
N3167 X5.2369 Y0.9717 Z-0.3395
N3168 X5.3246 Y1.0224 Z-0.3475
N3169 X5.4256 Y1.0807 Z-0.3553
N3170 X5.5279 Y1.1397 Z-0.3618
N3171 X5.6158 Y1.1905 Z-0.3664
N3172 X5.7171 Y1.249 Z-0.3702
N3173 X5.8148 Y1.3054 Z-0.3727
N3174 X5.9084 Y1.3594 Z-0.3738
N3175 X6.0166 Y1.4219 Z-0.3737
N3176 X6.1105 Y1.4761 Z-0.3723
N3177 X6.2167 Y1.5375 Z-0.3694
N3178 X6.3205 Y1.5974 Z-0.3651
N3179 X6.4255 Y1.658 Z-0.3592
N3180 X6.5305 Y1.7186 Z-0.3518
N3181 X6.6354 Y1.7792 Z-0.3429
N3182 G0 Z0.2
N3183 X6.5892 Y1.8218
N3184 Z-0.115
N3185 G1 Z-0.3357 F24
N3186 X6.4843 Y1.7612 Z-0.3457 F90
N3187 X6.3794 Y1.7007 Z-0.3541
N3188 X6.2744 Y1.64 Z-0.3611
N3189 X6.1694 Y1.5794 Z-0.3665
N3190 X6.0787 Y1.5271 Z-0.37
N3191 X5.9854 Y1.4732 Z-0.3724
N3192 X5.8848 Y1.4151 Z-0.3738
N3193 X5.7822 Y1.3558
N3194 X5.6887 Y1.3018 Z-0.3725
N3195 X5.5843 Y1.2416 Z-0.3698
N3196 X5.4846 Y1.184 Z-0.3658
N3197 X5.3953 Y1.1325 Z-0.3611
N3198 X5.293 Y1.0734 Z-0.3544
N3199 X5.1934 Y1.0159 Z-0.3465
N3200 X5.1043 Y0.9645 Z-0.3383
N3201 X5.0023 Y0.9055 Z-0.3275
N3202 X4.903 Y0.8482 Z-0.3156
N3203 X4.8012 Y0.7894 Z-0.302
N3204 X4.7008 Y0.7315 Z-0.287
N3205 X4.6137 Y0.6812 Z-0.2728
N3206 X4.5124 Y0.6227 Z-0.2549
N3207 X4.4255 Y0.5726 Z-0.2382
N3208 X4.3376 Y0.5218 Z-0.2202
N3209 X4.2511 Y0.4719 Z-0.2013
N3210 X4.1635 Y0.4213 Z-0.1808
N3211 X4.0774 Y0.3716 Z-0.1594
N3212 X4.0031 Y0.3287 Z-0.1399
N3213 X3.9175 Y0.2793 Z-0.1163
N3214 X3.8322 Y0.23 Z-0.0913
N3215 X3.7586 Y0.1875 Z-0.0686
N3216 X3.6851 Y0.1451 Z-0.045
N3217 X3.6359 Y0.1167 Z-0.0289
N3218 X3.6104 Y0.102 Z-0.0217
N3219 X3.5847 Y0.0871 Z-0.0157
N3220 X3.5588 Y0.0722 Z-0.0106
N3221 X3.5328 Y0.0571 Z-0.0066
N3222 X3.5066 Y0.042 Z-0.0036
N3223 X3.4804 Y0.0269 Z-0.0015
N3224 X3.4541 Y0.0117 Z-0.0003
N3225 X3.4338 Y0 Z0
N3226 X3.4306 Y-0.0018 Z0.0003
N3227 X3.4275 Y-0.0036 Z0.0012
N3228 X3.4245 Y-0.0054 Z0.0025
N3229 X3.4215 Y-0.0071 Z0.004
N3230 X3.4183 Y-0.009 Z0.0048
N3231 X3.415 Y-0.0109 Z0.0051
N3232 X3.3251 Y-0.0628
N3233 G2 X3.2841 Y-0.0518 I-0.015 J0.026
N3234 X3.2951 Y-0.0108 I0.026 J0.015
N3235 G1 X3.2984 Y-0.0089 Z0.0048
N3236 X3.3016 Y-0.0071 Z0.004
N3237 X3.3046 Y-0.0053 Z0.0025
N3238 X3.3076 Y-0.0036 Z0.0012
N3239 X3.3107 Y-0.0018 Z0.0003
N3240 X3.3138 Y0 Z0
N3241 X3.3413 Y0.0159 Z-0.0005
N3242 X3.3676 Y0.031 Z-0.0019
N3243 X3.3938 Y0.0462 Z-0.0043
N3244 X3.4199 Y0.0612 Z-0.0076
N3245 X3.4459 Y0.0762 Z-0.0119
N3246 X3.4717 Y0.0912 Z-0.0172
N3247 X3.4974 Y0.106 Z-0.0236
N3248 X3.5228 Y0.1206 Z-0.031
N3249 X3.5531 Y0.1381 Z-0.041
N3250 X3.6265 Y0.1805 Z-0.0648
N3251 X3.7001 Y0.223 Z-0.0876
N3252 X3.7611 Y0.2583 Z-0.1057
N3253 X3.8351 Y0.301 Z-0.1268
N3254 X3.9093 Y0.3438 Z-0.1469
N3255 X3.9952 Y0.3934 Z-0.169
N3256 X4.0814 Y0.4432 Z-0.1898
N3257 X4.1691 Y0.4938 Z-0.2097
N3258 X4.2686 Y0.5512 Z-0.2308
N3259 X4.3567 Y0.6021 Z-0.2482
N3260 X4.4436 Y0.6523 Z-0.2641
N3261 X4.5306 Y0.7025 Z-0.279
N3262 X4.6322 Y0.7612 Z-0.2948
N3263 X4.7196 Y0.8116 Z-0.3073
N3264 X4.8084 Y0.8629 Z-0.3188
N3265 X4.909 Y0.921 Z-0.3305
N3266 X5.0098 Y0.9792 Z-0.3407
N3267 X5.1106 Y1.0374 Z-0.3497
N3268 X5.2129 Y1.0965 Z-0.3572
N3269 X5.3139 Y1.1548 Z-0.3633
N3270 X5.415 Y1.2131 Z-0.368
N3271 X5.5168 Y1.2719 Z-0.3714
N3272 X5.6158 Y1.3291 Z-0.3734
N3273 X5.714 Y1.3857 Z-0.3739
N3274 X5.8079 Y1.4399 Z-0.3734
N3275 X5.915 Y1.5018 Z-0.3713
N3276 X6.0205 Y1.5627 Z-0.3677
N3277 X6.1256 Y1.6234 Z-0.3627
N3278 X6.2306 Y1.684 Z-0.3562
N3279 X6.3356 Y1.7446 Z-0.3481
N3280 X6.4404 Y1.8051 Z-0.3386
N3281 X6.5452 Y1.8656 Z-0.3276
N3282 G0 Z0.2
N3283 X6.5033 Y1.9107
N3284 Z-0.1117
N3285 G1 Z-0.3184 F24
N3286 X6.3987 Y1.8503 Z-0.3305 F90
N3287 X6.2939 Y1.7898 Z-0.3412
N3288 X6.189 Y1.7293 Z-0.3503
N3289 X6.0841 Y1.6687 Z-0.358
N3290 X5.979 Y1.608 Z-0.3641
N3291 X5.874 Y1.5474 Z-0.3688
N3292 X5.7613 Y1.4824 Z-0.3721
N3293 X5.6674 Y1.4281 Z-0.3736
N3294 X5.5668 Y1.3701 Z-0.3739
N3295 X5.4632 Y1.3102 Z-0.3728
N3296 X5.3721 Y1.2576 Z-0.3707
N3297 X5.2693 Y1.1983 Z-0.367
N3298 X5.1696 Y1.1407 Z-0.3619
N3299 X5.0672 Y1.0816 Z-0.3554
N3300 X4.9663 Y1.0233 Z-0.3476
N3301 X4.8786 Y0.9727 Z-0.3397
N3302 X4.7765 Y0.9137 Z-0.3291
N3303 X4.6759 Y0.8556 Z-0.3172
N3304 X4.5884 Y0.8052 Z-0.3057
N3305 X4.4867 Y0.7464 Z-0.291
N3306 X4.3865 Y0.6886 Z-0.275
N3307 X4.2995 Y0.6384 Z-0.2598
N3308 X4.1983 Y0.5799 Z-0.2408
N3309 X4.1116 Y0.5299 Z-0.2231
N3310 X4.0367 Y0.4866 Z-0.207
N3311 X3.9504 Y0.4368 Z-0.1872
N3312 X3.8514 Y0.3797 Z-0.1629
N3313 X3.7771 Y0.3367 Z-0.1436
N3314 X3.7029 Y0.2939 Z-0.1234
N3315 X3.6289 Y0.2512 Z-0.1022
N3316 X3.5565 Y0.2094 Z-0.0804
N3317 X3.4702 Y0.1596 Z-0.0532
N3318 X3.4033 Y0.1209 Z-0.0312
N3319 X3.3779 Y0.1063 Z-0.0237
N3320 X3.3522 Y0.0915 Z-0.0173
N3321 X3.3264 Y0.0765 Z-0.012
N3322 X3.3004 Y0.0615 Z-0.0077
N3323 X3.2743 Y0.0465 Z-0.0044
N3324 X3.2481 Y0.0313 Z-0.002
N3325 X3.2218 Y0.0162 Z-0.0005
N3326 X3.1938 Y0 Z0
N3327 X3.1907 Y-0.0018 Z0.0003
N3328 X3.1876 Y-0.0036 Z0.0012
N3329 X3.1846 Y-0.0053 Z0.0025
N3330 X3.1816 Y-0.0071 Z0.004
N3331 X3.1784 Y-0.0089 Z0.0048
N3332 X3.1751 Y-0.0108 Z0.0051
N3333 X3.0851 Y-0.0628
N3334 G2 X3.0551 Y-0.0108 I-0.015 J0.026
N3335 G1 X3.0584 Y-0.0089 Z0.0048
N3336 X3.0616 Y-0.0071 Z0.004
N3337 X3.0647 Y-0.0053 Z0.0025
N3338 X3.0676 Y-0.0036 Z0.0012
N3339 X3.0707 Y-0.0018 Z0.0003
N3340 X3.0738 Y0 Z0
N3341 X3.1024 Y0.0165 Z-0.0005
N3342 X3.1287 Y0.0317 Z-0.002
N3343 X3.1549 Y0.0468 Z-0.0044
N3344 X3.181 Y0.0619 Z-0.0078
N3345 X3.207 Y0.0769 Z-0.0121
N3346 X3.2328 Y0.0918 Z-0.0175
N3347 X3.2584 Y0.1066 Z-0.0239
N3348 X3.2838 Y0.1212 Z-0.0314
N3349 X3.3268 Y0.146 Z-0.0455
N3350 X3.4002 Y0.1884 Z-0.0691
N3351 X3.4726 Y0.2302 Z-0.0914
N3352 X3.5592 Y0.2802 Z-0.1167
N3353 X3.6448 Y0.3297 Z-0.1403
N3354 X3.7191 Y0.3726 Z-0.1598
N3355 X3.7936 Y0.4156 Z-0.1784
N3356 X3.8799 Y0.4654 Z-0.1987
N3357 X3.9793 Y0.5227 Z-0.2205
N3358 X4.0672 Y0.5735 Z-0.2386
N3359 X4.1541 Y0.6237 Z-0.2552
N3360 X4.2554 Y0.6822 Z-0.2731
N3361 X4.3425 Y0.7325 Z-0.2872
