%
(1001)
(T5  D=4 CR=0 - ZMIN=-4.175 - flat end mill)
N0 G90
N1 G17
(2D Pocket2)
N2 T5 M6
N3 S5000 M3
N5 G0 X-22.083 Y34.126
N6 Z15
N7 Z5
N8 G1 Z2.9 F500
N9 G18 G2 X-21.697 Z2.5 I0.4 K0
N10 G1 X75.683 Z-0.901
N11 G17 G2 X77.683 Y32.126 Z-1.01 I0 J-2
N12 G1 Y5.714 Z-1.933
N13 G2 X76.823 Y4.071 Z-2 I-2 J0
N14 X75.683 Y3.714 I-1.14 J1.643 F1000
N15 G1 X-69.187
N16 G2 X-71.187 Y5.714 I0 J2
N17 G1 Y32.126
N18 G2 X-69.187 Y34.126 I2 J0
N19 G1 X75.683
N20 G2 X77.683 Y32.126 I0 J-2
N21 G1 Y5.714
N22 G2 X76.823 Y4.071 I-2 J0
N23 G3 X76.813 Y3.75 I0.114 J-0.164
N24 G1 X77.459 Y3.235
N25 G3 X77.584 Y3.191 I0.125 J0.156
N26 G1 X78.248
N27 Y11.285
N28 G2 X78.249 Y11.344 I2 J0
N29 G3 Y11.838 I-8.396 J0.247
N30 G2 X78.248 Y11.897 I1.999 J0.059
N31 G1 Y25.998
N32 G2 X78.25 Y26.07 I2 J0
N33 G3 Y26.666 I-8.257 J0.298
N34 G2 X78.248 Y26.738 I1.999 J0.072
N35 G1 Y32.126
N36 Y34.631
N37 X-71.687
N38 Y3.191
N39 X-65.43
N40 G2 X-65.329 Y3.189 I0 J-2
N41 G3 X-64.815 Y3.182 I0.348 J6.886
N42 G2 X-64.767 I0.048 J-1.999
N43 G1 X69.853 Y3.191
N44 X77.584
N45 G3 X77.603 Y3.59 I0 J0.2
N46 G1 X77.032 Y3.644
N47 G3 X76.959 Y3.638 I-0.019 J-0.199
N48 G2 X76.899 Y3.629 I-0.061 J0.218
N49 G1 X48.41 Y3.452
N50 X48.121 Y3.36
N51 G3 X48.148 Y3.19 I0.028 J-0.083
N52 G1 X69.853 Y3.191 Z-2.758 F500
N53 X78.248 Z-3.051
N54 Y4.233 Z-3.088
N55 Y11.285 F1000
N56 G2 X78.249 Y11.344 I2 J0
N57 G3 Y11.838 I-8.396 J0.247
N58 G2 X78.248 Y11.897 I1.999 J0.059
N59 G1 Y25.998
N60 G2 X78.25 Y26.07 I2 J0
N61 G3 Y26.666 I-8.257 J0.298
N62 G2 X78.248 Y26.738 I1.999 J0.072
N63 G1 Y32.126
N64 Y34.631
N65 X-71.687
N66 Y3.191
N67 X-65.43
N68 G2 X-65.329 Y3.189 I0 J-2
N69 G3 X-64.815 Y3.182 I0.348 J6.886
N70 G2 X-64.767 I0.048 J-1.999
N71 G1 X69.853 Y3.191
N72 X78.248
N73 Y4.233
N74 G3 X78.034 Y4.432 I-0.2 J0
N75 G1 X77.244 Y4.377
N76 G3 X77.115 Y4.317 I0.014 J-0.2
N77 G2 X75.683 Y3.714 I-1.431 J1.397
N78 G1 X-69.187
N79 G2 X-71.187 Y5.714 I0 J2
N80 G1 Y32.126
N81 G2 X-69.187 Y34.126 I2 J0
N82 G1 X75.683
N83 G2 X77.683 Y32.126 I0 J-2
N84 G1 Y5.714
N85 G2 X77.115 Y4.317 I-2 J0
N86 X75.683 Y3.714 Z-3.132 I-1.431 J1.397 F500
N87 G1 X38.658 Z-4.175
N88 X-69.187 F1000
N89 G2 X-71.187 Y5.714 I0 J2
N90 G1 Y32.126
N91 G2 X-69.187 Y34.126 I2 J0
N92 G1 X75.683
N93 G2 X77.683 Y32.126 I0 J-2
N94 G1 Y5.714
N95 G2 X75.683 Y3.714 I-2 J0
N96 G1 X38.658
N97 G3 X38.657 Y3.314 I0 J-0.2
N98 G1 X77.587 Y3.191
N99 X78.248
N100 Y11.285
N101 G2 X78.249 Y11.344 I2 J0
N102 G3 Y11.838 I-8.396 J0.247
N103 G2 X78.248 Y11.897 I1.999 J0.059
N104 G1 Y25.998
N105 G2 X78.25 Y26.07 I2 J0
N106 G3 Y26.666 I-8.257 J0.298
N107 G2 X78.248 Y26.738 I1.999 J0.072
N108 G1 Y32.126
N109 Y34.631
N110 X-71.687
N111 Y3.191
N112 X-65.43
N113 G2 X-65.329 Y3.189 I0 J-2
N114 G3 X-64.815 Y3.182 I0.348 J6.886
N115 G2 X-64.767 I0.048 J-1.999
N116 G1 X69.853 Y3.191
N117 X77.587
N118 G3 X77.736 Y3.22 Z-4.145 I0 J0.4
N119 X77.846 Y3.287 Z-4.058 I-0.149 J0.371
N120 X77.906 Y3.35 Z-3.928 I-0.26 J0.304
N121 X77.923 Y3.375 Z-3.775 I-0.319 J0.241
N122 G0 Z15
N123 X-55.31 Y-27.624
N124 Z5
N125 G1 Z2.9 F500
N126 G3 X-55.284 Y-27.637 Z2.75 I0.88 J1.684
N127 X-55.209 Y-27.673 Z2.622 I0.854 J1.697
N128 X-55.093 Y-27.721 Z2.534 I0.779 J1.733
N129 X-54.952 Y-27.767 Z2.5 I0.664 J1.78
N130 X-53.907 Y-24.113 Z2.292 I0.522 J1.827
N131 X-54.952 Y-27.767 Z2.083 I-0.522 J-1.827
N132 X-53.907 Y-24.113 Z1.875 I0.522 J1.827
N133 X-54.952 Y-27.767 Z1.666 I-0.522 J-1.827
N134 X-53.907 Y-24.113 Z1.458 I0.522 J1.827
N135 X-54.952 Y-27.767 Z1.249 I-0.522 J-1.827
N136 X-53.907 Y-24.113 Z1.041 I0.522 J1.827
N137 X-54.952 Y-27.767 Z0.832 I-0.522 J-1.827
N138 X-53.907 Y-24.113 Z0.624 I0.522 J1.827
N139 X-54.952 Y-27.767 Z0.416 I-0.522 J-1.827
N140 X-53.907 Y-24.113 Z0.207 I0.522 J1.827
N141 X-54.952 Y-27.767 Z-0.001 I-0.522 J-1.827
N142 X-53.907 Y-24.113 Z-0.21 I0.522 J1.827
N143 X-54.952 Y-27.767 Z-0.418 I-0.522 J-1.827
N144 X-53.907 Y-24.113 Z-0.627 I0.522 J1.827
N145 X-54.952 Y-27.767 Z-0.835 I-0.522 J-1.827
N146 X-53.907 Y-24.113 Z-1.044 I0.522 J1.827
N147 X-54.952 Y-27.767 Z-1.252 I-0.522 J-1.827
N148 X-53.907 Y-24.113 Z-1.46 I0.522 J1.827
N149 X-54.952 Y-27.767 Z-1.669 I-0.522 J-1.827
N150 X-53.907 Y-24.113 Z-1.877 I0.522 J1.827
N151 X-56.33 Y-25.94 Z-2 I-0.522 J-1.827
N152 G1 Y-26.008 F1000
N153 G3 X-56.047 Y-26.497 I0.565 J0
N154 G1 X-55.93 Y-26.565
N155 G3 X-55.366 I0.282 J0.489
N156 G1 X-55.248 Y-26.497
N157 G3 X-54.966 Y-26.008 I-0.282 J0.489
N158 G1 Y-15.328
N159 G3 X-55.248 Y-14.839 I-0.565 J0
N160 G1 X-55.366 Y-14.771
N161 G3 X-55.93 I-0.282 J-0.489
N162 G1 X-56.047 Y-14.839
N163 G3 X-56.33 Y-15.328 I0.282 J-0.489
N164 G1 Y-25.94
N165 G2 X-56.833 Y-26.707 I-0.836 J0
N166 G3 X-56.885 Y-27.623 I0.204 J-0.471
N167 G1 X-56 Y-28.134
N168 G3 X-55.296 I0.352 J0.61
N169 G1 X-53.924 Y-27.342
N170 G3 X-53.572 Y-26.732 I-0.352 J0.61
N171 G1 Y-14.603
N172 G3 X-53.924 Y-13.993 I-0.704 J0
N173 G1 X-55.366 Y-13.161
N174 G3 X-55.93 I-0.282 J-0.489
N175 G1 X-57.372 Y-13.993
N176 G3 X-57.724 Y-14.603 I0.352 J-0.61
N177 G1 Y-26.732
N178 G3 X-57.372 Y-27.342 I0.704 J0
N179 G1 X-56.885 Y-27.623
N180 G2 X-55.92 Y-29.927 I-1.031 J-1.786
N181 G3 X-53.932 Y-31.439 I1.311 J-0.34
N182 G1 X-50.679 Y-29.561
N183 G3 X-50.028 Y-28.433 I-0.651 J1.128
N184 G1 Y-12.902
N185 G3 X-50.679 Y-11.775 I-1.302 J0
N186 G1 X-54.997 Y-9.282
N187 G3 X-56.299 I-0.651 J-1.128
N188 G1 X-60.617 Y-11.775
N189 G3 X-61.268 Y-12.902 I0.651 J-1.128
N190 G1 Y-28.433
N191 G3 X-60.617 Y-29.561 I1.302 J0
N192 G1 X-56.299 Y-32.054
N193 G3 X-54.997 I0.651 J1.128
N194 G1 X-53.932 Y-31.439
N195 G3 X-53.849 Y-31.186 I-0.1 J0.173
N196 G1 X-55.23 Y-28.028
N197 G2 X-54.988 Y-27.756 I0.183 J0.08
N198 G3 X-53.871 Y-24.124 Z-2.208 I0.558 J1.816 F500
N199 X-54.988 Y-27.756 Z-2.417 I-0.558 J-1.816
N200 X-53.871 Y-24.124 Z-2.625 I0.558 J1.816
N201 X-54.988 Y-27.756 Z-2.834 I-0.558 J-1.816
N202 X-53.871 Y-24.124 Z-3.042 I0.558 J1.816
N203 X-54.988 Y-27.756 Z-3.251 I-0.558 J-1.816
N204 X-53.871 Y-24.124 Z-3.459 I0.558 J1.816
N205 X-54.988 Y-27.756 Z-3.668 I-0.558 J-1.816
N206 X-53.871 Y-24.124 Z-3.876 I0.558 J1.816
N207 X-56.33 Y-25.94 Z-4 I-0.558 J-1.816
N208 G1 Y-26.008 F1000
N209 G3 X-56.047 Y-26.497 I0.565 J0
N210 G1 X-55.93 Y-26.565
N211 G3 X-55.366 I0.282 J0.489
N212 G1 X-55.248 Y-26.497
N213 G3 X-54.966 Y-26.008 I-0.282 J0.489
N214 G1 Y-15.328
N215 G3 X-55.248 Y-14.839 I-0.565 J0
N216 G1 X-55.366 Y-14.771
N217 G3 X-55.93 I-0.282 J-0.489
N218 G1 X-56.047 Y-14.839
N219 G3 X-56.33 Y-15.328 I0.282 J-0.489
N220 G1 Y-25.94
N221 G2 X-56.833 Y-26.707 I-0.836 J0
N222 G3 X-56.885 Y-27.623 I0.204 J-0.471
N223 G1 X-56 Y-28.134
N224 G3 X-55.296 I0.352 J0.61
N225 G1 X-53.924 Y-27.342
N226 G3 X-53.572 Y-26.732 I-0.352 J0.61
N227 G1 Y-14.603
N228 G3 X-53.924 Y-13.993 I-0.704 J0
N229 G1 X-55.366 Y-13.161
N230 G3 X-55.93 I-0.282 J-0.489
N231 G1 X-57.372 Y-13.993
N232 G3 X-57.724 Y-14.603 I0.352 J-0.61
N233 G1 Y-26.732
N234 G3 X-57.372 Y-27.342 I0.704 J0
N235 G1 X-56.885 Y-27.623
N236 G2 X-55.92 Y-29.927 I-1.031 J-1.786
N237 G3 X-53.932 Y-31.439 I1.311 J-0.34
N238 G1 X-50.679 Y-29.561
N239 G3 X-50.028 Y-28.433 I-0.651 J1.128
N240 G1 Y-12.902
N241 G3 X-50.679 Y-11.775 I-1.302 J0
N242 G1 X-54.997 Y-9.282
N243 G3 X-56.299 I-0.651 J-1.128
N244 G1 X-60.617 Y-11.775
N245 G3 X-61.268 Y-12.902 I0.651 J-1.128
N246 G1 Y-28.433
N247 G3 X-60.617 Y-29.561 I1.302 J0
N248 G1 X-56.299 Y-32.054
N249 G3 X-54.997 I0.651 J1.128
N250 G1 X-53.932 Y-31.439
N251 G3 X-53.818 Y-31.339 Z-3.97 I-0.2 J0.346
N252 X-53.755 Y-31.226 Z-3.883 I-0.315 J0.247
N253 X-53.735 Y-31.142 Z-3.753 I-0.377 J0.133
N254 X-53.733 Y-31.112 Z-3.6 I-0.397 J0.049
N255 G0 Z15
N256 X2.666 Y-18.316
N257 Z5
N258 G1 Z2.9 F500
N259 G3 X2.64 Y-18.303 Z2.75 I-0.88 J-1.684
N260 X2.565 Y-18.267 Z2.622 I-0.854 J-1.697
N261 X2.449 Y-18.22 Z2.534 I-0.779 J-1.733
N262 X2.308 Y-18.173 Z2.5 I-0.664 J-1.78
N263 X1.263 Y-21.827 Z2.292 I-0.522 J-1.827
N264 X2.308 Y-18.173 Z2.083 I0.522 J1.827
N265 X1.263 Y-21.827 Z1.875 I-0.522 J-1.827
N266 X2.308 Y-18.173 Z1.666 I0.522 J1.827
N267 X1.263 Y-21.827 Z1.458 I-0.522 J-1.827
N268 X2.308 Y-18.173 Z1.249 I0.522 J1.827
N269 X1.263 Y-21.827 Z1.041 I-0.522 J-1.827
N270 X2.308 Y-18.173 Z0.832 I0.522 J1.827
N271 X1.263 Y-21.827 Z0.624 I-0.522 J-1.827
N272 X2.308 Y-18.173 Z0.416 I0.522 J1.827
N273 X1.263 Y-21.827 Z0.207 I-0.522 J-1.827
N274 X2.308 Y-18.173 Z-0.001 I0.522 J1.827
N275 X1.263 Y-21.827 Z-0.21 I-0.522 J-1.827
N276 X2.308 Y-18.173 Z-0.418 I0.522 J1.827
N277 X1.263 Y-21.827 Z-0.627 I-0.522 J-1.827
N278 X2.308 Y-18.173 Z-0.835 I0.522 J1.827
N279 X1.263 Y-21.827 Z-1.044 I-0.522 J-1.827
N280 X2.308 Y-18.173 Z-1.252 I0.522 J1.827
N281 X1.263 Y-21.827 Z-1.46 I-0.522 J-1.827
N282 X2.308 Y-18.173 Z-1.669 I0.522 J1.827
N283 X1.263 Y-21.827 Z-1.877 I-0.522 J-1.827
N284 X3.686 Y-20 Z-2 I0.522 J1.827
N285 G1 Y-19.969 F1000
N286 G3 X3.366 Y-19.649 I-0.319 J0
N287 G1 X3.3
N288 G3 X2.984 Y-19.965 I0 J-0.315
N289 G1 Y-20.031
N290 G3 X3.304 Y-20.351 I0.319 J0
N291 G1 X3.366
N292 G3 X3.686 Y-20.031 I0 J0.319
N293 G1 Y-20
N294 G2 X4.534 Y-18.254 I2.22 J0
N295 G3 X3.899 Y-16.42 I-0.635 J0.807
N296 G1 X0.071
N297 G3 X-0.245 Y-16.736 I0 J-0.315
N298 G1 Y-23.26
N299 G3 X0.075 Y-23.58 I0.319 J0
N300 G1 X6.595
N301 G3 X6.914 Y-23.26 I0 J0.319
N302 G1 Y-16.74
N303 G3 X6.595 Y-16.42 I-0.319 J0
N304 G1 X3.899
N305 G2 X1.478 Y-14.806 I0 J2.623
N306 G3 X-0.944 Y-13.192 I-2.422 J-1.009
N307 G1 X-3.158
N308 G3 X-3.474 Y-13.507 I0 J-0.315
N309 G1 Y-26.489
N310 G3 X-3.154 Y-26.808 I0.319 J0
N311 G1 X9.824
N312 G3 X10.143 Y-26.489 I0 J0.319
N313 G1 Y-13.511
N314 G3 X9.824 Y-13.192 I-0.319 J0
N315 G1 X-0.944
N316 G2 X-3.366 Y-11.577 I0 J2.623
N317 G3 X-5.787 Y-9.963 I-2.422 J-1.009
N318 G1 X-6.387
N319 G3 X-6.702 Y-10.278 I0 J-0.315
N320 G1 Y-29.718
N321 G3 X-6.383 Y-30.037 I0.319 J0
N322 G1 X13.053
N323 G3 X13.372 Y-29.718 I0 J0.319
N324 G1 Y-10.282
N325 G3 X13.053 Y-9.963 I-0.319 J0
N326 G1 X-5.787
N327 G2 X-7.698 Y-8.715 I0 J2.086
N328 G3 X-9.931 Y-9.183 I-1.068 J-0.468
N329 G1 Y-32.947
N330 G3 X-9.612 Y-33.266 I0.319 J0
N331 G1 X16.282
N332 G3 X16.601 Y-32.947 I0 J0.319
N333 G1 Y-7.053
N334 G3 X16.282 Y-6.734 I-0.319 J0
N335 G1 X-9.616
N336 G3 X-9.931 Y-7.049 I0 J-0.315
N337 G1 Y-9.183
N338 G2 X-11.548 Y-11.608 I-2.628 J0
N339 G3 X-13.165 Y-14.034 I1.011 J-2.425
N340 G1 Y-35.5
N341 G3 X-12.165 Y-36.5 I1 J0
N342 G1 X18.835
N343 G3 X19.835 Y-35.5 I0 J1
N344 G1 Y-4.5
N345 G3 X18.835 Y-3.5 I-1 J0
N346 G1 X-12.165
N347 G3 X-13.165 Y-4.5 I0 J-1
N348 G1 Y-14.034
N349 G3 X-13.02 Y-14.226 I0.2 J0
N350 G1 X2.23 Y-18.567
N351 G3 X2.344 Y-18.184 I0.055 J0.192
N352 X1.227 Y-21.816 Z-2.208 I-0.558 J-1.816 F500
N353 X2.344 Y-18.184 Z-2.417 I0.558 J1.816
N354 X1.227 Y-21.816 Z-2.625 I-0.558 J-1.816
N355 X2.344 Y-18.184 Z-2.834 I0.558 J1.816
N356 X1.227 Y-21.816 Z-3.042 I-0.558 J-1.816
N357 X2.344 Y-18.184 Z-3.251 I0.558 J1.816
N358 X1.227 Y-21.816 Z-3.459 I-0.558 J-1.816
N359 X2.344 Y-18.184 Z-3.668 I0.558 J1.816
N360 X1.227 Y-21.816 Z-3.876 I-0.558 J-1.816
N361 X3.686 Y-20 Z-4 I0.558 J1.816
N362 G1 Y-19.969 F1000
N363 G3 X3.366 Y-19.649 I-0.319 J0
N364 G1 X3.3
N365 G3 X2.984 Y-19.965 I0 J-0.315
N366 G1 Y-20.031
N367 G3 X3.304 Y-20.351 I0.319 J0
N368 G1 X3.366
N369 G3 X3.686 Y-20.031 I0 J0.319
N370 G1 Y-20
N371 G2 X4.534 Y-18.254 I2.22 J0
N372 G3 X3.899 Y-16.42 I-0.635 J0.807
N373 G1 X0.071
N374 G3 X-0.245 Y-16.736 I0 J-0.315
N375 G1 Y-23.26
N376 G3 X0.075 Y-23.58 I0.319 J0
N377 G1 X6.595
N378 G3 X6.914 Y-23.26 I0 J0.319
N379 G1 Y-16.74
N380 G3 X6.595 Y-16.42 I-0.319 J0
N381 G1 X3.899
N382 G2 X1.478 Y-14.806 I0 J2.623
N383 G3 X-0.944 Y-13.192 I-2.422 J-1.009
N384 G1 X-3.158
N385 G3 X-3.474 Y-13.507 I0 J-0.315
N386 G1 Y-26.489
N387 G3 X-3.154 Y-26.808 I0.319 J0
N388 G1 X9.824
N389 G3 X10.143 Y-26.489 I0 J0.319
N390 G1 Y-13.511
N391 G3 X9.824 Y-13.192 I-0.319 J0
N392 G1 X-0.944
N393 G2 X-3.366 Y-11.577 I0 J2.623
N394 G3 X-5.787 Y-9.963 I-2.422 J-1.009
N395 G1 X-6.387
N396 G3 X-6.702 Y-10.278 I0 J-0.315
N397 G1 Y-29.718
N398 G3 X-6.383 Y-30.037 I0.319 J0
N399 G1 X13.053
N400 G3 X13.372 Y-29.718 I0 J0.319
N401 G1 Y-10.282
N402 G3 X13.053 Y-9.963 I-0.319 J0
N403 G1 X-5.787
N404 G2 X-7.698 Y-8.715 I0 J2.086
N405 G3 X-9.931 Y-9.183 I-1.068 J-0.468
N406 G1 Y-32.947
N407 G3 X-9.612 Y-33.266 I0.319 J0
N408 G1 X16.282
N409 G3 X16.601 Y-32.947 I0 J0.319
N410 G1 Y-7.053
N411 G3 X16.282 Y-6.734 I-0.319 J0
N412 G1 X-9.616
N413 G3 X-9.931 Y-7.049 I0 J-0.315
N414 G1 Y-9.183
N415 G2 X-11.548 Y-11.608 I-2.628 J0
N416 G3 X-13.165 Y-14.034 I1.011 J-2.425
N417 G1 Y-35.5
N418 G3 X-12.165 Y-36.5 I1 J0
N419 G1 X18.835
N420 G3 X19.835 Y-35.5 I0 J1
N421 G1 Y-4.5
N422 G3 X18.835 Y-3.5 I-1 J0
N423 G1 X-12.165
N424 G3 X-13.165 Y-4.5 I0 J-1
N425 G1 Y-14.034
N426 G3 X-13.136 Y-14.183 Z-3.97 I0.4 J0
N427 X-13.069 Y-14.294 Z-3.883 I0.371 J0.149
N428 X-13.006 Y-14.353 Z-3.753 I0.304 J0.26
N429 X-12.981 Y-14.37 Z-3.6 I0.241 J0.319
N430 G0 Z15
N432 M30
N433 Z1
N434 M5
