%
(1001)
(T5  D=0.1575 CR=0 - ZMIN=-0.1644 - flat end mill)
N0 G90
N1 G17
(2D Pocket2)
N2 T5 M6
N3 S5000 M3
N5 G0 X-0.8694 Y1.3436
N6 Z0.5906
N7 Z0.1969
N8 G1 Z0.1142 F19.69
N9 G18 G2 X-0.8542 Z0.0984 I0.0157 K0
N10 G1 X2.9797 Z-0.0355
N11 G17 G2 X3.0584 Y1.2648 Z-0.0398 I0 J-0.0787
N12 G1 Y0.225 Z-0.0761
N13 G2 X3.0245 Y0.1603 Z-0.0787 I-0.0787 J0
N14 X2.9797 Y0.1462 I-0.0449 J0.0647 F39.37
N15 G1 X-2.7239
N16 G2 X-2.8026 Y0.225 I0 J0.0787
N17 G1 Y1.2648
N18 G2 X-2.7239 Y1.3436 I0.0787 J0
N19 G1 X2.9797
N20 G2 X3.0584 Y1.2648 I0 J-0.0787
N21 G1 Y0.225
N22 G2 X3.0245 Y0.1603 I-0.0787 J0
N23 G3 X3.0241 Y0.1476 I0.0045 J-0.0065
N24 G1 X3.0496 Y0.1274
N25 G3 X3.0545 Y0.1256 I0.0049 J0.0062
N26 G1 X3.0806
N27 Y0.4443
N28 G2 X3.0807 Y0.4466 I0.0787 J0
N29 G3 Y0.4661 I-0.3306 J0.0097
N30 G2 X3.0806 Y0.4684 I0.0787 J0.0023
N31 G1 Y1.0236
N32 G2 X3.0807 Y1.0264 I0.0787 J0
N33 G3 Y1.0498 I-0.3251 J0.0117
N34 G2 X3.0806 Y1.0527 I0.0787 J0.0028
N35 G1 Y1.2648
N36 Y1.3634
N37 X-2.8223
N38 Y0.1256
N39 X-2.576
N40 G2 X-2.572 Y0.1255 I0 J-0.0787
N41 G3 X-2.5518 Y0.1253 I0.0137 J0.2711
N42 G2 X-2.5499 I0.0019 J-0.0787
N43 G1 X2.7501 Y0.1256
N44 X3.0545
N45 G3 X3.0552 Y0.1413 I0 J0.0079
N46 G1 X3.0327 Y0.1435
N47 G3 X3.0299 Y0.1432 I-0.0007 J-0.0078
N48 G2 X3.0275 Y0.1429 I-0.0024 J0.0086
N49 G1 X1.9059 Y0.1359
N50 X1.8945 Y0.1323
N51 G3 X1.8956 Y0.1256 I0.0011 J-0.0033
N52 G1 X2.7501 Z-0.1086 F19.69
N53 X3.0806 Z-0.1201
N54 Y0.1667 Z-0.1216
N55 Y0.4443 F39.37
N56 G2 X3.0807 Y0.4466 I0.0787 J0
N57 G3 Y0.4661 I-0.3306 J0.0097
N58 G2 X3.0806 Y0.4684 I0.0787 J0.0023
N59 G1 Y1.0236
N60 G2 X3.0807 Y1.0264 I0.0787 J0
N61 G3 Y1.0498 I-0.3251 J0.0117
N62 G2 X3.0806 Y1.0527 I0.0787 J0.0028
N63 G1 Y1.2648
N64 Y1.3634
N65 X-2.8223
N66 Y0.1256
N67 X-2.576
N68 G2 X-2.572 Y0.1255 I0 J-0.0787
N69 G3 X-2.5518 Y0.1253 I0.0137 J0.2711
N70 G2 X-2.5499 I0.0019 J-0.0787
N71 G1 X2.7501 Y0.1256
N72 X3.0806
N73 Y0.1667
N74 G3 X3.0722 Y0.1745 I-0.0079 J0
N75 G1 X3.0411 Y0.1723
N76 G3 X3.036 Y0.17 I0.0006 J-0.0079
N77 G2 X2.9797 Y0.1462 I-0.0564 J0.055
N78 G1 X-2.7239
N79 G2 X-2.8026 Y0.225 I0 J0.0787
N80 G1 Y1.2648
N81 G2 X-2.7239 Y1.3436 I0.0787 J0
N82 G1 X2.9797
N83 G2 X3.0584 Y1.2648 I0 J-0.0787
N84 G1 Y0.225
N85 G2 X3.036 Y0.17 I-0.0787 J0
N86 X2.9797 Y0.1462 Z-0.1233 I-0.0564 J0.055 F19.69
N87 G1 X1.522 Z-0.1644
N88 X-2.7239 F39.37
N89 G2 X-2.8026 Y0.225 I0 J0.0787
N90 G1 Y1.2648
N91 G2 X-2.7239 Y1.3436 I0.0787 J0
N92 G1 X2.9797
N93 G2 X3.0584 Y1.2648 I0 J-0.0787
N94 G1 Y0.225
N95 G2 X2.9797 Y0.1462 I-0.0787 J0
N96 G1 X1.522
N97 G3 X1.5219 Y0.1305 I0 J-0.0079
N98 G1 X3.0546 Y0.1256
N99 X3.0806
N100 Y0.4443
N101 G2 X3.0807 Y0.4466 I0.0787 J0
N102 G3 Y0.4661 I-0.3306 J0.0097
N103 G2 X3.0806 Y0.4684 I0.0787 J0.0023
N104 G1 Y1.0236
N105 G2 X3.0807 Y1.0264 I0.0787 J0
N106 G3 Y1.0498 I-0.3251 J0.0117
N107 G2 X3.0806 Y1.0527 I0.0787 J0.0028
N108 G1 Y1.2648
N109 Y1.3634
N110 X-2.8223
N111 Y0.1256
N112 X-2.576
N113 G2 X-2.572 Y0.1255 I0 J-0.0787
N114 G3 X-2.5518 Y0.1253 I0.0137 J0.2711
N115 G2 X-2.5499 I0.0019 J-0.0787
N116 G1 X2.7501 Y0.1256
N117 X3.0546
N118 G3 X3.0605 Y0.1268 Z-0.1632 I0 J0.0157
N119 X3.0648 Y0.1294 Z-0.1598 I-0.0059 J0.0146
N120 X3.0672 Y0.1319 Z-0.1546 I-0.0102 J0.012
N121 X3.0678 Y0.1329 Z-0.1486 I-0.0126 J0.0095
N122 G0 Z0.5906
N123 X-2.1776 Y-1.0876
N124 Z0.1969
N125 G1 Z0.1142 F19.69
N126 G3 X-2.1765 Y-1.0881 Z0.1083 I0.0347 J0.0663
N127 X-2.1736 Y-1.0895 Z0.1032 I0.0336 J0.0668
N128 X-2.169 Y-1.0914 Z0.0998 I0.0307 J0.0682
N129 X-2.1635 Y-1.0932 Z0.0984 I0.0261 J0.0701
N130 X-2.1223 Y-0.9493 Z0.0902 I0.0206 J0.0719
N131 X-2.1635 Y-1.0932 Z0.082 I-0.0206 J-0.0719
N132 X-2.1223 Y-0.9493 Z0.0738 I0.0206 J0.0719
N133 X-2.1635 Y-1.0932 Z0.0656 I-0.0206 J-0.0719
N134 X-2.1223 Y-0.9493 Z0.0574 I0.0206 J0.0719
N135 X-2.1635 Y-1.0932 Z0.0492 I-0.0206 J-0.0719
N136 X-2.1223 Y-0.9493 Z0.041 I0.0206 J0.0719
N137 X-2.1635 Y-1.0932 Z0.0328 I-0.0206 J-0.0719
N138 X-2.1223 Y-0.9493 Z0.0246 I0.0206 J0.0719
N139 X-2.1635 Y-1.0932 Z0.0164 I-0.0206 J-0.0719
N140 X-2.1223 Y-0.9493 Z0.0082 I0.0206 J0.0719
N141 X-2.1635 Y-1.0932 Z-0.0001 I-0.0206 J-0.0719
N142 X-2.1223 Y-0.9493 Z-0.0083 I0.0206 J0.0719
N143 X-2.1635 Y-1.0932 Z-0.0165 I-0.0206 J-0.0719
N144 X-2.1223 Y-0.9493 Z-0.0247 I0.0206 J0.0719
N145 X-2.1635 Y-1.0932 Z-0.0329 I-0.0206 J-0.0719
N146 X-2.1223 Y-0.9493 Z-0.0411 I0.0206 J0.0719
N147 X-2.1635 Y-1.0932 Z-0.0493 I-0.0206 J-0.0719
N148 X-2.1223 Y-0.9493 Z-0.0575 I0.0206 J0.0719
N149 X-2.1635 Y-1.0932 Z-0.0657 I-0.0206 J-0.0719
N150 X-2.1223 Y-0.9493 Z-0.0739 I0.0206 J0.0719
N151 X-2.2177 Y-1.0213 Z-0.0787 I-0.0206 J-0.0719
N152 G1 Y-1.0239 F39.37
N153 G3 X-2.2066 Y-1.0432 I0.0222 J0
N154 G1 X-2.202 Y-1.0458
N155 G3 X-2.1797 I0.0111 J0.0192
N156 G1 X-2.1751 Y-1.0432
N157 G3 X-2.164 Y-1.0239 I-0.0111 J0.0192
N158 G1 Y-0.6034
N159 G3 X-2.1751 Y-0.5842 I-0.0222 J0
N160 G1 X-2.1797 Y-0.5815
N161 G3 X-2.202 I-0.0111 J-0.0192
N162 G1 X-2.2066 Y-0.5842
N163 G3 X-2.2177 Y-0.6034 I0.0111 J-0.0192
N164 G1 Y-1.0213
N165 G2 X-2.2375 Y-1.0515 I-0.0329 J0
N166 G3 X-2.2396 Y-1.0875 I0.0081 J-0.0185
N167 G1 X-2.2047 Y-1.1077
N168 G3 X-2.177 I0.0139 J0.024
N169 G1 X-2.123 Y-1.0765
N170 G3 X-2.1091 Y-1.0525 I-0.0139 J0.024
N171 G1 Y-0.5749
N172 G3 X-2.123 Y-0.5509 I-0.0277 J0
N173 G1 X-2.1797 Y-0.5181
N174 G3 X-2.202 I-0.0111 J-0.0192
N175 G1 X-2.2587 Y-0.5509
N176 G3 X-2.2726 Y-0.5749 I0.0139 J-0.024
N177 G1 Y-1.0525
N178 G3 X-2.2587 Y-1.0765 I0.0277 J0
N179 G1 X-2.2396 Y-1.0875
N180 G2 X-2.2016 Y-1.1782 I-0.0406 J-0.0703
N181 G3 X-2.1233 Y-1.2378 I0.0516 J-0.0134
N182 G1 X-1.9952 Y-1.1638
N183 G3 X-1.9696 Y-1.1194 I-0.0256 J0.0444
N184 G1 Y-0.508
N185 G3 X-1.9952 Y-0.4636 I-0.0513 J0
N186 G1 X-2.1652 Y-0.3654
N187 G3 X-2.2165 I-0.0256 J-0.0444
N188 G1 X-2.3865 Y-0.4636
N189 G3 X-2.4121 Y-0.508 I0.0256 J-0.0444
N190 G1 Y-1.1194
N191 G3 X-2.3865 Y-1.1638 I0.0513 J0
N192 G1 X-2.2165 Y-1.262
N193 G3 X-2.1652 I0.0256 J0.0444
N194 G1 X-2.1233 Y-1.2378
N195 G3 X-2.12 Y-1.2278 I-0.0039 J0.0068
N196 G1 X-2.1744 Y-1.1034
N197 G2 X-2.1649 Y-1.0928 I0.0072 J0.0032
N198 G3 X-2.1209 Y-0.9498 Z-0.0869 I0.022 J0.0715 F19.69
N199 X-2.1649 Y-1.0928 Z-0.0952 I-0.022 J-0.0715
N200 X-2.1209 Y-0.9498 Z-0.1034 I0.022 J0.0715
N201 X-2.1649 Y-1.0928 Z-0.1116 I-0.022 J-0.0715
N202 X-2.1209 Y-0.9498 Z-0.1198 I0.022 J0.0715
N203 X-2.1649 Y-1.0928 Z-0.128 I-0.022 J-0.0715
N204 X-2.1209 Y-0.9498 Z-0.1362 I0.022 J0.0715
N205 X-2.1649 Y-1.0928 Z-0.1444 I-0.022 J-0.0715
N206 X-2.1209 Y-0.9498 Z-0.1526 I0.022 J0.0715
N207 X-2.2177 Y-1.0213 Z-0.1575 I-0.022 J-0.0715
N208 G1 Y-1.0239 F39.37
N209 G3 X-2.2066 Y-1.0432 I0.0222 J0
N210 G1 X-2.202 Y-1.0458
N211 G3 X-2.1797 I0.0111 J0.0192
N212 G1 X-2.1751 Y-1.0432
N213 G3 X-2.164 Y-1.0239 I-0.0111 J0.0192
N214 G1 Y-0.6034
N215 G3 X-2.1751 Y-0.5842 I-0.0222 J0
N216 G1 X-2.1797 Y-0.5815
N217 G3 X-2.202 I-0.0111 J-0.0192
N218 G1 X-2.2066 Y-0.5842
N219 G3 X-2.2177 Y-0.6034 I0.0111 J-0.0192
N220 G1 Y-1.0213
N221 G2 X-2.2375 Y-1.0515 I-0.0329 J0
N222 G3 X-2.2396 Y-1.0875 I0.0081 J-0.0185
N223 G1 X-2.2047 Y-1.1077
N224 G3 X-2.177 I0.0139 J0.024
N225 G1 X-2.123 Y-1.0765
N226 G3 X-2.1091 Y-1.0525 I-0.0139 J0.024
N227 G1 Y-0.5749
N228 G3 X-2.123 Y-0.5509 I-0.0277 J0
N229 G1 X-2.1797 Y-0.5181
N230 G3 X-2.202 I-0.0111 J-0.0192
N231 G1 X-2.2587 Y-0.5509
N232 G3 X-2.2726 Y-0.5749 I0.0139 J-0.024
N233 G1 Y-1.0525
N234 G3 X-2.2587 Y-1.0765 I0.0277 J0
N235 G1 X-2.2396 Y-1.0875
N236 G2 X-2.2016 Y-1.1782 I-0.0406 J-0.0703
N237 G3 X-2.1233 Y-1.2378 I0.0516 J-0.0134
N238 G1 X-1.9952 Y-1.1638
N239 G3 X-1.9696 Y-1.1194 I-0.0256 J0.0444
N240 G1 Y-0.508
N241 G3 X-1.9952 Y-0.4636 I-0.0513 J0
N242 G1 X-2.1652 Y-0.3654
N243 G3 X-2.2165 I-0.0256 J-0.0444
N244 G1 X-2.3865 Y-0.4636
N245 G3 X-2.4121 Y-0.508 I0.0256 J-0.0444
N246 G1 Y-1.1194
N247 G3 X-2.3865 Y-1.1638 I0.0513 J0
N248 G1 X-2.2165 Y-1.262
N249 G3 X-2.1652 I0.0256 J0.0444
N250 G1 X-2.1233 Y-1.2378
N251 G3 X-2.1188 Y-1.2338 Z-0.1563 I-0.0079 J0.0136
N252 X-2.1164 Y-1.2294 Z-0.1529 I-0.0124 J0.0097
N253 X-2.1156 Y-1.2261 Z-0.1478 I-0.0148 J0.0053
N254 X-2.1155 Y-1.2249 Z-0.1417 I-0.0156 J0.0019
N255 G0 Z0.5906
N256 X0.105 Y-0.7211
N257 Z0.1969
N258 G1 Z0.1142 F19.69
N259 G3 X0.1039 Y-0.7206 Z0.1083 I-0.0347 J-0.0663
N260 X0.101 Y-0.7192 Z0.1032 I-0.0336 J-0.0668
N261 X0.0964 Y-0.7173 Z0.0998 I-0.0307 J-0.0682
N262 X0.0909 Y-0.7155 Z0.0984 I-0.0261 J-0.0701
N263 X0.0497 Y-0.8593 Z0.0902 I-0.0206 J-0.0719
N264 X0.0909 Y-0.7155 Z0.082 I0.0206 J0.0719
N265 X0.0497 Y-0.8593 Z0.0738 I-0.0206 J-0.0719
N266 X0.0909 Y-0.7155 Z0.0656 I0.0206 J0.0719
N267 X0.0497 Y-0.8593 Z0.0574 I-0.0206 J-0.0719
N268 X0.0909 Y-0.7155 Z0.0492 I0.0206 J0.0719
N269 X0.0497 Y-0.8593 Z0.041 I-0.0206 J-0.0719
N270 X0.0909 Y-0.7155 Z0.0328 I0.0206 J0.0719
N271 X0.0497 Y-0.8593 Z0.0246 I-0.0206 J-0.0719
N272 X0.0909 Y-0.7155 Z0.0164 I0.0206 J0.0719
N273 X0.0497 Y-0.8593 Z0.0082 I-0.0206 J-0.0719
N274 X0.0909 Y-0.7155 Z-0.0001 I0.0206 J0.0719
N275 X0.0497 Y-0.8593 Z-0.0083 I-0.0206 J-0.0719
N276 X0.0909 Y-0.7155 Z-0.0165 I0.0206 J0.0719
N277 X0.0497 Y-0.8593 Z-0.0247 I-0.0206 J-0.0719
N278 X0.0909 Y-0.7155 Z-0.0329 I0.0206 J0.0719
N279 X0.0497 Y-0.8593 Z-0.0411 I-0.0206 J-0.0719
N280 X0.0909 Y-0.7155 Z-0.0493 I0.0206 J0.0719
N281 X0.0497 Y-0.8593 Z-0.0575 I-0.0206 J-0.0719
N282 X0.0909 Y-0.7155 Z-0.0657 I0.0206 J0.0719
N283 X0.0497 Y-0.8593 Z-0.0739 I-0.0206 J-0.0719
N284 X0.1451 Y-0.7874 Z-0.0787 I0.0206 J0.0719
N285 G1 Y-0.7862 F39.37
N286 G3 X0.1325 Y-0.7736 I-0.0126 J0
N287 G1 X0.1299
N288 G3 X0.1175 Y-0.786 I0 J-0.0124
N289 G1 Y-0.7886
N290 G3 X0.1301 Y-0.8012 I0.0126 J0
N291 G1 X0.1325
N292 G3 X0.1451 Y-0.7886 I0 J0.0126
N293 G1 Y-0.7874
N294 G2 X0.1785 Y-0.7187 I0.0874 J0
N295 G3 X0.1535 Y-0.6465 I-0.025 J0.0318
N296 G1 X0.0028
N297 G3 X-0.0096 Y-0.6589 I0 J-0.0124
N298 G1 Y-0.9158
N299 G3 X0.0029 Y-0.9283 I0.0126 J0
N300 G1 X0.2597
N301 G3 X0.2722 Y-0.9158 I0 J0.0126
N302 G1 Y-0.659
N303 G3 X0.2597 Y-0.6465 I-0.0126 J0
N304 G1 X0.1535
N305 G2 X0.0582 Y-0.5829 I0 J0.1033
N306 G3 X-0.0372 Y-0.5194 I-0.0953 J-0.0397
N307 G1 X-0.1243
N308 G3 X-0.1368 Y-0.5318 I0 J-0.0124
N309 G1 Y-1.0429
N310 G3 X-0.1242 Y-1.0554 I0.0126 J0
N311 G1 X0.3868
N312 G3 X0.3993 Y-1.0429 I0 J0.0126
N313 G1 Y-0.5319
N314 G3 X0.3868 Y-0.5194 I-0.0126 J0
N315 G1 X-0.0372
N316 G2 X-0.1325 Y-0.4558 I0 J0.1033
N317 G3 X-0.2278 Y-0.3922 I-0.0953 J-0.0397
N318 G1 X-0.2515
N319 G3 X-0.2639 Y-0.4046 I0 J-0.0124
N320 G1 Y-1.17
N321 G3 X-0.2513 Y-1.1826 I0.0126 J0
N322 G1 X0.5139
N323 G3 X0.5265 Y-1.17 I0 J0.0126
N324 G1 Y-0.4048
N325 G3 X0.5139 Y-0.3922 I-0.0126 J0
N326 G1 X-0.2278
N327 G2 X-0.3031 Y-0.3431 I0 J0.0821
N328 G3 X-0.391 Y-0.3615 I-0.042 J-0.0184
N329 G1 Y-1.2971
N330 G3 X-0.3784 Y-1.3097 I0.0126 J0
N331 G1 X0.641
N332 G3 X0.6536 Y-1.2971 I0 J0.0126
N333 G1 Y-0.2777
N334 G3 X0.641 Y-0.2651 I-0.0126 J0
N335 G1 X-0.3786
N336 G3 X-0.391 Y-0.2775 I0 J-0.0124
N337 G1 Y-0.3615
N338 G2 X-0.4547 Y-0.457 I-0.1034 J0
N339 G3 X-0.5183 Y-0.5525 I0.0398 J-0.0955
N340 G1 Y-1.3976
N341 G3 X-0.4789 Y-1.437 I0.0394 J0
N342 G1 X0.7415
N343 G3 X0.7809 Y-1.3976 I0 J0.0394
N344 G1 Y-0.1772
N345 G3 X0.7415 Y-0.1378 I-0.0394 J0
N346 G1 X-0.4789
N347 G3 X-0.5183 Y-0.1772 I0 J-0.0394
N348 G1 Y-0.5525
N349 G3 X-0.5126 Y-0.5601 I0.0079 J0
N350 G1 X0.0878 Y-0.731
N351 G3 X0.0923 Y-0.7159 I0.0022 J0.0076
N352 X0.0483 Y-0.8589 Z-0.0869 I-0.022 J-0.0715 F19.69
N353 X0.0923 Y-0.7159 Z-0.0952 I0.022 J0.0715
N354 X0.0483 Y-0.8589 Z-0.1034 I-0.022 J-0.0715
N355 X0.0923 Y-0.7159 Z-0.1116 I0.022 J0.0715
N356 X0.0483 Y-0.8589 Z-0.1198 I-0.022 J-0.0715
N357 X0.0923 Y-0.7159 Z-0.128 I0.022 J0.0715
N358 X0.0483 Y-0.8589 Z-0.1362 I-0.022 J-0.0715
N359 X0.0923 Y-0.7159 Z-0.1444 I0.022 J0.0715
N360 X0.0483 Y-0.8589 Z-0.1526 I-0.022 J-0.0715
N361 X0.1451 Y-0.7874 Z-0.1575 I0.022 J0.0715
N362 G1 Y-0.7862 F39.37
N363 G3 X0.1325 Y-0.7736 I-0.0126 J0
N364 G1 X0.1299
N365 G3 X0.1175 Y-0.786 I0 J-0.0124
N366 G1 Y-0.7886
N367 G3 X0.1301 Y-0.8012 I0.0126 J0
N368 G1 X0.1325
N369 G3 X0.1451 Y-0.7886 I0 J0.0126
N370 G1 Y-0.7874
N371 G2 X0.1785 Y-0.7187 I0.0874 J0
N372 G3 X0.1535 Y-0.6465 I-0.025 J0.0318
N373 G1 X0.0028
N374 G3 X-0.0096 Y-0.6589 I0 J-0.0124
N375 G1 Y-0.9158
N376 G3 X0.0029 Y-0.9283 I0.0126 J0
N377 G1 X0.2597
N378 G3 X0.2722 Y-0.9158 I0 J0.0126
N379 G1 Y-0.659
N380 G3 X0.2597 Y-0.6465 I-0.0126 J0
N381 G1 X0.1535
N382 G2 X0.0582 Y-0.5829 I0 J0.1033
N383 G3 X-0.0372 Y-0.5194 I-0.0953 J-0.0397
N384 G1 X-0.1243
N385 G3 X-0.1368 Y-0.5318 I0 J-0.0124
N386 G1 Y-1.0429
N387 G3 X-0.1242 Y-1.0554 I0.0126 J0
N388 G1 X0.3868
N389 G3 X0.3993 Y-1.0429 I0 J0.0126
N390 G1 Y-0.5319
N391 G3 X0.3868 Y-0.5194 I-0.0126 J0
N392 G1 X-0.0372
N393 G2 X-0.1325 Y-0.4558 I0 J0.1033
N394 G3 X-0.2278 Y-0.3922 I-0.0953 J-0.0397
N395 G1 X-0.2515
N396 G3 X-0.2639 Y-0.4046 I0 J-0.0124
N397 G1 Y-1.17
N398 G3 X-0.2513 Y-1.1826 I0.0126 J0
N399 G1 X0.5139
N400 G3 X0.5265 Y-1.17 I0 J0.0126
N401 G1 Y-0.4048
N402 G3 X0.5139 Y-0.3922 I-0.0126 J0
N403 G1 X-0.2278
N404 G2 X-0.3031 Y-0.3431 I0 J0.0821
N405 G3 X-0.391 Y-0.3615 I-0.042 J-0.0184
N406 G1 Y-1.2971
N407 G3 X-0.3784 Y-1.3097 I0.0126 J0
N408 G1 X0.641
N409 G3 X0.6536 Y-1.2971 I0 J0.0126
N410 G1 Y-0.2777
N411 G3 X0.641 Y-0.2651 I-0.0126 J0
N412 G1 X-0.3786
N413 G3 X-0.391 Y-0.2775 I0 J-0.0124
N414 G1 Y-0.3615
N415 G2 X-0.4547 Y-0.457 I-0.1034 J0
N416 G3 X-0.5183 Y-0.5525 I0.0398 J-0.0955
N417 G1 Y-1.3976
N418 G3 X-0.4789 Y-1.437 I0.0394 J0
N419 G1 X0.7415
N420 G3 X0.7809 Y-1.3976 I0 J0.0394
N421 G1 Y-0.1772
N422 G3 X0.7415 Y-0.1378 I-0.0394 J0
N423 G1 X-0.4789
N424 G3 X-0.5183 Y-0.1772 I0 J-0.0394
N425 G1 Y-0.5525
N426 G3 X-0.5172 Y-0.5584 Z-0.1563 I0.0157 J0
N427 X-0.5145 Y-0.5627 Z-0.1529 I0.0146 J0.0059
N428 X-0.5121 Y-0.5651 Z-0.1478 I0.012 J0.0102
N429 X-0.5111 Y-0.5658 Z-0.1417 I0.0095 J0.0126
N430 G0 Z0.5906
N432 M30
N433 Z1
N434 M5
