%
(1001)
(T5  D=4 CR=0 - ZMIN=-3.175 - flat end mill)
N0 G90
N1 G17
(2D Pocket2)
N2 T5 M6
N3 S10000 M3
N5 G0 X175.231 Y76.627
N6 Z15
N7 Z5
N8 G1 Z1.16 F350
N9 G18 G2 X175.596 Z0.762 I0.4 K0
N10 G1 X175.683 Z0.754
N11 G17 G2 X177.683 Y74.627 Z0.48 I0 J-2
N12 G1 Y48.214 Z-1.831
N13 G2 X176.823 Y46.571 Z-2 I-2 J0
N14 X175.683 Y46.214 I-1.14 J1.643 F762
N15 G1 X30.813
N16 G2 X28.813 Y48.214 I0 J2
N17 G1 Y74.627
N18 G2 X30.813 Y76.627 I2 J0
N19 G1 X175.683
N20 G2 X177.683 Y74.627 I0 J-2
N21 G1 Y48.214
N22 G2 X176.823 Y46.571 I-2 J0
N23 G3 X176.813 Y46.25 I0.114 J-0.164
N24 G1 X177.459 Y45.735
N25 G3 X177.583 Y45.691 I0.125 J0.156
N26 G1 X178.248
N27 Y53.785
N28 G2 X178.249 Y53.844 I2 J0
N29 G3 Y54.338 I-8.396 J0.247
N30 G2 X178.248 Y54.397 I1.999 J0.059
N31 G1 Y68.498
N32 G2 X178.249 Y68.57 I2 J0
N33 G3 Y69.166 I-8.257 J0.298
N34 G2 X178.248 Y69.238 I1.999 J0.072
N35 G1 Y74.627
N36 Y77.131
N37 X28.313
N38 Y45.691
N39 X34.57
N40 G2 X34.67 Y45.689 I0 J-2
N41 G3 X35.185 Y45.682 I0.347 J6.886
N42 G2 X35.233 I0.048 J-1.999
N43 G1 X169.853 Y45.691
N44 X177.583
N45 G3 X177.602 Y46.09 I0 J0.2
N46 G1 X177.031 Y46.144
N47 G3 X176.959 Y46.138 I-0.019 J-0.199
N48 G2 X176.907 Y46.13 I-0.055 J0.196
N49 G1 X166.121 Y45.952
N50 X165.832 Y45.861
N51 G3 X165.859 Y45.691 I0.028 J-0.083
N52 G1 X169.853 Z-2.349 F350
N53 X178.248 Z-3.084
N54 Y46.733 Z-3.175
N55 Y53.785 F762
N56 G2 X178.249 Y53.844 I2 J0
N57 G3 Y54.338 I-8.396 J0.247
N58 G2 X178.248 Y54.397 I1.999 J0.059
N59 G1 Y68.498
N60 G2 X178.249 Y68.57 I2 J0
N61 G3 Y69.166 I-8.257 J0.298
N62 G2 X178.248 Y69.238 I1.999 J0.072
N63 G1 Y74.627
N64 Y77.131
N65 X28.313
N66 Y45.691
N67 X34.57
N68 G2 X34.67 Y45.689 I0 J-2
N69 G3 X35.185 Y45.682 I0.347 J6.886
N70 G2 X35.233 I0.048 J-1.999
N71 G1 X169.853 Y45.691
N72 X178.248
N73 Y46.733
N74 G3 X178.034 Y46.932 I-0.2 J0
N75 G1 X177.244 Y46.877
N76 G3 X177.114 Y46.817 I0.014 J-0.2
N77 G2 X175.683 Y46.214 I-1.431 J1.397
N78 G1 X30.813
N79 G2 X28.813 Y48.214 I0 J2
N80 G1 Y74.627
N81 G2 X30.813 Y76.627 I2 J0
N82 G1 X175.683
N83 G2 X177.683 Y74.627 I0 J-2
N84 G1 Y48.214
N85 G2 X177.114 Y46.817 I-2 J0
N86 G3 X177.031 Y46.69 Z-3.145 I0.286 J-0.279 F350
N87 X177.002 Y46.564 Z-3.058 I0.37 J-0.152
N88 X177.005 Y46.478 Z-2.928 I0.399 J-0.026
N89 X177.011 Y46.448 Z-2.775 I0.395 J0.06
N90 G0 Z15
N91 X42.272 Y28.798
N92 Z5
N93 G1 Z1.16 F350
N94 G3 X42.251 Y28.787 Z1.024 I0.862 J-1.693
N95 X42.19 Y28.754 Z0.904 I0.883 J-1.682
N96 X42.1 Y28.699 Z0.815 I0.944 J-1.649
N97 X41.994 Y28.625 Z0.767 I1.034 J-1.594
N98 X41.964 Y28.602 Z0.762 I1.14 J-1.52
N99 X44.303 Y25.607 Z0.24 I1.17 J-1.497
N100 X41.964 Y28.602 Z-0.282 I-1.17 J1.497
N101 X44.303 Y25.607 Z-0.805 I1.17 J-1.497
N102 X41.964 Y28.602 Z-1.327 I-1.17 J1.497
N103 X44.303 Y25.607 Z-1.849 I1.17 J-1.497
N104 X45.034 Y27.105 Z-2 I-1.17 J1.497
N105 G1 Y27.172 F762
N106 G3 X44.752 Y27.661 I-0.565 J0
N107 G1 X44.634 Y27.729
N108 G3 X44.07 I-0.282 J-0.489
N109 G1 X43.953 Y27.661
N110 G3 X43.67 Y27.172 I0.282 J-0.489
N111 G1 Y16.492
N112 G3 X43.953 Y16.003 I0.565 J0
N113 G1 X44.07 Y15.935
N114 G3 X44.634 I0.282 J0.489
N115 G1 X44.752 Y16.003
N116 G3 X45.034 Y16.492 I-0.282 J0.489
N117 G1 Y27.105
N118 G2 X45.537 Y27.872 I0.836 J0
N119 G3 X45.59 Y28.788 I-0.204 J0.471
N120 G1 X44.634 Y29.339
N121 G3 X44.07 I-0.282 J-0.489
N122 G1 X42.628 Y28.507
N123 G3 X42.276 Y27.897 I0.352 J-0.61
N124 G1 Y15.768
N125 G3 X42.628 Y15.158 I0.704 J0
N126 G1 X44 Y14.366
N127 G3 X44.704 I0.352 J0.61
N128 G1 X46.076 Y15.158
N129 G3 X46.428 Y15.768 I-0.352 J0.61
N130 G1 Y27.897
N131 G3 X46.076 Y28.507 I-0.704 J0
N132 G1 X45.59 Y28.788
N133 G2 X44.624 Y31.091 I1.031 J1.786
N134 G3 X42.637 Y32.604 I-1.311 J0.34
N135 G1 X39.383 Y30.725
N136 G3 X38.732 Y29.598 I0.651 J-1.128
N137 G1 Y14.067
N138 G3 X39.383 Y12.939 I1.302 J0
N139 G1 X43.701 Y10.446
N140 G3 X45.003 I0.651 J1.128
N141 G1 X49.321 Y12.939
N142 G3 X49.972 Y14.067 I-0.651 J1.128
N143 G1 Y29.598
N144 G3 X49.321 Y30.725 I-1.302 J0
N145 G1 X45.003 Y33.218
N146 G3 X43.701 I-0.651 J-1.128
N147 G1 X42.637 Y32.604
N148 G3 X41.7 Y31.18 Z-2.149 I0.95 J-1.645 F350
N149 G1 X41.247 Y27.326 Z-2.477
N150 G3 X43.023 Y25.208 Z-2.739 I1.887 J-0.222
N151 X45.034 Y27.105 Z-3 I0.111 J1.897
N152 G1 Y27.172 F762
N153 G3 X44.752 Y27.661 I-0.565 J0
N154 G1 X44.634 Y27.729
N155 G3 X44.07 I-0.282 J-0.489
N156 G1 X43.953 Y27.661
N157 G3 X43.67 Y27.172 I0.282 J-0.489
N158 G1 Y16.492
N159 G3 X43.953 Y16.003 I0.565 J0
N160 G1 X44.07 Y15.935
N161 G3 X44.634 I0.282 J0.489
N162 G1 X44.752 Y16.003
N163 G3 X45.034 Y16.492 I-0.282 J0.489
N164 G1 Y27.105
N165 G2 X45.537 Y27.872 I0.836 J0
N166 G3 X45.59 Y28.788 I-0.204 J0.471
N167 G1 X44.634 Y29.339
N168 G3 X44.07 I-0.282 J-0.489
N169 G1 X42.628 Y28.507
N170 G3 X42.276 Y27.897 I0.352 J-0.61
N171 G1 Y15.768
N172 G3 X42.628 Y15.158 I0.704 J0
N173 G1 X44 Y14.366
N174 G3 X44.704 I0.352 J0.61
N175 G1 X46.076 Y15.158
N176 G3 X46.428 Y15.768 I-0.352 J0.61
N177 G1 Y27.897
N178 G3 X46.076 Y28.507 I-0.704 J0
N179 G1 X45.59 Y28.788
N180 G2 X44.624 Y31.091 I1.031 J1.786
N181 G3 X42.637 Y32.604 I-1.311 J0.34
N182 G1 X39.383 Y30.725
N183 G3 X38.732 Y29.598 I0.651 J-1.128
N184 G1 Y14.067
N185 G3 X39.383 Y12.939 I1.302 J0
N186 G1 X43.701 Y10.446
N187 G3 X45.003 I0.651 J1.128
N188 G1 X49.321 Y12.939
N189 G3 X49.972 Y14.067 I-0.651 J1.128
N190 G1 Y29.598
N191 G3 X49.321 Y30.725 I-1.302 J0
N192 G1 X45.003 Y33.218
N193 G3 X43.701 I-0.651 J-1.128
N194 G1 X42.637 Y32.604
N195 G3 X42.522 Y32.504 Z-2.97 I0.2 J-0.346 F350
N196 X42.46 Y32.391 Z-2.883 I0.315 J-0.247
N197 X42.44 Y32.307 Z-2.753 I0.377 J-0.133
N198 X42.437 Y32.276 Z-2.6 I0.397 J-0.049
N199 G0 Z15
N200 X101.642 Y20.089
N201 Z5
N202 G1 Z1.16 F350
N203 G3 X101.653 Y20.067 Z1.024 I1.693 J0.862
N204 X101.686 Y20.007 Z0.904 I1.682 J0.883
N205 X101.741 Y19.917 Z0.815 I1.649 J0.944
N206 X101.815 Y19.811 Z0.767 I1.594 J1.034
N207 X101.838 Y19.781 Z0.762 I1.52 J1.14
N208 X104.832 Y22.12 Z0.24 I1.497 J1.17
N209 X101.838 Y19.781 Z-0.282 I-1.497 J-1.17
N210 X104.832 Y22.12 Z-0.805 I1.497 J1.17
N211 X101.838 Y19.781 Z-1.327 I-1.497 J-1.17
N212 X104.832 Y22.12 Z-1.849 I1.497 J1.17
N213 X103.335 Y22.851 Z-2 I-1.497 J-1.17
N214 G1 X103.3 F762
N215 G3 X102.984 Y22.535 I0 J-0.315
N216 G1 Y22.469
N217 G3 X103.304 Y22.149 I0.319 J0
N218 G1 X103.366
N219 G3 X103.686 Y22.469 I0 J0.319
N220 G1 Y22.531
N221 G3 X103.366 Y22.851 I-0.319 J0
N222 G1 X103.335
N223 G2 X101.59 Y23.7 I0 J2.218
N224 G3 X99.755 Y23.066 I-0.808 J-0.634
N225 G1 Y19.24
N226 G3 X100.075 Y18.92 I0.319 J0
N227 G1 X106.595
N228 G3 X106.915 Y19.24 I0 J0.319
N229 G1 Y25.76
N230 G3 X106.595 Y26.08 I-0.319 J0
N231 G1 X100.071
N232 G3 X99.755 Y25.764 I0 J-0.315
N233 G1 Y23.066
N234 G2 X98.141 Y20.645 I-2.623 J0
N235 G3 X96.526 Y18.223 I1.009 J-2.422
N236 G1 Y16.011
N237 G3 X96.846 Y15.692 I0.319 J0
N238 G1 X109.824
N239 G3 X110.143 Y16.011 I0 J0.319
N240 G1 Y28.989
N241 G3 X109.824 Y29.308 I-0.319 J0
N242 G1 X96.842
N243 G3 X96.526 Y28.993 I0 J-0.315
N244 G1 Y18.223
N245 G2 X94.912 Y15.801 I-2.623 J0
N246 G3 X93.298 Y13.38 I1.009 J-2.422
N247 G1 Y12.782
N248 G3 X93.617 Y12.463 I0.319 J0
N249 G1 X113.053
N250 G3 X113.372 Y12.782 I0 J0.319
N251 G1 Y32.218
N252 G3 X113.053 Y32.537 I-0.319 J0
N253 G1 X93.613
N254 G3 X93.298 Y32.222 I0 J-0.315
N255 G1 Y13.38
N256 G2 X92.049 Y11.468 I-2.087 J0
N257 G3 X92.518 Y9.234 I0.469 J-1.068
N258 G1 X116.282
N259 G3 X116.601 Y9.553 I0 J0.319
N260 G1 Y35.447
N261 G3 X116.282 Y35.766 I-0.319 J0
N262 G1 X90.384
N263 G3 X90.069 Y35.451 I0 J-0.315
N264 G1 Y9.553
N265 G3 X90.388 Y9.234 I0.319 J0
N266 G1 X92.518
N267 G2 X94.943 Y7.617 I0 J-2.628
N268 G3 X97.369 Y6 I2.425 J1.011
N269 G1 X118.835
N270 G3 X119.835 Y7 I0 J1
N271 G1 Y38
N272 G3 X118.835 Y39 I-1 J0
N273 G1 X87.835
N274 G3 X86.835 Y38 I0 J-1
N275 G1 Y7
N276 G3 X87.835 Y6 I1 J0
N277 G1 X97.369
N278 G3 X99.097 Y7.11 Z-2.107 I0 J1.9 F350
N279 G1 X105.063 Y20.161 Z-2.813
N280 G3 X103.335 Y22.851 Z-3 I-1.728 J0.79
N281 G1 X103.3 F762
N282 G3 X102.984 Y22.535 I0 J-0.315
N283 G1 Y22.469
N284 G3 X103.304 Y22.149 I0.319 J0
N285 G1 X103.366
N286 G3 X103.686 Y22.469 I0 J0.319
N287 G1 Y22.531
N288 G3 X103.366 Y22.851 I-0.319 J0
N289 G1 X103.335
N290 G2 X101.59 Y23.7 I0 J2.218
N291 G3 X99.755 Y23.066 I-0.808 J-0.634
N292 G1 Y19.24
N293 G3 X100.075 Y18.92 I0.319 J0
N294 G1 X106.595
N295 G3 X106.915 Y19.24 I0 J0.319
N296 G1 Y25.76
N297 G3 X106.595 Y26.08 I-0.319 J0
N298 G1 X100.071
N299 G3 X99.755 Y25.764 I0 J-0.315
N300 G1 Y23.066
N301 G2 X98.141 Y20.645 I-2.623 J0
N302 G3 X96.526 Y18.223 I1.009 J-2.422
N303 G1 Y16.011
N304 G3 X96.846 Y15.692 I0.319 J0
N305 G1 X109.824
N306 G3 X110.143 Y16.011 I0 J0.319
N307 G1 Y28.989
N308 G3 X109.824 Y29.308 I-0.319 J0
N309 G1 X96.842
N310 G3 X96.526 Y28.993 I0 J-0.315
N311 G1 Y18.223
N312 G2 X94.912 Y15.801 I-2.623 J0
N313 G3 X93.298 Y13.38 I1.009 J-2.422
N314 G1 Y12.782
N315 G3 X93.617 Y12.463 I0.319 J0
N316 G1 X113.053
N317 G3 X113.372 Y12.782 I0 J0.319
N318 G1 Y32.218
N319 G3 X113.053 Y32.537 I-0.319 J0
N320 G1 X93.613
N321 G3 X93.298 Y32.222 I0 J-0.315
N322 G1 Y13.38
N323 G2 X92.049 Y11.468 I-2.087 J0
N324 G3 X92.518 Y9.234 I0.469 J-1.068
N325 G1 X116.282
N326 G3 X116.601 Y9.553 I0 J0.319
N327 G1 Y35.447
N328 G3 X116.282 Y35.766 I-0.319 J0
N329 G1 X90.384
N330 G3 X90.069 Y35.451 I0 J-0.315
N331 G1 Y9.553
N332 G3 X90.388 Y9.234 I0.319 J0
N333 G1 X92.518
N334 G2 X94.943 Y7.617 I0 J-2.628
N335 G3 X97.369 Y6 I2.425 J1.011
N336 G1 X118.835
N337 G3 X119.835 Y7 I0 J1
N338 G1 Y38
N339 G3 X118.835 Y39 I-1 J0
N340 G1 X87.835
N341 G3 X86.835 Y38 I0 J-1
N342 G1 Y7
N343 G3 X87.835 Y6 I1 J0
N344 G1 X97.369
N345 G3 X97.518 Y6.029 Z-2.97 I0 J0.4 F350
N346 X97.628 Y6.096 Z-2.883 I-0.149 J0.371
N347 X97.688 Y6.159 Z-2.753 I-0.26 J0.304
N348 X97.705 Y6.184 Z-2.6 I-0.319 J0.241
N349 G0 Z15
N351 M30
N352 Z1
N353 M5
