%
(1001)
(vaibhav)
(T3  D=0.125 CR=0 - ZMIN=-0.0984 - flat end mill)
(T4  D=0.5 CR=0 - ZMIN=-0.9055 - flat end mill)
N0 G90
N1 G17
(2D Pocket1)
N2 T3 M6
N3 S19863 M3
N5 G0 X7.2688 Y1.0901
N6 Z0.5906
N7 Z0.1969
N8 G1 Z0.1109 F6.1
N9 G2 X7.2682 Y1.0894 Z0.1062 I-0.7727 J0.5831
N10 X7.2666 Y1.0873 Z0.1022 I-0.7721 J0.5838
N11 X7.2643 Y1.0842 Z0.0995 I-0.7706 J0.5859
N12 X7.2614 Y1.0806 Z0.0984 I-0.7682 J0.589
N13 X5.7307 Y2.2659 Z-0.0078 I-0.7654 J0.5927
N14 X6.7951 Y2.5939 Z-0.0492 I0.7654 J-0.5927
N15 X6.1971 Y0.7526 I-0.299 J-0.9207
N16 X6.7951 Y2.5939 I0.299 J0.9207
N17 G3 X6.8054 Y2.6013 I0.0024 J0.0075
N18 G1 X6.8105 Y3.405
N19 G3 X6.8027 Y3.4129 I-0.0079 J0.0001
N20 X6.7948 Y3.405 I0 J-0.0079
N21 G1 Y2.7096
N22 G2 X6.7184 Y2.6487 I-0.0625 J0
N23 G3 X6.2737 Y0.6978 I-0.2223 J-0.9755
N24 X6.7184 I0.2223 J0.9755
N25 G2 X6.7948 Y0.6368 I0.0139 J-0.0609
N26 G1 Y0
N27 Y-0.058
N28 G3 X6.8024 Y-0.0659 I0.0079 J0
N29 G1 X6.8191 Y-0.0664
N30 G3 X6.8273 Y-0.0586 I0.0003 J0.0079
N31 G1 Y0.6858
N32 G2 X6.8666 Y0.7439 I0.0625 J0
N33 G3 Y2.6026 I-0.3705 J0.9293
N34 G2 X6.8273 Y2.6606 I0.0231 J0.0581
N35 G1 Y3.3465
N36 Y3.4044
N37 Y2.6606 Z-0.0583
N38 G3 X6.8666 Y2.6026 Z-0.0592 I0.0625 J0
N39 G2 Y0.7439 Z-0.0884 I-0.3706 J-0.9293
N40 G3 X6.8273 Y0.6858 Z-0.0893 I0.0232 J-0.0581
N41 G1 Y-0.0586 Z-0.0984
N42 Y0.6858
N43 G2 X6.8666 Y0.7439 I0.0625 J0
N44 G3 Y2.6026 I-0.3705 J0.9293
N45 G2 X6.8273 Y2.6606 I0.0231 J0.0581
N46 G1 Y3.3465
N47 Y3.4044
N48 G3 X6.8197 Y3.4123 I-0.0079 J0
N49 G1 X6.8029 Y3.4129
N50 G3 X6.7948 Y3.405 I-0.0003 J-0.0079
N51 G1 Y2.7096
N52 G2 X6.7184 Y2.6487 I-0.0625 J0
N53 G3 X6.2737 Y0.6978 I-0.2223 J-0.9755
N54 X6.7184 I0.2223 J0.9755
N55 G2 X6.7948 Y0.6368 I0.0139 J-0.0609
N56 G1 Y0
N57 Y-0.058
N58 G3 X6.8027 Y-0.0659 I0.0079 J0
N59 X6.8105 Y-0.0578 I-0.0001 J0.0079
N60 G1 X6.7943 Y0.7417
N61 G3 X6.7841 Y0.7491 I-0.0079 J-0.0002
N62 G2 X6.208 Y2.5974 I-0.288 J0.9242
N63 X6.7841 Y0.7491 I0.288 J-0.9242
N64 G3 X6.7799 Y0.7468 Z-0.0975 I0.0037 J-0.0119
N65 X6.7772 Y0.7438 Z-0.0948 I0.0079 J-0.0097
N66 X6.776 Y0.7414 Z-0.0907 I0.0106 J-0.0067
N67 X6.7758 Y0.7404 Z-0.0859 I0.0118 J-0.0042
N68 G0 Z0.5906
N70 M5
(Contour1)
N71 T4 M6
N72 S4997 M3
N74 G0 X0.8475 Y-0.4103
N75 Z0.5906
N76 Z0.2409
N77 G1 Z-0.0484 F15
N78 X0.8476 Y-0.41 Z-0.054
N79 Y-0.409 Z-0.0596
N80 Y-0.4075 Z-0.0649
N81 X0.8477 Y-0.4053 Z-0.0701
N82 X0.8478 Y-0.4026 Z-0.075
N83 X0.8479 Y-0.3994 Z-0.0796
N84 X0.8481 Y-0.3956 Z-0.0838
N85 X0.8482 Y-0.3915 Z-0.0875
N86 X0.8484 Y-0.3869 Z-0.0908
N87 X0.8485 Y-0.382 Z-0.0935
N88 X0.8487 Y-0.3768 Z-0.0956
N89 X0.8489 Y-0.3714 Z-0.0972
N90 X0.8491 Y-0.3659 Z-0.0981
N91 X0.8493 Y-0.3603 Z-0.0984
N92 X0.8513 Y-0.3017
N93 G3 X0.8014 Y-0.25 I-0.05 J0.0017
N94 G1 X0.7923 F30
N95 X0.7811 Y-0.2499
N96 X0.7587 Y-0.2496
N97 X0.7475 Y-0.2492
N98 X0.7363 Y-0.2486
N99 X0.7251 Y-0.2481
N100 X0.7139 Y-0.2473
N101 X0.7027 Y-0.2464
N102 X0.6914 Y-0.2455
N103 X0.6802 Y-0.2444
N104 X0.669 Y-0.2431
N105 X0.6578 Y-0.2419
N106 X0.6466 Y-0.2403
N107 X0.6354 Y-0.2387
N108 X0.6242 Y-0.2371
N109 X0.613 Y-0.2351
N110 X0.6018 Y-0.2332
N111 X0.5905 Y-0.2311
N112 X0.5793 Y-0.2288
N113 X0.5681 Y-0.2265
N114 X0.5569 Y-0.224
N115 X0.5345 Y-0.2187
N116 X0.5263 Y-0.2166
N117 X0.5233 Y-0.2158
N118 X0.5121 Y-0.2127
N119 X0.5009 Y-0.2096
N120 X0.4896 Y-0.2063
N121 X0.4784 Y-0.2028
N122 X0.4672 Y-0.1994
N123 X0.456 Y-0.1956
N124 X0.4448 Y-0.1917
N125 X0.4336 Y-0.1878
N126 X0.4224 Y-0.1836
N127 X0.4112 Y-0.1793
N128 X0.4 Y-0.1749
N129 X0.3887 Y-0.1702
N130 X0.3775 Y-0.1656
N131 X0.3663 Y-0.1606
N132 X0.3551 Y-0.1556
N133 X0.3439 Y-0.1504
N134 X0.3416 Y-0.1493
N135 X0.3215 Y-0.1394
N136 X0.3187 Y-0.1381
N137 X0.3103 Y-0.1337
N138 X0.2974 Y-0.1269
N139 X0.2878 Y-0.1218
N140 X0.277 Y-0.1157
N141 X0.2654 Y-0.1091
N142 X0.2575 Y-0.1044
N143 X0.2542 Y-0.1024
N144 X0.2392 Y-0.0932
N145 X0.2318 Y-0.0887
N146 X0.2216 Y-0.082
N147 X0.2094 Y-0.074
N148 X0.2046 Y-0.0708
N149 X0.1982 Y-0.0663
N150 X0.187 Y-0.0585
N151 X0.1757 Y-0.0505
N152 X0.1729 Y-0.0484
N153 X0.158 Y-0.0371
N154 X0.1533 Y-0.0337
N155 X0.1436 Y-0.0259
N156 X0.1296 Y-0.0147
N157 X0.1197 Y-0.0065
N158 X0.1085 Y0.0031
N159 X0.1031 Y0.0077
N160 X0.0973 Y0.0129
N161 X0.0861 Y0.0231
N162 X0.0783 Y0.0302
N163 X0.0748 Y0.0335
N164 X0.0667 Y0.0414
N165 X0.0636 Y0.0443
N166 X0.0551 Y0.0526
N167 X0.0524 Y0.0553
N168 X0.0442 Y0.0638
N169 X0.0412 Y0.0668
N170 X0.0333 Y0.075
N171 X0.03 Y0.0785
N172 X0.023 Y0.0862
N173 X0.0128 Y0.0974
N174 X0.0076 Y0.1033
N175 X0.003 Y0.1087
N176 X-0.0066 Y0.1199
N177 X-0.0148 Y0.1297
N178 X-0.0261 Y0.1437
N179 X-0.0338 Y0.1535
N180 X-0.0373 Y0.1581
N181 X-0.0485 Y0.1731
N182 X-0.0506 Y0.176
N183 X-0.0586 Y0.1872
N184 X-0.0665 Y0.1984
N185 X-0.0709 Y0.2047
N186 X-0.0741 Y0.2096
N187 X-0.0821 Y0.2217
N188 X-0.0888 Y0.232
N189 X-0.0933 Y0.2393
N190 X-0.1026 Y0.2545
N191 X-0.1045 Y0.2576
N192 X-0.1092 Y0.2657
N193 X-0.1157 Y0.2772
N194 X-0.1219 Y0.2881
N195 X-0.127 Y0.2975
N196 X-0.1338 Y0.3105
N197 X-0.1382 Y0.3189
N198 X-0.1396 Y0.3218
N199 X-0.1494 Y0.3418
N200 X-0.1506 Y0.3442
N201 X-0.1557 Y0.3554
N202 X-0.1607 Y0.3666
N203 X-0.1657 Y0.3778
N204 X-0.1704 Y0.389
N205 X-0.175 Y0.4003
N206 X-0.1794 Y0.4115
N207 X-0.1837 Y0.4227
N208 X-0.1879 Y0.4339
N209 X-0.1918 Y0.4451
N210 X-0.1957 Y0.4563
N211 X-0.1995 Y0.4676
N212 X-0.2029 Y0.4788
N213 X-0.2064 Y0.49
N214 X-0.2097 Y0.5012
N215 X-0.2128 Y0.5124
N216 X-0.2159 Y0.5236
N217 X-0.2166 Y0.5265
N218 X-0.2187 Y0.5349
N219 X-0.2241 Y0.5573
N220 X-0.2266 Y0.5685
N221 X-0.2289 Y0.5797
N222 X-0.2312 Y0.5909
N223 X-0.2333 Y0.6021
N224 X-0.2352 Y0.6134
N225 X-0.2371 Y0.6246
N226 X-0.2388 Y0.6358
N227 X-0.2404 Y0.647
N228 X-0.2419 Y0.6582
N229 X-0.2432 Y0.6694
N230 X-0.2444 Y0.6807
N231 X-0.2456 Y0.6919
N232 X-0.2465 Y0.7031
N233 X-0.2474 Y0.7143
N234 X-0.2481 Y0.7255
N235 X-0.2487 Y0.7367
N236 X-0.2492 Y0.7479
N237 X-0.2496 Y0.7592
N238 X-0.2499 Y0.7816
N239 X-0.25 Y0.7928
N240 Y0.8014
N241 G3 X-0.3149 Y0.8491 I-0.05 J0
N242 G1 X-0.3626 Y0.8342
N243 X-0.3679 Y0.8325 Z-0.0981
N244 X-0.3732 Y0.8309 Z-0.0972
N245 X-0.3784 Y0.8293 Z-0.0956
N246 X-0.3833 Y0.8277 Z-0.0935
N247 X-0.388 Y0.8263 Z-0.0908
N248 X-0.3923 Y0.8249 Z-0.0875
N249 X-0.3963 Y0.8236 Z-0.0838
N250 X-0.3999 Y0.8225 Z-0.0796
N251 X-0.403 Y0.8216 Z-0.075
N252 X-0.4056 Y0.8208 Z-0.0701
N253 X-0.4076 Y0.8201 Z-0.0649
N254 X-0.4091 Y0.8196 Z-0.0596
N255 X-0.41 Y0.8194 Z-0.054
N256 X-0.4103 Y0.8193 Z-0.0484
N257 G0 Z0.2894
N258 X0.843 Y-0.5394
N259 Z-0.2984
N260 G1 Y-0.5391 Z-0.304 F15
N261 X0.8431 Y-0.5381 Z-0.3096
N262 Y-0.5366 Z-0.3149
N263 X0.8432 Y-0.5345 Z-0.3201
N264 X0.8433 Y-0.5317 Z-0.325
N265 X0.8434 Y-0.5285 Z-0.3296
N266 X0.8435 Y-0.5248 Z-0.3338
N267 X0.8437 Y-0.5206 Z-0.3375
N268 X0.8439 Y-0.516 Z-0.3408
N269 X0.844 Y-0.5111 Z-0.3435
N270 X0.8442 Y-0.5059 Z-0.3456
N271 X0.8444 Y-0.5006 Z-0.3472
N272 X0.8446 Y-0.495 Z-0.3481
N273 X0.8448 Y-0.4894 Z-0.3484
N274 X0.8513 Y-0.3017
N275 G3 X0.8014 Y-0.25 I-0.05 J0.0017
N276 G1 X0.7923 F30
N277 X0.7811 Y-0.2499
N278 X0.7587 Y-0.2496
N279 X0.7475 Y-0.2492
N280 X0.7363 Y-0.2486
N281 X0.7251 Y-0.2481
N282 X0.7139 Y-0.2473
N283 X0.7027 Y-0.2464
N284 X0.6914 Y-0.2455
N285 X0.6802 Y-0.2444
N286 X0.669 Y-0.2431
N287 X0.6578 Y-0.2419
N288 X0.6466 Y-0.2403
N289 X0.6354 Y-0.2387
N290 X0.6242 Y-0.2371
N291 X0.613 Y-0.2351
N292 X0.6018 Y-0.2332
N293 X0.5905 Y-0.2311
N294 X0.5793 Y-0.2288
N295 X0.5681 Y-0.2265
N296 X0.5569 Y-0.224
N297 X0.5345 Y-0.2187
N298 X0.5263 Y-0.2166
N299 X0.5233 Y-0.2158
N300 X0.5121 Y-0.2127
N301 X0.5009 Y-0.2096
N302 X0.4896 Y-0.2063
N303 X0.4784 Y-0.2028
N304 X0.4672 Y-0.1994
N305 X0.456 Y-0.1956
N306 X0.4448 Y-0.1917
N307 X0.4336 Y-0.1878
N308 X0.4224 Y-0.1836
N309 X0.4112 Y-0.1793
N310 X0.4 Y-0.1749
N311 X0.3887 Y-0.1702
N312 X0.3775 Y-0.1656
N313 X0.3663 Y-0.1606
N314 X0.3551 Y-0.1556
N315 X0.3439 Y-0.1504
N316 X0.3416 Y-0.1493
N317 X0.3215 Y-0.1394
N318 X0.3187 Y-0.1381
N319 X0.3103 Y-0.1337
N320 X0.2974 Y-0.1269
N321 X0.2878 Y-0.1218
N322 X0.277 Y-0.1157
N323 X0.2654 Y-0.1091
N324 X0.2575 Y-0.1044
N325 X0.2542 Y-0.1024
N326 X0.2392 Y-0.0932
N327 X0.2318 Y-0.0887
N328 X0.2216 Y-0.082
N329 X0.2094 Y-0.074
N330 X0.2046 Y-0.0708
N331 X0.1982 Y-0.0663
N332 X0.187 Y-0.0585
N333 X0.1757 Y-0.0505
N334 X0.1729 Y-0.0484
N335 X0.158 Y-0.0371
N336 X0.1533 Y-0.0337
N337 X0.1436 Y-0.0259
N338 X0.1296 Y-0.0147
N339 X0.1197 Y-0.0065
N340 X0.1085 Y0.0031
N341 X0.1031 Y0.0077
N342 X0.0973 Y0.0129
N343 X0.0861 Y0.0231
N344 X0.0783 Y0.0302
N345 X0.0748 Y0.0335
N346 X0.0667 Y0.0414
N347 X0.0636 Y0.0443
N348 X0.0551 Y0.0526
N349 X0.0524 Y0.0553
N350 X0.0442 Y0.0638
N351 X0.0412 Y0.0668
N352 X0.0333 Y0.075
N353 X0.03 Y0.0785
N354 X0.023 Y0.0862
N355 X0.0128 Y0.0974
N356 X0.0076 Y0.1033
N357 X0.003 Y0.1087
N358 X-0.0066 Y0.1199
N359 X-0.0148 Y0.1297
N360 X-0.0261 Y0.1437
N361 X-0.0338 Y0.1535
N362 X-0.0373 Y0.1581
N363 X-0.0485 Y0.1731
N364 X-0.0506 Y0.176
N365 X-0.0586 Y0.1872
N366 X-0.0665 Y0.1984
N367 X-0.0709 Y0.2047
N368 X-0.0741 Y0.2096
N369 X-0.0821 Y0.2217
N370 X-0.0888 Y0.232
N371 X-0.0933 Y0.2393
N372 X-0.1026 Y0.2545
N373 X-0.1045 Y0.2576
N374 X-0.1092 Y0.2657
N375 X-0.1157 Y0.2772
N376 X-0.1219 Y0.2881
N377 X-0.127 Y0.2975
N378 X-0.1338 Y0.3105
N379 X-0.1382 Y0.3189
N380 X-0.1396 Y0.3218
N381 X-0.1494 Y0.3418
N382 X-0.1506 Y0.3442
N383 X-0.1557 Y0.3554
N384 X-0.1607 Y0.3666
N385 X-0.1657 Y0.3778
N386 X-0.1704 Y0.389
N387 X-0.175 Y0.4003
N388 X-0.1794 Y0.4115
N389 X-0.1837 Y0.4227
N390 X-0.1879 Y0.4339
N391 X-0.1918 Y0.4451
N392 X-0.1957 Y0.4563
N393 X-0.1995 Y0.4676
N394 X-0.2029 Y0.4788
N395 X-0.2064 Y0.49
N396 X-0.2097 Y0.5012
N397 X-0.2128 Y0.5124
N398 X-0.2159 Y0.5236
N399 X-0.2166 Y0.5265
N400 X-0.2187 Y0.5349
N401 X-0.2241 Y0.5573
N402 X-0.2266 Y0.5685
N403 X-0.2289 Y0.5797
N404 X-0.2312 Y0.5909
N405 X-0.2333 Y0.6021
N406 X-0.2352 Y0.6134
N407 X-0.2371 Y0.6246
N408 X-0.2388 Y0.6358
N409 X-0.2404 Y0.647
N410 X-0.2419 Y0.6582
N411 X-0.2432 Y0.6694
N412 X-0.2444 Y0.6807
N413 X-0.2456 Y0.6919
N414 X-0.2465 Y0.7031
N415 X-0.2474 Y0.7143
N416 X-0.2481 Y0.7255
N417 X-0.2487 Y0.7367
N418 X-0.2492 Y0.7479
N419 X-0.2496 Y0.7592
N420 X-0.2499 Y0.7816
N421 X-0.25 Y0.7928
N422 Y0.8014
N423 G3 X-0.3104 Y0.8503 I-0.05 J0
N424 G1 X-0.4905 Y0.8118
N425 X-0.496 Y0.8107 Z-0.3481
N426 X-0.5014 Y0.8095 Z-0.3472
N427 X-0.5067 Y0.8084 Z-0.3456
N428 X-0.5118 Y0.8073 Z-0.3435
N429 X-0.5166 Y0.8063 Z-0.3408
N430 X-0.521 Y0.8053 Z-0.3375
N431 X-0.5251 Y0.8044 Z-0.3338
N432 X-0.5288 Y0.8037 Z-0.3296
N433 X-0.5319 Y0.803 Z-0.325
N434 X-0.5346 Y0.8024 Z-0.3201
N435 X-0.5367 Y0.802 Z-0.3149
N436 X-0.5382 Y0.8017 Z-0.3096
N437 X-0.5391 Y0.8015 Z-0.304
N438 X-0.5394 Y0.8014 Z-0.2984
N439 G0 Z0.2894
N440 X0.843 Y-0.5394
N441 Z-0.5484
N442 G1 Y-0.5391 Z-0.554 F15
N443 X0.8431 Y-0.5381 Z-0.5596
N444 Y-0.5366 Z-0.5649
N445 X0.8432 Y-0.5345 Z-0.5701
N446 X0.8433 Y-0.5317 Z-0.575
N447 X0.8434 Y-0.5285 Z-0.5796
N448 X0.8435 Y-0.5248 Z-0.5838
N449 X0.8437 Y-0.5206 Z-0.5875
N450 X0.8439 Y-0.516 Z-0.5908
N451 X0.844 Y-0.5111 Z-0.5935
N452 X0.8442 Y-0.5059 Z-0.5956
N453 X0.8444 Y-0.5006 Z-0.5972
N454 X0.8446 Y-0.495 Z-0.5981
N455 X0.8448 Y-0.4894 Z-0.5984
N456 X0.8513 Y-0.3017
N457 G3 X0.8014 Y-0.25 I-0.05 J0.0017
N458 G1 X0.7923 F30
N459 X0.7811 Y-0.2499
N460 X0.7587 Y-0.2496
N461 X0.7475 Y-0.2492
N462 X0.7363 Y-0.2486
N463 X0.7251 Y-0.2481
N464 X0.7139 Y-0.2473
N465 X0.7027 Y-0.2464
N466 X0.6914 Y-0.2455
N467 X0.6802 Y-0.2444
N468 X0.669 Y-0.2431
N469 X0.6578 Y-0.2419
N470 X0.6466 Y-0.2403
N471 X0.6354 Y-0.2387
N472 X0.6242 Y-0.2371
N473 X0.613 Y-0.2351
N474 X0.6018 Y-0.2332
N475 X0.5905 Y-0.2311
N476 X0.5793 Y-0.2288
N477 X0.5681 Y-0.2265
N478 X0.5569 Y-0.224
N479 X0.5345 Y-0.2187
N480 X0.5263 Y-0.2166
N481 X0.5233 Y-0.2158
N482 X0.5121 Y-0.2127
N483 X0.5009 Y-0.2096
N484 X0.4896 Y-0.2063
N485 X0.4784 Y-0.2028
N486 X0.4672 Y-0.1994
N487 X0.456 Y-0.1956
N488 X0.4448 Y-0.1917
N489 X0.4336 Y-0.1878
N490 X0.4224 Y-0.1836
N491 X0.4112 Y-0.1793
N492 X0.4 Y-0.1749
N493 X0.3887 Y-0.1702
N494 X0.3775 Y-0.1656
N495 X0.3663 Y-0.1606
N496 X0.3551 Y-0.1556
N497 X0.3439 Y-0.1504
N498 X0.3416 Y-0.1493
N499 X0.3215 Y-0.1394
N500 X0.3187 Y-0.1381
N501 X0.3103 Y-0.1337
N502 X0.2974 Y-0.1269
N503 X0.2878 Y-0.1218
N504 X0.277 Y-0.1157
N505 X0.2654 Y-0.1091
N506 X0.2575 Y-0.1044
N507 X0.2542 Y-0.1024
N508 X0.2392 Y-0.0932
N509 X0.2318 Y-0.0887
N510 X0.2216 Y-0.082
N511 X0.2094 Y-0.074
N512 X0.2046 Y-0.0708
N513 X0.1982 Y-0.0663
N514 X0.187 Y-0.0585
N515 X0.1757 Y-0.0505
N516 X0.1729 Y-0.0484
N517 X0.158 Y-0.0371
N518 X0.1533 Y-0.0337
N519 X0.1436 Y-0.0259
N520 X0.1296 Y-0.0147
N521 X0.1197 Y-0.0065
N522 X0.1085 Y0.0031
N523 X0.1031 Y0.0077
N524 X0.0973 Y0.0129
N525 X0.0861 Y0.0231
N526 X0.0783 Y0.0302
N527 X0.0748 Y0.0335
N528 X0.0667 Y0.0414
N529 X0.0636 Y0.0443
N530 X0.0551 Y0.0526
N531 X0.0524 Y0.0553
N532 X0.0442 Y0.0638
N533 X0.0412 Y0.0668
N534 X0.0333 Y0.075
N535 X0.03 Y0.0785
N536 X0.023 Y0.0862
N537 X0.0128 Y0.0974
N538 X0.0076 Y0.1033
N539 X0.003 Y0.1087
N540 X-0.0066 Y0.1199
N541 X-0.0148 Y0.1297
N542 X-0.0261 Y0.1437
N543 X-0.0338 Y0.1535
N544 X-0.0373 Y0.1581
N545 X-0.0485 Y0.1731
N546 X-0.0506 Y0.176
N547 X-0.0586 Y0.1872
N548 X-0.0665 Y0.1984
N549 X-0.0709 Y0.2047
N550 X-0.0741 Y0.2096
N551 X-0.0821 Y0.2217
N552 X-0.0888 Y0.232
N553 X-0.0933 Y0.2393
N554 X-0.1026 Y0.2545
N555 X-0.1045 Y0.2576
N556 X-0.1092 Y0.2657
N557 X-0.1157 Y0.2772
N558 X-0.1219 Y0.2881
N559 X-0.127 Y0.2975
N560 X-0.1338 Y0.3105
N561 X-0.1382 Y0.3189
N562 X-0.1396 Y0.3218
N563 X-0.1494 Y0.3418
N564 X-0.1506 Y0.3442
N565 X-0.1557 Y0.3554
N566 X-0.1607 Y0.3666
N567 X-0.1657 Y0.3778
N568 X-0.1704 Y0.389
N569 X-0.175 Y0.4003
N570 X-0.1794 Y0.4115
N571 X-0.1837 Y0.4227
N572 X-0.1879 Y0.4339
N573 X-0.1918 Y0.4451
N574 X-0.1957 Y0.4563
N575 X-0.1995 Y0.4676
N576 X-0.2029 Y0.4788
N577 X-0.2064 Y0.49
N578 X-0.2097 Y0.5012
N579 X-0.2128 Y0.5124
N580 X-0.2159 Y0.5236
N581 X-0.2166 Y0.5265
N582 X-0.2187 Y0.5349
N583 X-0.2241 Y0.5573
N584 X-0.2266 Y0.5685
N585 X-0.2289 Y0.5797
N586 X-0.2312 Y0.5909
N587 X-0.2333 Y0.6021
N588 X-0.2352 Y0.6134
N589 X-0.2371 Y0.6246
N590 X-0.2388 Y0.6358
N591 X-0.2404 Y0.647
N592 X-0.2419 Y0.6582
N593 X-0.2432 Y0.6694
N594 X-0.2444 Y0.6807
N595 X-0.2456 Y0.6919
N596 X-0.2465 Y0.7031
N597 X-0.2474 Y0.7143
N598 X-0.2481 Y0.7255
N599 X-0.2487 Y0.7367
N600 X-0.2492 Y0.7479
N601 X-0.2496 Y0.7592
N602 X-0.2499 Y0.7816
N603 X-0.25 Y0.7928
N604 Y0.8014
N605 G3 X-0.3104 Y0.8503 I-0.05 J0
N606 G1 X-0.4905 Y0.8118
N607 X-0.496 Y0.8107 Z-0.5981
N608 X-0.5014 Y0.8095 Z-0.5972
N609 X-0.5067 Y0.8084 Z-0.5956
N610 X-0.5118 Y0.8073 Z-0.5935
N611 X-0.5166 Y0.8063 Z-0.5908
N612 X-0.521 Y0.8053 Z-0.5875
N613 X-0.5251 Y0.8044 Z-0.5838
N614 X-0.5288 Y0.8037 Z-0.5796
N615 X-0.5319 Y0.803 Z-0.575
N616 X-0.5346 Y0.8024 Z-0.5701
N617 X-0.5367 Y0.802 Z-0.5649
N618 X-0.5382 Y0.8017 Z-0.5596
N619 X-0.5391 Y0.8015 Z-0.554
N620 X-0.5394 Y0.8014 Z-0.5484
N621 G0 Z0.2894
N622 X0.843 Y-0.5394
N623 Z-0.702
N624 G1 Y-0.5391 Z-0.7076 F15
N625 X0.8431 Y-0.5381 Z-0.7131
N626 Y-0.5366 Z-0.7185
N627 X0.8432 Y-0.5345 Z-0.7237
N628 X0.8433 Y-0.5317 Z-0.7286
N629 X0.8434 Y-0.5285 Z-0.7331
N630 X0.8435 Y-0.5248 Z-0.7373
N631 X0.8437 Y-0.5206 Z-0.7411
N632 X0.8439 Y-0.516 Z-0.7443
N633 X0.844 Y-0.5111 Z-0.747
N634 X0.8442 Y-0.5059 Z-0.7492
N635 X0.8444 Y-0.5006 Z-0.7507
N636 X0.8446 Y-0.495 Z-0.7517
N637 X0.8448 Y-0.4894 Z-0.752
N638 X0.8513 Y-0.3017
N639 G3 X0.8014 Y-0.25 I-0.05 J0.0017
N640 G1 X0.7923 F30
N641 X0.7811 Y-0.2499
N642 X0.7587 Y-0.2496
N643 X0.7475 Y-0.2492
N644 X0.7363 Y-0.2486
N645 X0.7251 Y-0.2481
N646 X0.7139 Y-0.2473
N647 X0.7027 Y-0.2464
N648 X0.6914 Y-0.2455
N649 X0.6802 Y-0.2444
N650 X0.669 Y-0.2431
N651 X0.6578 Y-0.2419
N652 X0.6466 Y-0.2403
N653 X0.6354 Y-0.2387
N654 X0.6242 Y-0.2371
N655 X0.613 Y-0.2351
N656 X0.6018 Y-0.2332
N657 X0.5905 Y-0.2311
N658 X0.5793 Y-0.2288
N659 X0.5681 Y-0.2265
N660 X0.5569 Y-0.224
N661 X0.5345 Y-0.2187
N662 X0.5263 Y-0.2166
N663 X0.5233 Y-0.2158
N664 X0.5121 Y-0.2127
N665 X0.5009 Y-0.2096
N666 X0.4896 Y-0.2063
N667 X0.4784 Y-0.2028
N668 X0.4672 Y-0.1994
N669 X0.456 Y-0.1956
N670 X0.4448 Y-0.1917
N671 X0.4336 Y-0.1878
N672 X0.4224 Y-0.1836
N673 X0.4112 Y-0.1793
N674 X0.4 Y-0.1749
N675 X0.3887 Y-0.1702
N676 X0.3775 Y-0.1656
N677 X0.3663 Y-0.1606
N678 X0.3551 Y-0.1556
N679 X0.3439 Y-0.1504
N680 X0.3416 Y-0.1493
N681 X0.3215 Y-0.1394
N682 X0.3187 Y-0.1381
N683 X0.3103 Y-0.1337
N684 X0.2974 Y-0.1269
N685 X0.2878 Y-0.1218
N686 X0.277 Y-0.1157
N687 X0.2654 Y-0.1091
N688 X0.2575 Y-0.1044
N689 X0.2542 Y-0.1024
N690 X0.2392 Y-0.0932
N691 X0.2318 Y-0.0887
N692 X0.2216 Y-0.082
N693 X0.2094 Y-0.074
N694 X0.2046 Y-0.0708
N695 X0.1982 Y-0.0663
N696 X0.187 Y-0.0585
N697 X0.1757 Y-0.0505
N698 X0.1729 Y-0.0484
N699 X0.158 Y-0.0371
N700 X0.1533 Y-0.0337
N701 X0.1436 Y-0.0259
N702 X0.1296 Y-0.0147
N703 X0.1197 Y-0.0065
N704 X0.1085 Y0.0031
N705 X0.1031 Y0.0077
N706 X0.0973 Y0.0129
N707 X0.0861 Y0.0231
N708 X0.0783 Y0.0302
N709 X0.0748 Y0.0335
N710 X0.0667 Y0.0414
N711 X0.0636 Y0.0443
N712 X0.0551 Y0.0526
N713 X0.0524 Y0.0553
N714 X0.0442 Y0.0638
N715 X0.0412 Y0.0668
N716 X0.0333 Y0.075
N717 X0.03 Y0.0785
N718 X0.023 Y0.0862
N719 X0.0128 Y0.0974
N720 X0.0076 Y0.1033
N721 X0.003 Y0.1087
N722 X-0.0066 Y0.1199
N723 X-0.0148 Y0.1297
N724 X-0.0261 Y0.1437
N725 X-0.0338 Y0.1535
N726 X-0.0373 Y0.1581
N727 X-0.0485 Y0.1731
N728 X-0.0506 Y0.176
N729 X-0.0586 Y0.1872
N730 X-0.0665 Y0.1984
N731 X-0.0709 Y0.2047
N732 X-0.0741 Y0.2096
N733 X-0.0821 Y0.2217
N734 X-0.0888 Y0.232
N735 X-0.0933 Y0.2393
N736 X-0.1026 Y0.2545
N737 X-0.1045 Y0.2576
N738 X-0.1092 Y0.2657
N739 X-0.1157 Y0.2772
N740 X-0.1219 Y0.2881
N741 X-0.127 Y0.2975
N742 X-0.1338 Y0.3105
N743 X-0.1382 Y0.3189
N744 X-0.1396 Y0.3218
N745 X-0.1494 Y0.3418
N746 X-0.1506 Y0.3442
N747 X-0.1557 Y0.3554
N748 X-0.1607 Y0.3666
N749 X-0.1657 Y0.3778
N750 X-0.1704 Y0.389
N751 X-0.175 Y0.4003
N752 X-0.1794 Y0.4115
N753 X-0.1837 Y0.4227
N754 X-0.1879 Y0.4339
N755 X-0.1918 Y0.4451
N756 X-0.1957 Y0.4563
N757 X-0.1995 Y0.4676
N758 X-0.2029 Y0.4788
N759 X-0.2064 Y0.49
N760 X-0.2097 Y0.5012
N761 X-0.2128 Y0.5124
N762 X-0.2159 Y0.5236
N763 X-0.2166 Y0.5265
N764 X-0.2187 Y0.5349
N765 X-0.2241 Y0.5573
N766 X-0.2266 Y0.5685
N767 X-0.2289 Y0.5797
N768 X-0.2312 Y0.5909
N769 X-0.2333 Y0.6021
N770 X-0.2352 Y0.6134
N771 X-0.2371 Y0.6246
N772 X-0.2388 Y0.6358
N773 X-0.2404 Y0.647
N774 X-0.2419 Y0.6582
N775 X-0.2432 Y0.6694
N776 X-0.2444 Y0.6807
N777 X-0.2456 Y0.6919
N778 X-0.2465 Y0.7031
N779 X-0.2474 Y0.7143
N780 X-0.2481 Y0.7255
N781 X-0.2487 Y0.7367
N782 X-0.2492 Y0.7479
N783 X-0.2496 Y0.7592
N784 X-0.2499 Y0.7816
N785 X-0.25 Y0.7928
N786 Y0.8014
N787 G3 X-0.3104 Y0.8503 I-0.05 J0
N788 G1 X-0.4905 Y0.8118
N789 X-0.496 Y0.8107 Z-0.7517
N790 X-0.5014 Y0.8095 Z-0.7507
N791 X-0.5067 Y0.8084 Z-0.7492
N792 X-0.5118 Y0.8073 Z-0.747
N793 X-0.5166 Y0.8063 Z-0.7443
N794 X-0.521 Y0.8053 Z-0.7411
N795 X-0.5251 Y0.8044 Z-0.7373
N796 X-0.5288 Y0.8037 Z-0.7331
N797 X-0.5319 Y0.803 Z-0.7286
N798 X-0.5346 Y0.8024 Z-0.7237
N799 X-0.5367 Y0.802 Z-0.7185
N800 X-0.5382 Y0.8017 Z-0.7131
N801 X-0.5391 Y0.8015 Z-0.7076
N802 X-0.5394 Y0.8014 Z-0.702
N803 G0 Z0.2894
N804 X0.843 Y-0.5394
N805 Z-0.8555
N806 G1 Y-0.5391 Z-0.8611 F15
N807 X0.8431 Y-0.5381 Z-0.8666
N808 Y-0.5366 Z-0.872
N809 X0.8432 Y-0.5345 Z-0.8772
N810 X0.8433 Y-0.5317 Z-0.8821
N811 X0.8434 Y-0.5285 Z-0.8867
N812 X0.8435 Y-0.5248 Z-0.8909
N813 X0.8437 Y-0.5206 Z-0.8946
N814 X0.8439 Y-0.516 Z-0.8978
N815 X0.844 Y-0.5111 Z-0.9006
N816 X0.8442 Y-0.5059 Z-0.9027
N817 X0.8444 Y-0.5006 Z-0.9043
N818 X0.8446 Y-0.495 Z-0.9052
N819 X0.8448 Y-0.4894 Z-0.9055
N820 X0.8513 Y-0.3017
N821 G3 X0.8014 Y-0.25 I-0.05 J0.0017
N822 G1 X0.7923 F30
N823 X0.7811 Y-0.2499
N824 X0.7587 Y-0.2496
N825 X0.7475 Y-0.2492
N826 X0.7363 Y-0.2486
N827 X0.7251 Y-0.2481
N828 X0.7139 Y-0.2473
N829 X0.7027 Y-0.2464
N830 X0.6914 Y-0.2455
N831 X0.6802 Y-0.2444
N832 X0.669 Y-0.2431
N833 X0.6578 Y-0.2419
N834 X0.6466 Y-0.2403
N835 X0.6354 Y-0.2387
N836 X0.6242 Y-0.2371
N837 X0.613 Y-0.2351
N838 X0.6018 Y-0.2332
N839 X0.5905 Y-0.2311
N840 X0.5793 Y-0.2288
N841 X0.5681 Y-0.2265
N842 X0.5569 Y-0.224
N843 X0.5345 Y-0.2187
N844 X0.5263 Y-0.2166
N845 X0.5233 Y-0.2158
N846 X0.5121 Y-0.2127
N847 X0.5009 Y-0.2096
N848 X0.4896 Y-0.2063
N849 X0.4784 Y-0.2028
N850 X0.4672 Y-0.1994
N851 X0.456 Y-0.1956
N852 X0.4448 Y-0.1917
N853 X0.4336 Y-0.1878
N854 X0.4224 Y-0.1836
N855 X0.4112 Y-0.1793
N856 X0.4 Y-0.1749
N857 X0.3887 Y-0.1702
N858 X0.3775 Y-0.1656
N859 X0.3663 Y-0.1606
N860 X0.3551 Y-0.1556
N861 X0.3439 Y-0.1504
N862 X0.3416 Y-0.1493
N863 X0.3215 Y-0.1394
N864 X0.3187 Y-0.1381
N865 X0.3103 Y-0.1337
N866 X0.2974 Y-0.1269
N867 X0.2878 Y-0.1218
N868 X0.277 Y-0.1157
N869 X0.2654 Y-0.1091
N870 X0.2575 Y-0.1044
N871 X0.2542 Y-0.1024
N872 X0.2392 Y-0.0932
N873 X0.2318 Y-0.0887
N874 X0.2216 Y-0.082
N875 X0.2094 Y-0.074
N876 X0.2046 Y-0.0708
N877 X0.1982 Y-0.0663
N878 X0.187 Y-0.0585
N879 X0.1757 Y-0.0505
N880 X0.1729 Y-0.0484
N881 X0.158 Y-0.0371
N882 X0.1533 Y-0.0337
N883 X0.1436 Y-0.0259
N884 X0.1296 Y-0.0147
N885 X0.1197 Y-0.0065
N886 X0.1085 Y0.0031
N887 X0.1031 Y0.0077
N888 X0.0973 Y0.0129
N889 X0.0861 Y0.0231
N890 X0.0783 Y0.0302
N891 X0.0748 Y0.0335
N892 X0.0667 Y0.0414
N893 X0.0636 Y0.0443
N894 X0.0551 Y0.0526
N895 X0.0524 Y0.0553
N896 X0.0442 Y0.0638
N897 X0.0412 Y0.0668
N898 X0.0333 Y0.075
N899 X0.03 Y0.0785
N900 X0.023 Y0.0862
N901 X0.0128 Y0.0974
N902 X0.0076 Y0.1033
N903 X0.003 Y0.1087
N904 X-0.0066 Y0.1199
N905 X-0.0148 Y0.1297
N906 X-0.0261 Y0.1437
N907 X-0.0338 Y0.1535
N908 X-0.0373 Y0.1581
N909 X-0.0485 Y0.1731
N910 X-0.0506 Y0.176
N911 X-0.0586 Y0.1872
N912 X-0.0665 Y0.1984
N913 X-0.0709 Y0.2047
N914 X-0.0741 Y0.2096
N915 X-0.0821 Y0.2217
N916 X-0.0888 Y0.232
N917 X-0.0933 Y0.2393
N918 X-0.1026 Y0.2545
N919 X-0.1045 Y0.2576
N920 X-0.1092 Y0.2657
N921 X-0.1157 Y0.2772
N922 X-0.1219 Y0.2881
N923 X-0.127 Y0.2975
N924 X-0.1338 Y0.3105
N925 X-0.1382 Y0.3189
N926 X-0.1396 Y0.3218
N927 X-0.1494 Y0.3418
N928 X-0.1506 Y0.3442
N929 X-0.1557 Y0.3554
N930 X-0.1607 Y0.3666
N931 X-0.1657 Y0.3778
N932 X-0.1704 Y0.389
N933 X-0.175 Y0.4003
N934 X-0.1794 Y0.4115
N935 X-0.1837 Y0.4227
N936 X-0.1879 Y0.4339
N937 X-0.1918 Y0.4451
N938 X-0.1957 Y0.4563
N939 X-0.1995 Y0.4676
N940 X-0.2029 Y0.4788
N941 X-0.2064 Y0.49
N942 X-0.2097 Y0.5012
N943 X-0.2128 Y0.5124
N944 X-0.2159 Y0.5236
N945 X-0.2166 Y0.5265
N946 X-0.2187 Y0.5349
N947 X-0.2241 Y0.5573
N948 X-0.2266 Y0.5685
N949 X-0.2289 Y0.5797
N950 X-0.2312 Y0.5909
N951 X-0.2333 Y0.6021
N952 X-0.2352 Y0.6134
N953 X-0.2371 Y0.6246
N954 X-0.2388 Y0.6358
N955 X-0.2404 Y0.647
N956 X-0.2419 Y0.6582
N957 X-0.2432 Y0.6694
N958 X-0.2444 Y0.6807
N959 X-0.2456 Y0.6919
N960 X-0.2465 Y0.7031
N961 X-0.2474 Y0.7143
N962 X-0.2481 Y0.7255
N963 X-0.2487 Y0.7367
N964 X-0.2492 Y0.7479
N965 X-0.2496 Y0.7592
N966 X-0.2499 Y0.7816
N967 X-0.25 Y0.7928
N968 Y0.8014
N969 G3 X-0.3104 Y0.8503 I-0.05 J0
N970 G1 X-0.4905 Y0.8118
N971 X-0.496 Y0.8107 Z-0.9052
N972 X-0.5014 Y0.8095 Z-0.9043
N973 X-0.5067 Y0.8084 Z-0.9027
N974 X-0.5118 Y0.8073 Z-0.9006
N975 X-0.5166 Y0.8063 Z-0.8978
N976 X-0.521 Y0.8053 Z-0.8946
N977 X-0.5251 Y0.8044 Z-0.8909
N978 X-0.5288 Y0.8037 Z-0.8867
N979 X-0.5319 Y0.803 Z-0.8821
N980 X-0.5346 Y0.8024 Z-0.8772
N981 X-0.5367 Y0.802 Z-0.872
N982 X-0.5382 Y0.8017 Z-0.8666
N983 X-0.5391 Y0.8015 Z-0.8611
N984 X-0.5394 Y0.8014 Z-0.8555
N985 G0 Z0.5906
N987 Z1
N988 M5
N989 M30
