%
(Jordan #1 Part)
(T2  D=3.175 CR=0 - ZMIN=-3 - flat end mill)
N0 G90
N1 G17
(2D Pocket3)
N2 T2 M6
N3 S9956 M3
N5 G0 X160.677 Y47.031
N6 Z15
N7 Z5
N8 G1 Z2.817 F350.5
N9 G3 X160.679 Y47.008 Z2.698 I1.501 J0.147
N10 X160.688 Y46.942 Z2.597 I1.498 J0.17
N11 X160.707 Y46.845 Z2.527 I1.49 J0.236
N12 X160.738 Y46.731 Z2.5 I1.471 J0.333
N13 X163.618 Y47.625 Z2.335 I1.44 J0.447
N14 X160.738 Y46.731 Z2.169 I-1.44 J-0.447
N15 X163.618 Y47.625 Z2.004 I1.44 J0.447
N16 X160.738 Y46.731 Z1.838 I-1.44 J-0.447
N17 X163.618 Y47.625 Z1.673 I1.44 J0.447
N18 X160.738 Y46.731 Z1.507 I-1.44 J-0.447
N19 X163.618 Y47.625 Z1.342 I1.44 J0.447
N20 X160.738 Y46.731 Z1.176 I-1.44 J-0.447
N21 X163.618 Y47.625 Z1.011 I1.44 J0.447
N22 X160.738 Y46.731 Z0.845 I-1.44 J-0.447
N23 X163.618 Y47.625 Z0.68 I1.44 J0.447
N24 X160.738 Y46.731 Z0.515 I-1.44 J-0.447
N25 X163.618 Y47.625 Z0.349 I1.44 J0.447
N26 X160.738 Y46.731 Z0.184 I-1.44 J-0.447
N27 X163.618 Y47.625 Z0.018 I1.44 J0.447
N28 X160.738 Y46.731 Z-0.147 I-1.44 J-0.447
N29 X163.618 Y47.625 Z-0.313 I1.44 J0.447
N30 X160.738 Y46.731 Z-0.478 I-1.44 J-0.447
N31 X163.618 Y47.625 Z-0.644 I1.44 J0.447
N32 X160.738 Y46.731 Z-0.809 I-1.44 J-0.447
N33 X163.618 Y47.625 Z-0.974 I1.44 J0.447
N34 X163.244 Y48.244 Z-1 I-1.44 J-0.447
N35 G1 X163.167 Y48.322 F1011.5
N36 G3 X162.913 Y48.216 I-0.105 J-0.105
N37 G1 Y48.089
N38 G3 X163.089 Y47.913 I0.175 J0
N39 G1 X163.216
N40 G3 X163.322 Y48.167 I0 J0.149
N41 G1 X163.244 Y48.244
N42 G2 X162.903 Y50.08 I1.167 J1.167
N43 G3 X162.692 Y51.936 I-1.686 J0.748
N44 G2 X161.08 Y54.426 I17.048 J12.805
N45 G3 X160.903 Y54.38 I-0.082 J-0.046
N46 G1 Y46.216
N47 G3 X161.216 Y45.903 I0.313 J0
N48 G1 X169.283
N49 G3 X169.342 Y46.127 I0 J0.12
N50 G2 X162.692 Y51.936 I10.398 J18.614
N51 G3 X162.602 Y52.017 Z-0.976 I-0.254 J-0.191 F350.5
N52 X162.507 Y52.055 Z-0.907 I-0.164 J-0.272
N53 X162.439 Y52.063 Z-0.804 I-0.069 J-0.31
N54 X162.414 Y52.062 Z-0.683 I-0.001 J-0.317
N55 G0 Z5
N56 X163.213 Y88.482
N57 G1 Z-0.683 F350.5
N58 X163.217 Y88.475 Z-0.753
N59 X163.228 Y88.454 Z-0.82
N60 X163.247 Y88.421 Z-0.88
N61 X163.271 Y88.377 Z-0.931
N62 X163.3 Y88.324 Z-0.969
N63 X163.332 Y88.265 Z-0.992
N64 X163.366 Y88.203 Z-1
N65 X164.306 Y86.482
N66 G2 X164.571 Y85.952 I-6.937 J-3.791 F1011.5
N67 G3 X164.947 Y85.85 I0.231 J0.104
N68 G2 X165.881 Y86.48 I14.873 J-21.029
N69 G3 X165.771 Y86.848 I-0.108 J0.168
N70 G1 X161.632 Y86.813
N71 G3 X161.487 Y86.477 I0.002 J-0.2
N72 G2 X162.956 Y82.75 I-3.987 J-3.724
N73 X162.935 Y82.067 I-10.942 J0
N74 G3 X162.913 Y81.384 I10.921 J-0.683
N75 X163.167 Y81.278 I0.149 J0
N76 G2 X166.686 Y84.204 I17.628 J-17.628
N77 X170.701 Y86.398 I12.789 J-18.63
N78 X170.909 Y86.485 I9.095 J-21.587
N79 X170.985 Y86.5 I0.076 J-0.185
N80 G1 X197.997 Y86.528
N81 G2 X198.126 Y86.48 I0 J-0.2
N82 X201.481 Y83.129 I-18.32 J-21.696
N83 G3 X202.402 Y83.058 I0.495 J0.419
N84 X202.461 Y83.979 I-0.425 J0.49
N85 G1 X200.972 Y85.65
N86 G3 X200.79 Y85.793 I-0.484 J-0.431
N87 G1 X198.544 Y86.976
N88 G3 X198.339 Y87.044 I-0.302 J-0.574
N89 G1 X194.208 Y87.666
N90 G3 X193.761 Y86.479 I-0.097 J-0.641
N91 G2 X201.482 Y78.757 I-13.94 J-21.659
N92 G3 X202.318 Y78.597 I0.494 J0.318
N93 X202.434 Y79.441 I-0.342 J0.477
N94 G1 X199.005 Y83.736
N95 G3 X198.866 Y83.862 I-0.459 J-0.366
N96 G1 X194.078 Y86.973
N97 G3 X193.824 Y87.064 I-0.32 J-0.492
N98 G1 X188.971 Y87.611
N99 G3 X188.683 Y86.485 I-0.066 J-0.583
N100 G2 X201.487 Y73.655 I-8.887 J-21.673
N101 X201.502 Y73.58 I-0.185 J-0.076
N102 G1 X201.518 Y51
N103 G2 X201.486 Y50.892 I-0.2 J0
N104 X200.85 Y49.947 I-21.666 J13.929
N105 G3 X200.952 Y49.571 I0.207 J-0.146
N106 G2 X201.479 Y49.308 I-3.261 J-7.201
N107 G3 X201.775 Y49.481 I0.096 J0.176
N108 G1 X201.87 Y55.883
N109 G3 X201.485 Y55.962 I-0.2 J0.003
N110 G2 X196.278 Y48.167 I-21.688 J8.849
N111 G3 X196.384 Y47.913 I0.105 J-0.105
N112 X197.067 Y47.935 I0 J10.942
N113 G2 X197.75 Y47.956 I0.683 J-10.921
N114 X201.48 Y46.482 I0 J-5.458
N115 G1 X201.489 Y46.474 F350.5
N116 X201.541 Y46.426 Z-0.992
N117 X201.59 Y46.38 Z-0.969
N118 X201.634 Y46.339 Z-0.931
N119 X201.671 Y46.304 Z-0.88
N120 X201.698 Y46.279 Z-0.82
N121 X201.715 Y46.262 Z-0.753
N122 X201.721 Y46.257 Z-0.683
N123 G0 Z5
N124 X39.304 Y37.969
N125 G1 Z2.817 F350.5
N126 G3 X39.302 Y37.992 Z2.698 I-1.501 J-0.147
N127 X39.293 Y38.058 Z2.597 I-1.498 J-0.17
N128 X39.274 Y38.155 Z2.527 I-1.49 J-0.236
N129 X39.243 Y38.269 Z2.5 I-1.471 J-0.333
N130 X36.363 Y37.375 Z2.335 I-1.44 J-0.447
N131 X39.243 Y38.269 Z2.169 I1.44 J0.447
N132 X36.363 Y37.375 Z2.004 I-1.44 J-0.447
N133 X39.243 Y38.269 Z1.838 I1.44 J0.447
N134 X36.363 Y37.375 Z1.673 I-1.44 J-0.447
N135 X39.243 Y38.269 Z1.507 I1.44 J0.447
N136 X36.363 Y37.375 Z1.342 I-1.44 J-0.447
N137 X39.243 Y38.269 Z1.176 I1.44 J0.447
N138 X36.363 Y37.375 Z1.011 I-1.44 J-0.447
N139 X39.243 Y38.269 Z0.845 I1.44 J0.447
N140 X36.363 Y37.375 Z0.68 I-1.44 J-0.447
N141 X39.243 Y38.269 Z0.515 I1.44 J0.447
N142 X36.363 Y37.375 Z0.349 I-1.44 J-0.447
N143 X39.243 Y38.269 Z0.184 I1.44 J0.447
N144 X36.363 Y37.375 Z0.018 I-1.44 J-0.447
N145 X39.243 Y38.269 Z-0.147 I1.44 J0.447
N146 X36.363 Y37.375 Z-0.313 I-1.44 J-0.447
N147 X39.243 Y38.269 Z-0.478 I1.44 J0.447
N148 X36.363 Y37.375 Z-0.644 I-1.44 J-0.447
N149 X39.243 Y38.269 Z-0.809 I1.44 J0.447
N150 X36.363 Y37.375 Z-0.974 I-1.44 J-0.447
N151 X36.737 Y36.756 Z-1 I1.44 J0.447
N152 G1 X36.814 Y36.678 F1011.5
N153 G3 X37.068 Y36.784 I0.105 J0.105
N154 G1 Y36.911
N155 G3 X36.892 Y37.087 I-0.175 J0
N156 G1 X36.764
N157 G3 X36.659 Y36.833 I0 J-0.149
N158 G1 X36.737 Y36.756
N159 G2 X37.079 Y34.917 I-1.169 J-1.169
N160 G3 X37.29 Y33.058 I1.688 J-0.749
N161 G2 X38.854 Y30.658 I-17.109 J-12.858
N162 G3 X39.078 Y30.717 I0.104 J0.058
N163 G1 Y38.784
N164 G3 X38.765 Y39.097 I-0.313 J0
N165 G1 X30.601
N166 G3 X30.555 Y38.92 I0 J-0.094
N167 G2 X32.995 Y37.343 I-10.988 J-19.669
N168 X37.29 Y33.058 I-12.813 J-17.142
N169 G3 X37.38 Y32.978 Z-0.976 I0.254 J0.191 F350.5
N170 X37.475 Y32.939 Z-0.907 I0.164 J0.272
N171 X37.543 Y32.932 Z-0.804 I0.069 J0.31
N172 X37.568 Y32.933 Z-0.683 I0.001 J0.317
N173 G0 Z5
N174 X36.767 Y-3.482
N175 G1 Z-0.683 F350.5
N176 X36.764 Y-3.475 Z-0.753
N177 X36.752 Y-3.454 Z-0.82
N178 X36.734 Y-3.421 Z-0.88
N179 X36.71 Y-3.377 Z-0.931
N180 X36.681 Y-3.324 Z-0.969
N181 X36.649 Y-3.265 Z-0.992
N182 X36.615 Y-3.203 Z-1
N183 X35.675 Y-1.482
N184 G2 X35.41 Y-0.952 I6.937 J3.791 F1011.5
N185 G3 X35.033 Y-0.85 I-0.231 J-0.104
N186 G2 X34.1 Y-1.48 I-14.873 J21.029
N187 G3 X34.21 Y-1.848 I0.108 J-0.168
N188 G1 X38.349 Y-1.813
N189 G3 X38.494 Y-1.477 I-0.002 J0.2
N190 G2 X37.025 Y2.25 I3.987 J3.724
N191 X37.046 Y2.933 I10.942 J0
N192 G3 X37.068 Y3.616 I-10.921 J0.683
N193 X36.814 Y3.722 I-0.149 J0
N194 G2 X33.255 Y0.77 I-17.606 J17.606
N195 X29.191 Y-1.435 I-12.758 J18.67
N196 X29.079 Y-1.481 I-9.006 J21.624
N197 X29.004 Y-1.496 I-0.076 J0.185
N198 G1 X1.991 Y-1.532
N199 G2 X1.862 Y-1.485 I0 J0.2
N200 X-1.483 Y1.853 I18.315 J21.702
N201 G3 X-2.404 Y1.923 I-0.495 J-0.42
N202 X-2.462 Y1.002 I0.426 J-0.49
N203 G1 X-0.979 Y-0.662
N204 G3 X-0.797 Y-0.804 I0.484 J0.432
N205 G1 X1.443 Y-1.98
N206 G3 X1.649 Y-2.048 I0.302 J0.574
N207 G1 X5.773 Y-2.666
N208 G3 X6.22 Y-1.479 I0.096 J0.642
N209 G2 X-1.482 Y6.214 I13.94 J21.659
N210 G3 X-2.319 Y6.372 I-0.493 J-0.318
N211 X-2.434 Y5.529 I0.343 J-0.477
N212 G1 X0.989 Y1.251
N213 G3 X1.128 Y1.125 I0.458 J0.367
N214 G1 X5.902 Y-1.973
N215 G3 X6.156 Y-2.064 I0.32 J0.493
N216 G1 X11.017 Y-2.614
N217 G3 X11.306 Y-1.487 I0.066 J0.583
N218 G2 X-1.483 Y11.29 I8.88 J21.676
N219 X-1.498 Y11.366 I0.185 J0.076
N220 G1 X-1.519 Y34.029
N221 G2 X-1.487 Y34.137 I0.2 J0
N222 X-0.864 Y35.059 I21.647 J-13.958
N223 G3 X-0.966 Y35.436 I-0.207 J0.146
N224 G2 X-1.478 Y35.691 I3.276 J7.195
N225 G3 X-1.774 Y35.519 I-0.096 J-0.176
N226 G1 X-1.871 Y29.159
N227 G3 X-1.486 Y29.08 I0.2 J-0.003
N228 G2 X3.702 Y36.833 I21.672 J-8.891
N229 G3 X3.597 Y37.087 I-0.105 J0.105
N230 X2.924 Y37.066 I0 J-10.789
N231 G2 X2.25 Y37.045 I-0.674 J10.768
N232 X-1.48 Y38.518 I0 J5.458
N233 X-1.772 Y40.636 I1.16 J1.239
N234 G3 X-1.197 Y42.695 I-3.399 J2.059
N235 G1 Y82.75
N236 G2 X2.25 Y86.197 I3.447 J0
N237 G1 X157.5
N238 G2 X160.947 Y82.75 I0 J-3.447
N239 X160.925 Y79.033 I-313.243 J0
N240 G3 X160.903 Y75.317 I313.221 J-3.717
N241 X161.127 Y75.258 I0.12 J0
N242 G2 X201.247 Y64.8 I18.7 J-10.446
N243 X190.258 Y46.127 I-21.361 J0
N244 G3 X190.317 Y45.903 I0.058 J-0.104
N245 G1 X197.75 Y45.947
N246 G2 X201.197 Y42.5 I0 J-3.447
N247 G1 Y2.25
N248 G2 X197.75 Y-1.197 I-3.447 J0
N249 G1 X42.481
N250 G2 X39.034 Y2.25 I0 J3.447
N251 G1 X39.078 Y9.683
N252 G3 X38.854 Y9.742 I-0.12 J0
N253 G2 X-1.266 Y20.2 I-18.7 J10.446
N254 X9.723 Y38.873 I21.361 J0
N255 G3 X9.664 Y39.097 I-0.058 J0.104
N256 G1 X2.25 Y39.053
N257 G2 X-1.197 Y42.5 I0 J3.447
N258 G1 Y42.695
N259 G2 X-0.267 Y44.09 I1.511 J0
N260 G3 X0.663 Y45.484 I-0.581 J1.394
N261 G1 Y82.75
N262 G2 X2.25 Y84.338 I1.587 J0
N263 G1 X157.5
N264 G2 X159.087 Y82.75 I0 J-1.588
N265 G1 Y44.088
N266 X197.75
N267 G2 X199.337 Y42.5 I0 J-1.588
N268 G1 Y2.25
N269 G2 X197.75 Y0.663 I-1.587 J0
N270 G1 X42.481
N271 G2 X40.893 Y2.25 I0 J1.587
N272 G1 Y40.912
N273 X2.25
N274 G2 X0.663 Y42.5 I0 J1.588
N275 G1 Y45.484
N276 G3 X0.503 Y45.643 I-0.159 J0
N277 X0.345 Y45.482 I0.001 J-0.159
N278 G1 X0.414 Y41.042
N279 G3 X0.566 Y40.886 I0.159 J0.002
N280 G1 X19.703 Y40.085
N281 G2 X19.781 Y40.04 I-0.004 J-0.095
N282 G1 X19.911 Y39.832
N283 G3 X19.993 Y39.787 I0.081 J0.051
N284 G2 X20.369 Y0.613 I0.188 J-19.587
N285 X19.993 Y39.787 I-0.188 J19.587
N286 X20.092 Z-0.984 I0.188 J-19.587 F350.5
N287 X20.181 Z-0.938 I0.089 J-19.587
N288 X20.276 Z-0.826 I0 J-19.587
N289 X20.31 Z-0.683 I-0.095 J-19.587
N290 G0 Z5
N291 X163.249 Y48.249
N292 G1 Z2 F350.5
N293 Z-0.683
N294 X163.255 Y48.255 Z-0.753
N295 X163.272 Y48.272 Z-0.82
N296 X163.298 Y48.298 Z-0.88
N297 X163.334 Y48.334 Z-0.931
N298 X163.377 Y48.377 Z-0.969
N299 X163.424 Y48.424 Z-0.992
N300 X163.474 Y48.474 Z-1
N301 G2 X163.734 Y48.653 I0.619 J-0.619 F1011.5
N302 G1 X165.689 Y49.532
N303 G3 X165.95 Y50.95 I-0.359 J0.798
N304 G2 X193.65 Y78.65 I13.85 J13.85
N305 X179.8 Y45.213 I-13.85 J-13.85
N306 X165.95 Y50.95 I0 J19.588
N307 G3 X165.643 Y50.921 I-0.141 J-0.141
N308 G1 X163.706 Y48.094
N309 G2 X163.381 Y48.087 I-0.165 J0.113
N310 G3 X160.975 Y46.269 Z-1.165 I-1.203 J-0.909 F350.5
N311 X163.381 Y48.087 Z-1.331 I1.203 J0.909
N312 X160.975 Y46.269 Z-1.496 I-1.203 J-0.909
N313 X163.381 Y48.087 Z-1.662 I1.203 J0.909
N314 X160.975 Y46.269 Z-1.827 I-1.203 J-0.909
N315 X163.168 Y46.04 Z-1.914 I1.203 J0.909
N316 X163.244 Y48.244 Z-2 I-0.99 J1.138
N317 G1 X163.167 Y48.322 F1011.5
N318 G3 X162.913 Y48.216 I-0.105 J-0.105
N319 G1 Y48.089
N320 G3 X163.089 Y47.913 I0.175 J0
N321 G1 X163.216
N322 G3 X163.322 Y48.167 I0 J0.149
N323 G1 X163.244 Y48.244
N324 G2 X162.903 Y50.08 I1.167 J1.167
N325 G3 X162.692 Y51.936 I-1.686 J0.748
N326 G2 X161.08 Y54.426 I17.048 J12.805
N327 G3 X160.903 Y54.38 I-0.082 J-0.046
N328 G1 Y46.216
N329 G3 X161.216 Y45.903 I0.313 J0
N330 G1 X169.283
N331 G3 X169.342 Y46.127 I0 J0.12
N332 G2 X162.692 Y51.936 I10.398 J18.614
N333 G3 X162.602 Y52.017 Z-1.976 I-0.254 J-0.191 F350.5
N334 X162.507 Y52.055 Z-1.907 I-0.164 J-0.272
N335 X162.439 Y52.063 Z-1.804 I-0.069 J-0.31
N336 X162.414 Y52.062 Z-1.683 I-0.001 J-0.317
N337 G0 Z5
N338 X163.213 Y88.482
N339 G1 Z-1.683 F350.5
N340 X163.217 Y88.475 Z-1.753
N341 X163.228 Y88.454 Z-1.82
N342 X163.247 Y88.421 Z-1.88
N343 X163.271 Y88.377 Z-1.931
N344 X163.3 Y88.324 Z-1.969
N345 X163.332 Y88.265 Z-1.992
N346 X163.366 Y88.203 Z-2
N347 X164.306 Y86.482
N348 G2 X164.571 Y85.952 I-6.937 J-3.791 F1011.5
N349 G3 X164.947 Y85.85 I0.231 J0.104
N350 G2 X165.881 Y86.48 I14.873 J-21.029
N351 G3 X165.771 Y86.848 I-0.108 J0.168
N352 G1 X161.632 Y86.813
N353 G3 X161.487 Y86.477 I0.002 J-0.2
N354 G2 X162.956 Y82.75 I-3.987 J-3.724
N355 X162.935 Y82.067 I-10.942 J0
N356 G3 X162.913 Y81.384 I10.921 J-0.683
N357 X163.167 Y81.278 I0.149 J0
N358 G2 X166.686 Y84.204 I17.628 J-17.628
N359 X170.701 Y86.398 I12.789 J-18.63
N360 X170.909 Y86.485 I9.095 J-21.587
N361 X170.985 Y86.5 I0.076 J-0.185
N362 G1 X197.997 Y86.528
N363 G2 X198.126 Y86.48 I0 J-0.2
N364 X201.481 Y83.129 I-18.32 J-21.696
N365 G3 X202.402 Y83.058 I0.495 J0.419
N366 X202.461 Y83.979 I-0.425 J0.49
N367 G1 X200.972 Y85.65
N368 G3 X200.79 Y85.793 I-0.484 J-0.431
N369 G1 X198.544 Y86.976
N370 G3 X198.339 Y87.044 I-0.302 J-0.574
N371 G1 X194.208 Y87.666
N372 G3 X193.761 Y86.479 I-0.097 J-0.641
N373 G2 X201.482 Y78.757 I-13.94 J-21.659
N374 G3 X202.318 Y78.597 I0.494 J0.318
N375 X202.434 Y79.441 I-0.342 J0.477
N376 G1 X199.005 Y83.736
N377 G3 X198.866 Y83.862 I-0.459 J-0.366
N378 G1 X194.078 Y86.973
N379 G3 X193.824 Y87.064 I-0.32 J-0.492
N380 G1 X188.971 Y87.611
N381 G3 X188.683 Y86.485 I-0.066 J-0.583
N382 G2 X201.487 Y73.655 I-8.887 J-21.673
N383 X201.502 Y73.58 I-0.185 J-0.076
N384 G1 X201.518 Y51
N385 G2 X201.486 Y50.892 I-0.2 J0
N386 X200.85 Y49.947 I-21.666 J13.929
N387 G3 X200.952 Y49.571 I0.207 J-0.146
N388 G2 X201.479 Y49.308 I-3.261 J-7.201
N389 G3 X201.775 Y49.481 I0.096 J0.176
N390 G1 X201.87 Y55.883
N391 G3 X201.485 Y55.962 I-0.2 J0.003
N392 G2 X196.278 Y48.167 I-21.688 J8.849
N393 G3 X196.384 Y47.913 I0.105 J-0.105
N394 X197.067 Y47.935 I0 J10.942
N395 G2 X197.75 Y47.956 I0.683 J-10.921
N396 X201.48 Y46.482 I0 J-5.458
N397 G1 X201.489 Y46.474 F350.5
N398 X201.541 Y46.426 Z-1.992
N399 X201.59 Y46.38 Z-1.969
N400 X201.634 Y46.339 Z-1.931
N401 X201.671 Y46.304 Z-1.88
N402 X201.698 Y46.279 Z-1.82
N403 X201.715 Y46.262 Z-1.753
N404 X201.721 Y46.257 Z-1.683
N405 G0 Z5
N406 X39.304 Y37.969
N407 G1 Z1.817 F350.5
N408 G3 X39.302 Y37.992 Z1.698 I-1.501 J-0.147
N409 X39.293 Y38.058 Z1.597 I-1.498 J-0.17
N410 X39.274 Y38.155 Z1.527 I-1.49 J-0.236
N411 X39.243 Y38.269 Z1.5 I-1.471 J-0.333
N412 X36.363 Y37.375 Z1.335 I-1.44 J-0.447
N413 X39.243 Y38.269 Z1.169 I1.44 J0.447
N414 X36.363 Y37.375 Z1.004 I-1.44 J-0.447
N415 X39.243 Y38.269 Z0.838 I1.44 J0.447
N416 X36.363 Y37.375 Z0.673 I-1.44 J-0.447
N417 X39.243 Y38.269 Z0.507 I1.44 J0.447
N418 X36.363 Y37.375 Z0.342 I-1.44 J-0.447
N419 X39.243 Y38.269 Z0.176 I1.44 J0.447
N420 X36.363 Y37.375 Z0.011 I-1.44 J-0.447
N421 X39.243 Y38.269 Z-0.155 I1.44 J0.447
N422 X36.363 Y37.375 Z-0.32 I-1.44 J-0.447
N423 X39.243 Y38.269 Z-0.485 I1.44 J0.447
N424 X36.363 Y37.375 Z-0.651 I-1.44 J-0.447
N425 X39.243 Y38.269 Z-0.816 I1.44 J0.447
N426 X36.363 Y37.375 Z-0.982 I-1.44 J-0.447
N427 X39.243 Y38.269 Z-1.147 I1.44 J0.447
N428 X36.363 Y37.375 Z-1.313 I-1.44 J-0.447
N429 X39.243 Y38.269 Z-1.478 I1.44 J0.447
N430 X36.363 Y37.375 Z-1.644 I-1.44 J-0.447
N431 X39.243 Y38.269 Z-1.809 I1.44 J0.447
N432 X36.363 Y37.375 Z-1.974 I-1.44 J-0.447
N433 X36.737 Y36.756 Z-2 I1.44 J0.447
N434 G1 X36.814 Y36.678 F1011.5
N435 G3 X37.068 Y36.784 I0.105 J0.105
N436 G1 Y36.911
N437 G3 X36.892 Y37.087 I-0.175 J0
N438 G1 X36.764
N439 G3 X36.659 Y36.833 I0 J-0.149
N440 G1 X36.737 Y36.756
N441 G2 X37.079 Y34.917 I-1.169 J-1.169
N442 G3 X37.29 Y33.058 I1.688 J-0.749
N443 G2 X38.854 Y30.658 I-17.109 J-12.858
N444 G3 X39.078 Y30.717 I0.104 J0.058
N445 G1 Y38.784
N446 G3 X38.765 Y39.097 I-0.313 J0
N447 G1 X30.601
N448 G3 X30.555 Y38.92 I0 J-0.094
N449 G2 X32.995 Y37.343 I-10.988 J-19.669
N450 X37.29 Y33.058 I-12.813 J-17.142
N451 G3 X37.38 Y32.978 Z-1.976 I0.254 J0.191 F350.5
N452 X37.475 Y32.939 Z-1.907 I0.164 J0.272
N453 X37.543 Y32.932 Z-1.804 I0.069 J0.31
N454 X37.568 Y32.933 Z-1.683 I0.001 J0.317
N455 G0 Z5
N456 X36.767 Y-3.482
N457 G1 Z-1.683 F350.5
N458 X36.764 Y-3.475 Z-1.753
N459 X36.752 Y-3.454 Z-1.82
N460 X36.734 Y-3.421 Z-1.88
N461 X36.71 Y-3.377 Z-1.931
N462 X36.681 Y-3.324 Z-1.969
N463 X36.649 Y-3.265 Z-1.992
N464 X36.615 Y-3.203 Z-2
N465 X35.675 Y-1.482
N466 G2 X35.41 Y-0.952 I6.937 J3.791 F1011.5
N467 G3 X35.033 Y-0.85 I-0.231 J-0.104
N468 G2 X34.1 Y-1.48 I-14.873 J21.029
N469 G3 X34.21 Y-1.848 I0.108 J-0.168
N470 G1 X38.349 Y-1.813
N471 G3 X38.494 Y-1.477 I-0.002 J0.2
N472 G2 X37.025 Y2.25 I3.987 J3.724
N473 X37.046 Y2.933 I10.942 J0
N474 G3 X37.068 Y3.616 I-10.921 J0.683
N475 X36.814 Y3.722 I-0.149 J0
N476 G2 X33.255 Y0.77 I-17.606 J17.606
N477 X29.191 Y-1.435 I-12.758 J18.67
N478 X29.079 Y-1.481 I-9.006 J21.624
N479 X29.004 Y-1.496 I-0.076 J0.185
N480 G1 X1.991 Y-1.532
N481 G2 X1.862 Y-1.485 I0 J0.2
N482 X-1.483 Y1.853 I18.315 J21.702
N483 G3 X-2.404 Y1.923 I-0.495 J-0.42
N484 X-2.462 Y1.002 I0.426 J-0.49
N485 G1 X-0.979 Y-0.662
N486 G3 X-0.797 Y-0.804 I0.484 J0.432
N487 G1 X1.443 Y-1.98
N488 G3 X1.649 Y-2.048 I0.302 J0.574
N489 G1 X5.773 Y-2.666
N490 G3 X6.22 Y-1.479 I0.096 J0.642
N491 G2 X-1.482 Y6.214 I13.94 J21.659
N492 G3 X-2.319 Y6.372 I-0.493 J-0.318
N493 X-2.434 Y5.529 I0.343 J-0.477
N494 G1 X0.989 Y1.251
N495 G3 X1.128 Y1.125 I0.458 J0.367
N496 G1 X5.902 Y-1.973
N497 G3 X6.156 Y-2.064 I0.32 J0.493
N498 G1 X11.017 Y-2.614
N499 G3 X11.306 Y-1.487 I0.066 J0.583
N500 G2 X-1.483 Y11.29 I8.88 J21.676
N501 X-1.498 Y11.366 I0.185 J0.076
N502 G1 X-1.519 Y34.029
N503 G2 X-1.487 Y34.137 I0.2 J0
N504 X-0.864 Y35.059 I21.647 J-13.958
N505 G3 X-0.966 Y35.436 I-0.207 J0.146
N506 G2 X-1.478 Y35.691 I3.276 J7.195
N507 G3 X-1.774 Y35.519 I-0.096 J-0.176
N508 G1 X-1.871 Y29.159
N509 G3 X-1.486 Y29.08 I0.2 J-0.003
N510 G2 X3.702 Y36.833 I21.672 J-8.891
N511 G3 X3.597 Y37.087 I-0.105 J0.105
N512 X2.924 Y37.066 I0 J-10.789
N513 G2 X2.25 Y37.045 I-0.674 J10.768
N514 X-1.48 Y38.518 I0 J5.458
N515 X-1.772 Y40.636 I1.16 J1.239
N516 G3 X-1.197 Y42.695 I-3.399 J2.059
N517 G1 Y82.75
N518 G2 X2.25 Y86.197 I3.447 J0
N519 G1 X157.5
N520 G2 X160.947 Y82.75 I0 J-3.447
N521 X160.925 Y79.033 I-313.243 J0
N522 G3 X160.903 Y75.317 I313.221 J-3.717
N523 X161.127 Y75.258 I0.12 J0
N524 G2 X201.247 Y64.8 I18.7 J-10.446
N525 X190.258 Y46.127 I-21.361 J0
N526 G3 X190.317 Y45.903 I0.058 J-0.104
N527 G1 X197.75 Y45.947
N528 G2 X201.197 Y42.5 I0 J-3.447
N529 G1 Y2.25
N530 G2 X197.75 Y-1.197 I-3.447 J0
N531 G1 X42.481
N532 G2 X39.034 Y2.25 I0 J3.447
N533 G1 X39.078 Y9.683
N534 G3 X38.854 Y9.742 I-0.12 J0
N535 G2 X-1.266 Y20.2 I-18.7 J10.446
N536 X9.723 Y38.873 I21.361 J0
N537 G3 X9.664 Y39.097 I-0.058 J0.104
N538 G1 X2.25 Y39.053
N539 G2 X-1.197 Y42.5 I0 J3.447
N540 G1 Y42.695
N541 G2 X-0.267 Y44.09 I1.511 J0
N542 G3 X0.663 Y45.484 I-0.581 J1.394
N543 G1 Y82.75
N544 G2 X2.25 Y84.338 I1.587 J0
N545 G1 X157.5
N546 G2 X159.087 Y82.75 I0 J-1.588
N547 G1 Y44.088
N548 X197.75
N549 G2 X199.337 Y42.5 I0 J-1.588
N550 G1 Y2.25
N551 G2 X197.75 Y0.663 I-1.587 J0
N552 G1 X42.481
N553 G2 X40.893 Y2.25 I0 J1.587
N554 G1 Y40.912
N555 X2.25
N556 G2 X0.663 Y42.5 I0 J1.588
N557 G1 Y45.484
N558 G3 X0.503 Y45.643 I-0.159 J0
N559 X0.345 Y45.482 I0.001 J-0.159
N560 G1 X0.414 Y41.042
N561 G3 X0.566 Y40.886 I0.159 J0.002
N562 G1 X19.703 Y40.085
N563 G2 X19.781 Y40.04 I-0.004 J-0.095
N564 G1 X19.911 Y39.832
N565 G3 X19.993 Y39.787 I0.081 J0.051
N566 G2 X20.369 Y0.613 I0.188 J-19.587
N567 X19.993 Y39.787 I-0.188 J19.587
N568 X20.092 Z-1.984 I0.188 J-19.587 F350.5
N569 X20.181 Z-1.938 I0.089 J-19.587
N570 X20.276 Z-1.826 I0 J-19.587
N571 X20.31 Z-1.683 I-0.095 J-19.587
N572 G0 Z5
N573 X163.249 Y48.249
N574 G1 Z1 F350.5
N575 Z-1.683
N576 X163.255 Y48.255 Z-1.753
N577 X163.272 Y48.272 Z-1.82
N578 X163.298 Y48.298 Z-1.88
N579 X163.334 Y48.334 Z-1.931
N580 X163.377 Y48.377 Z-1.969
N581 X163.424 Y48.424 Z-1.992
N582 X163.474 Y48.474 Z-2
N583 G2 X163.734 Y48.653 I0.619 J-0.619 F1011.5
N584 G1 X165.689 Y49.532
N585 G3 X165.95 Y50.95 I-0.359 J0.798
N586 G2 X193.65 Y78.65 I13.85 J13.85
N587 X179.8 Y45.213 I-13.85 J-13.85
N588 X165.95 Y50.95 I0 J19.588
N589 G3 X165.643 Y50.921 I-0.141 J-0.141
N590 G1 X163.706 Y48.094
N591 G2 X163.381 Y48.087 I-0.165 J0.113
N592 G3 X160.975 Y46.269 Z-2.165 I-1.203 J-0.909 F350.5
N593 X163.381 Y48.087 Z-2.331 I1.203 J0.909
N594 X160.975 Y46.269 Z-2.496 I-1.203 J-0.909
N595 X163.381 Y48.087 Z-2.662 I1.203 J0.909
N596 X160.975 Y46.269 Z-2.827 I-1.203 J-0.909
N597 X163.168 Y46.04 Z-2.914 I1.203 J0.909
N598 X163.244 Y48.244 Z-3 I-0.99 J1.138
N599 G1 X163.167 Y48.322 F1011.5
N600 G3 X162.913 Y48.216 I-0.105 J-0.105
N601 G1 Y48.089
N602 G3 X163.089 Y47.913 I0.175 J0
N603 G1 X163.216
N604 G3 X163.322 Y48.167 I0 J0.149
N605 G1 X163.244 Y48.244
N606 G2 X162.903 Y50.08 I1.167 J1.167
N607 G3 X162.692 Y51.936 I-1.686 J0.748
N608 G2 X161.08 Y54.426 I17.048 J12.805
N609 G3 X160.903 Y54.38 I-0.082 J-0.046
N610 G1 Y46.216
N611 G3 X161.216 Y45.903 I0.313 J0
N612 G1 X169.283
N613 G3 X169.342 Y46.127 I0 J0.12
N614 G2 X162.692 Y51.936 I10.398 J18.614
N615 G3 X162.602 Y52.017 Z-2.976 I-0.254 J-0.191 F350.5
N616 X162.507 Y52.055 Z-2.907 I-0.164 J-0.272
N617 X162.439 Y52.063 Z-2.804 I-0.069 J-0.31
N618 X162.414 Y52.062 Z-2.683 I-0.001 J-0.317
N619 G0 Z5
N620 X163.213 Y88.482
N621 G1 Z-2.682 F350.5
N622 X163.217 Y88.475 Z-2.753
N623 X163.228 Y88.454 Z-2.82
N624 X163.247 Y88.421 Z-2.88
N625 X163.271 Y88.377 Z-2.931
N626 X163.3 Y88.324 Z-2.969
N627 X163.332 Y88.265 Z-2.992
N628 X163.366 Y88.203 Z-3
N629 X164.306 Y86.482
N630 G2 X164.571 Y85.952 I-6.937 J-3.791 F1011.5
N631 G3 X164.947 Y85.85 I0.231 J0.104
N632 G2 X165.881 Y86.48 I14.873 J-21.029
N633 G3 X165.771 Y86.848 I-0.108 J0.168
N634 G1 X161.632 Y86.813
N635 G3 X161.487 Y86.477 I0.002 J-0.2
N636 G2 X162.956 Y82.75 I-3.987 J-3.724
N637 X162.935 Y82.067 I-10.942 J0
N638 G3 X162.913 Y81.384 I10.921 J-0.683
N639 X163.167 Y81.278 I0.149 J0
N640 G2 X166.686 Y84.204 I17.628 J-17.628
N641 X170.701 Y86.398 I12.789 J-18.63
N642 X170.909 Y86.485 I9.095 J-21.587
N643 X170.985 Y86.5 I0.076 J-0.185
N644 G1 X197.997 Y86.528
N645 G2 X198.126 Y86.48 I0 J-0.2
N646 X201.481 Y83.129 I-18.32 J-21.696
N647 G3 X202.402 Y83.058 I0.495 J0.419
N648 X202.461 Y83.979 I-0.425 J0.49
N649 G1 X200.972 Y85.65
N650 G3 X200.79 Y85.793 I-0.484 J-0.431
N651 G1 X198.544 Y86.976
N652 G3 X198.339 Y87.044 I-0.302 J-0.574
N653 G1 X194.208 Y87.666
N654 G3 X193.761 Y86.479 I-0.097 J-0.641
N655 G2 X201.482 Y78.757 I-13.94 J-21.659
N656 G3 X202.318 Y78.597 I0.494 J0.318
N657 X202.434 Y79.441 I-0.342 J0.477
N658 G1 X199.005 Y83.736
N659 G3 X198.866 Y83.862 I-0.459 J-0.366
N660 G1 X194.078 Y86.973
N661 G3 X193.824 Y87.064 I-0.32 J-0.492
N662 G1 X188.971 Y87.611
N663 G3 X188.683 Y86.485 I-0.066 J-0.583
N664 G2 X201.487 Y73.655 I-8.887 J-21.673
N665 X201.502 Y73.58 I-0.185 J-0.076
N666 G1 X201.518 Y51
N667 G2 X201.486 Y50.892 I-0.2 J0
N668 X200.85 Y49.947 I-21.666 J13.929
N669 G3 X200.952 Y49.571 I0.207 J-0.146
N670 G2 X201.479 Y49.308 I-3.261 J-7.201
N671 G3 X201.775 Y49.481 I0.096 J0.176
N672 G1 X201.87 Y55.883
N673 G3 X201.485 Y55.962 I-0.2 J0.003
N674 G2 X196.278 Y48.167 I-21.688 J8.849
N675 G3 X196.384 Y47.913 I0.105 J-0.105
N676 X197.067 Y47.935 I0 J10.942
N677 G2 X197.75 Y47.956 I0.683 J-10.921
N678 X201.48 Y46.482 I0 J-5.458
N679 G1 X201.489 Y46.474 F350.5
N680 X201.541 Y46.426 Z-2.992
N681 X201.59 Y46.38 Z-2.969
N682 X201.634 Y46.339 Z-2.931
N683 X201.671 Y46.304 Z-2.88
N684 X201.698 Y46.279 Z-2.82
N685 X201.715 Y46.262 Z-2.753
N686 X201.721 Y46.257 Z-2.682
N687 G0 Z5
N688 X39.304 Y37.969
N689 G1 Z0.817 F350.5
N690 G3 X39.302 Y37.992 Z0.698 I-1.501 J-0.147
N691 X39.293 Y38.058 Z0.597 I-1.498 J-0.17
N692 X39.274 Y38.155 Z0.527 I-1.49 J-0.236
N693 X39.243 Y38.269 Z0.5 I-1.471 J-0.333
N694 X36.363 Y37.375 Z0.335 I-1.44 J-0.447
N695 X39.243 Y38.269 Z0.169 I1.44 J0.447
N696 X36.363 Y37.375 Z0.004 I-1.44 J-0.447
N697 X39.243 Y38.269 Z-0.162 I1.44 J0.447
N698 X36.363 Y37.375 Z-0.327 I-1.44 J-0.447
N699 X39.243 Y38.269 Z-0.493 I1.44 J0.447
N700 X36.363 Y37.375 Z-0.658 I-1.44 J-0.447
N701 X39.243 Y38.269 Z-0.824 I1.44 J0.447
N702 X36.363 Y37.375 Z-0.989 I-1.44 J-0.447
N703 X39.243 Y38.269 Z-1.155 I1.44 J0.447
N704 X36.363 Y37.375 Z-1.32 I-1.44 J-0.447
N705 X39.243 Y38.269 Z-1.485 I1.44 J0.447
N706 X36.363 Y37.375 Z-1.651 I-1.44 J-0.447
N707 X39.243 Y38.269 Z-1.816 I1.44 J0.447
N708 X36.363 Y37.375 Z-1.982 I-1.44 J-0.447
N709 X39.243 Y38.269 Z-2.147 I1.44 J0.447
N710 X36.363 Y37.375 Z-2.313 I-1.44 J-0.447
N711 X39.243 Y38.269 Z-2.478 I1.44 J0.447
N712 X36.363 Y37.375 Z-2.644 I-1.44 J-0.447
N713 X39.243 Y38.269 Z-2.809 I1.44 J0.447
N714 X36.363 Y37.375 Z-2.974 I-1.44 J-0.447
N715 X36.737 Y36.756 Z-3 I1.44 J0.447
N716 G1 X36.814 Y36.678 F1011.5
N717 G3 X37.068 Y36.784 I0.105 J0.105
N718 G1 Y36.911
N719 G3 X36.892 Y37.087 I-0.175 J0
N720 G1 X36.764
N721 G3 X36.659 Y36.833 I0 J-0.149
N722 G1 X36.737 Y36.756
N723 G2 X37.079 Y34.917 I-1.169 J-1.169
N724 G3 X37.29 Y33.058 I1.688 J-0.749
N725 G2 X38.854 Y30.658 I-17.109 J-12.858
N726 G3 X39.078 Y30.717 I0.104 J0.058
N727 G1 Y38.784
N728 G3 X38.765 Y39.097 I-0.313 J0
N729 G1 X30.601
N730 G3 X30.555 Y38.92 I0 J-0.094
N731 G2 X32.995 Y37.343 I-10.988 J-19.669
N732 X37.29 Y33.058 I-12.813 J-17.142
N733 G3 X37.38 Y32.978 Z-2.976 I0.254 J0.191 F350.5
N734 X37.475 Y32.939 Z-2.907 I0.164 J0.272
N735 X37.543 Y32.932 Z-2.804 I0.069 J0.31
N736 X37.568 Y32.933 Z-2.683 I0.001 J0.317
N737 G0 Z5
N738 X36.767 Y-3.482
N739 G1 Z-2.682 F350.5
N740 X36.764 Y-3.475 Z-2.753
N741 X36.752 Y-3.454 Z-2.82
N742 X36.734 Y-3.421 Z-2.88
N743 X36.71 Y-3.377 Z-2.931
N744 X36.681 Y-3.324 Z-2.969
N745 X36.649 Y-3.265 Z-2.992
N746 X36.615 Y-3.203 Z-3
N747 X35.675 Y-1.482
N748 G2 X35.41 Y-0.952 I6.937 J3.791 F1011.5
N749 G3 X35.033 Y-0.85 I-0.231 J-0.104
N750 G2 X34.1 Y-1.48 I-14.873 J21.029
N751 G3 X34.21 Y-1.848 I0.108 J-0.168
N752 G1 X38.349 Y-1.813
N753 G3 X38.494 Y-1.477 I-0.002 J0.2
N754 G2 X37.025 Y2.25 I3.987 J3.724
N755 X37.046 Y2.933 I10.942 J0
N756 G3 X37.068 Y3.616 I-10.921 J0.683
N757 X36.814 Y3.722 I-0.149 J0
N758 G2 X33.255 Y0.77 I-17.606 J17.606
N759 X29.191 Y-1.435 I-12.758 J18.67
N760 X29.079 Y-1.481 I-9.006 J21.624
N761 X29.004 Y-1.496 I-0.076 J0.185
N762 G1 X1.991 Y-1.532
N763 G2 X1.862 Y-1.485 I0 J0.2
N764 X-1.483 Y1.853 I18.315 J21.702
N765 G3 X-2.404 Y1.923 I-0.495 J-0.42
N766 X-2.462 Y1.002 I0.426 J-0.49
N767 G1 X-0.979 Y-0.662
N768 G3 X-0.797 Y-0.804 I0.484 J0.432
N769 G1 X1.443 Y-1.98
N770 G3 X1.649 Y-2.048 I0.302 J0.574
N771 G1 X5.773 Y-2.666
N772 G3 X6.22 Y-1.479 I0.096 J0.642
N773 G2 X-1.482 Y6.214 I13.94 J21.659
N774 G3 X-2.319 Y6.372 I-0.493 J-0.318
N775 X-2.434 Y5.529 I0.343 J-0.477
N776 G1 X0.989 Y1.251
N777 G3 X1.128 Y1.125 I0.458 J0.367
N778 G1 X5.902 Y-1.973
N779 G3 X6.156 Y-2.064 I0.32 J0.493
N780 G1 X11.017 Y-2.614
N781 G3 X11.306 Y-1.487 I0.066 J0.583
N782 G2 X-1.483 Y11.29 I8.88 J21.676
N783 X-1.498 Y11.366 I0.185 J0.076
N784 G1 X-1.519 Y34.029
N785 G2 X-1.487 Y34.137 I0.2 J0
N786 X-0.864 Y35.059 I21.647 J-13.958
N787 G3 X-0.966 Y35.436 I-0.207 J0.146
N788 G2 X-1.478 Y35.691 I3.276 J7.195
N789 G3 X-1.774 Y35.519 I-0.096 J-0.176
N790 G1 X-1.871 Y29.159
N791 G3 X-1.486 Y29.08 I0.2 J-0.003
N792 G2 X3.702 Y36.833 I21.672 J-8.891
N793 G3 X3.597 Y37.087 I-0.105 J0.105
N794 X2.924 Y37.066 I0 J-10.789
N795 G2 X2.25 Y37.045 I-0.674 J10.768
N796 X-1.48 Y38.518 I0 J5.458
N797 X-1.772 Y40.636 I1.16 J1.239
N798 G3 X-1.197 Y42.695 I-3.399 J2.059
N799 G1 Y82.75
N800 G2 X2.25 Y86.197 I3.447 J0
N801 G1 X157.5
N802 G2 X160.947 Y82.75 I0 J-3.447
N803 X160.925 Y79.033 I-313.243 J0
N804 G3 X160.903 Y75.317 I313.221 J-3.717
N805 X161.127 Y75.258 I0.12 J0
N806 G2 X201.247 Y64.8 I18.7 J-10.446
N807 X190.258 Y46.127 I-21.361 J0
N808 G3 X190.317 Y45.903 I0.058 J-0.104
N809 G1 X197.75 Y45.947
N810 G2 X201.197 Y42.5 I0 J-3.447
N811 G1 Y2.25
N812 G2 X197.75 Y-1.197 I-3.447 J0
N813 G1 X42.481
N814 G2 X39.034 Y2.25 I0 J3.447
N815 G1 X39.078 Y9.683
N816 G3 X38.854 Y9.742 I-0.12 J0
N817 G2 X-1.266 Y20.2 I-18.7 J10.446
N818 X9.723 Y38.873 I21.361 J0
N819 G3 X9.664 Y39.097 I-0.058 J0.104
N820 G1 X2.25 Y39.053
N821 G2 X-1.197 Y42.5 I0 J3.447
N822 G1 Y42.695
N823 G2 X-0.267 Y44.09 I1.511 J0
N824 G3 X0.663 Y45.484 I-0.581 J1.394
N825 G1 Y82.75
N826 G2 X2.25 Y84.338 I1.587 J0
N827 G1 X157.5
N828 G2 X159.087 Y82.75 I0 J-1.588
N829 G1 Y44.088
N830 X197.75
N831 G2 X199.337 Y42.5 I0 J-1.588
N832 G1 Y2.25
N833 G2 X197.75 Y0.663 I-1.587 J0
N834 G1 X42.481
N835 G2 X40.893 Y2.25 I0 J1.587
N836 G1 Y40.912
N837 X2.25
N838 G2 X0.663 Y42.5 I0 J1.588
N839 G1 Y45.484
N840 G3 X0.503 Y45.643 I-0.159 J0
N841 X0.345 Y45.482 I0.001 J-0.159
N842 G1 X0.414 Y41.042
N843 G3 X0.566 Y40.886 I0.159 J0.002
N844 G1 X19.703 Y40.085
N845 G2 X19.781 Y40.04 I-0.004 J-0.095
N846 G1 X19.911 Y39.832
N847 G3 X19.993 Y39.787 I0.081 J0.051
N848 G2 X20.369 Y0.613 I0.188 J-19.587
N849 X19.993 Y39.787 I-0.188 J19.587
N850 X20.092 Z-2.984 I0.188 J-19.587 F350.5
N851 X20.181 Z-2.938 I0.089 J-19.587
N852 X20.276 Z-2.826 I0 J-19.587
N853 X20.31 Z-2.683 I-0.095 J-19.587
N854 G0 Z5
N855 X163.249 Y48.249
N856 G1 Z0 F350.5
N857 Z-2.682
N858 X163.255 Y48.255 Z-2.753
N859 X163.272 Y48.272 Z-2.82
N860 X163.298 Y48.298 Z-2.88
N861 X163.334 Y48.334 Z-2.931
N862 X163.377 Y48.377 Z-2.969
N863 X163.424 Y48.424 Z-2.992
N864 X163.474 Y48.474 Z-3
N865 G2 X163.734 Y48.653 I0.619 J-0.619 F1011.5
N866 G1 X165.689 Y49.532
N867 G3 X165.95 Y50.95 I-0.359 J0.798
N868 G2 X193.65 Y78.65 I13.85 J13.85
N869 X179.8 Y45.213 I-13.85 J-13.85
N870 X165.95 Y50.95 I0 J19.588
N871 G3 X165.849 Y51.017 Z-2.976 I-0.225 J-0.225 F350.5
N872 X165.75 Y51.042 Z-2.907 I-0.124 J-0.292
N873 X165.681 Y51.04 Z-2.804 I-0.025 J-0.317
N874 X165.657 Y51.035 Z-2.683 I0.044 J-0.314
N875 G0 Z15
N877 Z1
N878 M5
N879 M30
