%
(221Gcode)
(T1  D=3.175 CR=0 - ZMIN=-2.5 - flat end mill)
N0 G90
N1 G17
(Parallel4)
N2 T1 M6
(T1 1/8 End Mill)
N3 S3000 M3
N5 G0 X196.317 Y4.008
N6 Z15
N7 Z0.843
N8 G1 Z-0.84 F457.2
N9 G18 G3 X196 Z-1.157 I-0.318 K0
N10 G1 X193.561 Z-1.163
N11 X178.831 Z-1.247
N12 X163.809 Z-1.302
N13 X148.591 Z-1.329
N14 X138.658 Z-1.325
N15 X125.001 Z-1.286
N16 X98.857 Z-1.182
N17 X64 Z-1.101
N18 G3 X63.931 Z-1.085 I0 K0.159
N19 G2 X63.861 Z-1.069 I-0.07 K-0.143
N20 G1 X63.858
N21 G17 G2 X63.382 Y4.484 I0 J0.476
N22 G1 Y5.119
N23 G2 X63.858 Y5.595 I0.476 J0
N24 G18 G3 X63.928 Z-1.085 I0 K-0.159
N25 G1 X63.931 Z-1.086
N26 G2 X64 Z-1.103 I0.07 K0.143
N27 G1 X88.153 Z-1.159
N28 X106.688 Z-1.217
N29 X130.88 Z-1.312
N30 X143.908 Z-1.333
N31 X161.662 Z-1.313
N32 X179.026 Z-1.255
N33 X196 Z-1.158
N34 G2 X196.069 Z-1.142 I-0.001 K0.159
N35 G3 X196.139 Z-1.126 I0.07 K-0.143
N36 G1 X196.18 Y5.597
N37 X196.222 Y5.602 Z-1.127
N38 X196.262 Y5.611 Z-1.128
N39 X196.302 Y5.624 Z-1.13
N40 X196.34 Y5.639 Z-1.133
N41 X196.377 Y5.658 Z-1.136
N42 X196.412 Y5.68 Z-1.139
N43 X196.445 Y5.705 Z-1.143
N44 X196.476 Y5.733 Z-1.147
N45 X196.504 Y5.763 Z-1.151
N46 X196.529 Y5.796 Z-1.156
N47 X196.551 Y5.831 Z-1.162
N48 X196.57 Y5.867 Z-1.167
N49 X196.586 Y5.905 Z-1.173
N50 X196.599 Y5.944 Z-1.179
N51 X196.608 Y5.984 Z-1.185
N52 X196.613 Y6.025 Z-1.191
N53 X196.615 Y6.066 Z-1.197
N54 Y6.711 Z-1.295
N55 X196.613 Y6.752 Z-1.301
N56 X196.608 Y6.793 Z-1.307
N57 X196.599 Y6.833 Z-1.313
N58 X196.586 Y6.872 Z-1.319
N59 X196.57 Y6.91 Z-1.325
N60 X196.551 Y6.947 Z-1.33
N61 X196.529 Y6.981 Z-1.335
N62 X196.504 Y7.014 Z-1.34
N63 X196.476 Y7.044 Z-1.345
N64 X196.445 Y7.072 Z-1.349
N65 X196.412 Y7.097 Z-1.353
N66 X196.377 Y7.119 Z-1.356
N67 X196.34 Y7.138 Z-1.359
N68 X196.302 Y7.154 Z-1.361
N69 X196.262 Y7.166 Z-1.363
N70 X196.222 Y7.175 Z-1.365
N71 X196.18 Y7.18
N72 X196.139 Y7.182 Z-1.366
N73 G2 X196.069 Z-1.382 I0 K-0.159
N74 G3 X196 Z-1.398 I-0.07 K0.143
N75 G1 X179.612 Z-1.495
N76 X162.833 Z-1.557
N77 X146.662 Z-1.576
N78 X135.346 Z-1.559
N79 X119.543 Z-1.483
N80 X102.765 Z-1.396
N81 X86.767 Z-1.358
N82 X64 Z-1.339
N83 G3 X63.93 Z-1.323 I0 K0.159
N84 G2 X63.86 Z-1.306 I-0.07 K-0.143
N85 G1 X63.859
N86 X63.818 Y7.184
N87 X63.777 Y7.19 Z-1.307
N88 X63.736 Y7.198
N89 X63.697 Y7.211 Z-1.308
N90 X63.658 Y7.227 Z-1.309
N91 X63.621 Y7.246 Z-1.31
N92 X63.586 Y7.268 Z-1.311
N93 X63.553 Y7.294 Z-1.312
N94 X63.523 Y7.322 Z-1.314
N95 X63.495 Y7.352 Z-1.316
N96 X63.469 Y7.385 Z-1.317
N97 X63.447 Y7.42 Z-1.319
N98 X63.428 Y7.457 Z-1.321
N99 X63.412 Y7.495 Z-1.323
N100 X63.399 Y7.535 Z-1.326
N101 X63.39 Y7.575 Z-1.328
N102 X63.385 Y7.616 Z-1.33
N103 X63.383 Y7.658 Z-1.332
N104 Y8.294 Z-1.367
N105 X63.385 Y8.335 Z-1.369
N106 X63.39 Y8.376 Z-1.371
N107 X63.399 Y8.417 Z-1.374
N108 X63.412 Y8.457 Z-1.376
N109 X63.428 Y8.495 Z-1.378
N110 X63.447 Y8.532 Z-1.38
N111 X63.469 Y8.567 Z-1.382
N112 X63.495 Y8.6 Z-1.383
N113 X63.523 Y8.63 Z-1.385
N114 X63.553 Y8.658 Z-1.387
N115 X63.586 Y8.683 Z-1.388
N116 X63.621 Y8.706 Z-1.389
N117 X63.658 Y8.725 Z-1.39
N118 X63.697 Y8.741 Z-1.391
N119 X63.736 Y8.753 Z-1.392
N120 X63.777 Y8.762
N121 X63.818 Y8.768 Z-1.393
N122 X63.859 Y8.769
N123 G3 X63.929 Z-1.409 I0 K-0.159
N124 G2 X64 Z-1.425 I0.07 K0.143
N125 G1 X72.817 Z-1.382
N126 X86.279 Z-1.345
N127 X99.546 Z-1.344
N128 X109.106 Z-1.379
N129 X137.786 Z-1.564
N130 X151.248 Z-1.611
N131 X171.733 Z-1.643
N132 X177.465 Z-1.631
N133 X196 Z-1.544
N134 G2 X196.069 Z-1.528 I-0.001 K0.159
N135 G3 X196.139 Z-1.512 I0.07 K-0.143
N136 G1 X196.14
N137 X196.181 Y8.771
N138 X196.222 Y8.777
N139 X196.263 Y8.786
N140 X196.303 Y8.798 Z-1.513
N141 X196.341 Y8.814
N142 X196.378 Y8.833 Z-1.514
N143 X196.413 Y8.856 Z-1.515
N144 X196.446 Y8.881 Z-1.516
N145 X196.477 Y8.909 Z-1.517
N146 X196.505 Y8.939 Z-1.518
N147 X196.53 Y8.972 Z-1.519
N148 X196.552 Y9.007 Z-1.521
N149 X196.571 Y9.044 Z-1.522
N150 X196.587 Y9.083 Z-1.524
N151 X196.6 Y9.122 Z-1.525
N152 X196.609 Y9.163 Z-1.527
N153 X196.614 Y9.204 Z-1.528
N154 X196.616 Y9.245 Z-1.53
N155 Y9.881 Z-1.555
N156 X196.614 Y9.922 Z-1.556
N157 X196.609 Y9.963 Z-1.558
N158 X196.6 Y10.004 Z-1.559
N159 X196.587 Y10.043 Z-1.561
N160 X196.571 Y10.082 Z-1.562
N161 X196.552 Y10.119 Z-1.564
N162 X196.53 Y10.154 Z-1.565
N163 X196.505 Y10.187 Z-1.566
N164 X196.477 Y10.217 Z-1.568
N165 X196.446 Y10.245 Z-1.569
N166 X196.413 Y10.271 Z-1.57
N167 X196.378 Y10.293 Z-1.571
N168 X196.341 Y10.312
N169 X196.303 Y10.328 Z-1.572
N170 X196.263 Y10.34
N171 X196.222 Y10.349 Z-1.573
N172 X196.181 Y10.355
N173 X196.14 Y10.357
N174 G2 X196.07 Z-1.589 I0 K-0.159
N175 G3 X196 Z-1.605 I-0.07 K0.143
N176 G1 X176.029 Z-1.6
N177 X156.129 Z-1.556
N178 X139.74 Z-1.487
N179 X126.669 Z-1.387
N180 X112.036 Z-1.269
N181 X102.866 Z-1.22
N182 X93.892 Z-1.206
N183 X81.6 Z-1.226
N184 X70.285 Z-1.278
N185 X64 Z-1.32
N186 G3 X63.929 Z-1.304 I-0.001 K0.159
N187 G2 X63.859 Z-1.288 I-0.07 K-0.143
N188 G1 X63.817 Y10.358
N189 X63.776 Y10.364 Z-1.287
N190 X63.736 Y10.373
N191 X63.696 Y10.385 Z-1.286
N192 X63.658 Y10.401 Z-1.285
N193 X63.621 Y10.42 Z-1.283
N194 X63.586 Y10.443 Z-1.282
N195 X63.553 Y10.468 Z-1.28
N196 X63.522 Y10.496 Z-1.278
N197 X63.494 Y10.526 Z-1.276
N198 X63.469 Y10.559 Z-1.274
N199 X63.446 Y10.594 Z-1.271
N200 X63.427 Y10.631 Z-1.269
N201 X63.411 Y10.669 Z-1.266
N202 X63.399 Y10.709 Z-1.263
N203 X63.39 Y10.749 Z-1.26
N204 X63.384 Y10.79 Z-1.257
N205 X63.383 Y10.832 Z-1.255
N206 Y11.469 Z-1.21
N207 X63.384 Y11.51 Z-1.207
N208 X63.39 Y11.551 Z-1.204
N209 X63.399 Y11.592 Z-1.201
N210 X63.411 Y11.631 Z-1.198
N211 X63.427 Y11.669 Z-1.196
N212 X63.446 Y11.706 Z-1.193
N213 X63.469 Y11.741 Z-1.191
N214 X63.494 Y11.774 Z-1.188
N215 X63.522 Y11.805 Z-1.186
N216 X63.553 Y11.833 Z-1.184
N217 X63.586 Y11.858 Z-1.182
N218 X63.621 Y11.88 Z-1.181
N219 X63.658 Y11.899 Z-1.179
N220 X63.696 Y11.915 Z-1.178
N221 X63.736 Y11.928 Z-1.177
N222 X63.776 Y11.937
N223 X63.817 Y11.942 Z-1.176
N224 X63.859 Y11.944
N225 G3 X63.929 Z-1.193 I0 K-0.159
N226 G2 X64 Z-1.209 I0.07 K0.143
N227 G1 X68.093 Z-1.171
N228 X77.263 Z-1.106
N229 X87.408 Z-1.065
N230 X98.134 Z-1.059
N231 X105.162 Z-1.087
N232 X112.576 Z-1.145
N233 X122.526 Z-1.252
N234 X136.963 Z-1.408
N235 X145.938 Z-1.473
N236 X162.326 Z-1.541
N237 X178.52 Z-1.571
N238 X196 Z-1.563
N239 G2 X196.07 Z-1.547 I0 K0.159
N240 G3 X196.14 Z-1.53 I0.07 K-0.143
N241 G1 X196.181 Y11.946
N242 X196.222 Y11.951
N243 X196.263 Y11.96
N244 X196.303 Y11.973
N245 X196.341 Y11.988 Z-1.529
N246 X196.378 Y12.008
N247 X196.413 Y12.03 Z-1.528
N248 X196.446 Y12.055 Z-1.527
N249 X196.476 Y12.083 Z-1.526
N250 X196.504 Y12.114 Z-1.525
N251 X196.53 Y12.147
N252 X196.552 Y12.182 Z-1.523
N253 X196.571 Y12.219 Z-1.522
N254 X196.587 Y12.257 Z-1.521
N255 X196.6 Y12.297 Z-1.52
N256 X196.609 Y12.337 Z-1.519
N257 X196.614 Y12.378 Z-1.518
N258 X196.616 Y12.42 Z-1.517
N259 Y13.055 Z-1.498
N260 X196.614 Y13.096 Z-1.497
N261 X196.609 Y13.138 Z-1.496
N262 X196.6 Y13.178 Z-1.494
N263 X196.587 Y13.218 Z-1.493
N264 X196.571 Y13.256 Z-1.492
N265 X196.552 Y13.293 Z-1.491
N266 X196.53 Y13.328 Z-1.49
N267 X196.504 Y13.361 Z-1.489
N268 X196.476 Y13.392 Z-1.488
N269 X196.446 Y13.42 Z-1.487
N270 X196.413 Y13.445
N271 X196.378 Y13.467 Z-1.486
N272 X196.341 Y13.486 Z-1.485
N273 X196.303 Y13.502
N274 X196.263 Y13.515
N275 X196.222 Y13.524 Z-1.484
N276 X196.181 Y13.529
N277 X196.14 Y13.531
N278 X196.139
N279 G2 X196.069 Z-1.5 I0 K-0.159
N280 G3 X196 Z-1.517 I-0.07 K0.143
N281 G1 X182.148 Z-1.558
N282 X173.155 Z-1.56
N283 X159.888 Z-1.527
N284 X146.621 Z-1.466
N285 X140.183 Z-1.418
N286 X132.665 Z-1.33
N287 X115.255 Z-1.074
N288 X109.998 Z-1.006
N289 X104.145 Z-0.949
N290 X98.097 Z-0.92
N291 X89.122 Z-0.926
N292 X80.538 Z-0.966
N293 X72.929 Z-1.027
N294 X65.905 Z-1.105
N295 X64 Z-1.13
N296 G3 X63.928 Z-1.114 I-0.002 K0.159
N297 G2 X63.858 Z-1.098 I-0.07 K-0.143
N298 G1 X63.816 Y13.533
N299 X63.775 Y13.538
N300 X63.735 Y13.547 Z-1.097
N301 X63.695 Y13.56
N302 X63.657 Y13.576
N303 X63.62 Y13.595 Z-1.096
N304 X63.585 Y13.617
N305 X63.552 Y13.642 Z-1.095
N306 X63.521 Y13.67
N307 X63.493 Y13.701 Z-1.094
N308 X63.468 Y13.734
N309 X63.445 Y13.769 Z-1.093
N310 X63.426 Y13.806 Z-1.092
N311 X63.41 Y13.844 Z-1.091
N312 X63.398 Y13.884
N313 X63.389 Y13.924 Z-1.09
N314 X63.383 Y13.966 Z-1.089
N315 X63.382 Y14.007 Z-1.088
N316 Y14.642 Z-1.075
N317 X63.383 Y14.683
N318 X63.389 Y14.725 Z-1.074
N319 X63.398 Y14.765 Z-1.073
N320 X63.41 Y14.805 Z-1.072
N321 X63.426 Y14.843 Z-1.071
N322 X63.445 Y14.88
N323 X63.468 Y14.915 Z-1.07
N324 X63.493 Y14.948 Z-1.069
N325 X63.521 Y14.979
N326 X63.552 Y15.007 Z-1.068
N327 X63.585 Y15.032
N328 X63.62 Y15.054 Z-1.067
N329 X63.657 Y15.074
N330 X63.695 Y15.089 Z-1.066
N331 X63.735 Y15.102
N332 X63.775 Y15.111
N333 X63.816 Y15.116
N334 X63.858 Y15.118
N335 G3 X63.928 Z-1.082 I0 K-0.159
N336 G2 X64 Z-1.098 I0.07 K0.143
N337 G1 X68.8 Z-1.026
N338 X76.053 Z-0.933
N339 X82.686 Z-0.868
N340 X89.71 Z-0.825
N341 X97.318 Z-0.811
N342 X102.294 Z-0.83
N343 X104.333 Z-0.872
N344 X108.901 Z-0.924
N345 X115.337 Z-1.015
N346 X129.733 Z-1.269
N347 X136.378 Z-1.371
N348 X142.719 Z-1.44
N349 X153.157 Z-1.501
N350 X166.228 Z-1.547
N351 X177.465 Z-1.562
N352 X184.879 Z-1.543
N353 X196 Z-1.475
N354 G2 X196.069 Z-1.459 I-0.001 K0.159
N355 G3 X196.139 Z-1.443 I0.07 K-0.143
N356 G1 X196.18 Y15.12
N357 X196.221 Y15.125
N358 X196.262 Y15.134
N359 X196.302 Y15.147 Z-1.442
N360 X196.34 Y15.163
N361 X196.377 Y15.182
N362 X196.412 Y15.204 Z-1.441
N363 X196.445 Y15.23
N364 X196.476 Y15.258 Z-1.44
N365 X196.504 Y15.288 Z-1.439
N366 X196.529 Y15.321
N367 X196.551 Y15.356 Z-1.438
N368 X196.57 Y15.393 Z-1.437
N369 X196.586 Y15.431
N370 X196.599 Y15.471 Z-1.436
N371 X196.608 Y15.512 Z-1.435
N372 X196.613 Y15.553 Z-1.434
N373 X196.615 Y15.594 Z-1.433
N374 Y16.229 Z-1.42
N375 X196.613 Y16.271
N376 X196.608 Y16.312 Z-1.419
N377 X196.599 Y16.352 Z-1.418
N378 X196.586 Y16.392 Z-1.417
N379 X196.57 Y16.43 Z-1.416
N380 X196.551 Y16.467
N381 X196.529 Y16.502 Z-1.415
N382 X196.504 Y16.535 Z-1.414
N383 X196.476 Y16.566
N384 X196.445 Y16.594 Z-1.413
N385 X196.412 Y16.619
N386 X196.377 Y16.642 Z-1.412
N387 X196.34 Y16.661
N388 X196.302 Y16.677 Z-1.411
N389 X196.262 Y16.689
N390 X196.221 Y16.698
N391 X196.18 Y16.704
N392 X196.139 Y16.705
N393 X196.138
N394 G2 X196.068 Z-1.427 I0 K-0.159
N395 G3 X196 Z-1.443 I-0.07 K0.143
N396 G1 X193.269 Z-1.467
N397 X185.074 Z-1.537
N398 X179.417 Z-1.561
N399 X167.819
N400 X156.308 Z-1.53
N401 X144.407 Z-1.466
N402 X138.262 Z-1.404
N403 X131.691 Z-1.302
N404 X115.473 Z-1.015
N405 X109.042 Z-0.924
N406 X104.615 Z-0.874
N407 X103.64 Z-0.833
N408 X102.489 Z-0.776
N409 X101.447 Z-0.755
N410 X96.668 Z-0.746
N411 X90.034 Z-0.77
N412 X83.206 Z-0.826
N413 X76.084 Z-0.909
N414 X68.286 Z-1.022
N415 X64 Z-1.093
N416 G3 X63.928 Z-1.077 I-0.003 K0.159
N417 G2 X63.858 Z-1.06 I-0.07 K-0.143
N418 G1 X63.857
N419 X63.816 Y16.707
N420 X63.775 Y16.713
N421 X63.734 Y16.722 Z-1.061
N422 X63.694 Y16.734
N423 X63.656 Y16.75
N424 X63.619 Y16.769
N425 X63.584 Y16.791
N426 X63.551 Y16.817 Z-1.062
N427 X63.521 Y16.845
N428 X63.492 Y16.875
N429 X63.467 Y16.908 Z-1.063
N430 X63.445 Y16.943
N431 X63.426 Y16.98 Z-1.064
N432 X63.41 Y17.019
N433 X63.397 Y17.058 Z-1.065
N434 X63.388 Y17.099
N435 X63.383 Y17.14
N436 X63.381 Y17.182 Z-1.066
N437 Y17.816 Z-1.073
N438 X63.383 Y17.858 Z-1.074
N439 X63.388 Y17.899
N440 X63.397 Y17.94 Z-1.075
N441 X63.41 Y17.979
N442 X63.426 Y18.018 Z-1.076
N443 X63.445 Y18.054
N444 X63.467 Y18.089 Z-1.077
N445 X63.492 Y18.122
N446 X63.521 Y18.153
N447 X63.551 Y18.181 Z-1.078
N448 X63.584 Y18.206
N449 X63.619 Y18.229
N450 X63.656 Y18.248
N451 X63.694 Y18.264 Z-1.079
N452 X63.734 Y18.276
N453 X63.775 Y18.285
N454 X63.816 Y18.291
N455 X63.857 Y18.292
N456 G3 X63.927 Z-1.095 I0 K-0.159
N457 G2 X64 Z-1.111 I0.07 K0.143
N458 G1 X67.507 Z-1.046
N459 X75.361 Z-0.917
N460 X83.126 Z-0.816
N461 X90.345 Z-0.75
N462 X96.588 Z-0.72
N463 X101.466 Z-0.722
N464 X102.442 Z-0.737
N465 X102.641 Z-0.754
N466 X102.706 Z-0.774
N467 X102.712 Z-2.499
N468 X153.285 Z-2.5
N469 X153.29 Z-1.581
N470 X153.31 Z-1.574
N471 X153.609 Z-1.56
N472 X158.389 Z-1.573
N473 X168.774 Z-1.588
N474 X179.319 Z-1.569
N475 X185.196 Z-1.529
N476 X194.244 Z-1.435
N477 X196 Z-1.424
N478 G2 X196.069 Z-1.408 I-0.001 K0.159
N479 G1 X196.081 Z-1.402
N480 G3 X196.151 Z-1.386 I0.07 K-0.143
N481 G17 G3 X196.627 Y18.769 I0 J0.476
N482 G1 Y19.403
N483 G3 X196.151 Y19.88 I-0.476 J0
N484 G1 X196.139
N485 G18 G2 X196.069 Z-1.402 I0 K-0.159
N486 G3 X196 Z-1.418 I-0.07 K0.143
N487 G1 X194.079 Z-1.425
N488 X186.372 Z-1.504
N489 X178.373 Z-1.555
N490 X168.618 Z-1.583
N491 X158.727 Z-1.575
N492 X154.533 Z-1.567
N493 X153.593 Z-1.591
N494 X153.413 Z-1.603
N495 X153.412 Z-2.5
N496 X152.583
N497 Z0
N498 X103.417
N499 Z-2.5
N500 X102.588
N501 X102.586 Z-0.721
N502 X101.222 Z-0.712
N503 X94.947 Z-0.719
N504 X88.412 Z-0.762
N505 X82.266 Z-0.83
N506 X77.062 Z-0.907
N507 X72.135 Z-0.995
N508 X67.213 Z-1.099
N509 X64 Z-1.175
N510 G3 X63.926 Z-1.159 I-0.004 K0.159
N511 G2 X63.857 Z-1.143 I-0.07 K-0.143
N512 G1 X63.856
N513 X63.814 Y19.881
N514 X63.773 Y19.887
N515 X63.732 Y19.896 Z-1.144
N516 X63.693 Y19.908 Z-1.145
N517 X63.654 Y19.924 Z-1.146
N518 X63.617 Y19.943 Z-1.147
N519 X63.582 Y19.966 Z-1.149
N520 X63.549 Y19.991 Z-1.15
N521 X63.519 Y20.019 Z-1.152
N522 X63.491 Y20.049 Z-1.154
N523 X63.465 Y20.082 Z-1.157
N524 X63.443 Y20.117 Z-1.159
N525 X63.424 Y20.154 Z-1.162
N526 X63.408 Y20.192 Z-1.164
N527 X63.396 Y20.232 Z-1.167
N528 X63.387 Y20.272 Z-1.17
N529 X63.381 Y20.313 Z-1.173
N530 X63.379 Y20.355 Z-1.175
N531 Y20.992 Z-1.219
N532 X63.381 Y21.033 Z-1.222
N533 X63.387 Y21.074 Z-1.225
N534 X63.396 Y21.115 Z-1.228
N535 X63.408 Y21.154 Z-1.231
N536 X63.424 Y21.193 Z-1.233
N537 X63.443 Y21.229 Z-1.236
N538 X63.465 Y21.264 Z-1.238
N539 X63.491 Y21.297 Z-1.24
N540 X63.519 Y21.328 Z-1.242
N541 X63.549 Y21.356 Z-1.244
N542 X63.582 Y21.381 Z-1.246
N543 X63.617 Y21.403 Z-1.248
N544 X63.654 Y21.422 Z-1.249
N545 X63.693 Y21.438 Z-1.25
N546 X63.732 Y21.451 Z-1.251
N547 X63.773 Y21.46 Z-1.252
N548 X63.814 Y21.465
N549 X63.856 Y21.467
N550 G3 X63.925 Z-1.268 I0 K-0.159
N551 G2 X64 Z-1.284 I0.07 K0.143
N552 G1 X67.726 Z-1.175
N553 X72.061 Z-1.061
N554 X76.388 Z-0.962
N555 X80.744 Z-0.879
N556 X85.017 Z-0.813
N557 X90.084 Z-0.755
N558 X95.644 Z-0.717
N559 X102.587 Z-0.714
N560 X102.588 Z-2.5
N561 X103.412
N562 Z0
N563 X152.583
N564 X152.588 Z-2.5
N565 X153.41
N566 X153.413 Z-1.564
N567 X153.419 Z-1.557
N568 X153.546 Z-1.532
N569 X153.927 Z-1.499
N570 X154.557 Z-1.474
N571 X155.874 Z-1.473
N572 X167.775 Z-1.508
N573 X179.244 Z-1.503
N574 X188.804 Z-1.468
N575 X193.877 Z-1.424
N576 X196 Z-1.418
N577 X196.007
N578 G2 X196.076 Z-1.402 I0 K0.159
N579 G3 X196.147 Z-1.385 I0.07 K-0.142
N580 G17 G3 X196.623 Y21.943 I0 J0.476
N581 G1 Y22.578
N582 G3 X196.147 Y23.054 I-0.476 J0
N583 G1 X196.139
N584 G18 G2 X196.069 Z-1.402 I0 K-0.159
N585 G3 X196 Z-1.418 I-0.07 K0.143
N586 G1 X193.561 Z-1.43
N587 X190.537 Z-1.449
N588 X177.137 Z-1.432
N589 X163.87 Z-1.382
N590 X154.798 Z-1.335
N591 X154.171 Z-1.355
N592 X153.724 Z-1.392
N593 X153.496 Z-1.43
N594 X153.422 Z-1.456
N595 X153.413 Z-1.47
N596 X153.412 Z-2.5
N597 X152.587
N598 Z0
N599 X103.413
N600 X103.41 Z-2.5
N601 X102.588
N602 X102.585 Z-0.717
N603 X96.881
N604 X91.467 Z-0.76
N605 X87.096 Z-0.816
N606 X83.011 Z-0.884
N607 X78.947 Z-0.968
N608 X75.025 Z-1.063
N609 X71.008 Z-1.177
N610 X66.955 Z-1.307
N611 X64 Z-1.411
N612 G3 X63.925 Z-1.395 I-0.006 K0.159
N613 G2 X63.855 Z-1.379 I-0.07 K-0.143
N614 G1 X63.813 Y23.056
N615 X63.772 Y23.061 Z-1.378
N616 X63.731 Y23.07
N617 X63.692 Y23.083 Z-1.377
N618 X63.653 Y23.098 Z-1.376
N619 X63.617 Y23.118 Z-1.374
N620 X63.581 Y23.14 Z-1.372
N621 X63.549 Y23.165 Z-1.37
N622 X63.518 Y23.193 Z-1.368
N623 X63.49 Y23.224 Z-1.366
N624 X63.465 Y23.256 Z-1.363
N625 X63.442 Y23.291 Z-1.361
N626 X63.423 Y23.328 Z-1.358
N627 X63.407 Y23.366 Z-1.355
N628 X63.395 Y23.406 Z-1.352
N629 X63.386 Y23.446 Z-1.348
N630 X63.38 Y23.487 Z-1.345
N631 X63.378 Y23.529 Z-1.342
N632 Y24.166 Z-1.292
N633 X63.38 Y24.208 Z-1.289
N634 X63.386 Y24.249 Z-1.286
N635 X63.395 Y24.289 Z-1.283
N636 X63.407 Y24.329 Z-1.28
N637 X63.423 Y24.367 Z-1.277
N638 X63.442 Y24.404 Z-1.274
N639 X63.465 Y24.439 Z-1.271
N640 X63.49 Y24.472 Z-1.269
N641 X63.518 Y24.502 Z-1.266
N642 X63.549 Y24.53 Z-1.264
N643 X63.581 Y24.555 Z-1.262
N644 X63.617 Y24.578 Z-1.26
N645 X63.653 Y24.597 Z-1.259
N646 X63.692 Y24.613 Z-1.258
N647 X63.731 Y24.625 Z-1.257
N648 X63.772 Y24.634 Z-1.256
N649 X63.813 Y24.639
N650 X63.855 Y24.641 Z-1.255
N651 X63.856
N652 G3 X63.926 Z-1.272 I0 K-0.159
N653 G2 X64 Z-1.288 I0.07 K0.143
N654 G1 X67.179 Z-1.201
N655 X73.406 Z-1.055
N656 X78.32 Z-0.96
N657 X84.704 Z-0.861
N658 X93.679 Z-0.76
N659 X98.166 Z-0.724
N660 X102.068 Z-0.721
N661 X102.586 Z-0.734
N662 X102.588 Z-2.5
N663 X103.412
N664 Z0
N665 X152.583
N666 X152.587 Z-2.5
N667 X153.41
N668 X153.413 Z-1.334
N669 X153.43 Z-1.313
N670 X153.52 Z-1.282
N671 X153.767 Z-1.243
N672 X154.273 Z-1.21
N673 X155.005 Z-1.196
N674 X178.222 Z-1.363
N675 X191.879 Z-1.442
N676 X196 Z-1.426
N677 G2 X196.069 Z-1.41 I-0.001 K0.159
N678 G3 X196.139 Z-1.394 I0.07 K-0.143
N679 G1 X196.14
N680 X196.181 Y24.643
N681 X196.222 Y24.648
N682 X196.263 Y24.657
N683 X196.303 Y24.67
N684 X196.341 Y24.686
N685 X196.378 Y24.705 Z-1.395
N686 X196.413 Y24.727
N687 X196.446 Y24.753
N688 X196.476 Y24.781
N689 X196.505 Y24.811 Z-1.396
N690 X196.53 Y24.844
N691 X196.552 Y24.879 Z-1.397
N692 X196.571 Y24.916
N693 X196.587 Y24.955
N694 X196.6 Y24.994 Z-1.398
N695 X196.609 Y25.035
N696 X196.614 Y25.076 Z-1.399
N697 X196.616 Y25.117
N698 Y25.752 Z-1.406
N699 X196.614 Y25.794 Z-1.407
N700 X196.609 Y25.835
N701 X196.6 Y25.875 Z-1.408
N702 X196.587 Y25.915
N703 X196.571 Y25.953 Z-1.409
N704 X196.552 Y25.99
N705 X196.53 Y26.025 Z-1.41
N706 X196.505 Y26.058
N707 X196.476 Y26.089
N708 X196.446 Y26.117 Z-1.411
N709 X196.413 Y26.142
N710 X196.378 Y26.165
N711 X196.341 Y26.184
N712 X196.303 Y26.2 Z-1.412
N713 X196.263 Y26.212
N714 X196.222 Y26.221
N715 X196.181 Y26.227
N716 X196.14 Y26.228
N717 G2 X196.07 Z-1.428 I0 K-0.159
N718 G3 X196 Z-1.444 I-0.07 K0.143
N719 G1 X193.124
N720 X182.491 Z-1.351
N721 X159.566 Z-1.138
N722 X154.884 Z-1.101
N723 X154 Z-1.117
N724 X153.583 Z-1.145
N725 X153.438 Z-1.174
N726 X153.413 Z-1.193
N727 X153.41 Z-2.5
N728 X152.587
N729 X152.583 Z0
N730 X103.412
N731 Z-2.5
N732 X102.588
N733 X102.586 Z-0.741
N734 X101.893 Z-0.724
N735 X100.04 Z-0.723
N736 X89.797 Z-0.8
N737 X83.261 Z-0.875
N738 X76.611 Z-0.979
N739 X69.791 Z-1.114
N740 X64 Z-1.251
N741 G3 X63.926 Z-1.235 I-0.004 K0.159
N742 G2 X63.857 Z-1.219 I-0.07 K-0.143
N743 G1 X63.856
N744 X63.815 Y26.23
N745 X63.774 Y26.236
N746 X63.733 Y26.245
N747 X63.694 Y26.257
N748 X63.655 Y26.273
N749 X63.618 Y26.292 Z-1.22
N750 X63.583 Y26.314
N751 X63.55 Y26.34
N752 X63.52 Y26.368 Z-1.221
N753 X63.492 Y26.398
N754 X63.466 Y26.431 Z-1.222
N755 X63.444 Y26.466
N756 X63.425 Y26.503 Z-1.223
N757 X63.409 Y26.542
N758 X63.396 Y26.581 Z-1.224
N759 X63.387 Y26.622 Z-1.225
N760 X63.382 Y26.663
N761 X63.38 Y26.705 Z-1.226
N762 Y27.339 Z-1.235
N763 X63.382 Y27.381 Z-1.236
N764 X63.387 Y27.422 Z-1.237
N765 X63.396 Y27.463
N766 X63.409 Y27.502 Z-1.238
N767 X63.425 Y27.541
N768 X63.444 Y27.577 Z-1.239
N769 X63.466 Y27.612
N770 X63.492 Y27.645 Z-1.24
N771 X63.52 Y27.676
N772 X63.55 Y27.704 Z-1.241
N773 X63.583 Y27.729
N774 X63.618 Y27.752
N775 X63.655 Y27.771 Z-1.242
N776 X63.694 Y27.787
N777 X63.733 Y27.799
N778 X63.774 Y27.808
N779 X63.815 Y27.814
N780 X63.856 Y27.816
N781 G3 X63.926 Z-1.259 I0 K-0.159
N782 G2 X64 Z-1.275 I0.07 K0.143
N783 G1 X68.505 Z-1.166
N784 X73.723 Z-1.056
N785 X79.248 Z-0.956
N786 X84.96 Z-0.871
N787 X91.148 Z-0.8
N788 X95.662 Z-0.744
N789 X100.15 Z-0.701
N790 X102.269 Z-0.705
N791 X102.586 Z-0.718
N792 X102.588 Z-2.5
N793 X103.412
N794 Z0
N795 X152.587
N796 Z-2.5
N797 X153.412
N798 X153.413 Z-1.101
N799 X153.424 Z-1.095
N800 X153.567 Z-1.083
N801 X156.005 Z-1.079
N802 X169.661 Z-1.201
N803 X191.415 Z-1.428
N804 X196 Z-1.465
N805 G2 X196.071 Z-1.449 I0.001 K0.159
N806 G3 X196.141 Z-1.433 I0.07 K-0.143
N807 G1 X196.183 Y27.817
N808 X196.224 Y27.823
N809 X196.265 Y27.832
N810 X196.304 Y27.844
N811 X196.343 Y27.86
N812 X196.38 Y27.879
N813 X196.415 Y27.902
N814 X196.448 Y27.927 Z-1.434
N815 X196.478 Y27.955
N816 X196.506 Y27.986
N817 X196.532 Y28.019 Z-1.435
N818 X196.554 Y28.054
N819 X196.573 Y28.09
N820 X196.589 Y28.129 Z-1.436
N821 X196.602 Y28.168
N822 X196.611 Y28.209 Z-1.437
N823 X196.616 Y28.25
N824 X196.618 Y28.292 Z-1.438
N825 Y28.926 Z-1.444
N826 X196.616 Y28.968 Z-1.445
N827 X196.611 Y29.009
N828 X196.602 Y29.05 Z-1.446
N829 X196.589 Y29.089
N830 X196.573 Y29.128
N831 X196.554 Y29.165 Z-1.447
N832 X196.532 Y29.2
N833 X196.506 Y29.233
N834 X196.478 Y29.263 Z-1.448
N835 X196.448 Y29.291
N836 X196.415 Y29.317
N837 X196.38 Y29.339 Z-1.449
N838 X196.343 Y29.358
N839 X196.304 Y29.374
N840 X196.265 Y29.386
N841 X196.224 Y29.395
N842 X196.183 Y29.401
N843 X196.141 Y29.403
N844 G2 X196.072 Z-1.465 I0 K-0.159
N845 G3 X196 Z-1.482 I-0.07 K0.143
N846 G1 X176.978 Z-1.271
N847 X158.248 Z-1.093
N848 X155.992 Z-1.079
N849 X153.413 Z-1.081
N850 Z-2.5
N851 X152.588
N852 X152.583 Z0
N853 X103.412
N854 Z-2.5
N855 X102.588
N856 X102.586 Z-0.698
N857 X101.222 Z-0.689
N858 X96.539 Z-0.711
N859 X90.882 Z-0.764
N860 X85.428 Z-0.834
N861 X80.383 Z-0.915
N862 X75.45 Z-1.008
N863 X70.153 Z-1.125
N864 X65.263 Z-1.247
N865 X64 Z-1.282
N866 G3 X63.926 Z-1.266 I-0.004 K0.159
N867 G2 X63.856 Z-1.25 I-0.07 K-0.143
N868 G1 X63.814 Y29.405
N869 X63.773 Y29.41 Z-1.249
N870 X63.733 Y29.419
N871 X63.693 Y29.431 Z-1.248
N872 X63.655 Y29.447 Z-1.247
N873 X63.618 Y29.466 Z-1.246
N874 X63.583 Y29.489 Z-1.245
N875 X63.55 Y29.514 Z-1.243
N876 X63.519 Y29.542 Z-1.242
N877 X63.491 Y29.573 Z-1.24
N878 X63.466 Y29.605 Z-1.238
N879 X63.443 Y29.64 Z-1.236
N880 X63.424 Y29.677 Z-1.234
N881 X63.408 Y29.716 Z-1.232
N882 X63.396 Y29.755 Z-1.229
N883 X63.387 Y29.796 Z-1.227
N884 X63.382 Y29.837 Z-1.225
N885 X63.38 Y29.878 Z-1.222
N886 Y30.514 Z-1.185
N887 X63.382 Y30.556 Z-1.183
N888 X63.387 Y30.597 Z-1.18
N889 X63.396 Y30.637 Z-1.178
N890 X63.408 Y30.677 Z-1.176
N891 X63.424 Y30.715 Z-1.174
N892 X63.443 Y30.752 Z-1.172
N893 X63.466 Y30.787 Z-1.169
N894 X63.491 Y30.82 Z-1.168
N895 X63.519 Y30.851 Z-1.166
N896 X63.55 Y30.879 Z-1.164
N897 X63.583 Y30.904 Z-1.163
N898 X63.618 Y30.926 Z-1.161
N899 X63.655 Y30.945 Z-1.16
N900 X63.693 Y30.961 Z-1.159
N901 X63.733 Y30.974
N902 X63.773 Y30.983 Z-1.158
N903 X63.814 Y30.988
N904 X63.856 Y30.99
N905 G3 X63.926 Z-1.174 I0 K-0.159
N906 G2 X64 Z-1.19 I0.07 K0.143
N907 G1 X68.361 Z-1.084
N908 X73.249 Z-0.979
N909 X78.203 Z-0.889
N910 X83.273 Z-0.812
N911 X89.126 Z-0.744
N912 X95.759 Z-0.693
N913 X101.222 Z-0.68
N914 X102.587 Z-0.688
N915 X102.588 Z-2.5
N916 X103.412
N917 Z0
N918 X152.583
N919 X152.588 Z-2.5
N920 X153.412
N921 X153.413 Z-1.137
N922 X153.432 Z-1.124
N923 X153.558 Z-1.105
N924 X153.987 Z-1.087
N925 X155.663 Z-1.083
N926 X175.514 Z-1.267
N927 X194.098 Z-1.468
N928 X196 Z-1.478
N929 G2 X196.071 Z-1.461 I0.001 K0.159
N930 G3 X196.141 Z-1.445 I0.07 K-0.143
N931 G1 X196.182 Y30.992
N932 X196.223 Y30.997
N933 X196.264 Y31.006
N934 X196.303 Y31.019 Z-1.444
N935 X196.342 Y31.034 Z-1.443
N936 X196.379 Y31.054
N937 X196.414 Y31.076 Z-1.442
N938 X196.447 Y31.101 Z-1.441
N939 X196.477 Y31.129 Z-1.44
N940 X196.505 Y31.16 Z-1.439
N941 X196.531 Y31.193 Z-1.438
N942 X196.553 Y31.228 Z-1.436
N943 X196.572 Y31.265 Z-1.435
N944 X196.588 Y31.303 Z-1.433
N945 X196.601 Y31.343 Z-1.432
N946 X196.61 Y31.383 Z-1.43
N947 X196.615 Y31.424 Z-1.429
N948 X196.617 Y31.466 Z-1.427
N949 Y32.101 Z-1.403
N950 X196.615 Y32.143 Z-1.402
N951 X196.61 Y32.184 Z-1.4
N952 X196.601 Y32.224 Z-1.399
N953 X196.588 Y32.264 Z-1.397
N954 X196.572 Y32.302 Z-1.396
N955 X196.553 Y32.339 Z-1.395
N956 X196.531 Y32.374 Z-1.393
N957 X196.505 Y32.407 Z-1.392
N958 X196.477 Y32.438 Z-1.391
N959 X196.447 Y32.466 Z-1.39
N960 X196.414 Y32.491 Z-1.389
N961 X196.379 Y32.513 Z-1.388
N962 X196.342 Y32.532 Z-1.387
N963 X196.303 Y32.548
N964 X196.264 Y32.561 Z-1.386
N965 X196.223 Y32.57
N966 X196.182 Y32.575
N967 X196.141 Y32.577
N968 X196.139
N969 G2 X196.069 Z-1.402 I0 K-0.159
N970 G3 X196 Z-1.418 I-0.07 K0.143
N971 G1 X190.765 Z-1.445
N972 X161.11 Z-1.187
N973 X154.867 Z-1.138
N974 X154.105 Z-1.155
N975 X153.665 Z-1.186
N976 X153.474 Z-1.22
N977 X153.418 Z-1.246
N978 X153.413 Z-1.257
N979 X153.412 Z-2.5
N980 X152.479
N981 Z0
N982 X103.521
N983 Z-2.5
N984 X102.588
N985 X102.587 Z-0.681
N986 X95.65 Z-0.686
N987 X89.602 Z-0.725
N988 X83.066 Z-0.794
N989 X76.593 Z-0.892
N990 X70.053 Z-1.02
N991 X64.977 Z-1.139
N992 X64 Z-1.164
N993 G3 X63.926 Z-1.147 I-0.004 K0.159
N994 G2 X63.856 Z-1.131 I-0.07 K-0.143
N995 G1 X63.846
N996 G17 G2 X63.369 Y33.053 I0 J0.476
N997 G1 Y33.688
N998 G2 X63.846 Y34.164 I0.476 J0
N999 G18 G3 X63.916 Z-1.147 I0 K-0.159
N1000 G1 X63.926 Z-1.152
N1001 G2 X64 Z-1.169 I0.07 K0.143
N1002 G1 X66.234 Z-1.111
N1003 X72.697 Z-0.964
N1004 X79.011 Z-0.85
N1005 X83.804 Z-0.783
N1006 X90.145 Z-0.719
N1007 X96.29 Z-0.684
N1008 X102.558 Z-0.683
N1009 X102.954 Z-0.702
N1010 X103.084 Z-0.724
N1011 X103.088 Z-2.499
N1012 X152.911 Z-2.5
N1013 X152.918 Z-1.495
N1014 X153.034 Z-1.454
N1015 X153.382 Z-1.371
N1016 X153.742 Z-1.314
N1017 X154.193 Z-1.277
N1018 X154.841 Z-1.258
N1019 X169.376 Z-1.355
N1020 X185.96 Z-1.442
N1021 X188.037 Z-1.425
N1022 X196 Z-1.325
N1023 G2 X196.068 Z-1.309 I-0.002 K0.159
N1024 G3 X196.138 Z-1.292 I0.07 K-0.143
N1025 G1 X196.179 Y34.166
N1026 X196.22 Y34.171
N1027 X196.261 Y34.18
N1028 X196.301 Y34.193 Z-1.291
N1029 X196.339 Y34.209 Z-1.29
N1030 X196.376 Y34.228 Z-1.289
N1031 X196.411 Y34.25 Z-1.287
N1032 X196.444 Y34.275 Z-1.286
N1033 X196.474 Y34.303 Z-1.284
N1034 X196.503 Y34.334 Z-1.282
N1035 X196.528 Y34.367 Z-1.28
N1036 X196.55 Y34.402 Z-1.278
N1037 X196.569 Y34.439 Z-1.276
N1038 X196.585 Y34.477 Z-1.274
N1039 X196.598 Y34.517 Z-1.271
N1040 X196.607 Y34.557 Z-1.269
N1041 X196.612 Y34.598 Z-1.267
N1042 X196.614 Y34.64 Z-1.264
N1043 Y35.276 Z-1.226
N1044 X196.612 Y35.317 Z-1.224
N1045 X196.607 Y35.359 Z-1.221
N1046 X196.598 Y35.399 Z-1.219
N1047 X196.585 Y35.439 Z-1.217
N1048 X196.569 Y35.477 Z-1.214
N1049 X196.55 Y35.514 Z-1.212
N1050 X196.528 Y35.549 Z-1.21
N1051 X196.503 Y35.582 Z-1.208
N1052 X196.474 Y35.612 Z-1.206
N1053 X196.444 Y35.64 Z-1.205
N1054 X196.411 Y35.665 Z-1.203
N1055 X196.376 Y35.688 Z-1.202
N1056 X196.339 Y35.707 Z-1.201
N1057 X196.301 Y35.723 Z-1.2
N1058 X196.261 Y35.735 Z-1.199
N1059 X196.22 Y35.744 Z-1.198
N1060 X196.179 Y35.75
N1061 X196.138 Y35.751
N1062 G2 X196.068 Z-1.214 I0 K-0.159
N1063 G3 X196 Z-1.23 I-0.07 K0.143
N1064 G1 X193.488 Z-1.262
N1065 X182.775 Z-1.401
N1066 X174.659 Z-1.477
N1067 X163.148 Z-1.446
N1068 X154.564 Z-1.405
N1069 X153.722 Z-1.431
N1070 X152.122 Z-1.506
N1071 X151.712 Z-1.513
N1072 X143.811 Z-1.458
N1073 X138.756 Z-1.392
N1074 X132.452 Z-1.275
N1075 X116.652 Z-0.93
N1076 X111.382 Z-0.837
N1077 X107.773 Z-0.788
N1078 X104.501 Z-0.748
N1079 X102.458 Z-0.698
N1080 X99.922 Z-0.688
N1081 X94.849 Z-0.7
N1082 X88.801 Z-0.742
N1083 X83.241 Z-0.805
N1084 X77.072 Z-0.902
N1085 X71.291 Z-1.021
N1086 X66.805 Z-1.131
N1087 X64 Z-1.208
N1088 G3 X63.926 Z-1.192 I-0.004 K0.159
N1089 G2 X63.856 Z-1.176 I-0.07 K-0.143
N1090 G1 X63.855
N1091 X63.814 Y35.753
N1092 X63.773 Y35.759
N1093 X63.732 Y35.768 Z-1.177
N1094 X63.693 Y35.78
N1095 X63.654 Y35.796 Z-1.178
N1096 X63.617 Y35.815 Z-1.179
N1097 X63.582 Y35.837 Z-1.18
N1098 X63.549 Y35.863 Z-1.182
N1099 X63.519 Y35.891 Z-1.183
N1100 X63.491 Y35.921 Z-1.185
N1101 X63.465 Y35.954 Z-1.186
N1102 X63.443 Y35.989 Z-1.188
N1103 X63.424 Y36.026 Z-1.19
N1104 X63.408 Y36.064 Z-1.192
N1105 X63.395 Y36.104 Z-1.194
N1106 X63.386 Y36.144 Z-1.196
N1107 X63.381 Y36.186 Z-1.198
N1108 X63.379 Y36.227 Z-1.2
N1109 Y36.863 Z-1.233
N1110 X63.381 Y36.904 Z-1.235
N1111 X63.386 Y36.946 Z-1.237
N1112 X63.395 Y36.986 Z-1.239
N1113 X63.408 Y37.026 Z-1.241
N1114 X63.424 Y37.064 Z-1.243
N1115 X63.443 Y37.101 Z-1.245
N1116 X63.465 Y37.136 Z-1.247
N1117 X63.491 Y37.169 Z-1.248
N1118 X63.519 Y37.199 Z-1.25
N1119 X63.549 Y37.227 Z-1.251
N1120 X63.582 Y37.253 Z-1.253
N1121 X63.617 Y37.275 Z-1.254
N1122 X63.654 Y37.294 Z-1.255
N1123 X63.693 Y37.31
N1124 X63.732 Y37.322 Z-1.256
N1125 X63.773 Y37.331 Z-1.257
N1126 X63.814 Y37.337
N1127 X63.855 Y37.339
N1128 G3 X63.925 Z-1.273 I0 K-0.159
N1129 G2 X64 Z-1.289 I0.07 K0.143
N1130 G1 X64.15 Z-1.285
N1131 X68.644 Z-1.157
N1132 X72.872 Z-1.052
N1133 X77.103 Z-0.962
N1134 X81.634 Z-0.881
N1135 X86.153 Z-0.818
N1136 X91.713 Z-0.763
N1137 X97.761 Z-0.732
N1138 X102.249 Z-0.74
N1139 X107.029 Z-0.787
N1140 X110.638 Z-0.836
N1141 X115.986 Z-0.931
N1142 X126.393 Z-1.159
N1143 X134.588 Z-1.331
N1144 X137.498 Z-1.364
N1145 X143.156 Z-1.398
N1146 X153.078 Z-1.402
N1147 X164.784 Z-1.366
N1148 X182.148 Z-1.258
N1149 X196 Z-1.17
N1150 G2 X196.069 Z-1.154 I-0.001 K0.159
N1151 G1 X196.085 Z-1.146
N1152 G3 X196.155 Z-1.13 I0.07 K-0.143
N1153 G17 G3 X196.632 Y37.815 I0 J0.476
N1154 G1 Y38.449
N1155 G3 X196.155 Y38.926 I-0.476 J0
N1156 G1 X196.14
N1157 G18 G2 X196.07 Z-1.146 I0 K-0.159
N1158 G3 X196 Z-1.162 I-0.07 K0.143
N1159 G1 X178.441 Z-1.11
N1160 X163.771 Z-1.103
N1161 X128.241 Z-1.151
N1162 X122.949 Z-1.148
N1163 X116.094 Z-1.011
N1164 X111.268 Z-0.928
N1165 X107.045 Z-0.872
N1166 X102.612 Z-0.836
N1167 X98.125 Z-0.829
N1168 X92.077 Z-0.863
N1169 X86.614 Z-0.92
N1170 X81.984 Z-0.985
N1171 X77.514 Z-1.064
N1172 X73.013 Z-1.158
N1173 X68.303 Z-1.272
N1174 X64 Z-1.39
N1175 G3 X63.926 Z-1.374 I-0.004 K0.159
N1176 G2 X63.856 Z-1.357 I-0.07 K-0.143
N1177 G1 X63.85
N1178 G17 G2 X63.373 Y39.402 I0 J0.476
N1179 G1 Y40.037
N1180 G2 X63.85 Y40.513 I0.476 J0
N1181 G18 G3 X63.92 Z-1.374 I0 K-0.159
N1182 G1 X63.931 Z-1.379
N1183 G2 X64 Z-1.395 I0.07 K0.143
N1184 G1 X66.642 Z-1.409
N1185 X71.577 Z-1.316
N1186 X77.693 Z-1.209
N1187 X83.509 Z-1.125
N1188 X89.16 Z-1.059
N1189 X95.599 Z-1.006
N1190 X100.769 Z-0.986
N1191 X106.719 Z-1
N1192 X112.182 Z-1.043
N1193 X121.157 Z-1.145
N1194 X122.21 Z-1.146
N1195 X133.721 Z-1.049
N1196 X140.745 Z-1.002
N1197 X150.158 Z-0.979
N1198 X161.857 Z-0.988
N1199 X173.368 Z-1.03
N1200 X189.562 Z-1.132
N1201 X196 Z-1.162
N1202 G2 X196.071 Z-1.146 I0.001 K0.159
N1203 G3 X196.14 Z-1.13 I0.07 K-0.143
N1204 G1 X196.169
N1205 G17 G3 X196.645 Y40.989 I0 J0.476
N1206 G1 Y41.624
N1207 G3 X196.169 Y42.1 I-0.476 J0
N1208 G18 G2 X196.099 Z-1.146 I0 K-0.159
N1209 G1 X196.071 Z-1.16
N1210 G3 X196 Z-1.176 I-0.07 K0.143
N1211 G1 X174.149 Z-1.031
N1212 X163.223 Z-0.988
N1213 X150.988 Z-0.978
N1214 X140.648 Z-0.996
N1215 X134.015 Z-1.039
N1216 X121.918 Z-1.149
N1217 X116.091 Z-1.159
N1218 X103.93 Z-1.186
N1219 X93.589 Z-1.239
N1220 X81.103 Z-1.333
N1221 X76.716 Z-1.367
N1222 X67.522 Z-1.241
N1223 X64 Z-1.183
N1224 G3 X63.933 Z-1.167 I0.003 K0.159
N1225 G2 X63.863 Z-1.151 I-0.07 K-0.143
N1226 G1 X63.821 Y42.102
N1227 X63.78 Y42.107 Z-1.15
N1228 X63.739 Y42.116 Z-1.149
N1229 X63.7 Y42.129 Z-1.147
N1230 X63.661 Y42.144 Z-1.145
N1231 X63.624 Y42.163 Z-1.143
N1232 X63.589 Y42.185 Z-1.14
N1233 X63.556 Y42.211 Z-1.137
N1234 X63.526 Y42.238 Z-1.133
N1235 X63.498 Y42.269 Z-1.129
N1236 X63.472 Y42.301 Z-1.125
N1237 X63.45 Y42.336 Z-1.12
N1238 X63.431 Y42.373 Z-1.115
N1239 X63.415 Y42.411 Z-1.11
N1240 X63.403 Y42.45 Z-1.105
N1241 X63.394 Y42.49 Z-1.1
N1242 X63.388 Y42.531 Z-1.094
N1243 X63.386 Y42.572 Z-1.089
N1244 Y43.215 Z-1.004
N1245 X63.388 Y43.256 Z-0.998
N1246 X63.394 Y43.297 Z-0.993
N1247 X63.403 Y43.337 Z-0.988
N1248 X63.415 Y43.377 Z-0.983
N1249 X63.431 Y43.415 Z-0.978
N1250 X63.45 Y43.451 Z-0.973
N1251 X63.472 Y43.486 Z-0.968
N1252 X63.498 Y43.519 Z-0.964
N1253 X63.526 Y43.549 Z-0.96
N1254 X63.556 Y43.577 Z-0.956
N1255 X63.589 Y43.602 Z-0.953
N1256 X63.624 Y43.624 Z-0.95
N1257 X63.661 Y43.643 Z-0.947
N1258 X63.7 Y43.659 Z-0.945
N1259 X63.739 Y43.671 Z-0.944
N1260 X63.78 Y43.68 Z-0.942
N1261 X63.821 Y43.685
N1262 X63.863 Y43.687
N1263 G3 X63.932 Z-0.958 I0 K-0.159
N1264 G2 X64 Z-0.974 I0.07 K0.143
N1265 G1 X78.188 Z-1.181
N1266 X89.797 Z-1.315
N1267 X91.549 Z-1.364
N1268 X98.572 Z-1.417
N1269 X100.791 Z-1.409
N1270 X109.376 Z-1.337
N1271 X125.764 Z-1.141
N1272 X133.373 Z-1.057
N1273 X140.006 Z-1.006
N1274 X148.005 Z-0.982
N1275 X159.321 Z-0.984
N1276 X169.661 Z-1.018
N1277 X179.417 Z-1.08
N1278 X187.806 Z-1.156
N1279 X196 Z-1.25
N1280 G2 X196.072 Z-1.234 I0.002 K0.159
N1281 G3 X196.142 Z-1.217 I0.07 K-0.143
N1282 G1 X196.183 Y43.689
N1283 X196.224 Y43.694 Z-1.218
N1284 X196.265 Y43.703 Z-1.219
N1285 X196.304 Y43.716
N1286 X196.343 Y43.732 Z-1.221
N1287 X196.38 Y43.751 Z-1.222
N1288 X196.415 Y43.773 Z-1.223
N1289 X196.448 Y43.798 Z-1.225
N1290 X196.478 Y43.826 Z-1.227
N1291 X196.506 Y43.857 Z-1.229
N1292 X196.532 Y43.89 Z-1.232
N1293 X196.554 Y43.925 Z-1.234
N1294 X196.573 Y43.962 Z-1.237
N1295 X196.589 Y44 Z-1.24
N1296 X196.602 Y44.039 Z-1.242
N1297 X196.611 Y44.08 Z-1.245
N1298 X196.616 Y44.121 Z-1.248
N1299 X196.618 Y44.162 Z-1.251
N1300 Y44.799 Z-1.297
N1301 X196.616 Y44.841 Z-1.3
N1302 X196.611 Y44.882 Z-1.303
N1303 X196.602 Y44.922 Z-1.305
N1304 X196.589 Y44.962 Z-1.308
N1305 X196.573 Y45 Z-1.311
N1306 X196.554 Y45.037 Z-1.314
N1307 X196.532 Y45.072 Z-1.316
N1308 X196.506 Y45.105 Z-1.318
N1309 X196.478 Y45.135 Z-1.321
N1310 X196.448 Y45.163 Z-1.323
N1311 X196.415 Y45.189 Z-1.324
N1312 X196.38 Y45.211 Z-1.326
N1313 X196.343 Y45.23 Z-1.327
N1314 X196.304 Y45.246 Z-1.328
N1315 X196.265 Y45.258 Z-1.329
N1316 X196.224 Y45.267 Z-1.33
N1317 X196.183 Y45.273
N1318 X196.142 Y45.274 Z-1.331
N1319 G2 X196.072 Z-1.347 I0 K-0.159
N1320 G3 X196 Z-1.363 I-0.07 K0.143
N1321 G1 X187.806 Z-1.268
N1322 X179.026 Z-1.188
N1323 X169.271 Z-1.126
N1324 X158.736 Z-1.09
N1325 X147.206 Z-1.086
N1326 X139.938 Z-1.108
N1327 X133.744 Z-1.159
N1328 X126.916 Z-1.239
N1329 X114.236 Z-1.398
N1330 X105.847 Z-1.43
N1331 X101.553 Z-1.427
N1332 X94.627 Z-1.386
N1333 X92.112 Z-1.361
N1334 X91.471 Z-1.328
N1335 X90.864 Z-1.268
N1336 X89.58 Z-1.096
N1337 X89.016 Z-1.046
N1338 X88.451 Z-1.025
N1339 X77.453 Z-0.945
N1340 X68.478 Z-0.907
N1341 X64 Z-0.9
N1342 G3 X63.93 Z-0.884 I0 K0.159
N1343 G2 X63.861 Z-0.868 I-0.07 K-0.143
N1344 G1 X63.86
N1345 G17 G2 X63.384 Y45.751 I0 J0.476
N1346 G1 Y46.385
N1347 G2 X63.86 Y46.862 I0.476 J0
N1348 G18 G3 X63.93 Z-0.884 I0 K-0.159
N1349 G2 X64 Z-0.9 I0.07 K0.143
N1350 G1 X75.865 Z-0.907
N1351 X88.742 Z-0.942
N1352 X89.522 Z-0.95
N1353 X89.71 Z-0.975
N1354 X89.866 Z-1.022
N1355 X90.005 Z-1.092
N1356 X90.115 Z-1.174
N1357 X90.161 Z-1.233
N1358 X90.167 Z-2.498
N1359 X165.055 Z-2.5
N1360 X165.06 Z-1.389
N1361 X165.078 Z-1.371
N1362 X165.164 Z-1.351
N1363 X165.467 Z-1.339
N1364 X182.148 Z-1.398
N1365 X196 Z-1.476
N1366 G2 X196.071 Z-1.46 I0.001 K0.159
N1367 G3 X196.141 Z-1.444 I0.07 K-0.143
N1368 G1 X196.182 Y46.863
N1369 X196.223 Y46.869 Z-1.443
N1370 X196.264 Y46.878
N1371 X196.303 Y46.89 Z-1.442
N1372 X196.342 Y46.906
N1373 X196.379 Y46.925 Z-1.441
N1374 X196.414 Y46.948 Z-1.439
N1375 X196.447 Y46.973 Z-1.438
N1376 X196.477 Y47.001 Z-1.437
N1377 X196.505 Y47.032 Z-1.435
N1378 X196.531 Y47.064 Z-1.434
N1379 X196.553 Y47.099 Z-1.432
N1380 X196.572 Y47.136 Z-1.43
N1381 X196.588 Y47.175 Z-1.428
N1382 X196.601 Y47.214 Z-1.426
N1383 X196.61 Y47.255 Z-1.424
N1384 X196.615 Y47.296 Z-1.422
N1385 X196.617 Y47.337 Z-1.42
N1386 Y47.973 Z-1.389
N1387 X196.615 Y48.015 Z-1.386
N1388 X196.61 Y48.056 Z-1.384
N1389 X196.601 Y48.096 Z-1.382
N1390 X196.588 Y48.136 Z-1.38
N1391 X196.572 Y48.174 Z-1.379
N1392 X196.553 Y48.211 Z-1.377
N1393 X196.531 Y48.246 Z-1.375
N1394 X196.505 Y48.279 Z-1.373
N1395 X196.477 Y48.309 Z-1.372
N1396 X196.447 Y48.337 Z-1.37
N1397 X196.414 Y48.363 Z-1.369
N1398 X196.379 Y48.385 Z-1.368
N1399 X196.342 Y48.404 Z-1.367
N1400 X196.303 Y48.42 Z-1.366
N1401 X196.264 Y48.433
N1402 X196.223 Y48.442 Z-1.365
N1403 X196.182 Y48.447
N1404 X196.141 Y48.449
N1405 X196.14
N1406 G2 X196.07 Z-1.381 I0 K-0.159
N1407 G3 X196 Z-1.397 I-0.07 K0.143
N1408 G1 X168.89 Z-1.395
N1409 X166.872 Z-1.396
N1410 X166.366 Z-1.425
N1411 X165.929 Z-1.478
N1412 X165.633 Z-1.537
N1413 X165.53 Z-1.574
N1414 X165.524 Z-1.581
N1415 X165.522 Z-2.5
N1416 X164.601
N1417 X164.598 Z0
N1418 X90.623
N1419 X90.621 Z-2.5
N1420 X89.699
N1421 X89.696 Z-0.969
N1422 X89.648 Z-0.949
N1423 X88.724 Z-0.941
N1424 X75.652 Z-0.907
N1425 X64 Z-0.901
N1426 G3 X63.93 Z-0.884 I0 K0.159
N1427 G2 X63.86 Z-0.868 I-0.07 K-0.143
N1428 G1 X63.819 Y48.451
N1429 X63.778 Y48.456 Z-0.869
N1430 X63.737 Y48.465
N1431 X63.697 Y48.477
N1432 X63.659 Y48.493 Z-0.87
N1433 X63.622 Y48.513 Z-0.871
N1434 X63.587 Y48.535
N1435 X63.554 Y48.56 Z-0.872
N1436 X63.524 Y48.588 Z-0.873
N1437 X63.496 Y48.619 Z-0.874
N1438 X63.47 Y48.652 Z-0.876
N1439 X63.448 Y48.687 Z-0.877
N1440 X63.429 Y48.724 Z-0.878
N1441 X63.413 Y48.762 Z-0.88
N1442 X63.4 Y48.802 Z-0.881
N1443 X63.391 Y48.842 Z-0.883
N1444 X63.386 Y48.883 Z-0.884
N1445 X63.384 Y48.925 Z-0.886
N1446 Y49.56 Z-0.909
N1447 X63.386 Y49.601 Z-0.911
N1448 X63.391 Y49.643 Z-0.912
N1449 X63.4 Y49.683 Z-0.914
N1450 X63.413 Y49.723 Z-0.915
N1451 X63.429 Y49.761 Z-0.916
N1452 X63.448 Y49.798 Z-0.918
N1453 X63.47 Y49.833 Z-0.919
N1454 X63.496 Y49.866 Z-0.92
N1455 X63.524 Y49.897 Z-0.921
N1456 X63.554 Y49.925 Z-0.922
N1457 X63.587 Y49.95 Z-0.923
N1458 X63.622 Y49.972 Z-0.924
N1459 X63.659 Y49.991 Z-0.925
N1460 X63.697 Y50.007
N1461 X63.737 Y50.02 Z-0.926
N1462 X63.778 Y50.029
N1463 X63.819 Y50.034
N1464 X63.86 Y50.036
N1465 G3 X63.93 Z-0.943 I0 K-0.159
N1466 G2 X64 Z-0.959 I0.07 K0.143
N1467 G1 X69.518 Z-0.962
N1468 X88.041 Z-0.981
N1469 X88.596 Z-0.99
N1470 X88.981 Z-1.017
N1471 X89.241 Z-1.053
N1472 X89.433 Z-1.1
N1473 X89.573 Z-1.155
N1474 X89.663 Z-1.217
N1475 X89.696 Z-1.266
N1476 X89.699 Z-2.5
N1477 X90.524
N1478 Z0
N1479 X164.695
N1480 X164.699 Z-2.5
N1481 X165.524
N1482 X165.527 Z-1.378
N1483 X165.557 Z-1.334
N1484 X165.639 Z-1.281
N1485 X165.799 Z-1.221
N1486 X166.058 Z-1.163
N1487 X166.411 Z-1.119
N1488 X166.866 Z-1.094
N1489 X173.954 Z-1.108
N1490 X185.465 Z-1.16
N1491 X196 Z-1.235
N1492 G2 X196.071 Z-1.218 I0.001 K0.159
N1493 G3 X196.141 Z-1.202 I0.07 K-0.143
N1494 G1 X196.183 Y50.038
N1495 X196.224 Y50.043
N1496 X196.264 Y50.052 Z-1.201
N1497 X196.304 Y50.065
N1498 X196.342 Y50.08 Z-1.2
N1499 X196.379 Y50.1 Z-1.199
N1500 X196.414 Y50.122 Z-1.197
N1501 X196.447 Y50.147 Z-1.196
N1502 X196.478 Y50.175 Z-1.194
N1503 X196.506 Y50.206 Z-1.193
N1504 X196.531 Y50.239 Z-1.191
N1505 X196.554 Y50.274 Z-1.189
N1506 X196.573 Y50.31 Z-1.187
N1507 X196.589 Y50.349 Z-1.185
N1508 X196.601 Y50.388 Z-1.182
N1509 X196.61 Y50.429 Z-1.18
N1510 X196.616 Y50.47 Z-1.178
N1511 X196.617 Y50.511 Z-1.175
N1512 Y51.148 Z-1.139
N1513 X196.616 Y51.189 Z-1.137
N1514 X196.61 Y51.23 Z-1.135
N1515 X196.601 Y51.271 Z-1.132
N1516 X196.589 Y51.31 Z-1.13
N1517 X196.573 Y51.349 Z-1.128
N1518 X196.554 Y51.385 Z-1.126
N1519 X196.531 Y51.42 Z-1.124
N1520 X196.506 Y51.453 Z-1.122
N1521 X196.478 Y51.484 Z-1.12
N1522 X196.447 Y51.512 Z-1.119
N1523 X196.414 Y51.537 Z-1.117
N1524 X196.379 Y51.559 Z-1.116
N1525 X196.342 Y51.579 Z-1.115
N1526 X196.304 Y51.594 Z-1.114
N1527 X196.264 Y51.607 Z-1.113
N1528 X196.224 Y51.616
N1529 X196.183 Y51.621
N1530 X196.141 Y51.623 Z-1.112
N1531 G2 X196.071 Z-1.129 I0 K-0.159
N1532 G3 X196 Z-1.145 I-0.07 K0.143
N1533 G1 X186.44 Z-1.062
N1534 X176.051 Z-1
N1535 X167.181 Z-0.972
N1536 X165.907 Z-0.976
N1537 X165.661 Z-1.003
N1538 X165.558 Z-1.041
N1539 X165.527 Z-1.077
N1540 X165.524 Z-2.5
N1541 X164.699
N1542 X164.695 Z0
N1543 X90.524
N1544 Z-2.5
N1545 X89.699
N1546 X89.697 Z-1.476
N1547 X89.619 Z-1.445
N1548 X89.357 Z-1.388
N1549 X88.951 Z-1.33
N1550 X88.516 Z-1.296
N1551 X88.069 Z-1.286
N1552 X75.973 Z-1.209
N1553 X64 Z-1.096
N1554 G3 X63.932 Z-1.079 I0.002 K0.159
N1555 G2 X63.862 Z-1.063 I-0.07 K-0.143
N1556 G1 X63.82 Y51.625
N1557 X63.779 Y51.63 Z-1.064
N1558 X63.739 Y51.639 Z-1.065
N1559 X63.699 Y51.652 Z-1.066
N1560 X63.661 Y51.668 Z-1.068
N1561 X63.624 Y51.687 Z-1.069
N1562 X63.589 Y51.709 Z-1.071
N1563 X63.556 Y51.734 Z-1.074
N1564 X63.525 Y51.762 Z-1.077
N1565 X63.497 Y51.792 Z-1.079
N1566 X63.472 Y51.825 Z-1.083
N1567 X63.449 Y51.86 Z-1.086
N1568 X63.43 Y51.897 Z-1.089
N1569 X63.414 Y51.935 Z-1.093
N1570 X63.402 Y51.975 Z-1.097
N1571 X63.393 Y52.015 Z-1.101
N1572 X63.387 Y52.056 Z-1.105
N1573 X63.386 Y52.097 Z-1.109
N1574 Y52.736 Z-1.17
N1575 X63.387 Y52.778 Z-1.174
N1576 X63.393 Y52.819 Z-1.178
N1577 X63.402 Y52.859 Z-1.181
N1578 X63.414 Y52.898 Z-1.185
N1579 X63.43 Y52.937 Z-1.189
N1580 X63.449 Y52.973 Z-1.192
N1581 X63.472 Y53.008 Z-1.196
N1582 X63.497 Y53.041 Z-1.199
N1583 X63.525 Y53.071 Z-1.202
N1584 X63.556 Y53.099 Z-1.204
N1585 X63.589 Y53.125 Z-1.207
N1586 X63.624 Y53.147 Z-1.209
N1587 X63.661 Y53.166 Z-1.211
N1588 X63.699 Y53.182 Z-1.212
N1589 X63.739 Y53.194 Z-1.213
N1590 X63.779 Y53.203 Z-1.214
N1591 X63.82 Y53.208 Z-1.215
N1592 X63.862 Y53.21
N1593 G3 X63.932 Z-1.231 I0 K-0.159
N1594 G2 X64 Z-1.247 I0.07 K0.143
N1595 G1 X71.921 Z-1.352
N1596 X88.146 Z-1.359
N1597 X88.694 Z-1.371
N1598 X89.25 Z-1.408
N1599 X89.604 Z-1.453
N1600 X89.696 Z-1.478
N1601 X89.699 Z-2.5
N1602 X90.524
N1603 Z0
N1604 X164.695
N1605 X164.699 Z-2.5
N1606 X165.524
N1607 X165.527 Z-0.976
N1608 X166.894 Z-0.972
N1609 X173.954 Z-0.988
N1610 X184.489 Z-1.043
N1611 X196 Z-1.133
N1612 G2 X196.071 Z-1.117 I0.001 K0.159
N1613 G3 X196.141 Z-1.101 I0.07 K-0.143
N1614 G1 X196.152
N1615 G17 G3 X196.629 Y53.687 I0 J0.476
N1616 G1 Y54.321
N1617 G3 X196.152 Y54.797 I-0.476 J0
N1618 G18 G2 X196.082 Z-1.117 I0 K-0.159
N1619 G1 X196.071 Z-1.122
N1620 G3 X196 Z-1.139 I-0.07 K0.143
N1621 G1 X183.318 Z-1.046
N1622 X172.003 Z-0.993
N1623 X166.735 Z-0.982
N1624 X166.25 Z-0.998
N1625 X165.934 Z-1.029
N1626 X165.742 Z-1.073
N1627 X165.635 Z-1.119
N1628 X165.569 Z-1.168
N1629 X165.534 Z-1.223
N1630 X165.524 Z-1.269
N1631 Z-2.5
N1632 X164.699
N1633 X164.695 Z0
N1634 X90.524
N1635 Z-2.5
N1636 X89.699
N1637 X89.697 Z-1.349
N1638 X89.656 Z-1.315
N1639 X89.515 Z-1.266
N1640 X89.268 Z-1.22
N1641 X88.856 Z-1.178
N1642 X88.284 Z-1.156
N1643 X74.557 Z-1.107
N1644 X64 Z-1.091
N1645 G3 X63.841 Z-0.933 I0 K0.159
N1646 G1 Z-0.781
N1647 Y54.805 Z-0.731
N1648 Y54.828 Z-0.687
N1649 Y54.863 Z-0.652
N1650 Y54.907 Z-0.63
N1651 Y54.956 Z-0.622
N1652 Y56.226
N1653 Y56.275 Z-0.63
N1654 Y56.319 Z-0.652
N1655 Y56.354 Z-0.687
N1656 Y56.377 Z-0.731
N1657 Y56.385 Z-0.781
N1658 G2 X64 Z-0.939 I0.159 K0
N1659 G1 X64.644
N1660 X76.141 Z-1
N1661 X87.847 Z-1.052
N1662 X89.249 Z-1.063
N1663 X89.532 Z-1.084
N1664 X89.665 Z-1.118
N1665 X89.696 Z-1.144
N1666 X89.699 Z-2.5
N1667 X90.524
N1668 Z0
N1669 X164.695
N1670 X164.699 Z-2.5
N1671 X165.524
N1672 Z-1.645
N1673 X165.533 Z-1.623
N1674 X165.599 Z-1.568
N1675 X165.751 Z-1.489
N1676 X165.944 Z-1.418
N1677 X166.238 Z-1.347
N1678 X166.569 Z-1.298
N1679 X166.93 Z-1.274
N1680 X183.318 Z-1.217
N1681 X196 Z-1.197
N1682 G2 X196.07 Z-1.181 I0 K0.159
N1683 G3 X196.139 Z-1.165 I0.07 K-0.143
N1684 G1 X196.181 Y56.386
N1685 X196.222 Y56.392 Z-1.166
N1686 X196.263 Y56.401
N1687 X196.302 Y56.413 Z-1.168
N1688 X196.341 Y56.429 Z-1.169
N1689 X196.378 Y56.448 Z-1.171
N1690 X196.413 Y56.47 Z-1.173
N1691 X196.446 Y56.496 Z-1.176
N1692 X196.476 Y56.523 Z-1.179
N1693 X196.504 Y56.554 Z-1.182
N1694 X196.53 Y56.587 Z-1.185
N1695 X196.552 Y56.622 Z-1.188
N1696 X196.571 Y56.658 Z-1.192
N1697 X196.587 Y56.696 Z-1.196
N1698 X196.6 Y56.736 Z-1.199
N1699 X196.608 Y56.776 Z-1.203
N1700 X196.614 Y56.817 Z-1.208
N1701 X196.616 Y56.859 Z-1.212
N1702 Y57.498 Z-1.275
N1703 X196.614 Y57.539 Z-1.279
N1704 X196.608 Y57.58 Z-1.283
N1705 X196.6 Y57.621 Z-1.287
N1706 X196.587 Y57.66 Z-1.291
N1707 X196.571 Y57.698 Z-1.295
N1708 X196.552 Y57.735 Z-1.298
N1709 X196.53 Y57.77 Z-1.302
N1710 X196.504 Y57.803 Z-1.305
N1711 X196.476 Y57.833 Z-1.308
N1712 X196.446 Y57.861 Z-1.311
N1713 X196.413 Y57.886 Z-1.313
N1714 X196.378 Y57.908 Z-1.315
N1715 X196.341 Y57.927 Z-1.317
N1716 X196.302 Y57.943 Z-1.319
N1717 X196.263 Y57.956 Z-1.32
N1718 X196.222 Y57.965 Z-1.321
N1719 X196.181 Y57.97
N1720 X196.139 Y57.972 Z-1.322
N1721 X196.138
N1722 G2 X196.068 Z-1.338 I0 K-0.159
N1723 G3 X196 Z-1.354 I-0.07 K0.143
N1724 G1 X181.175 Z-1.535
N1725 X178.696 Z-1.558
N1726 X166.819 Z-1.497
N1727 X166.144 Z-1.51
N1728 X165.769 Z-1.534
N1729 X165.593 Z-1.566
N1730 X165.532 Z-1.595
N1731 X165.524 Z-1.61
N1732 X165.523 Z-2.5
N1733 X164.699
N1734 X164.695 Z0
N1735 X90.524
N1736 Z-2.5
N1737 X89.699
N1738 X89.698 Z-1.055
N1739 X79.457 Z-1.016
N1740 X64.891 Z-0.939
N1741 X64
N1742 G3 X63.841 Z-0.781 I0 K0.159
N1743 G1 Y57.98 Z-0.731
N1744 Y58.002 Z-0.687
N1745 Y58.037 Z-0.652
N1746 Y58.082 Z-0.63
N1747 Y58.131 Z-0.622
N1748 Y59.4
N1749 Y59.449 Z-0.63
N1750 Y59.494 Z-0.652
N1751 Y59.529 Z-0.687
N1752 Y59.551 Z-0.731
N1753 Y59.559 Z-0.781
N1754 Z-0.903
N1755 G2 X64 Z-1.062 I0.159 K0
N1756 G1 X68.257 Z-1.056
N1757 X83.659 Z-1.05
N1758 X88.331 Z-1.033
N1759 X89.231 Z-1.048
N1760 X89.698 Z-1.075
N1761 X89.699 Z-2.5
N1762 X90.524
N1763 Z0
N1764 X164.699
N1765 Z-2.5
N1766 X165.524
N1767 Z-1.496
N1768 X165.552 Z-1.489
N1769 X169.582 Z-1.491
N1770 X189.147 Z-1.586
N1771 X196 Z-1.515
N1772 G2 X196.068 Z-1.499 I-0.002 K0.159
N1773 G3 X196.138 Z-1.482 I0.07 K-0.143
N1774 G1 X196.14
N1775 X196.181 Y59.561
N1776 X196.222 Y59.566 Z-1.483
N1777 X196.263 Y59.575
N1778 X196.303 Y59.588 Z-1.484
N1779 X196.341 Y59.604
N1780 X196.378 Y59.623 Z-1.485
N1781 X196.413 Y59.645 Z-1.486
N1782 X196.446 Y59.67 Z-1.487
N1783 X196.477 Y59.698 Z-1.489
N1784 X196.505 Y59.729 Z-1.49
N1785 X196.53 Y59.762 Z-1.492
N1786 X196.552 Y59.797 Z-1.493
N1787 X196.571 Y59.834 Z-1.495
N1788 X196.587 Y59.872 Z-1.497
N1789 X196.6 Y59.912 Z-1.499
N1790 X196.609 Y59.952 Z-1.5
N1791 X196.614 Y59.993 Z-1.502
N1792 X196.616 Y60.035 Z-1.504
N1793 Y60.67 Z-1.534
N1794 X196.614 Y60.712 Z-1.536
N1795 X196.609 Y60.753 Z-1.537
N1796 X196.6 Y60.794 Z-1.539
N1797 X196.587 Y60.833 Z-1.541
N1798 X196.571 Y60.871 Z-1.543
N1799 X196.552 Y60.908 Z-1.545
N1800 X196.53 Y60.943 Z-1.546
N1801 X196.505 Y60.976 Z-1.548
N1802 X196.477 Y61.007 Z-1.549
N1803 X196.446 Y61.035 Z-1.55
N1804 X196.413 Y61.06 Z-1.552
N1805 X196.378 Y61.082 Z-1.553
N1806 X196.341 Y61.102
N1807 X196.303 Y61.117 Z-1.554
N1808 X196.263 Y61.13 Z-1.555
N1809 X196.222 Y61.139
N1810 X196.181 Y61.144
N1811 X196.14 Y61.146 Z-1.556
N1812 G2 X196.07 Z-1.572 I0 K-0.159
N1813 G3 X196 Z-1.588 I-0.07 K0.143
N1814 G1 X189.039 Z-1.586
N1815 X167.78 Z-1.486
N1816 X165.612 Z-1.491
N1817 X165.525 Z-1.503
N1818 X165.522 Z-2.5
N1819 X164.699
N1820 X164.695 Z0
N1821 X90.524
N1822 Z-2.5
N1823 X89.699
N1824 X89.697 Z-1.031
N1825 X89.558 Z-1.024
N1826 X64.715 Z-1.048
N1827 X64 Z-1.05
N1828 G3 X63.93 Z-1.033 I0 K0.159
N1829 G1 X63.926 Z-1.032
N1830 G2 X63.857 Z-1.016 I-0.07 K-0.143
N1831 G17 G2 X63.38 Y61.622 I0 J0.476
N1832 G1 Y62.257
N1833 G2 X63.857 Y62.733 I0.476 J0
N1834 G1 X63.86
N1835 G18 G3 X63.93 Z-1.032 I0 K-0.159
N1836 G2 X64 Z-1.048 I0.07 K0.143
N1837 G1 X89.187 Z-1.024
N1838 X89.619 Z-1.03
N1839 X89.695 Z-1.045
N1840 X89.699 Z-2.5
N1841 X90.524
N1842 Z0
N1843 X164.695
N1844 X164.699 Z-2.5
N1845 X165.524
N1846 Z-1.585
N1847 X165.534 Z-1.576
N1848 X165.645 Z-1.552
N1849 X166.01 Z-1.524
N1850 X166.762 Z-1.507
N1851 X184.419 Z-1.573
N1852 X196 Z-1.49
N1853 G2 X196.069 Z-1.474 I-0.001 K0.159
N1854 G3 X196.139 Z-1.458 I0.07 K-0.143
N1855 G1 X196.18 Y62.735
N1856 X196.221 Y62.741 Z-1.457
N1857 X196.262 Y62.749 Z-1.456
N1858 X196.301 Y62.762 Z-1.455
N1859 X196.34 Y62.778 Z-1.454
N1860 X196.377 Y62.797 Z-1.452
N1861 X196.412 Y62.819 Z-1.45
N1862 X196.445 Y62.844 Z-1.447
N1863 X196.475 Y62.872 Z-1.445
N1864 X196.503 Y62.903 Z-1.442
N1865 X196.529 Y62.936 Z-1.439
N1866 X196.551 Y62.97 Z-1.436
N1867 X196.57 Y63.007 Z-1.432
N1868 X196.586 Y63.045 Z-1.429
N1869 X196.599 Y63.085 Z-1.425
N1870 X196.608 Y63.125 Z-1.421
N1871 X196.613 Y63.166 Z-1.417
N1872 X196.615 Y63.208 Z-1.414
N1873 Y63.846 Z-1.354
N1874 X196.613 Y63.888 Z-1.35
N1875 X196.608 Y63.929 Z-1.346
N1876 X196.599 Y63.969 Z-1.343
N1877 X196.586 Y64.008 Z-1.339
N1878 X196.57 Y64.047 Z-1.335
N1879 X196.551 Y64.083 Z-1.332
N1880 X196.529 Y64.118 Z-1.329
N1881 X196.503 Y64.151 Z-1.326
N1882 X196.475 Y64.182 Z-1.323
N1883 X196.445 Y64.21 Z-1.32
N1884 X196.412 Y64.235 Z-1.318
N1885 X196.377 Y64.257 Z-1.316
N1886 X196.34 Y64.276 Z-1.314
N1887 X196.301 Y64.292 Z-1.313
N1888 X196.262 Y64.304 Z-1.311
N1889 X196.221 Y64.313
N1890 X196.18 Y64.319 Z-1.31
N1891 X196.139 Y64.32
N1892 X196.138
N1893 G2 X196.068 Z-1.326 I0 K-0.159
N1894 G3 X196 Z-1.342 I-0.07 K0.143
N1895 G1 X181.368 Z-1.479
N1896 X167.906 Z-1.565
N1897 X166.664 Z-1.576
N1898 X165.736 Z-1.624
N1899 X165.524 Z-1.643
N1900 Z-2.5
N1901 X164.699
N1902 X164.695 Z0
N1903 X90.524
N1904 Z-2.5
N1905 X89.699
N1906 X89.696 Z-1.168
N1907 X89.653 Z-1.14
N1908 X89.527 Z-1.11
N1909 X89.245 Z-1.079
N1910 X88.61 Z-1.054
N1911 X77.306 Z-1.039
N1912 X64 Z-1.053
N1913 G3 X63.93 Z-1.036 I0 K0.159
N1914 G2 X63.86 Z-1.02 I-0.07 K-0.143
N1915 G1 X63.819 Y64.322
N1916 X63.777 Y64.328 Z-1.021
N1917 X63.737 Y64.337
N1918 X63.697 Y64.349 Z-1.022
N1919 X63.659 Y64.365 Z-1.023
N1920 X63.622 Y64.384 Z-1.024
N1921 X63.587 Y64.406 Z-1.025
N1922 X63.554 Y64.432 Z-1.027
N1923 X63.523 Y64.46 Z-1.029
N1924 X63.495 Y64.49 Z-1.031
N1925 X63.47 Y64.523 Z-1.033
N1926 X63.448 Y64.558 Z-1.035
N1927 X63.428 Y64.595 Z-1.037
N1928 X63.413 Y64.633 Z-1.039
N1929 X63.4 Y64.673 Z-1.042
N1930 X63.391 Y64.713 Z-1.044
N1931 X63.386 Y64.754 Z-1.047
N1932 X63.384 Y64.796 Z-1.049
N1933 Y65.432 Z-1.088
N1934 X63.386 Y65.474 Z-1.091
N1935 X63.391 Y65.515 Z-1.093
N1936 X63.4 Y65.555 Z-1.096
N1937 X63.413 Y65.595 Z-1.098
N1938 X63.428 Y65.633 Z-1.1
N1939 X63.448 Y65.67 Z-1.103
N1940 X63.47 Y65.705 Z-1.105
N1941 X63.495 Y65.738 Z-1.107
N1942 X63.523 Y65.768 Z-1.109
N1943 X63.554 Y65.796 Z-1.11
N1944 X63.587 Y65.822 Z-1.112
N1945 X63.622 Y65.844 Z-1.113
N1946 X63.659 Y65.863 Z-1.115
N1947 X63.697 Y65.879 Z-1.116
N1948 X63.737 Y65.891
N1949 X63.777 Y65.9 Z-1.117
N1950 X63.819 Y65.906
N1951 X63.86 Y65.908
N1952 G3 X63.93 Z-1.133 I0 K-0.159
N1953 G2 X64 Z-1.15 I0.07 K0.143
N1954 G1 X73.57 Z-1.147
N1955 X88.008 Z-1.175
N1956 X88.676 Z-1.187
N1957 X89.214 Z-1.221
N1958 X89.504 Z-1.26
N1959 X89.653 Z-1.3
N1960 X89.696 Z-1.328
N1961 X89.699 Z-2.5
N1962 X90.524
N1963 Z0
N1964 X164.695
N1965 X164.699 Z-2.5
N1966 X165.523
N1967 X165.524 Z-1.568
N1968 X165.539 Z-1.543
N1969 X165.618 Z-1.497
N1970 X165.809 Z-1.433
N1971 X166.1 Z-1.368
N1972 X166.482 Z-1.316
N1973 X166.905 Z-1.29
N1974 X196 Z-1.199
N1975 G2 X196.069 Z-1.182 I-0.001 K0.159
N1976 G3 X196.139 Z-1.166 I0.07 K-0.143
N1977 G1 X196.141
N1978 X196.182 Y65.909
N1979 X196.223 Y65.915
N1980 X196.264 Y65.924 Z-1.165
N1981 X196.304 Y65.936
N1982 X196.342 Y65.952 Z-1.164
N1983 X196.379 Y65.971 Z-1.163
N1984 X196.414 Y65.994 Z-1.162
N1985 X196.447 Y66.019 Z-1.161
N1986 X196.477 Y66.047 Z-1.16
N1987 X196.505 Y66.078 Z-1.158
N1988 X196.531 Y66.111 Z-1.157
N1989 X196.553 Y66.146 Z-1.155
N1990 X196.572 Y66.182 Z-1.153
N1991 X196.588 Y66.221 Z-1.152
N1992 X196.601 Y66.26 Z-1.15
N1993 X196.61 Y66.301 Z-1.148
N1994 X196.615 Y66.342 Z-1.146
N1995 X196.617 Y66.383 Z-1.144
N1996 Y67.019 Z-1.114
N1997 X196.615 Y67.061 Z-1.112
N1998 X196.61 Y67.102 Z-1.111
N1999 X196.601 Y67.142 Z-1.109
N2000 X196.588 Y67.182 Z-1.107
N2001 X196.572 Y67.22 Z-1.105
N2002 X196.553 Y67.257 Z-1.103
N2003 X196.531 Y67.292 Z-1.102
N2004 X196.505 Y67.325 Z-1.1
N2005 X196.477 Y67.356 Z-1.099
N2006 X196.447 Y67.384 Z-1.097
N2007 X196.414 Y67.409 Z-1.096
N2008 X196.379 Y67.431 Z-1.095
N2009 X196.342 Y67.45 Z-1.094
N2010 X196.304 Y67.466
N2011 X196.264 Y67.479 Z-1.093
N2012 X196.223 Y67.488
N2013 X196.182 Y67.493 Z-1.092
N2014 X196.141 Y67.495
N2015 G2 X196.071 Z-1.108 I0 K-0.159
N2016 G3 X196 Z-1.125 I-0.07 K0.143
N2017 G1 X182.148 Z-1.047
N2018 X170.247 Z-1.006
N2019 X166.735
N2020 X166.245 Z-1.029
N2021 X165.928 Z-1.068
N2022 X165.744 Z-1.112
N2023 X165.624 Z-1.163
N2024 X165.555 Z-1.217
N2025 X165.527 Z-1.267
N2026 X165.524 Z-2.5
N2027 X164.699
N2028 X164.695 Z0
N2029 X90.524
N2030 Z-2.5
N2031 X89.699
N2032 X89.697 Z-1.458
N2033 X89.619 Z-1.432
N2034 X89.387 Z-1.397
N2035 X88.935 Z-1.36
N2036 X88.304 Z-1.34
N2037 X66.044 Z-1.294
N2038 X64 Z-1.291
N2039 G3 X63.93 Z-1.275 I0 K0.159
N2040 G2 X63.861 Z-1.259 I-0.07 K-0.143
N2041 G1 X63.819 Y67.497 Z-1.258
N2042 X63.778 Y67.502
N2043 X63.737 Y67.511 Z-1.257
N2044 X63.698 Y67.523 Z-1.256
N2045 X63.659 Y67.539 Z-1.255
N2046 X63.622 Y67.558 Z-1.253
N2047 X63.587 Y67.581 Z-1.251
N2048 X63.554 Y67.606 Z-1.249
N2049 X63.524 Y67.634 Z-1.246
N2050 X63.496 Y67.664 Z-1.243
N2051 X63.47 Y67.697 Z-1.24
N2052 X63.448 Y67.732 Z-1.237
N2053 X63.429 Y67.769 Z-1.234
N2054 X63.413 Y67.807 Z-1.23
N2055 X63.401 Y67.846 Z-1.227
N2056 X63.392 Y67.887 Z-1.223
N2057 X63.386 Y67.928 Z-1.219
N2058 X63.384 Y67.969 Z-1.216
N2059 Y68.608 Z-1.158
N2060 X63.386 Y68.649 Z-1.154
N2061 X63.392 Y68.69 Z-1.15
N2062 X63.401 Y68.73 Z-1.147
N2063 X63.413 Y68.77 Z-1.143
N2064 X63.429 Y68.808 Z-1.139
N2065 X63.448 Y68.845 Z-1.136
N2066 X63.47 Y68.88 Z-1.133
N2067 X63.496 Y68.913 Z-1.13
N2068 X63.524 Y68.943 Z-1.127
N2069 X63.554 Y68.971 Z-1.125
N2070 X63.587 Y68.996 Z-1.122
N2071 X63.622 Y69.018 Z-1.12
N2072 X63.659 Y69.038 Z-1.119
N2073 X63.698 Y69.053 Z-1.117
N2074 X63.737 Y69.066 Z-1.116
N2075 X63.778 Y69.075 Z-1.115
N2076 X63.819 Y69.08
N2077 X63.861 Y69.082
N2078 X63.863
N2079 G3 X63.933 Z-1.131 I0 K-0.159
N2080 G2 X64 Z-1.147 I0.07 K0.143
N2081 G1 X70.791 Z-1.249
N2082 X79.57 Z-1.347
N2083 X88.74 Z-1.409
N2084 X89.188 Z-1.424
N2085 X89.514 Z-1.457
N2086 X89.697 Z-1.494
N2087 X89.699 Z-2.5
N2088 X90.95
N2089 Z0
N2090 X164.274
N2091 Z-2.5
N2092 X165.524
N2093 Z-1.002
N2094 X165.529 Z-0.991
N2095 X165.569 Z-0.975
N2096 X171.417 Z-0.98
N2097 X183.318 Z-1.03
N2098 X196 Z-1.115
N2099 G2 X196.071 Z-1.099 I0.001 K0.159
N2100 G3 X196.141 Z-1.083 I0.07 K-0.143
N2101 G1 X196.15
N2102 G17 G3 X196.626 Y69.558 I0 J0.476
N2103 G1 Y70.193
N2104 G3 X196.15 Y70.669 I-0.476 J0
N2105 G18 G2 X196.08 Z-1.099 I0 K-0.159
N2106 G1 X196.071 Z-1.103
N2107 G3 X196 Z-1.119 I-0.07 K0.143
N2108 G1 X184.684 Z-1.039
N2109 X173.368 Z-0.987
N2110 X165.77 Z-0.973
N2111 X165.386 Z-0.985
N2112 X165.036 Z-1.025
N2113 X164.374 Z-1.132
N2114 X163.985 Z-1.165
N2115 X163.611 Z-1.172
N2116 X141.175 Z-1.137
N2117 X130.116 Z-1.151
N2118 X119.19 Z-1.202
N2119 X104.753 Z-1.261
N2120 X97.392 Z-1.258
N2121 X87.247 Z-1.206
N2122 X76.907 Z-1.113
N2123 X64 Z-0.952
N2124 G3 X63.932 Z-0.935 I0.002 K0.159
N2125 G2 X63.862 Z-0.919 I-0.07 K-0.143
N2126 G1 X63.86
N2127 X63.819 Y70.671
N2128 X63.778 Y70.676
N2129 X63.737 Y70.685
N2130 X63.697 Y70.698 Z-0.918
N2131 X63.659 Y70.714 Z-0.917
N2132 X63.622 Y70.733
N2133 X63.587 Y70.755 Z-0.916
N2134 X63.554 Y70.781 Z-0.915
N2135 X63.524 Y70.809 Z-0.913
N2136 X63.495 Y70.839 Z-0.912
N2137 X63.47 Y70.872 Z-0.911
N2138 X63.448 Y70.907 Z-0.909
N2139 X63.429 Y70.944 Z-0.908
N2140 X63.413 Y70.982 Z-0.906
N2141 X63.4 Y71.022 Z-0.905
N2142 X63.391 Y71.062 Z-0.903
N2143 X63.386 Y71.104 Z-0.901
N2144 X63.384 Y71.145 Z-0.9
N2145 Y71.781 Z-0.873
N2146 X63.386 Y71.822 Z-0.872
N2147 X63.391 Y71.863 Z-0.87
N2148 X63.4 Y71.904 Z-0.868
N2149 X63.413 Y71.943 Z-0.867
N2150 X63.429 Y71.982 Z-0.865
N2151 X63.448 Y72.018 Z-0.863
N2152 X63.47 Y72.053 Z-0.862
N2153 X63.495 Y72.086 Z-0.861
N2154 X63.524 Y72.117 Z-0.859
N2155 X63.554 Y72.145 Z-0.858
N2156 X63.587 Y72.17 Z-0.857
N2157 X63.622 Y72.193 Z-0.856
N2158 X63.659 Y72.212 Z-0.855
N2159 X63.697 Y72.228
N2160 X63.737 Y72.24 Z-0.854
N2161 X63.778 Y72.249
N2162 X63.819 Y72.255
N2163 X63.86 Y72.256
N2164 G3 X63.93 Z-0.87 I0 K-0.159
N2165 G2 X64 Z-0.886 I0.07 K0.143
N2166 G1 X64.418
N2167 X119.952 Z-1.191
N2168 X130.231 Z-1.149
N2169 X141.547 Z-1.137
N2170 X163.108 Z-1.169
N2171 X163.664 Z-1.155
N2172 X165.502 Z-1.047
N2173 X166.345 Z-1.019
N2174 X172.588 Z-1.034
N2175 X185.074 Z-1.093
N2176 X196 Z-1.172
N2177 G2 X196.071 Z-1.156 I0.001 K0.159
N2178 G3 X196.141 Z-1.139 I0.07 K-0.143
N2179 G1 X196.182 Y72.258
N2180 X196.224 Y72.264 Z-1.14
N2181 X196.264 Y72.273 Z-1.141
N2182 X196.304 Y72.285 Z-1.142
N2183 X196.342 Y72.301 Z-1.143
N2184 X196.379 Y72.32 Z-1.145
N2185 X196.414 Y72.342 Z-1.147
N2186 X196.447 Y72.367 Z-1.149
N2187 X196.478 Y72.395 Z-1.151
N2188 X196.506 Y72.426 Z-1.154
N2189 X196.531 Y72.459 Z-1.156
N2190 X196.553 Y72.494 Z-1.159
N2191 X196.572 Y72.53 Z-1.162
N2192 X196.588 Y72.569 Z-1.166
N2193 X196.601 Y72.608 Z-1.169
N2194 X196.61 Y72.649 Z-1.172
N2195 X196.615 Y72.69 Z-1.176
N2196 X196.617 Y72.731 Z-1.179
N2197 Y73.369 Z-1.233
N2198 X196.615 Y73.41 Z-1.236
N2199 X196.61 Y73.451 Z-1.24
N2200 X196.601 Y73.492 Z-1.243
N2201 X196.588 Y73.531 Z-1.246
N2202 X196.572 Y73.57 Z-1.25
N2203 X196.553 Y73.606 Z-1.253
N2204 X196.531 Y73.641 Z-1.256
N2205 X196.506 Y73.674 Z-1.258
N2206 X196.478 Y73.705 Z-1.261
N2207 X196.447 Y73.733 Z-1.263
N2208 X196.414 Y73.758 Z-1.265
N2209 X196.379 Y73.78 Z-1.267
N2210 X196.342 Y73.799 Z-1.269
N2211 X196.304 Y73.815 Z-1.27
N2212 X196.264 Y73.827 Z-1.271
N2213 X196.224 Y73.836 Z-1.272
N2214 X196.182 Y73.842
N2215 X196.141 Y73.844 Z-1.273
N2216 X196.14
N2217 G2 X196.07 Z-1.289 I0 K-0.159
N2218 G3 X196 Z-1.305 I-0.07 K0.143
N2219 G1 X172.978 Z-1.233
N2220 X140.006 Z-1.165
N2221 X128.105 Z-1.174
N2222 X123.201 Z-1.183
N2223 X109.007 Z-1.054
N2224 X100.179 Z-0.998
N2225 X81.644 Z-0.944
N2226 X68.573 Z-0.901
N2227 X64.376 Z-0.886
N2228 X64
N2229 G3 X63.93 Z-0.87 I0 K0.159
N2230 G2 X63.86 Z-0.854 I-0.07 K-0.143
N2231 G1 X63.856
N2232 G17 G2 X63.38 Y74.32 I0 J0.476
N2233 G1 Y74.954
N2234 G2 X63.856 Y75.431 I0.476 J0
N2235 G18 G3 X63.926 Z-0.87 I0 K-0.159
N2236 G1 X63.931 Z-0.872
N2237 G2 X64 Z-0.888 I0.07 K0.143
N2238 G1 X68.218 Z-0.904
N2239 X98.263 Z-0.988
N2240 X106.653 Z-1.031
N2241 X120.31 Z-1.139
N2242 X127.04 Z-1.187
N2243 X139.486 Z-1.188
N2244 X152.947 Z-1.224
N2245 X168.165 Z-1.299
N2246 X190.212 Z-1.448
N2247 X196 Z-1.453
N2248 G2 X196.07 Z-1.437 I0 K0.159
N2249 G3 X196.14 Z-1.42 I0.07 K-0.143
N2250 G1 X196.141
N2251 X196.183 Y75.433
N2252 X196.224 Y75.438
N2253 X196.265 Y75.447 Z-1.419
N2254 X196.304 Y75.459 Z-1.418
N2255 X196.343 Y75.475 Z-1.417
N2256 X196.38 Y75.494 Z-1.416
N2257 X196.415 Y75.517 Z-1.414
N2258 X196.448 Y75.542 Z-1.412
N2259 X196.478 Y75.57 Z-1.41
N2260 X196.506 Y75.6 Z-1.408
N2261 X196.531 Y75.633 Z-1.406
N2262 X196.554 Y75.668 Z-1.403
N2263 X196.573 Y75.705 Z-1.401
N2264 X196.589 Y75.743 Z-1.398
N2265 X196.601 Y75.783 Z-1.395
N2266 X196.61 Y75.823 Z-1.392
N2267 X196.616 Y75.864 Z-1.389
N2268 X196.618 Y75.906 Z-1.386
N2269 Y76.543 Z-1.34
N2270 X196.616 Y76.584 Z-1.337
N2271 X196.61 Y76.625 Z-1.334
N2272 X196.601 Y76.666 Z-1.331
N2273 X196.589 Y76.705 Z-1.328
N2274 X196.573 Y76.744 Z-1.326
N2275 X196.554 Y76.78 Z-1.323
N2276 X196.531 Y76.815 Z-1.32
N2277 X196.506 Y76.848 Z-1.318
N2278 X196.478 Y76.879 Z-1.316
N2279 X196.448 Y76.907 Z-1.314
N2280 X196.415 Y76.932 Z-1.312
N2281 X196.38 Y76.954 Z-1.31
N2282 X196.343 Y76.973 Z-1.309
N2283 X196.304 Y76.989 Z-1.308
N2284 X196.265 Y77.002 Z-1.307
N2285 X196.224 Y77.011 Z-1.306
N2286 X196.183 Y77.016
N2287 X196.141 Y77.018
N2288 G2 X196.072 Z-1.322 I0 K-0.159
N2289 G3 X196 Z-1.338 I-0.07 K0.143
N2290 G1 X186.44 Z-1.239
N2291 X176.88 Z-1.168
N2292 X165.76 Z-1.117
N2293 X153.663 Z-1.096
N2294 X141.003 Z-1.106
N2295 X133.98 Z-1.142
N2296 X127.533 Z-1.187
N2297 X123.046 Z-1.163
N2298 X105.877 Z-1.034
N2299 X96.512 Z-0.992
N2300 X82.699 Z-0.971
N2301 X68.39 Z-0.987
N2302 X64 Z-1
N2303 G3 X63.93 Z-0.984 I0 K0.159
N2304 G2 X63.86 Z-0.967 I-0.07 K-0.143
N2305 G1 X63.818 Y77.02
N2306 X63.777 Y77.025 Z-0.968
N2307 X63.737 Y77.034
N2308 X63.697 Y77.047
N2309 X63.659 Y77.062
N2310 X63.622 Y77.082 Z-0.969
N2311 X63.587 Y77.104
N2312 X63.554 Y77.129 Z-0.97
N2313 X63.523 Y77.157 Z-0.971
N2314 X63.495 Y77.188
N2315 X63.47 Y77.221 Z-0.972
N2316 X63.447 Y77.256 Z-0.973
N2317 X63.428 Y77.293 Z-0.974
N2318 X63.412 Y77.331 Z-0.975
N2319 X63.4 Y77.371 Z-0.976
N2320 X63.391 Y77.411
N2321 X63.385 Y77.453 Z-0.977
N2322 X63.384 Y77.494 Z-0.978
N2323 Y78.129 Z-0.993
N2324 X63.385 Y78.17 Z-0.994
N2325 X63.391 Y78.212 Z-0.995
N2326 X63.4 Y78.252 Z-0.996
N2327 X63.412 Y78.292 Z-0.997
N2328 X63.428 Y78.33
N2329 X63.447 Y78.367 Z-0.998
N2330 X63.47 Y78.402 Z-0.999
N2331 X63.495 Y78.435 Z-1
N2332 X63.523 Y78.466 Z-1.001
N2333 X63.554 Y78.494
N2334 X63.587 Y78.519 Z-1.002
N2335 X63.622 Y78.541
N2336 X63.659 Y78.56 Z-1.003
N2337 X63.697 Y78.576
N2338 X63.737 Y78.589
N2339 X63.777 Y78.598 Z-1.004
N2340 X63.818 Y78.603
N2341 X63.86 Y78.605
N2342 X63.861
N2343 G3 X63.931 Z-1.02 I0 K-0.159
N2344 G2 X64 Z-1.036 I0.07 K0.143
N2345 G1 X67.286 Z-1.06
N2346 X95.38 Z-1.212
N2347 X106.818 Z-1.228
N2348 X127.123 Z-1.191
N2349 X137.073 Z-1.122
N2350 X143.901 Z-1.1
N2351 X159.516 Z-1.101
N2352 X171.613 Z-1.136
N2353 X182.928 Z-1.201
N2354 X196 Z-1.31
N2355 G2 X196.071 Z-1.294 I0.001 K0.159
N2356 G3 X196.141 Z-1.277 I0.07 K-0.143
N2357 G1 X196.151
N2358 G17 G3 X196.627 Y79.081 I0 J0.476
N2359 G1 Y79.716
N2360 G3 X196.151 Y80.192 I-0.476 J0
N2361 G18 G2 X196.081 Z-1.294 I0 K-0.159
N2362 G1 X196.071 Z-1.298
N2363 G3 X196 Z-1.314 I-0.07 K0.143
N2364 G1 X183.904 Z-1.216
N2365 X173.173 Z-1.157
N2366 X160.297 Z-1.132
N2367 X143.323 Z-1.152
N2368 X136.104 Z-1.185
N2369 X120.496 Z-1.299
N2370 X117.44 Z-1.301
N2371 X103.734 Z-1.25
N2372 X85.444 Z-1.149
N2373 X73.494 Z-1.063
N2374 X65.085 Z-0.981
N2375 X64
N2376 G3 X63.682 Z-0.663 I0 K0.317
N2377 G0 Z15
N2378 G17
N2379 M30
N2380 Z1
N2381 M5
