%
(1001)
(T1  D=3.175 CR=0 - ZMIN=-2.67 - flat end mill)
N0 G90
N1 G17
(2D Pocket1)
N2 T1 M6
(T1 1/8 End Mill)
N3 S19863 M3
N5 G0 X164.699 Y60.299
N6 Z15
N7 Z5
N8 G1 Z2.817 F457.2
N9 G19 G2 Y59.993 Z2.5 J-0.317 K0 F228.6
N10 G1 Y49 Z2.116
N11 G17 G2 X163.112 Y47.412 Z2.029 I-1.587 J0
N12 G1 X92.112 Z-0.45
N13 G2 X90.524 Y49 Z-0.537 I0 J1.588
N14 G1 Y68 Z-1.201
N15 G2 X91.107 Y69.229 Z-1.25 I1.588 J0
N16 X92.112 Y69.588 I1.005 J-1.229 F1016
N17 G1 X163.112
N18 G2 X164.699 Y68 I0 J-1.588
N19 G1 Y49
N20 G2 X163.112 Y47.412 I-1.587 J0
N21 G1 X92.112
N22 G2 X90.524 Y49 I0 J1.588
N23 G1 Y68
N24 G2 X91.107 Y69.229 I1.588 J0
N25 G3 X91.095 Y69.548 I-0.127 J0.155
N26 G1 X90.332 Y70.083
N27 G3 X90.078 Y70.063 I-0.115 J-0.164
N28 X89.699 Y69.17 I0.864 J-0.893
N29 G1 Y47.83
N30 G3 X90.942 Y46.588 I1.243 J0
N31 G1 X163.112
N32 X164.282
N33 G3 X165.525 Y47.83 I0 J1.243
N34 G1 Y69.17
N35 G3 X164.282 Y70.412 I-1.243 J0
N36 G1 X90.942
N37 G3 X90.078 Y70.063 I0 J-1.243
N38 X89.699 Y69.17 Z-1.285 I0.864 J-0.893 F228.6
N39 G1 Y47.83 Z-2.03
N40 G3 X90.942 Y46.588 Z-2.098 I1.243 J0
N41 G1 X102.449 Z-2.5
N42 X163.112 F1016
N43 X164.282
N44 G3 X165.525 Y47.83 I0 J1.243
N45 G1 Y69.17
N46 G3 X164.282 Y70.412 I-1.243 J0
N47 G1 X90.942
N48 G3 X89.699 Y69.17 I0 J-1.243
N49 G1 Y47.83
N50 G3 X90.942 Y46.588 I1.243 J0
N51 G1 X102.449
N52 G3 X102.493 Y46.855 I0 J0.137
N53 G1 X102.037 Y47
N54 X92.112
N55 G2 X91.173 Y47.071 I0 J6.233
N56 X90.388 Y47.591 I0.169 J1.108
N57 X90.342 Y47.675 I0.734 J0.452
N58 X90.305 Y47.763 I1.047 J0.494
N59 X90.17 Y48.376 I2.086 J0.781
N60 G3 X90.112 Y49 I-18.545 J-1.409
N61 G2 X89.852 Y58.5 I57.565 J6.33
N62 G3 X90.112 Y68 I-173.303 J9.5
N63 G2 X90.148 Y68.507 I3.62 J0
N64 X90.243 Y69.005 I5.15 J-0.728
N65 X90.413 Y69.126 I0.154 J-0.037
N66 G1 X90.867 Y69.082
N67 G3 X90.994 Y69.127 I0.015 J0.158
N68 G2 X92.112 Y69.588 I1.118 J-1.127
N69 G1 X163.112
N70 G2 X164.699 Y68 I0 J-1.588
N71 G1 Y49
N72 G2 X163.112 Y47.412 I-1.587 J0
N73 G1 X92.112
N74 G2 X90.524 Y49 I0 J1.588
N75 G1 Y68
N76 G2 X90.994 Y69.127 I1.588 J0
N77 G3 X91.062 Y69.227 Z-2.476 I-0.224 J0.225 F457.2
N78 X91.087 Y69.327 Z-2.407 I-0.292 J0.126
N79 X91.085 Y69.395 Z-2.304 I-0.316 J0.026
N80 X91.081 Y69.419 Z-2.183 I-0.315 J-0.042
N81 G0 Z15
N82 X107.7 Y33.588
N83 Z5
N84 G1 Z2.817 F457.2
N85 G18 G2 X108.007 Z2.5 I0.318 K0 F228.6
N86 G1 X151 Z0.999
N87 G17 G2 X152.587 Y32 Z0.912 I0 J-1.588
N88 G1 Y20 Z0.493
N89 G2 X151 Y18.413 Z0.405 I-1.587 J0
N90 G1 X105 Z-1.201
N91 G2 X103.771 Y18.995 Z-1.25 I0 J1.587
N92 X103.412 Y20 I1.229 J1.005 F1016
N93 G1 Y32
N94 G2 X105 Y33.588 I1.588 J0
N95 G1 X151
N96 G2 X152.587 Y32 I0 J-1.588
N97 G1 Y20
N98 G2 X151 Y18.413 I-1.587 J0
N99 G1 X105
N100 G2 X103.771 Y18.995 I0 J1.587
N101 G3 X103.452 Y18.983 I-0.155 J-0.127
N102 G1 X102.917 Y18.22
N103 G3 X102.937 Y17.966 I0.164 J-0.115
N104 X103.83 Y17.587 I0.893 J0.864
N105 G1 X152.17
N106 G3 X153.413 Y18.83 I0 J1.243
N107 G1 Y33.17
N108 G3 X152.17 Y34.412 I-1.243 J0
N109 G1 X103.83
N110 G3 X102.588 Y33.17 I0 J-1.243
N111 G1 Y18.83
N112 G3 X102.937 Y17.966 I1.243 J0
N113 X103.83 Y17.587 Z-1.285 I0.893 J0.864 F228.6
N114 G1 X138.629 Z-2.5
N115 X152.17 F1016
N116 G3 X153.413 Y18.83 I0 J1.243
N117 G1 Y33.17
N118 G3 X152.17 Y34.412 I-1.243 J0
N119 G1 X103.83
N120 G3 X102.588 Y33.17 I0 J-1.243
N121 G1 Y18.83
N122 G3 X103.83 Y17.587 I1.243 J0
N123 G1 X138.629
N124 G3 X138.745 Y17.651 I0 J0.138
N125 G1 X138.925 Y17.936
N126 G2 X139.041 Y18 I0.116 J-0.074
N127 X145.611 Y17.694 I0 J-70.764
N128 G3 X152.17 Y18.171 I1.853 J19.871
N129 X152.411 Y18.274 I-0.187 J0.772
N130 X152.613 Y18.443 I-0.561 J0.875
N131 X152.693 Y18.544 I-0.646 J0.598
N132 X152.76 Y18.655 I-0.851 J0.583
N133 X152.789 Y18.718 I-0.782 J0.402
N134 X152.814 Y18.782 I-1.079 J0.451
N135 X152.941 Y19.386 I-2.276 J0.797
N136 G2 X153 Y20 I21.123 J-1.702
N137 G3 X153.291 Y26.388 I-49.739 J5.47
N138 X152.926 Y32.771 I-82.222 J-1.509
N139 X152.903 Y32.88 I-0.52 J-0.05
N140 G2 X152.873 Y32.987 I1.49 J0.476
N141 G3 X152.799 Y33.087 I-0.154 J-0.037
N142 G1 X152.32 Y33.366
N143 G3 X152.128 Y33.118 I-0.08 J-0.137
N144 G2 X152.587 Y32 I-1.128 J-1.118
N145 G1 Y20
N146 G2 X151 Y18.413 I-1.587 J0
N147 G1 X105
N148 G2 X103.412 Y20 I0 J1.587
N149 G1 Y32
N150 G2 X105 Y33.588 I1.588 J0
N151 G1 X151
N152 G2 X152.128 Y33.118 I0 J-1.588
N153 G3 X152.227 Y33.049 Z-2.476 I0.225 J0.224 F457.2
N154 X152.327 Y33.025 Z-2.407 I0.126 J0.292
N155 X152.395 Y33.026 Z-2.304 I0.026 J0.316
N156 X152.419 Y33.031 Z-2.183 I-0.042 J0.315
N157 G0 Z15
(Face1)
N159 X202.064 Y1.374
N160 Z15
N161 Z5
N162 G1 Z-2.182 F457.2
N163 G18 G3 X201.746 Z-2.5 I-0.318 K0
N164 G1 X200
N165 X0 F1016
N166 G17 G2 Y4.306 I0 J1.466
N167 G1 X200
N168 G3 Y7.238 I0 J1.466
N169 G1 X196
N170 G2 Y10.169 I0 J1.466
N171 G1 X200
N172 G3 Y13.101 I0 J1.466
N173 G1 X196
N174 G2 Y16.033 I0 J1.466
N175 G1 X200
N176 G3 Y18.965 I0 J1.466
N177 G1 X196
N178 G2 Y21.896 I0 J1.466
N179 G1 X200
N180 G3 Y24.828 I0 J1.466
N181 G1 X196
N182 G2 Y27.76 I0 J1.466
N183 G1 X200
N184 G3 Y30.691 I0 J1.466
N185 G1 X196
N186 G2 Y33.623 I0 J1.466
N187 G1 X200
N188 G3 Y36.555 I0 J1.466
N189 G1 X196
N190 G2 Y39.486 I0 J1.466
N191 G1 X200
N192 G3 Y42.418 I0 J1.466
N193 G1 X196
N194 G2 Y45.35 I0 J1.466
N195 G1 X200
N196 G3 Y48.281 I0 J1.466
N197 G1 X196
N198 G2 Y51.213 I0 J1.466
N199 G1 X200
N200 G3 Y54.145 I0 J1.466
N201 G1 X196
N202 G2 Y57.076 I0 J1.466
N203 G1 X200
N204 G3 Y60.008 I0 J1.466
N205 G1 X196
N206 G2 Y62.94 I0 J1.466
N207 G1 X200
N208 G3 Y65.872 I0 J1.466
N209 G1 X196
N210 G2 Y68.803 I0 J1.466
N211 G1 X200
N212 G3 Y71.735 I0 J1.466
N213 G1 X196
N214 G2 Y74.667 I0 J1.466
N215 G1 X200
N216 G3 Y77.598 I0 J1.466
N217 G1 X196
N218 G18 G3 X195.682 Z-2.182 I0 K0.318 F457.2
N219 G0 Z5
N220 X66.064 Y7.238
N221 G1 Z-2.182 F457.2
N222 G3 X65.746 Z-2.5 I-0.318 K0
N223 G1 X64
N224 X60 F1016
N225 G17 G2 Y10.169 I0 J1.466
N226 G1 X64
N227 G3 Y13.101 I0 J1.466
N228 G1 X60
N229 G2 Y16.033 I0 J1.466
N230 G1 X64
N231 G3 Y18.965 I0 J1.466
N232 G1 X60
N233 G2 Y21.896 I0 J1.466
N234 G1 X64
N235 G3 Y24.828 I0 J1.466
N236 G1 X60
N237 G2 Y27.76 I0 J1.466
N238 G1 X64
N239 G3 Y30.691 I0 J1.466
N240 G1 X60
N241 G2 Y33.623 I0 J1.466
N242 G1 X64
N243 G3 Y36.555 I0 J1.466
N244 G1 X60
N245 G2 Y39.486 I0 J1.466
N246 G1 X64
N247 G3 Y42.418 I0 J1.466
N248 G1 X60
N249 G2 Y45.35 I0 J1.466
N250 G1 X64
N251 G3 Y48.281 I0 J1.466
N252 G1 X60
N253 G2 Y51.213 I0 J1.466
N254 G1 X64
N255 G3 Y54.145 I0 J1.466
N256 G1 X60
N257 G2 Y57.076 I0 J1.466
N258 G1 X64
N259 G3 Y60.008 I0 J1.466
N260 G1 X60
N261 G2 Y62.94 I0 J1.466
N262 G1 X64
N263 G3 Y65.872 I0 J1.466
N264 G1 X60
N265 G2 Y68.803 I0 J1.466
N266 G1 X64
N267 G3 Y71.735 I0 J1.466
N268 G1 X60
N269 G2 Y74.667 I0 J1.466
N270 G1 X64
N271 G3 Y77.598 I0 J1.466
N272 G1 X60
N273 G18 G3 X59.682 Z-2.182 I0 K0.318 F457.2
N274 G0 Z5
N275 X6.064 Y7.238
N276 G1 Z-2.182 F457.2
N277 G3 X5.746 Z-2.5 I-0.317 K0
N278 G1 X4
N279 X0 F1016
N280 G17 G2 Y10.169 I0 J1.466
N281 G1 X4
N282 G3 Y13.101 I0 J1.466
N283 G1 X0
N284 G2 Y16.033 I0 J1.466
N285 G1 X4
N286 G3 Y18.965 I0 J1.466
N287 G1 X0
N288 G2 Y21.896 I0 J1.466
N289 G1 X4
N290 G3 Y24.828 I0 J1.466
N291 G1 X0
N292 G2 Y27.76 I0 J1.466
N293 G1 X4
N294 G3 Y30.691 I0 J1.466
N295 G1 X0
N296 G2 Y33.623 I0 J1.466
N297 G1 X4
N298 G3 Y36.555 I0 J1.466
N299 G1 X0
N300 G2 Y39.486 I0 J1.466
N301 G1 X4
N302 G3 Y42.418 I0 J1.466
N303 G1 X0
N304 G2 Y45.35 I0 J1.466
N305 G1 X4
N306 G3 Y48.281 I0 J1.466
N307 G1 X0
N308 G2 Y51.213 I0 J1.466
N309 G1 X4
N310 G3 Y54.145 I0 J1.466
N311 G1 X0
N312 G2 Y57.076 I0 J1.466
N313 G1 X4
N314 G3 Y60.008 I0 J1.466
N315 G1 X0
N316 G2 Y62.94 I0 J1.466
N317 G1 X4
N318 G3 Y65.872 I0 J1.466
N319 G1 X0
N320 G2 Y68.803 I0 J1.466
N321 G1 X4
N322 G3 Y71.735 I0 J1.466
N323 G1 X0
N324 G2 Y74.667 I0 J1.466
N325 G1 X4
N326 G3 Y77.598 I0 J1.466
N327 G1 X0
N328 G2 Y80.53 I0 J1.466
N329 G1 X200
N330 G3 Y83.462 I0 J1.466
N331 G1 X0
N332 G18 G3 X-0.317 Z-2.182 I0 K0.318 F457.2
N333 G0 Z15
N334 G17
(2D Pocket5)
N335 G0 X29.935 Y27.094
N336 Z15
N337 Z5
N338 G1 Z2.817 F457.2
N339 G3 X29.918 Y27.082 Z2.703 I0.838 J-1.254 F228.6
N340 X29.868 Y27.046 Z2.604 I0.856 J-1.242
N341 X29.789 Y26.983 Z2.529 I0.905 J-1.206
N342 X29.699 Y26.899 Z2.5 I0.984 J-1.143
N343 X31.847 Y24.781 Z2.335 I1.074 J-1.059
N344 X29.699 Y26.899 Z2.169 I-1.074 J1.059
N345 X31.847 Y24.781 Z2.004 I1.074 J-1.059
N346 X29.699 Y26.899 Z1.838 I-1.074 J1.059
N347 X31.847 Y24.781 Z1.673 I1.074 J-1.059
N348 X29.699 Y26.899 Z1.507 I-1.074 J1.059
N349 X31.847 Y24.781 Z1.342 I1.074 J-1.059
N350 X29.699 Y26.899 Z1.176 I-1.074 J1.059
N351 X31.847 Y24.781 Z1.011 I1.074 J-1.059
N352 X29.699 Y26.899 Z0.845 I-1.074 J1.059
N353 X31.847 Y24.781 Z0.68 I1.074 J-1.059
N354 X29.699 Y26.899 Z0.515 I-1.074 J1.059
N355 X31.847 Y24.781 Z0.349 I1.074 J-1.059
N356 X29.699 Y26.899 Z0.184 I-1.074 J1.059
N357 X31.847 Y24.781 Z0.018 I1.074 J-1.059
N358 X29.699 Y26.899 Z-0.147 I-1.074 J1.059
N359 X31.847 Y24.781 Z-0.313 I1.074 J-1.059
N360 X29.699 Y26.899 Z-0.478 I-1.074 J1.059
N361 X31.847 Y24.781 Z-0.644 I1.074 J-1.059
N362 X29.699 Y26.899 Z-0.809 I-1.074 J1.059
N363 X31.847 Y24.781 Z-0.974 I1.074 J-1.059
N364 X29.699 Y26.899 Z-1.14 I-1.074 J1.059
N365 X31.847 Y24.781 Z-1.305 I1.074 J-1.059
N366 X29.699 Y26.899 Z-1.471 I-1.074 J1.059
N367 X31.847 Y24.781 Z-1.636 I1.074 J-1.059
N368 X29.699 Y26.899 Z-1.802 I-1.074 J1.059
N369 X31.847 Y24.781 Z-1.967 I1.074 J-1.059
N370 X29.699 Y26.899 Z-2.133 I-1.074 J1.059
N371 X31.847 Y24.781 Z-2.298 I1.074 J-1.059
N372 X29.699 Y26.899 Z-2.464 I-1.074 J1.059
N373 X31.847 Y24.781 Z-2.629 I1.074 J-1.059
N374 X32.281 Y25.84 Z-2.67 I-1.074 J1.059
N375 X31.619 I-0.331 J0 F1016
N376 X35.298 I1.839 J0
N377 X28.603 I-3.347 J0
N378 X38.314 I4.856 J0
N379 X25.586 I-6.364 J0
N380 X41.33 I7.872 J0
N381 X22.57 I-9.38 J0
N382 X44.346 I10.888 J0
N383 X19.554 I-12.396 J0
N384 X47.362 I13.904 J0
N385 X16.538 I-15.412 J0
N386 X47.362 I15.412 J0
N387 X47.34 Y25.959 Z-2.646 I-0.318 J0 F457.2
N388 X47.286 Y26.046 Z-2.577 I-0.295 J-0.119
N389 X47.236 Y26.093 Z-2.474 I-0.241 J-0.206
N390 X47.217 Y26.107 Z-2.353 I-0.191 J-0.253
N391 G0 Z15
(Parallel4)
N393 X196.317 Y4.008
N394 Z15
N395 Z0.843
N396 G1 Z-0.84 F457.2
N397 G18 G3 X196 Z-1.157 I-0.318 K0
N398 G1 X193.561 Z-1.163 F1016
N399 X178.831 Z-1.247
N400 X163.809 Z-1.302
N401 X148.591 Z-1.329
N402 X138.658 Z-1.325
N403 X125.001 Z-1.286
N404 X98.857 Z-1.182
N405 X64 Z-1.101
N406 G3 X63.931 Z-1.085 I0 K0.159
N407 G2 X63.861 Z-1.069 I-0.07 K-0.143
N408 G1 X63.858
N409 G17 G2 X63.382 Y4.484 I0 J0.476
N410 G1 Y5.119
N411 G2 X63.858 Y5.595 I0.476 J0
N412 G18 G3 X63.928 Z-1.085 I0 K-0.159
N413 G1 X63.931 Z-1.086
N414 G2 X64 Z-1.103 I0.07 K0.143
N415 G1 X88.153 Z-1.159
N416 X106.688 Z-1.217
N417 X130.88 Z-1.312
N418 X143.908 Z-1.333
N419 X161.662 Z-1.313
N420 X179.026 Z-1.255
N421 X196 Z-1.158
N422 G2 X196.069 Z-1.142 I-0.001 K0.159
N423 G3 X196.139 Z-1.126 I0.07 K-0.143
N424 G1 X196.18 Y5.597
N425 X196.222 Y5.602 Z-1.127
N426 X196.262 Y5.611 Z-1.128
N427 X196.302 Y5.624 Z-1.13
N428 X196.34 Y5.639 Z-1.133
N429 X196.377 Y5.658 Z-1.136
N430 X196.412 Y5.68 Z-1.139
N431 X196.445 Y5.705 Z-1.143
N432 X196.476 Y5.733 Z-1.147
N433 X196.504 Y5.763 Z-1.151
N434 X196.529 Y5.796 Z-1.156
N435 X196.551 Y5.831 Z-1.162
N436 X196.57 Y5.867 Z-1.167
N437 X196.586 Y5.905 Z-1.173
N438 X196.599 Y5.944 Z-1.179
N439 X196.608 Y5.984 Z-1.185
N440 X196.613 Y6.025 Z-1.191
N441 X196.615 Y6.066 Z-1.197
N442 Y6.711 Z-1.295
N443 X196.613 Y6.752 Z-1.301
N444 X196.608 Y6.793 Z-1.307
N445 X196.599 Y6.833 Z-1.313
N446 X196.586 Y6.872 Z-1.319
N447 X196.57 Y6.91 Z-1.325
N448 X196.551 Y6.947 Z-1.33
N449 X196.529 Y6.981 Z-1.335
N450 X196.504 Y7.014 Z-1.34
N451 X196.476 Y7.044 Z-1.345
N452 X196.445 Y7.072 Z-1.349
N453 X196.412 Y7.097 Z-1.353
N454 X196.377 Y7.119 Z-1.356
N455 X196.34 Y7.138 Z-1.359
N456 X196.302 Y7.154 Z-1.361
N457 X196.262 Y7.166 Z-1.363
N458 X196.222 Y7.175 Z-1.365
N459 X196.18 Y7.18
N460 X196.139 Y7.182 Z-1.366
N461 G2 X196.069 Z-1.382 I0 K-0.159
N462 G3 X196 Z-1.398 I-0.07 K0.143
N463 G1 X179.612 Z-1.495
N464 X162.833 Z-1.557
N465 X146.662 Z-1.576
N466 X135.346 Z-1.559
N467 X119.543 Z-1.483
N468 X102.765 Z-1.396
N469 X86.767 Z-1.358
N470 X64 Z-1.339
N471 G3 X63.93 Z-1.323 I0 K0.159
N472 G2 X63.86 Z-1.306 I-0.07 K-0.143
N473 G1 X63.859
N474 X63.818 Y7.184
N475 X63.777 Y7.19 Z-1.307
N476 X63.736 Y7.198
N477 X63.697 Y7.211 Z-1.308
N478 X63.658 Y7.227 Z-1.309
N479 X63.621 Y7.246 Z-1.31
N480 X63.586 Y7.268 Z-1.311
N481 X63.553 Y7.294 Z-1.312
N482 X63.523 Y7.322 Z-1.314
N483 X63.495 Y7.352 Z-1.316
N484 X63.469 Y7.385 Z-1.317
N485 X63.447 Y7.42 Z-1.319
N486 X63.428 Y7.457 Z-1.321
N487 X63.412 Y7.495 Z-1.323
N488 X63.399 Y7.535 Z-1.326
N489 X63.39 Y7.575 Z-1.328
N490 X63.385 Y7.616 Z-1.33
N491 X63.383 Y7.658 Z-1.332
N492 Y8.294 Z-1.367
N493 X63.385 Y8.335 Z-1.369
N494 X63.39 Y8.376 Z-1.371
N495 X63.399 Y8.417 Z-1.374
N496 X63.412 Y8.457 Z-1.376
N497 X63.428 Y8.495 Z-1.378
N498 X63.447 Y8.532 Z-1.38
N499 X63.469 Y8.567 Z-1.382
N500 X63.495 Y8.6 Z-1.383
N501 X63.523 Y8.63 Z-1.385
N502 X63.553 Y8.658 Z-1.387
N503 X63.586 Y8.683 Z-1.388
N504 X63.621 Y8.706 Z-1.389
N505 X63.658 Y8.725 Z-1.39
N506 X63.697 Y8.741 Z-1.391
N507 X63.736 Y8.753 Z-1.392
N508 X63.777 Y8.762
N509 X63.818 Y8.768 Z-1.393
N510 X63.859 Y8.769
N511 G3 X63.929 Z-1.409 I0 K-0.159
N512 G2 X64 Z-1.425 I0.07 K0.143
N513 G1 X72.817 Z-1.382
N514 X86.279 Z-1.345
N515 X99.546 Z-1.344
N516 X109.106 Z-1.379
N517 X137.786 Z-1.564
N518 X151.248 Z-1.611
N519 X171.733 Z-1.643
N520 X177.465 Z-1.631
N521 X196 Z-1.544
N522 G2 X196.069 Z-1.528 I-0.001 K0.159
N523 G3 X196.139 Z-1.512 I0.07 K-0.143
N524 G1 X196.14
N525 X196.181 Y8.771
N526 X196.222 Y8.777
N527 X196.263 Y8.786
N528 X196.303 Y8.798 Z-1.513
N529 X196.341 Y8.814
N530 X196.378 Y8.833 Z-1.514
N531 X196.413 Y8.856 Z-1.515
N532 X196.446 Y8.881 Z-1.516
N533 X196.477 Y8.909 Z-1.517
N534 X196.505 Y8.939 Z-1.518
N535 X196.53 Y8.972 Z-1.519
N536 X196.552 Y9.007 Z-1.521
N537 X196.571 Y9.044 Z-1.522
N538 X196.587 Y9.083 Z-1.524
N539 X196.6 Y9.122 Z-1.525
N540 X196.609 Y9.163 Z-1.527
N541 X196.614 Y9.204 Z-1.528
N542 X196.616 Y9.245 Z-1.53
N543 Y9.881 Z-1.555
N544 X196.614 Y9.922 Z-1.556
N545 X196.609 Y9.963 Z-1.558
N546 X196.6 Y10.004 Z-1.559
N547 X196.587 Y10.043 Z-1.561
N548 X196.571 Y10.082 Z-1.562
N549 X196.552 Y10.119 Z-1.564
N550 X196.53 Y10.154 Z-1.565
N551 X196.505 Y10.187 Z-1.566
N552 X196.477 Y10.217 Z-1.568
N553 X196.446 Y10.245 Z-1.569
N554 X196.413 Y10.271 Z-1.57
N555 X196.378 Y10.293 Z-1.571
N556 X196.341 Y10.312
N557 X196.303 Y10.328 Z-1.572
N558 X196.263 Y10.34
N559 X196.222 Y10.349 Z-1.573
N560 X196.181 Y10.355
N561 X196.14 Y10.357
N562 G2 X196.07 Z-1.589 I0 K-0.159
N563 G3 X196 Z-1.605 I-0.07 K0.143
N564 G1 X176.029 Z-1.6
N565 X156.129 Z-1.556
N566 X139.74 Z-1.487
N567 X126.669 Z-1.387
N568 X112.036 Z-1.269
N569 X102.866 Z-1.22
N570 X93.892 Z-1.206
N571 X81.6 Z-1.226
N572 X70.285 Z-1.278
N573 X64 Z-1.32
N574 G3 X63.929 Z-1.304 I-0.001 K0.159
N575 G2 X63.859 Z-1.288 I-0.07 K-0.143
N576 G1 X63.817 Y10.358
N577 X63.776 Y10.364 Z-1.287
N578 X63.736 Y10.373
N579 X63.696 Y10.385 Z-1.286
N580 X63.658 Y10.401 Z-1.285
N581 X63.621 Y10.42 Z-1.283
N582 X63.586 Y10.443 Z-1.282
N583 X63.553 Y10.468 Z-1.28
N584 X63.522 Y10.496 Z-1.278
N585 X63.494 Y10.526 Z-1.276
N586 X63.469 Y10.559 Z-1.274
N587 X63.446 Y10.594 Z-1.271
N588 X63.427 Y10.631 Z-1.269
N589 X63.411 Y10.669 Z-1.266
N590 X63.399 Y10.709 Z-1.263
N591 X63.39 Y10.749 Z-1.26
N592 X63.384 Y10.79 Z-1.257
N593 X63.383 Y10.832 Z-1.255
N594 Y11.469 Z-1.21
N595 X63.384 Y11.51 Z-1.207
N596 X63.39 Y11.551 Z-1.204
N597 X63.399 Y11.592 Z-1.201
N598 X63.411 Y11.631 Z-1.198
N599 X63.427 Y11.669 Z-1.196
N600 X63.446 Y11.706 Z-1.193
N601 X63.469 Y11.741 Z-1.191
N602 X63.494 Y11.774 Z-1.188
N603 X63.522 Y11.805 Z-1.186
N604 X63.553 Y11.833 Z-1.184
N605 X63.586 Y11.858 Z-1.182
N606 X63.621 Y11.88 Z-1.181
N607 X63.658 Y11.899 Z-1.179
N608 X63.696 Y11.915 Z-1.178
N609 X63.736 Y11.928 Z-1.177
N610 X63.776 Y11.937
N611 X63.817 Y11.942 Z-1.176
N612 X63.859 Y11.944
N613 G3 X63.929 Z-1.193 I0 K-0.159
N614 G2 X64 Z-1.209 I0.07 K0.143
N615 G1 X68.093 Z-1.171
N616 X77.263 Z-1.106
N617 X87.408 Z-1.065
N618 X98.134 Z-1.059
N619 X105.162 Z-1.087
N620 X112.576 Z-1.145
N621 X122.526 Z-1.252
N622 X136.963 Z-1.408
N623 X145.938 Z-1.473
N624 X162.326 Z-1.541
N625 X178.52 Z-1.571
N626 X196 Z-1.563
N627 G2 X196.07 Z-1.547 I0 K0.159
N628 G3 X196.14 Z-1.53 I0.07 K-0.143
N629 G1 X196.181 Y11.946
N630 X196.222 Y11.951
N631 X196.263 Y11.96
N632 X196.303 Y11.973
N633 X196.341 Y11.988 Z-1.529
N634 X196.378 Y12.008
N635 X196.413 Y12.03 Z-1.528
N636 X196.446 Y12.055 Z-1.527
N637 X196.476 Y12.083 Z-1.526
N638 X196.504 Y12.114 Z-1.525
N639 X196.53 Y12.147
N640 X196.552 Y12.182 Z-1.523
N641 X196.571 Y12.219 Z-1.522
N642 X196.587 Y12.257 Z-1.521
N643 X196.6 Y12.297 Z-1.52
N644 X196.609 Y12.337 Z-1.519
N645 X196.614 Y12.378 Z-1.518
N646 X196.616 Y12.42 Z-1.517
N647 Y13.055 Z-1.498
N648 X196.614 Y13.096 Z-1.497
N649 X196.609 Y13.138 Z-1.496
N650 X196.6 Y13.178 Z-1.494
N651 X196.587 Y13.218 Z-1.493
N652 X196.571 Y13.256 Z-1.492
N653 X196.552 Y13.293 Z-1.491
N654 X196.53 Y13.328 Z-1.49
N655 X196.504 Y13.361 Z-1.489
N656 X196.476 Y13.392 Z-1.488
N657 X196.446 Y13.42 Z-1.487
N658 X196.413 Y13.445
N659 X196.378 Y13.467 Z-1.486
N660 X196.341 Y13.486 Z-1.485
N661 X196.303 Y13.502
N662 X196.263 Y13.515
N663 X196.222 Y13.524 Z-1.484
N664 X196.181 Y13.529
N665 X196.14 Y13.531
N666 X196.139
N667 G2 X196.069 Z-1.5 I0 K-0.159
N668 G3 X196 Z-1.517 I-0.07 K0.143
N669 G1 X182.148 Z-1.558
N670 X173.155 Z-1.56
N671 X159.888 Z-1.527
N672 X146.621 Z-1.466
N673 X140.183 Z-1.418
N674 X132.665 Z-1.33
N675 X115.255 Z-1.074
N676 X109.998 Z-1.006
N677 X104.145 Z-0.949
N678 X98.097 Z-0.92
N679 X89.122 Z-0.926
N680 X80.538 Z-0.966
N681 X72.929 Z-1.027
N682 X65.905 Z-1.105
N683 X64 Z-1.13
N684 G3 X63.928 Z-1.114 I-0.002 K0.159
N685 G2 X63.858 Z-1.098 I-0.07 K-0.143
N686 G1 X63.816 Y13.533
N687 X63.775 Y13.538
N688 X63.735 Y13.547 Z-1.097
N689 X63.695 Y13.56
N690 X63.657 Y13.576
N691 X63.62 Y13.595 Z-1.096
N692 X63.585 Y13.617
N693 X63.552 Y13.642 Z-1.095
N694 X63.521 Y13.67
N695 X63.493 Y13.701 Z-1.094
N696 X63.468 Y13.734
N697 X63.445 Y13.769 Z-1.093
N698 X63.426 Y13.806 Z-1.092
N699 X63.41 Y13.844 Z-1.091
N700 X63.398 Y13.884
N701 X63.389 Y13.924 Z-1.09
N702 X63.383 Y13.966 Z-1.089
N703 X63.382 Y14.007 Z-1.088
N704 Y14.642 Z-1.075
N705 X63.383 Y14.683
N706 X63.389 Y14.725 Z-1.074
N707 X63.398 Y14.765 Z-1.073
N708 X63.41 Y14.805 Z-1.072
N709 X63.426 Y14.843 Z-1.071
N710 X63.445 Y14.88
N711 X63.468 Y14.915 Z-1.07
N712 X63.493 Y14.948 Z-1.069
N713 X63.521 Y14.979
N714 X63.552 Y15.007 Z-1.068
N715 X63.585 Y15.032
N716 X63.62 Y15.054 Z-1.067
N717 X63.657 Y15.074
N718 X63.695 Y15.089 Z-1.066
N719 X63.735 Y15.102
N720 X63.775 Y15.111
N721 X63.816 Y15.116
N722 X63.858 Y15.118
N723 G3 X63.928 Z-1.082 I0 K-0.159
N724 G2 X64 Z-1.098 I0.07 K0.143
N725 G1 X68.8 Z-1.026
N726 X76.053 Z-0.933
N727 X82.686 Z-0.868
N728 X89.71 Z-0.825
N729 X97.318 Z-0.811
N730 X102.294 Z-0.83
N731 X104.333 Z-0.872
N732 X108.901 Z-0.924
N733 X115.337 Z-1.015
N734 X129.733 Z-1.269
N735 X136.378 Z-1.371
N736 X142.719 Z-1.44
N737 X153.157 Z-1.501
N738 X166.228 Z-1.547
N739 X177.465 Z-1.562
N740 X184.879 Z-1.543
N741 X196 Z-1.475
N742 G2 X196.069 Z-1.459 I-0.001 K0.159
N743 G3 X196.139 Z-1.443 I0.07 K-0.143
N744 G1 X196.18 Y15.12
N745 X196.221 Y15.125
N746 X196.262 Y15.134
N747 X196.302 Y15.147 Z-1.442
N748 X196.34 Y15.163
N749 X196.377 Y15.182
N750 X196.412 Y15.204 Z-1.441
N751 X196.445 Y15.23
N752 X196.476 Y15.258 Z-1.44
N753 X196.504 Y15.288 Z-1.439
N754 X196.529 Y15.321
N755 X196.551 Y15.356 Z-1.438
N756 X196.57 Y15.393 Z-1.437
N757 X196.586 Y15.431
N758 X196.599 Y15.471 Z-1.436
N759 X196.608 Y15.512 Z-1.435
N760 X196.613 Y15.553 Z-1.434
N761 X196.615 Y15.594 Z-1.433
N762 Y16.229 Z-1.42
N763 X196.613 Y16.271
N764 X196.608 Y16.312 Z-1.419
N765 X196.599 Y16.352 Z-1.418
N766 X196.586 Y16.392 Z-1.417
N767 X196.57 Y16.43 Z-1.416
N768 X196.551 Y16.467
N769 X196.529 Y16.502 Z-1.415
N770 X196.504 Y16.535 Z-1.414
N771 X196.476 Y16.566
N772 X196.445 Y16.594 Z-1.413
N773 X196.412 Y16.619
N774 X196.377 Y16.642 Z-1.412
N775 X196.34 Y16.661
N776 X196.302 Y16.677 Z-1.411
N777 X196.262 Y16.689
N778 X196.221 Y16.698
N779 X196.18 Y16.704
N780 X196.139 Y16.705
N781 X196.138
N782 G2 X196.068 Z-1.427 I0 K-0.159
N783 G3 X196 Z-1.443 I-0.07 K0.143
N784 G1 X193.269 Z-1.467
N785 X185.074 Z-1.537
N786 X179.417 Z-1.561
N787 X167.819
N788 X156.308 Z-1.53
N789 X144.407 Z-1.466
N790 X138.262 Z-1.404
N791 X131.691 Z-1.302
N792 X115.473 Z-1.015
N793 X109.042 Z-0.924
N794 X104.615 Z-0.874
N795 X103.64 Z-0.833
N796 X102.489 Z-0.776
N797 X101.447 Z-0.755
N798 X96.668 Z-0.746
N799 X90.034 Z-0.77
N800 X83.206 Z-0.826
N801 X76.084 Z-0.909
N802 X68.286 Z-1.022
N803 X64 Z-1.093
N804 G3 X63.928 Z-1.077 I-0.003 K0.159
N805 G2 X63.858 Z-1.06 I-0.07 K-0.143
N806 G1 X63.857
N807 X63.816 Y16.707
N808 X63.775 Y16.713
N809 X63.734 Y16.722 Z-1.061
N810 X63.694 Y16.734
N811 X63.656 Y16.75
N812 X63.619 Y16.769
N813 X63.584 Y16.791
N814 X63.551 Y16.817 Z-1.062
N815 X63.521 Y16.845
N816 X63.492 Y16.875
N817 X63.467 Y16.908 Z-1.063
N818 X63.445 Y16.943
N819 X63.426 Y16.98 Z-1.064
N820 X63.41 Y17.019
N821 X63.397 Y17.058 Z-1.065
N822 X63.388 Y17.099
N823 X63.383 Y17.14
N824 X63.381 Y17.182 Z-1.066
N825 Y17.816 Z-1.073
N826 X63.383 Y17.858 Z-1.074
N827 X63.388 Y17.899
N828 X63.397 Y17.94 Z-1.075
N829 X63.41 Y17.979
N830 X63.426 Y18.018 Z-1.076
N831 X63.445 Y18.054
N832 X63.467 Y18.089 Z-1.077
N833 X63.492 Y18.122
N834 X63.521 Y18.153
N835 X63.551 Y18.181 Z-1.078
N836 X63.584 Y18.206
N837 X63.619 Y18.229
N838 X63.656 Y18.248
N839 X63.694 Y18.264 Z-1.079
N840 X63.734 Y18.276
N841 X63.775 Y18.285
N842 X63.816 Y18.291
N843 X63.857 Y18.292
N844 G3 X63.927 Z-1.095 I0 K-0.159
N845 G2 X64 Z-1.111 I0.07 K0.143
N846 G1 X67.507 Z-1.046
N847 X75.361 Z-0.917
N848 X83.126 Z-0.816
N849 X90.345 Z-0.75
N850 X96.588 Z-0.72
N851 X101.466 Z-0.722
N852 X102.442 Z-0.737
N853 X102.641 Z-0.754
N854 X102.706 Z-0.774
N855 X102.712 Z-2.499
N856 X153.285 Z-2.5
N857 X153.29 Z-1.581
N858 X153.31 Z-1.574
N859 X153.609 Z-1.56
N860 X158.389 Z-1.573
N861 X168.774 Z-1.588
N862 X179.319 Z-1.569
N863 X185.196 Z-1.529
N864 X194.244 Z-1.435
N865 X196 Z-1.424
N866 G2 X196.069 Z-1.408 I-0.001 K0.159
N867 G1 X196.081 Z-1.402
N868 G3 X196.151 Z-1.386 I0.07 K-0.143
N869 G17 G3 X196.627 Y18.769 I0 J0.476
N870 G1 Y19.403
N871 G3 X196.151 Y19.88 I-0.476 J0
N872 G1 X196.139
N873 G18 G2 X196.069 Z-1.402 I0 K-0.159
N874 G3 X196 Z-1.418 I-0.07 K0.143
N875 G1 X194.079 Z-1.425
N876 X186.372 Z-1.504
N877 X178.373 Z-1.555
N878 X168.618 Z-1.583
N879 X158.727 Z-1.575
N880 X154.533 Z-1.567
N881 X153.593 Z-1.591
N882 X153.413 Z-1.603
N883 X153.412 Z-2.5
N884 X152.583
N885 Z0
N886 X103.417
N887 Z-2.5
N888 X102.588
N889 X102.586 Z-0.721
N890 X101.222 Z-0.712
N891 X94.947 Z-0.719
N892 X88.412 Z-0.762
N893 X82.266 Z-0.83
N894 X77.062 Z-0.907
N895 X72.135 Z-0.995
N896 X67.213 Z-1.099
N897 X64 Z-1.175
N898 G3 X63.926 Z-1.159 I-0.004 K0.159
N899 G2 X63.857 Z-1.143 I-0.07 K-0.143
N900 G1 X63.856
N901 X63.814 Y19.881
N902 X63.773 Y19.887
N903 X63.732 Y19.896 Z-1.144
N904 X63.693 Y19.908 Z-1.145
N905 X63.654 Y19.924 Z-1.146
N906 X63.617 Y19.943 Z-1.147
N907 X63.582 Y19.966 Z-1.149
N908 X63.549 Y19.991 Z-1.15
N909 X63.519 Y20.019 Z-1.152
N910 X63.491 Y20.049 Z-1.154
N911 X63.465 Y20.082 Z-1.157
N912 X63.443 Y20.117 Z-1.159
N913 X63.424 Y20.154 Z-1.162
N914 X63.408 Y20.192 Z-1.164
N915 X63.396 Y20.232 Z-1.167
N916 X63.387 Y20.272 Z-1.17
N917 X63.381 Y20.313 Z-1.173
N918 X63.379 Y20.355 Z-1.175
N919 Y20.992 Z-1.219
N920 X63.381 Y21.033 Z-1.222
N921 X63.387 Y21.074 Z-1.225
N922 X63.396 Y21.115 Z-1.228
N923 X63.408 Y21.154 Z-1.231
N924 X63.424 Y21.193 Z-1.233
N925 X63.443 Y21.229 Z-1.236
N926 X63.465 Y21.264 Z-1.238
N927 X63.491 Y21.297 Z-1.24
N928 X63.519 Y21.328 Z-1.242
N929 X63.549 Y21.356 Z-1.244
N930 X63.582 Y21.381 Z-1.246
N931 X63.617 Y21.403 Z-1.248
N932 X63.654 Y21.422 Z-1.249
N933 X63.693 Y21.438 Z-1.25
N934 X63.732 Y21.451 Z-1.251
N935 X63.773 Y21.46 Z-1.252
N936 X63.814 Y21.465
N937 X63.856 Y21.467
N938 G3 X63.925 Z-1.268 I0 K-0.159
N939 G2 X64 Z-1.284 I0.07 K0.143
N940 G1 X67.726 Z-1.175
N941 X72.061 Z-1.061
N942 X76.388 Z-0.962
N943 X80.744 Z-0.879
N944 X85.017 Z-0.813
N945 X90.084 Z-0.755
N946 X95.644 Z-0.717
N947 X102.587 Z-0.714
N948 X102.588 Z-2.5
N949 X103.412
N950 Z0
N951 X152.583
N952 X152.588 Z-2.5
N953 X153.41
N954 X153.413 Z-1.564
N955 X153.419 Z-1.557
N956 X153.546 Z-1.532
N957 X153.927 Z-1.499
N958 X154.557 Z-1.474
N959 X155.874 Z-1.473
N960 X167.775 Z-1.508
N961 X179.244 Z-1.503
N962 X188.804 Z-1.468
N963 X193.877 Z-1.424
N964 X196 Z-1.418
N965 X196.007
N966 G2 X196.076 Z-1.402 I0 K0.159
N967 G3 X196.147 Z-1.385 I0.07 K-0.142
N968 G17 G3 X196.623 Y21.943 I0 J0.476
N969 G1 Y22.578
N970 G3 X196.147 Y23.054 I-0.476 J0
N971 G1 X196.139
N972 G18 G2 X196.069 Z-1.402 I0 K-0.159
N973 G3 X196 Z-1.418 I-0.07 K0.143
N974 G1 X193.561 Z-1.43
N975 X190.537 Z-1.449
N976 X177.137 Z-1.432
N977 X163.87 Z-1.382
N978 X154.798 Z-1.335
N979 X154.171 Z-1.355
N980 X153.724 Z-1.392
N981 X153.496 Z-1.43
N982 X153.422 Z-1.456
N983 X153.413 Z-1.47
N984 X153.412 Z-2.5
N985 X152.587
N986 Z0
N987 X103.413
N988 X103.41 Z-2.5
N989 X102.588
N990 X102.585 Z-0.717
N991 X96.881
N992 X91.467 Z-0.76
N993 X87.096 Z-0.816
N994 X83.011 Z-0.884
N995 X78.947 Z-0.968
N996 X75.025 Z-1.063
N997 X71.008 Z-1.177
N998 X66.955 Z-1.307
N999 X64 Z-1.411
N1000 G3 X63.925 Z-1.395 I-0.006 K0.159
N1001 G2 X63.855 Z-1.379 I-0.07 K-0.143
N1002 G1 X63.813 Y23.056
N1003 X63.772 Y23.061 Z-1.378
N1004 X63.731 Y23.07
N1005 X63.692 Y23.083 Z-1.377
N1006 X63.653 Y23.098 Z-1.376
N1007 X63.617 Y23.118 Z-1.374
N1008 X63.581 Y23.14 Z-1.372
N1009 X63.549 Y23.165 Z-1.37
N1010 X63.518 Y23.193 Z-1.368
N1011 X63.49 Y23.224 Z-1.366
N1012 X63.465 Y23.256 Z-1.363
N1013 X63.442 Y23.291 Z-1.361
N1014 X63.423 Y23.328 Z-1.358
N1015 X63.407 Y23.366 Z-1.355
N1016 X63.395 Y23.406 Z-1.352
N1017 X63.386 Y23.446 Z-1.348
N1018 X63.38 Y23.487 Z-1.345
N1019 X63.378 Y23.529 Z-1.342
N1020 Y24.166 Z-1.292
N1021 X63.38 Y24.208 Z-1.289
N1022 X63.386 Y24.249 Z-1.286
N1023 X63.395 Y24.289 Z-1.283
N1024 X63.407 Y24.329 Z-1.28
N1025 X63.423 Y24.367 Z-1.277
N1026 X63.442 Y24.404 Z-1.274
N1027 X63.465 Y24.439 Z-1.271
N1028 X63.49 Y24.472 Z-1.269
N1029 X63.518 Y24.502 Z-1.266
N1030 X63.549 Y24.53 Z-1.264
N1031 X63.581 Y24.555 Z-1.262
N1032 X63.617 Y24.578 Z-1.26
N1033 X63.653 Y24.597 Z-1.259
N1034 X63.692 Y24.613 Z-1.258
N1035 X63.731 Y24.625 Z-1.257
N1036 X63.772 Y24.634 Z-1.256
N1037 X63.813 Y24.639
N1038 X63.855 Y24.641 Z-1.255
N1039 X63.856
N1040 G3 X63.926 Z-1.272 I0 K-0.159
N1041 G2 X64 Z-1.288 I0.07 K0.143
N1042 G1 X67.179 Z-1.201
N1043 X73.406 Z-1.055
N1044 X78.32 Z-0.96
N1045 X84.704 Z-0.861
N1046 X93.679 Z-0.76
N1047 X98.166 Z-0.724
N1048 X102.068 Z-0.721
N1049 X102.586 Z-0.734
N1050 X102.588 Z-2.5
N1051 X103.412
N1052 Z0
N1053 X152.583
N1054 X152.587 Z-2.5
N1055 X153.41
N1056 X153.413 Z-1.334
N1057 X153.43 Z-1.313
N1058 X153.52 Z-1.282
N1059 X153.767 Z-1.243
N1060 X154.273 Z-1.21
N1061 X155.005 Z-1.196
N1062 X178.222 Z-1.363
N1063 X191.879 Z-1.442
N1064 X196 Z-1.426
N1065 G2 X196.069 Z-1.41 I-0.001 K0.159
N1066 G3 X196.139 Z-1.394 I0.07 K-0.143
N1067 G1 X196.14
N1068 X196.181 Y24.643
N1069 X196.222 Y24.648
N1070 X196.263 Y24.657
N1071 X196.303 Y24.67
N1072 X196.341 Y24.686
N1073 X196.378 Y24.705 Z-1.395
N1074 X196.413 Y24.727
N1075 X196.446 Y24.753
N1076 X196.476 Y24.781
N1077 X196.505 Y24.811 Z-1.396
N1078 X196.53 Y24.844
N1079 X196.552 Y24.879 Z-1.397
N1080 X196.571 Y24.916
N1081 X196.587 Y24.955
N1082 X196.6 Y24.994 Z-1.398
N1083 X196.609 Y25.035
N1084 X196.614 Y25.076 Z-1.399
N1085 X196.616 Y25.117
N1086 Y25.752 Z-1.406
N1087 X196.614 Y25.794 Z-1.407
N1088 X196.609 Y25.835
N1089 X196.6 Y25.875 Z-1.408
N1090 X196.587 Y25.915
N1091 X196.571 Y25.953 Z-1.409
N1092 X196.552 Y25.99
N1093 X196.53 Y26.025 Z-1.41
N1094 X196.505 Y26.058
N1095 X196.476 Y26.089
N1096 X196.446 Y26.117 Z-1.411
N1097 X196.413 Y26.142
N1098 X196.378 Y26.165
N1099 X196.341 Y26.184
N1100 X196.303 Y26.2 Z-1.412
N1101 X196.263 Y26.212
N1102 X196.222 Y26.221
N1103 X196.181 Y26.227
N1104 X196.14 Y26.228
N1105 G2 X196.07 Z-1.428 I0 K-0.159
N1106 G3 X196 Z-1.444 I-0.07 K0.143
N1107 G1 X193.124
N1108 X182.491 Z-1.351
N1109 X159.566 Z-1.138
N1110 X154.884 Z-1.101
N1111 X154 Z-1.117
N1112 X153.583 Z-1.145
N1113 X153.438 Z-1.174
N1114 X153.413 Z-1.193
N1115 X153.41 Z-2.5
N1116 X152.587
N1117 X152.583 Z0
N1118 X103.412
N1119 Z-2.5
N1120 X102.588
N1121 X102.586 Z-0.741
N1122 X101.893 Z-0.724
N1123 X100.04 Z-0.723
N1124 X89.797 Z-0.8
N1125 X83.261 Z-0.875
N1126 X76.611 Z-0.979
N1127 X69.791 Z-1.114
N1128 X64 Z-1.251
N1129 G3 X63.926 Z-1.235 I-0.004 K0.159
N1130 G2 X63.857 Z-1.219 I-0.07 K-0.143
N1131 G1 X63.856
N1132 X63.815 Y26.23
N1133 X63.774 Y26.236
N1134 X63.733 Y26.245
N1135 X63.694 Y26.257
N1136 X63.655 Y26.273
N1137 X63.618 Y26.292 Z-1.22
N1138 X63.583 Y26.314
N1139 X63.55 Y26.34
N1140 X63.52 Y26.368 Z-1.221
N1141 X63.492 Y26.398
N1142 X63.466 Y26.431 Z-1.222
N1143 X63.444 Y26.466
N1144 X63.425 Y26.503 Z-1.223
N1145 X63.409 Y26.542
N1146 X63.396 Y26.581 Z-1.224
N1147 X63.387 Y26.622 Z-1.225
N1148 X63.382 Y26.663
N1149 X63.38 Y26.705 Z-1.226
N1150 Y27.339 Z-1.235
N1151 X63.382 Y27.381 Z-1.236
N1152 X63.387 Y27.422 Z-1.237
N1153 X63.396 Y27.463
N1154 X63.409 Y27.502 Z-1.238
N1155 X63.425 Y27.541
N1156 X63.444 Y27.577 Z-1.239
N1157 X63.466 Y27.612
N1158 X63.492 Y27.645 Z-1.24
N1159 X63.52 Y27.676
N1160 X63.55 Y27.704 Z-1.241
N1161 X63.583 Y27.729
N1162 X63.618 Y27.752
N1163 X63.655 Y27.771 Z-1.242
N1164 X63.694 Y27.787
N1165 X63.733 Y27.799
N1166 X63.774 Y27.808
N1167 X63.815 Y27.814
N1168 X63.856 Y27.816
N1169 G3 X63.926 Z-1.259 I0 K-0.159
N1170 G2 X64 Z-1.275 I0.07 K0.143
N1171 G1 X68.505 Z-1.166
N1172 X73.723 Z-1.056
N1173 X79.248 Z-0.956
N1174 X84.96 Z-0.871
N1175 X91.148 Z-0.8
N1176 X95.662 Z-0.744
N1177 X100.15 Z-0.701
N1178 X102.269 Z-0.705
N1179 X102.586 Z-0.718
N1180 X102.588 Z-2.5
N1181 X103.412
N1182 Z0
N1183 X152.587
N1184 Z-2.5
N1185 X153.412
N1186 X153.413 Z-1.101
N1187 X153.424 Z-1.095
N1188 X153.567 Z-1.083
N1189 X156.005 Z-1.079
N1190 X169.661 Z-1.201
N1191 X191.415 Z-1.428
N1192 X196 Z-1.465
N1193 G2 X196.071 Z-1.449 I0.001 K0.159
N1194 G3 X196.141 Z-1.433 I0.07 K-0.143
N1195 G1 X196.183 Y27.817
N1196 X196.224 Y27.823
N1197 X196.265 Y27.832
N1198 X196.304 Y27.844
N1199 X196.343 Y27.86
N1200 X196.38 Y27.879
N1201 X196.415 Y27.902
N1202 X196.448 Y27.927 Z-1.434
N1203 X196.478 Y27.955
N1204 X196.506 Y27.986
N1205 X196.532 Y28.019 Z-1.435
N1206 X196.554 Y28.054
N1207 X196.573 Y28.09
N1208 X196.589 Y28.129 Z-1.436
N1209 X196.602 Y28.168
N1210 X196.611 Y28.209 Z-1.437
N1211 X196.616 Y28.25
N1212 X196.618 Y28.292 Z-1.438
N1213 Y28.926 Z-1.444
N1214 X196.616 Y28.968 Z-1.445
N1215 X196.611 Y29.009
N1216 X196.602 Y29.05 Z-1.446
N1217 X196.589 Y29.089
N1218 X196.573 Y29.128
N1219 X196.554 Y29.165 Z-1.447
N1220 X196.532 Y29.2
N1221 X196.506 Y29.233
N1222 X196.478 Y29.263 Z-1.448
N1223 X196.448 Y29.291
N1224 X196.415 Y29.317
N1225 X196.38 Y29.339 Z-1.449
N1226 X196.343 Y29.358
N1227 X196.304 Y29.374
N1228 X196.265 Y29.386
N1229 X196.224 Y29.395
N1230 X196.183 Y29.401
N1231 X196.141 Y29.403
N1232 G2 X196.072 Z-1.465 I0 K-0.159
N1233 G3 X196 Z-1.482 I-0.07 K0.143
N1234 G1 X176.978 Z-1.271
N1235 X158.248 Z-1.093
N1236 X155.992 Z-1.079
N1237 X153.413 Z-1.081
N1238 Z-2.5
N1239 X152.588
N1240 X152.583 Z0
N1241 X103.412
N1242 Z-2.5
N1243 X102.588
N1244 X102.586 Z-0.698
N1245 X101.222 Z-0.689
N1246 X96.539 Z-0.711
N1247 X90.882 Z-0.764
N1248 X85.428 Z-0.834
N1249 X80.383 Z-0.915
N1250 X75.45 Z-1.008
N1251 X70.153 Z-1.125
N1252 X65.263 Z-1.247
N1253 X64 Z-1.282
N1254 G3 X63.926 Z-1.266 I-0.004 K0.159
N1255 G2 X63.856 Z-1.25 I-0.07 K-0.143
N1256 G1 X63.814 Y29.405
N1257 X63.773 Y29.41 Z-1.249
N1258 X63.733 Y29.419
N1259 X63.693 Y29.431 Z-1.248
N1260 X63.655 Y29.447 Z-1.247
N1261 X63.618 Y29.466 Z-1.246
N1262 X63.583 Y29.489 Z-1.245
N1263 X63.55 Y29.514 Z-1.243
N1264 X63.519 Y29.542 Z-1.242
N1265 X63.491 Y29.573 Z-1.24
N1266 X63.466 Y29.605 Z-1.238
N1267 X63.443 Y29.64 Z-1.236
N1268 X63.424 Y29.677 Z-1.234
N1269 X63.408 Y29.716 Z-1.232
N1270 X63.396 Y29.755 Z-1.229
N1271 X63.387 Y29.796 Z-1.227
N1272 X63.382 Y29.837 Z-1.225
N1273 X63.38 Y29.878 Z-1.222
N1274 Y30.514 Z-1.185
N1275 X63.382 Y30.556 Z-1.183
N1276 X63.387 Y30.597 Z-1.18
N1277 X63.396 Y30.637 Z-1.178
N1278 X63.408 Y30.677 Z-1.176
N1279 X63.424 Y30.715 Z-1.174
N1280 X63.443 Y30.752 Z-1.172
N1281 X63.466 Y30.787 Z-1.169
N1282 X63.491 Y30.82 Z-1.168
N1283 X63.519 Y30.851 Z-1.166
N1284 X63.55 Y30.879 Z-1.164
N1285 X63.583 Y30.904 Z-1.163
N1286 X63.618 Y30.926 Z-1.161
N1287 X63.655 Y30.945 Z-1.16
N1288 X63.693 Y30.961 Z-1.159
N1289 X63.733 Y30.974
N1290 X63.773 Y30.983 Z-1.158
N1291 X63.814 Y30.988
N1292 X63.856 Y30.99
N1293 G3 X63.926 Z-1.174 I0 K-0.159
N1294 G2 X64 Z-1.19 I0.07 K0.143
N1295 G1 X68.361 Z-1.084
N1296 X73.249 Z-0.979
N1297 X78.203 Z-0.889
N1298 X83.273 Z-0.812
N1299 X89.126 Z-0.744
N1300 X95.759 Z-0.693
N1301 X101.222 Z-0.68
N1302 X102.587 Z-0.688
N1303 X102.588 Z-2.5
N1304 X103.412
N1305 Z0
N1306 X152.583
N1307 X152.588 Z-2.5
N1308 X153.412
N1309 X153.413 Z-1.137
N1310 X153.432 Z-1.124
N1311 X153.558 Z-1.105
N1312 X153.987 Z-1.087
N1313 X155.663 Z-1.083
N1314 X175.514 Z-1.267
N1315 X194.098 Z-1.468
N1316 X196 Z-1.478
N1317 G2 X196.071 Z-1.461 I0.001 K0.159
N1318 G3 X196.141 Z-1.445 I0.07 K-0.143
N1319 G1 X196.182 Y30.992
N1320 X196.223 Y30.997
N1321 X196.264 Y31.006
N1322 X196.303 Y31.019 Z-1.444
N1323 X196.342 Y31.034 Z-1.443
N1324 X196.379 Y31.054
N1325 X196.414 Y31.076 Z-1.442
N1326 X196.447 Y31.101 Z-1.441
N1327 X196.477 Y31.129 Z-1.44
N1328 X196.505 Y31.16 Z-1.439
N1329 X196.531 Y31.193 Z-1.438
N1330 X196.553 Y31.228 Z-1.436
N1331 X196.572 Y31.265 Z-1.435
N1332 X196.588 Y31.303 Z-1.433
N1333 X196.601 Y31.343 Z-1.432
N1334 X196.61 Y31.383 Z-1.43
N1335 X196.615 Y31.424 Z-1.429
N1336 X196.617 Y31.466 Z-1.427
N1337 Y32.101 Z-1.403
N1338 X196.615 Y32.143 Z-1.402
N1339 X196.61 Y32.184 Z-1.4
N1340 X196.601 Y32.224 Z-1.399
N1341 X196.588 Y32.264 Z-1.397
N1342 X196.572 Y32.302 Z-1.396
N1343 X196.553 Y32.339 Z-1.395
N1344 X196.531 Y32.374 Z-1.393
N1345 X196.505 Y32.407 Z-1.392
N1346 X196.477 Y32.438 Z-1.391
N1347 X196.447 Y32.466 Z-1.39
N1348 X196.414 Y32.491 Z-1.389
N1349 X196.379 Y32.513 Z-1.388
N1350 X196.342 Y32.532 Z-1.387
N1351 X196.303 Y32.548
N1352 X196.264 Y32.561 Z-1.386
N1353 X196.223 Y32.57
N1354 X196.182 Y32.575
N1355 X196.141 Y32.577
N1356 X196.139
N1357 G2 X196.069 Z-1.402 I0 K-0.159
N1358 G3 X196 Z-1.418 I-0.07 K0.143
N1359 G1 X190.765 Z-1.445
N1360 X161.11 Z-1.187
N1361 X154.867 Z-1.138
N1362 X154.105 Z-1.155
N1363 X153.665 Z-1.186
N1364 X153.474 Z-1.22
N1365 X153.418 Z-1.246
N1366 X153.413 Z-1.257
N1367 X153.412 Z-2.5
N1368 X152.479
N1369 Z0
N1370 X103.521
N1371 Z-2.5
N1372 X102.588
N1373 X102.587 Z-0.681
N1374 X95.65 Z-0.686
N1375 X89.602 Z-0.725
N1376 X83.066 Z-0.794
N1377 X76.593 Z-0.892
N1378 X70.053 Z-1.02
N1379 X64.977 Z-1.139
N1380 X64 Z-1.164
N1381 G3 X63.926 Z-1.147 I-0.004 K0.159
N1382 G2 X63.856 Z-1.131 I-0.07 K-0.143
N1383 G1 X63.846
N1384 G17 G2 X63.369 Y33.053 I0 J0.476
N1385 G1 Y33.688
N1386 G2 X63.846 Y34.164 I0.476 J0
N1387 G18 G3 X63.916 Z-1.147 I0 K-0.159
N1388 G1 X63.926 Z-1.152
N1389 G2 X64 Z-1.169 I0.07 K0.143
N1390 G1 X66.234 Z-1.111
N1391 X72.697 Z-0.964
N1392 X79.011 Z-0.85
N1393 X83.804 Z-0.783
N1394 X90.145 Z-0.719
N1395 X96.29 Z-0.684
N1396 X102.558 Z-0.683
N1397 X102.954 Z-0.702
N1398 X103.084 Z-0.724
N1399 X103.088 Z-2.499
N1400 X152.911 Z-2.5
N1401 X152.918 Z-1.495
N1402 X153.034 Z-1.454
N1403 X153.382 Z-1.371
N1404 X153.742 Z-1.314
N1405 X154.193 Z-1.277
N1406 X154.841 Z-1.258
N1407 X169.376 Z-1.355
N1408 X185.96 Z-1.442
N1409 X188.037 Z-1.425
N1410 X196 Z-1.325
N1411 G2 X196.068 Z-1.309 I-0.002 K0.159
N1412 G3 X196.138 Z-1.292 I0.07 K-0.143
N1413 G1 X196.179 Y34.166
N1414 X196.22 Y34.171
N1415 X196.261 Y34.18
N1416 X196.301 Y34.193 Z-1.291
N1417 X196.339 Y34.209 Z-1.29
N1418 X196.376 Y34.228 Z-1.289
N1419 X196.411 Y34.25 Z-1.287
N1420 X196.444 Y34.275 Z-1.286
N1421 X196.474 Y34.303 Z-1.284
N1422 X196.503 Y34.334 Z-1.282
N1423 X196.528 Y34.367 Z-1.28
N1424 X196.55 Y34.402 Z-1.278
N1425 X196.569 Y34.439 Z-1.276
N1426 X196.585 Y34.477 Z-1.274
N1427 X196.598 Y34.517 Z-1.271
N1428 X196.607 Y34.557 Z-1.269
N1429 X196.612 Y34.598 Z-1.267
N1430 X196.614 Y34.64 Z-1.264
N1431 Y35.276 Z-1.226
N1432 X196.612 Y35.317 Z-1.224
N1433 X196.607 Y35.359 Z-1.221
N1434 X196.598 Y35.399 Z-1.219
N1435 X196.585 Y35.439 Z-1.217
N1436 X196.569 Y35.477 Z-1.214
N1437 X196.55 Y35.514 Z-1.212
N1438 X196.528 Y35.549 Z-1.21
N1439 X196.503 Y35.582 Z-1.208
N1440 X196.474 Y35.612 Z-1.206
N1441 X196.444 Y35.64 Z-1.205
N1442 X196.411 Y35.665 Z-1.203
N1443 X196.376 Y35.688 Z-1.202
N1444 X196.339 Y35.707 Z-1.201
N1445 X196.301 Y35.723 Z-1.2
N1446 X196.261 Y35.735 Z-1.199
N1447 X196.22 Y35.744 Z-1.198
N1448 X196.179 Y35.75
N1449 X196.138 Y35.751
N1450 G2 X196.068 Z-1.214 I0 K-0.159
N1451 G3 X196 Z-1.23 I-0.07 K0.143
N1452 G1 X193.488 Z-1.262
N1453 X182.775 Z-1.401
N1454 X174.659 Z-1.477
N1455 X163.148 Z-1.446
N1456 X154.564 Z-1.405
N1457 X153.722 Z-1.431
N1458 X152.122 Z-1.506
N1459 X151.712 Z-1.513
N1460 X143.811 Z-1.458
N1461 X138.756 Z-1.392
N1462 X132.452 Z-1.275
N1463 X116.652 Z-0.93
N1464 X111.382 Z-0.837
N1465 X107.773 Z-0.788
N1466 X104.501 Z-0.748
N1467 X102.458 Z-0.698
N1468 X99.922 Z-0.688
N1469 X94.849 Z-0.7
N1470 X88.801 Z-0.742
N1471 X83.241 Z-0.805
N1472 X77.072 Z-0.902
N1473 X71.291 Z-1.021
N1474 X66.805 Z-1.131
N1475 X64 Z-1.208
N1476 G3 X63.926 Z-1.192 I-0.004 K0.159
N1477 G2 X63.856 Z-1.176 I-0.07 K-0.143
N1478 G1 X63.855
N1479 X63.814 Y35.753
N1480 X63.773 Y35.759
N1481 X63.732 Y35.768 Z-1.177
N1482 X63.693 Y35.78
N1483 X63.654 Y35.796 Z-1.178
N1484 X63.617 Y35.815 Z-1.179
N1485 X63.582 Y35.837 Z-1.18
N1486 X63.549 Y35.863 Z-1.182
N1487 X63.519 Y35.891 Z-1.183
N1488 X63.491 Y35.921 Z-1.185
N1489 X63.465 Y35.954 Z-1.186
N1490 X63.443 Y35.989 Z-1.188
N1491 X63.424 Y36.026 Z-1.19
N1492 X63.408 Y36.064 Z-1.192
N1493 X63.395 Y36.104 Z-1.194
N1494 X63.386 Y36.144 Z-1.196
N1495 X63.381 Y36.186 Z-1.198
N1496 X63.379 Y36.227 Z-1.2
N1497 Y36.863 Z-1.233
N1498 X63.381 Y36.904 Z-1.235
N1499 X63.386 Y36.946 Z-1.237
N1500 X63.395 Y36.986 Z-1.239
N1501 X63.408 Y37.026 Z-1.241
N1502 X63.424 Y37.064 Z-1.243
N1503 X63.443 Y37.101 Z-1.245
N1504 X63.465 Y37.136 Z-1.247
N1505 X63.491 Y37.169 Z-1.248
N1506 X63.519 Y37.199 Z-1.25
N1507 X63.549 Y37.227 Z-1.251
N1508 X63.582 Y37.253 Z-1.253
N1509 X63.617 Y37.275 Z-1.254
N1510 X63.654 Y37.294 Z-1.255
N1511 X63.693 Y37.31
N1512 X63.732 Y37.322 Z-1.256
N1513 X63.773 Y37.331 Z-1.257
N1514 X63.814 Y37.337
N1515 X63.855 Y37.339
N1516 G3 X63.925 Z-1.273 I0 K-0.159
N1517 G2 X64 Z-1.289 I0.07 K0.143
N1518 G1 X64.15 Z-1.285
N1519 X68.644 Z-1.157
N1520 X72.872 Z-1.052
N1521 X77.103 Z-0.962
N1522 X81.634 Z-0.881
N1523 X86.153 Z-0.818
N1524 X91.713 Z-0.763
N1525 X97.761 Z-0.732
N1526 X102.249 Z-0.74
N1527 X107.029 Z-0.787
N1528 X110.638 Z-0.836
N1529 X115.986 Z-0.931
N1530 X126.393 Z-1.159
N1531 X134.588 Z-1.331
N1532 X137.498 Z-1.364
N1533 X143.156 Z-1.398
N1534 X153.078 Z-1.402
N1535 X164.784 Z-1.366
N1536 X182.148 Z-1.258
N1537 X196 Z-1.17
N1538 G2 X196.069 Z-1.154 I-0.001 K0.159
N1539 G1 X196.085 Z-1.146
N1540 G3 X196.155 Z-1.13 I0.07 K-0.143
N1541 G17 G3 X196.632 Y37.815 I0 J0.476
N1542 G1 Y38.449
N1543 G3 X196.155 Y38.926 I-0.476 J0
N1544 G1 X196.14
N1545 G18 G2 X196.07 Z-1.146 I0 K-0.159
N1546 G3 X196 Z-1.162 I-0.07 K0.143
N1547 G1 X178.441 Z-1.11
N1548 X163.771 Z-1.103
N1549 X128.241 Z-1.151
N1550 X122.949 Z-1.148
N1551 X116.094 Z-1.011
N1552 X111.268 Z-0.928
N1553 X107.045 Z-0.872
N1554 X102.612 Z-0.836
N1555 X98.125 Z-0.829
N1556 X92.077 Z-0.863
N1557 X86.614 Z-0.92
N1558 X81.984 Z-0.985
N1559 X77.514 Z-1.064
N1560 X73.013 Z-1.158
N1561 X68.303 Z-1.272
N1562 X64 Z-1.39
N1563 G3 X63.926 Z-1.374 I-0.004 K0.159
N1564 G2 X63.856 Z-1.357 I-0.07 K-0.143
N1565 G1 X63.85
N1566 G17 G2 X63.373 Y39.402 I0 J0.476
N1567 G1 Y40.037
N1568 G2 X63.85 Y40.513 I0.476 J0
N1569 G18 G3 X63.92 Z-1.374 I0 K-0.159
N1570 G1 X63.931 Z-1.379
N1571 G2 X64 Z-1.395 I0.07 K0.143
N1572 G1 X66.642 Z-1.409
N1573 X71.577 Z-1.316
N1574 X77.693 Z-1.209
N1575 X83.509 Z-1.125
N1576 X89.16 Z-1.059
N1577 X95.599 Z-1.006
N1578 X100.769 Z-0.986
N1579 X106.719 Z-1
N1580 X112.182 Z-1.043
N1581 X121.157 Z-1.145
N1582 X122.21 Z-1.146
N1583 X133.721 Z-1.049
N1584 X140.745 Z-1.002
N1585 X150.158 Z-0.979
N1586 X161.857 Z-0.988
N1587 X173.368 Z-1.03
N1588 X189.562 Z-1.132
N1589 X196 Z-1.162
N1590 G2 X196.071 Z-1.146 I0.001 K0.159
N1591 G3 X196.14 Z-1.13 I0.07 K-0.143
N1592 G1 X196.169
N1593 G17 G3 X196.645 Y40.989 I0 J0.476
N1594 G1 Y41.624
N1595 G3 X196.169 Y42.1 I-0.476 J0
N1596 G18 G2 X196.099 Z-1.146 I0 K-0.159
N1597 G1 X196.071 Z-1.16
N1598 G3 X196 Z-1.176 I-0.07 K0.143
N1599 G1 X174.149 Z-1.031
N1600 X163.223 Z-0.988
N1601 X150.988 Z-0.978
N1602 X140.648 Z-0.996
N1603 X134.015 Z-1.039
N1604 X121.918 Z-1.149
N1605 X116.091 Z-1.159
N1606 X103.93 Z-1.186
N1607 X93.589 Z-1.239
N1608 X81.103 Z-1.333
N1609 X76.716 Z-1.367
N1610 X67.522 Z-1.241
N1611 X64 Z-1.183
N1612 G3 X63.933 Z-1.167 I0.003 K0.159
N1613 G2 X63.863 Z-1.151 I-0.07 K-0.143
N1614 G1 X63.821 Y42.102
N1615 X63.78 Y42.107 Z-1.15
N1616 X63.739 Y42.116 Z-1.149
N1617 X63.7 Y42.129 Z-1.147
N1618 X63.661 Y42.144 Z-1.145
N1619 X63.624 Y42.163 Z-1.143
N1620 X63.589 Y42.185 Z-1.14
N1621 X63.556 Y42.211 Z-1.137
N1622 X63.526 Y42.238 Z-1.133
N1623 X63.498 Y42.269 Z-1.129
N1624 X63.472 Y42.301 Z-1.125
N1625 X63.45 Y42.336 Z-1.12
N1626 X63.431 Y42.373 Z-1.115
N1627 X63.415 Y42.411 Z-1.11
N1628 X63.403 Y42.45 Z-1.105
N1629 X63.394 Y42.49 Z-1.1
N1630 X63.388 Y42.531 Z-1.094
N1631 X63.386 Y42.572 Z-1.089
N1632 Y43.215 Z-1.004
N1633 X63.388 Y43.256 Z-0.998
N1634 X63.394 Y43.297 Z-0.993
N1635 X63.403 Y43.337 Z-0.988
N1636 X63.415 Y43.377 Z-0.983
N1637 X63.431 Y43.415 Z-0.978
N1638 X63.45 Y43.451 Z-0.973
N1639 X63.472 Y43.486 Z-0.968
N1640 X63.498 Y43.519 Z-0.964
N1641 X63.526 Y43.549 Z-0.96
N1642 X63.556 Y43.577 Z-0.956
N1643 X63.589 Y43.602 Z-0.953
N1644 X63.624 Y43.624 Z-0.95
N1645 X63.661 Y43.643 Z-0.947
N1646 X63.7 Y43.659 Z-0.945
N1647 X63.739 Y43.671 Z-0.944
N1648 X63.78 Y43.68 Z-0.942
N1649 X63.821 Y43.685
N1650 X63.863 Y43.687
N1651 G3 X63.932 Z-0.958 I0 K-0.159
N1652 G2 X64 Z-0.974 I0.07 K0.143
N1653 G1 X78.188 Z-1.181
N1654 X89.797 Z-1.315
N1655 X91.549 Z-1.364
N1656 X98.572 Z-1.417
N1657 X100.791 Z-1.409
N1658 X109.376 Z-1.337
N1659 X125.764 Z-1.141
N1660 X133.373 Z-1.057
N1661 X140.006 Z-1.006
N1662 X148.005 Z-0.982
N1663 X159.321 Z-0.984
N1664 X169.661 Z-1.018
N1665 X179.417 Z-1.08
N1666 X187.806 Z-1.156
N1667 X196 Z-1.25
N1668 G2 X196.072 Z-1.234 I0.002 K0.159
N1669 G3 X196.142 Z-1.217 I0.07 K-0.143
N1670 G1 X196.183 Y43.689
N1671 X196.224 Y43.694 Z-1.218
N1672 X196.265 Y43.703 Z-1.219
N1673 X196.304 Y43.716
N1674 X196.343 Y43.732 Z-1.221
N1675 X196.38 Y43.751 Z-1.222
N1676 X196.415 Y43.773 Z-1.223
N1677 X196.448 Y43.798 Z-1.225
N1678 X196.478 Y43.826 Z-1.227
N1679 X196.506 Y43.857 Z-1.229
N1680 X196.532 Y43.89 Z-1.232
N1681 X196.554 Y43.925 Z-1.234
N1682 X196.573 Y43.962 Z-1.237
N1683 X196.589 Y44 Z-1.24
N1684 X196.602 Y44.039 Z-1.242
N1685 X196.611 Y44.08 Z-1.245
N1686 X196.616 Y44.121 Z-1.248
N1687 X196.618 Y44.162 Z-1.251
N1688 Y44.799 Z-1.297
N1689 X196.616 Y44.841 Z-1.3
N1690 X196.611 Y44.882 Z-1.303
N1691 X196.602 Y44.922 Z-1.305
N1692 X196.589 Y44.962 Z-1.308
N1693 X196.573 Y45 Z-1.311
N1694 X196.554 Y45.037 Z-1.314
N1695 X196.532 Y45.072 Z-1.316
N1696 X196.506 Y45.105 Z-1.318
N1697 X196.478 Y45.135 Z-1.321
N1698 X196.448 Y45.163 Z-1.323
N1699 X196.415 Y45.189 Z-1.324
N1700 X196.38 Y45.211 Z-1.326
N1701 X196.343 Y45.23 Z-1.327
N1702 X196.304 Y45.246 Z-1.328
N1703 X196.265 Y45.258 Z-1.329
N1704 X196.224 Y45.267 Z-1.33
N1705 X196.183 Y45.273
N1706 X196.142 Y45.274 Z-1.331
N1707 G2 X196.072 Z-1.347 I0 K-0.159
N1708 G3 X196 Z-1.363 I-0.07 K0.143
N1709 G1 X187.806 Z-1.268
N1710 X179.026 Z-1.188
N1711 X169.271 Z-1.126
N1712 X158.736 Z-1.09
N1713 X147.206 Z-1.086
N1714 X139.938 Z-1.108
N1715 X133.744 Z-1.159
N1716 X126.916 Z-1.239
N1717 X114.236 Z-1.398
N1718 X105.847 Z-1.43
N1719 X101.553 Z-1.427
N1720 X94.627 Z-1.386
N1721 X92.112 Z-1.361
N1722 X91.471 Z-1.328
N1723 X90.864 Z-1.268
N1724 X89.58 Z-1.096
N1725 X89.016 Z-1.046
N1726 X88.451 Z-1.025
N1727 X77.453 Z-0.945
N1728 X68.478 Z-0.907
N1729 X64 Z-0.9
N1730 G3 X63.93 Z-0.884 I0 K0.159
N1731 G2 X63.861 Z-0.868 I-0.07 K-0.143
N1732 G1 X63.86
N1733 G17 G2 X63.384 Y45.751 I0 J0.476
N1734 G1 Y46.385
N1735 G2 X63.86 Y46.862 I0.476 J0
N1736 G18 G3 X63.93 Z-0.884 I0 K-0.159
N1737 G2 X64 Z-0.9 I0.07 K0.143
N1738 G1 X75.865 Z-0.907
N1739 X88.742 Z-0.942
N1740 X89.522 Z-0.95
N1741 X89.71 Z-0.975
N1742 X89.866 Z-1.022
N1743 X90.005 Z-1.092
N1744 X90.115 Z-1.174
N1745 X90.161 Z-1.233
N1746 X90.167 Z-2.498
N1747 X165.055 Z-2.5
N1748 X165.06 Z-1.389
N1749 X165.078 Z-1.371
N1750 X165.164 Z-1.351
N1751 X165.467 Z-1.339
N1752 X182.148 Z-1.398
N1753 X196 Z-1.476
N1754 G2 X196.071 Z-1.46 I0.001 K0.159
N1755 G3 X196.141 Z-1.444 I0.07 K-0.143
N1756 G1 X196.182 Y46.863
N1757 X196.223 Y46.869 Z-1.443
N1758 X196.264 Y46.878
N1759 X196.303 Y46.89 Z-1.442
N1760 X196.342 Y46.906
N1761 X196.379 Y46.925 Z-1.441
N1762 X196.414 Y46.948 Z-1.439
N1763 X196.447 Y46.973 Z-1.438
N1764 X196.477 Y47.001 Z-1.437
N1765 X196.505 Y47.032 Z-1.435
N1766 X196.531 Y47.064 Z-1.434
N1767 X196.553 Y47.099 Z-1.432
N1768 X196.572 Y47.136 Z-1.43
N1769 X196.588 Y47.175 Z-1.428
N1770 X196.601 Y47.214 Z-1.426
N1771 X196.61 Y47.255 Z-1.424
N1772 X196.615 Y47.296 Z-1.422
N1773 X196.617 Y47.337 Z-1.42
N1774 Y47.973 Z-1.389
N1775 X196.615 Y48.015 Z-1.386
N1776 X196.61 Y48.056 Z-1.384
N1777 X196.601 Y48.096 Z-1.382
N1778 X196.588 Y48.136 Z-1.38
N1779 X196.572 Y48.174 Z-1.379
N1780 X196.553 Y48.211 Z-1.377
N1781 X196.531 Y48.246 Z-1.375
N1782 X196.505 Y48.279 Z-1.373
N1783 X196.477 Y48.309 Z-1.372
N1784 X196.447 Y48.337 Z-1.37
N1785 X196.414 Y48.363 Z-1.369
N1786 X196.379 Y48.385 Z-1.368
N1787 X196.342 Y48.404 Z-1.367
N1788 X196.303 Y48.42 Z-1.366
N1789 X196.264 Y48.433
N1790 X196.223 Y48.442 Z-1.365
N1791 X196.182 Y48.447
N1792 X196.141 Y48.449
N1793 X196.14
N1794 G2 X196.07 Z-1.381 I0 K-0.159
N1795 G3 X196 Z-1.397 I-0.07 K0.143
N1796 G1 X168.89 Z-1.395
N1797 X166.872 Z-1.396
N1798 X166.366 Z-1.425
N1799 X165.929 Z-1.478
N1800 X165.633 Z-1.537
N1801 X165.53 Z-1.574
N1802 X165.524 Z-1.581
N1803 X165.522 Z-2.5
N1804 X164.601
N1805 X164.598 Z0
N1806 X90.623
N1807 X90.621 Z-2.5
N1808 X89.699
N1809 X89.696 Z-0.969
N1810 X89.648 Z-0.949
N1811 X88.724 Z-0.941
N1812 X75.652 Z-0.907
N1813 X64 Z-0.901
N1814 G3 X63.93 Z-0.884 I0 K0.159
N1815 G2 X63.86 Z-0.868 I-0.07 K-0.143
N1816 G1 X63.819 Y48.451
N1817 X63.778 Y48.456 Z-0.869
N1818 X63.737 Y48.465
N1819 X63.697 Y48.477
N1820 X63.659 Y48.493 Z-0.87
N1821 X63.622 Y48.513 Z-0.871
N1822 X63.587 Y48.535
N1823 X63.554 Y48.56 Z-0.872
N1824 X63.524 Y48.588 Z-0.873
N1825 X63.496 Y48.619 Z-0.874
N1826 X63.47 Y48.652 Z-0.876
N1827 X63.448 Y48.687 Z-0.877
N1828 X63.429 Y48.724 Z-0.878
N1829 X63.413 Y48.762 Z-0.88
N1830 X63.4 Y48.802 Z-0.881
N1831 X63.391 Y48.842 Z-0.883
N1832 X63.386 Y48.883 Z-0.884
N1833 X63.384 Y48.925 Z-0.886
N1834 Y49.56 Z-0.909
N1835 X63.386 Y49.601 Z-0.911
N1836 X63.391 Y49.643 Z-0.912
N1837 X63.4 Y49.683 Z-0.914
N1838 X63.413 Y49.723 Z-0.915
N1839 X63.429 Y49.761 Z-0.916
N1840 X63.448 Y49.798 Z-0.918
N1841 X63.47 Y49.833 Z-0.919
N1842 X63.496 Y49.866 Z-0.92
N1843 X63.524 Y49.897 Z-0.921
N1844 X63.554 Y49.925 Z-0.922
N1845 X63.587 Y49.95 Z-0.923
N1846 X63.622 Y49.972 Z-0.924
N1847 X63.659 Y49.991 Z-0.925
N1848 X63.697 Y50.007
N1849 X63.737 Y50.02 Z-0.926
N1850 X63.778 Y50.029
N1851 X63.819 Y50.034
N1852 X63.86 Y50.036
N1853 G3 X63.93 Z-0.943 I0 K-0.159
N1854 G2 X64 Z-0.959 I0.07 K0.143
N1855 G1 X69.518 Z-0.962
N1856 X88.041 Z-0.981
N1857 X88.596 Z-0.99
N1858 X88.981 Z-1.017
N1859 X89.241 Z-1.053
N1860 X89.433 Z-1.1
N1861 X89.573 Z-1.155
N1862 X89.663 Z-1.217
N1863 X89.696 Z-1.266
N1864 X89.699 Z-2.5
N1865 X90.524
N1866 Z0
N1867 X164.695
N1868 X164.699 Z-2.5
N1869 X165.524
N1870 X165.527 Z-1.378
N1871 X165.557 Z-1.334
N1872 X165.639 Z-1.281
N1873 X165.799 Z-1.221
N1874 X166.058 Z-1.163
N1875 X166.411 Z-1.119
N1876 X166.866 Z-1.094
N1877 X173.954 Z-1.108
N1878 X185.465 Z-1.16
N1879 X196 Z-1.235
N1880 G2 X196.071 Z-1.218 I0.001 K0.159
N1881 G3 X196.141 Z-1.202 I0.07 K-0.143
N1882 G1 X196.183 Y50.038
N1883 X196.224 Y50.043
N1884 X196.264 Y50.052 Z-1.201
N1885 X196.304 Y50.065
N1886 X196.342 Y50.08 Z-1.2
N1887 X196.379 Y50.1 Z-1.199
N1888 X196.414 Y50.122 Z-1.197
N1889 X196.447 Y50.147 Z-1.196
N1890 X196.478 Y50.175 Z-1.194
N1891 X196.506 Y50.206 Z-1.193
N1892 X196.531 Y50.239 Z-1.191
N1893 X196.554 Y50.274 Z-1.189
N1894 X196.573 Y50.31 Z-1.187
N1895 X196.589 Y50.349 Z-1.185
N1896 X196.601 Y50.388 Z-1.182
N1897 X196.61 Y50.429 Z-1.18
N1898 X196.616 Y50.47 Z-1.178
N1899 X196.617 Y50.511 Z-1.175
N1900 Y51.148 Z-1.139
N1901 X196.616 Y51.189 Z-1.137
N1902 X196.61 Y51.23 Z-1.135
N1903 X196.601 Y51.271 Z-1.132
N1904 X196.589 Y51.31 Z-1.13
N1905 X196.573 Y51.349 Z-1.128
N1906 X196.554 Y51.385 Z-1.126
N1907 X196.531 Y51.42 Z-1.124
N1908 X196.506 Y51.453 Z-1.122
N1909 X196.478 Y51.484 Z-1.12
N1910 X196.447 Y51.512 Z-1.119
N1911 X196.414 Y51.537 Z-1.117
N1912 X196.379 Y51.559 Z-1.116
N1913 X196.342 Y51.579 Z-1.115
N1914 X196.304 Y51.594 Z-1.114
N1915 X196.264 Y51.607 Z-1.113
N1916 X196.224 Y51.616
N1917 X196.183 Y51.621
N1918 X196.141 Y51.623 Z-1.112
N1919 G2 X196.071 Z-1.129 I0 K-0.159
N1920 G3 X196 Z-1.145 I-0.07 K0.143
N1921 G1 X186.44 Z-1.062
N1922 X176.051 Z-1
N1923 X167.181 Z-0.972
N1924 X165.907 Z-0.976
N1925 X165.661 Z-1.003
N1926 X165.558 Z-1.041
N1927 X165.527 Z-1.077
N1928 X165.524 Z-2.5
N1929 X164.699
N1930 X164.695 Z0
N1931 X90.524
N1932 Z-2.5
N1933 X89.699
N1934 X89.697 Z-1.476
N1935 X89.619 Z-1.445
N1936 X89.357 Z-1.388
N1937 X88.951 Z-1.33
N1938 X88.516 Z-1.296
N1939 X88.069 Z-1.286
N1940 X75.973 Z-1.209
N1941 X64 Z-1.096
N1942 G3 X63.932 Z-1.079 I0.002 K0.159
N1943 G2 X63.862 Z-1.063 I-0.07 K-0.143
N1944 G1 X63.82 Y51.625
N1945 X63.779 Y51.63 Z-1.064
N1946 X63.739 Y51.639 Z-1.065
N1947 X63.699 Y51.652 Z-1.066
N1948 X63.661 Y51.668 Z-1.068
N1949 X63.624 Y51.687 Z-1.069
N1950 X63.589 Y51.709 Z-1.071
N1951 X63.556 Y51.734 Z-1.074
N1952 X63.525 Y51.762 Z-1.077
N1953 X63.497 Y51.792 Z-1.079
N1954 X63.472 Y51.825 Z-1.083
N1955 X63.449 Y51.86 Z-1.086
N1956 X63.43 Y51.897 Z-1.089
N1957 X63.414 Y51.935 Z-1.093
N1958 X63.402 Y51.975 Z-1.097
N1959 X63.393 Y52.015 Z-1.101
N1960 X63.387 Y52.056 Z-1.105
N1961 X63.386 Y52.097 Z-1.109
N1962 Y52.736 Z-1.17
N1963 X63.387 Y52.778 Z-1.174
N1964 X63.393 Y52.819 Z-1.178
N1965 X63.402 Y52.859 Z-1.181
N1966 X63.414 Y52.898 Z-1.185
N1967 X63.43 Y52.937 Z-1.189
N1968 X63.449 Y52.973 Z-1.192
N1969 X63.472 Y53.008 Z-1.196
N1970 X63.497 Y53.041 Z-1.199
N1971 X63.525 Y53.071 Z-1.202
N1972 X63.556 Y53.099 Z-1.204
N1973 X63.589 Y53.125 Z-1.207
N1974 X63.624 Y53.147 Z-1.209
N1975 X63.661 Y53.166 Z-1.211
N1976 X63.699 Y53.182 Z-1.212
N1977 X63.739 Y53.194 Z-1.213
N1978 X63.779 Y53.203 Z-1.214
N1979 X63.82 Y53.208 Z-1.215
N1980 X63.862 Y53.21
N1981 G3 X63.932 Z-1.231 I0 K-0.159
N1982 G2 X64 Z-1.247 I0.07 K0.143
N1983 G1 X71.921 Z-1.352
N1984 X88.146 Z-1.359
N1985 X88.694 Z-1.371
N1986 X89.25 Z-1.408
N1987 X89.604 Z-1.453
N1988 X89.696 Z-1.478
N1989 X89.699 Z-2.5
N1990 X90.524
N1991 Z0
N1992 X164.695
N1993 X164.699 Z-2.5
N1994 X165.524
N1995 X165.527 Z-0.976
N1996 X166.894 Z-0.972
N1997 X173.954 Z-0.988
N1998 X184.489 Z-1.043
N1999 X196 Z-1.133
N2000 G2 X196.071 Z-1.117 I0.001 K0.159
N2001 G3 X196.141 Z-1.101 I0.07 K-0.143
N2002 G1 X196.152
N2003 G17 G3 X196.629 Y53.687 I0 J0.476
N2004 G1 Y54.321
N2005 G3 X196.152 Y54.797 I-0.476 J0
N2006 G18 G2 X196.082 Z-1.117 I0 K-0.159
N2007 G1 X196.071 Z-1.122
N2008 G3 X196 Z-1.139 I-0.07 K0.143
N2009 G1 X183.318 Z-1.046
N2010 X172.003 Z-0.993
N2011 X166.735 Z-0.982
N2012 X166.25 Z-0.998
N2013 X165.934 Z-1.029
N2014 X165.742 Z-1.073
N2015 X165.635 Z-1.119
N2016 X165.569 Z-1.168
N2017 X165.534 Z-1.223
N2018 X165.524 Z-1.269
N2019 Z-2.5
N2020 X164.699
N2021 X164.695 Z0
N2022 X90.524
N2023 Z-2.5
N2024 X89.699
N2025 X89.697 Z-1.349
N2026 X89.656 Z-1.315
N2027 X89.515 Z-1.266
N2028 X89.268 Z-1.22
N2029 X88.856 Z-1.178
N2030 X88.284 Z-1.156
N2031 X74.557 Z-1.107
N2032 X64 Z-1.091
N2033 G3 X63.841 Z-0.933 I0 K0.159 F457.2
N2034 G1 Z-0.781
N2035 Y54.805 Z-0.731
N2036 Y54.828 Z-0.687
N2037 Y54.863 Z-0.652
N2038 Y54.907 Z-0.63
N2039 Y54.956 Z-0.622
N2040 Y56.226 F1016
N2041 Y56.275 Z-0.63 F457.2
N2042 Y56.319 Z-0.652
N2043 Y56.354 Z-0.687
N2044 Y56.377 Z-0.731
N2045 Y56.385 Z-0.781
N2046 G2 X64 Z-0.939 I0.159 K0
N2047 G1 X64.644 F1016
N2048 X76.141 Z-1
N2049 X87.847 Z-1.052
N2050 X89.249 Z-1.063
N2051 X89.532 Z-1.084
N2052 X89.665 Z-1.118
N2053 X89.696 Z-1.144
N2054 X89.699 Z-2.5
N2055 X90.524
N2056 Z0
N2057 X164.695
N2058 X164.699 Z-2.5
N2059 X165.524
N2060 Z-1.645
N2061 X165.533 Z-1.623
N2062 X165.599 Z-1.568
N2063 X165.751 Z-1.489
N2064 X165.944 Z-1.418
N2065 X166.238 Z-1.347
N2066 X166.569 Z-1.298
N2067 X166.93 Z-1.274
N2068 X183.318 Z-1.217
N2069 X196 Z-1.197
N2070 G2 X196.07 Z-1.181 I0 K0.159
N2071 G3 X196.139 Z-1.165 I0.07 K-0.143
N2072 G1 X196.181 Y56.386
N2073 X196.222 Y56.392 Z-1.166
N2074 X196.263 Y56.401
N2075 X196.302 Y56.413 Z-1.168
N2076 X196.341 Y56.429 Z-1.169
N2077 X196.378 Y56.448 Z-1.171
N2078 X196.413 Y56.47 Z-1.173
N2079 X196.446 Y56.496 Z-1.176
N2080 X196.476 Y56.523 Z-1.179
N2081 X196.504 Y56.554 Z-1.182
N2082 X196.53 Y56.587 Z-1.185
N2083 X196.552 Y56.622 Z-1.188
N2084 X196.571 Y56.658 Z-1.192
N2085 X196.587 Y56.696 Z-1.196
N2086 X196.6 Y56.736 Z-1.199
N2087 X196.608 Y56.776 Z-1.203
N2088 X196.614 Y56.817 Z-1.208
N2089 X196.616 Y56.859 Z-1.212
N2090 Y57.498 Z-1.275
N2091 X196.614 Y57.539 Z-1.279
N2092 X196.608 Y57.58 Z-1.283
N2093 X196.6 Y57.621 Z-1.287
N2094 X196.587 Y57.66 Z-1.291
N2095 X196.571 Y57.698 Z-1.295
N2096 X196.552 Y57.735 Z-1.298
N2097 X196.53 Y57.77 Z-1.302
N2098 X196.504 Y57.803 Z-1.305
N2099 X196.476 Y57.833 Z-1.308
N2100 X196.446 Y57.861 Z-1.311
N2101 X196.413 Y57.886 Z-1.313
N2102 X196.378 Y57.908 Z-1.315
N2103 X196.341 Y57.927 Z-1.317
N2104 X196.302 Y57.943 Z-1.319
N2105 X196.263 Y57.956 Z-1.32
N2106 X196.222 Y57.965 Z-1.321
N2107 X196.181 Y57.97
N2108 X196.139 Y57.972 Z-1.322
N2109 X196.138
N2110 G2 X196.068 Z-1.338 I0 K-0.159
N2111 G3 X196 Z-1.354 I-0.07 K0.143
N2112 G1 X181.175 Z-1.535
N2113 X178.696 Z-1.558
N2114 X166.819 Z-1.497
N2115 X166.144 Z-1.51
N2116 X165.769 Z-1.534
N2117 X165.593 Z-1.566
N2118 X165.532 Z-1.595
N2119 X165.524 Z-1.61
N2120 X165.523 Z-2.5
N2121 X164.699
N2122 X164.695 Z0
N2123 X90.524
N2124 Z-2.5
N2125 X89.699
N2126 X89.698 Z-1.055
N2127 X79.457 Z-1.016
N2128 X64.891 Z-0.939
N2129 X64
N2130 G3 X63.841 Z-0.781 I0 K0.159 F457.2
N2131 G1 Y57.98 Z-0.731
N2132 Y58.002 Z-0.687
N2133 Y58.037 Z-0.652
N2134 Y58.082 Z-0.63
N2135 Y58.131 Z-0.622
N2136 Y59.4 F1016
N2137 Y59.449 Z-0.63 F457.2
N2138 Y59.494 Z-0.652
N2139 Y59.529 Z-0.687
N2140 Y59.551 Z-0.731
N2141 Y59.559 Z-0.781
N2142 Z-0.903
N2143 G2 X64 Z-1.062 I0.159 K0
N2144 G1 X68.257 Z-1.056 F1016
N2145 X83.659 Z-1.05
N2146 X88.331 Z-1.033
N2147 X89.231 Z-1.048
N2148 X89.698 Z-1.075
N2149 X89.699 Z-2.5
N2150 X90.524
N2151 Z0
N2152 X164.699
N2153 Z-2.5
N2154 X165.524
N2155 Z-1.496
N2156 X165.552 Z-1.489
N2157 X169.582 Z-1.491
N2158 X189.147 Z-1.586
N2159 X196 Z-1.515
N2160 G2 X196.068 Z-1.499 I-0.002 K0.159
N2161 G3 X196.138 Z-1.482 I0.07 K-0.143
N2162 G1 X196.14
N2163 X196.181 Y59.561
N2164 X196.222 Y59.566 Z-1.483
N2165 X196.263 Y59.575
N2166 X196.303 Y59.588 Z-1.484
N2167 X196.341 Y59.604
N2168 X196.378 Y59.623 Z-1.485
N2169 X196.413 Y59.645 Z-1.486
N2170 X196.446 Y59.67 Z-1.487
N2171 X196.477 Y59.698 Z-1.489
N2172 X196.505 Y59.729 Z-1.49
N2173 X196.53 Y59.762 Z-1.492
N2174 X196.552 Y59.797 Z-1.493
N2175 X196.571 Y59.834 Z-1.495
N2176 X196.587 Y59.872 Z-1.497
N2177 X196.6 Y59.912 Z-1.499
N2178 X196.609 Y59.952 Z-1.5
N2179 X196.614 Y59.993 Z-1.502
N2180 X196.616 Y60.035 Z-1.504
N2181 Y60.67 Z-1.534
N2182 X196.614 Y60.712 Z-1.536
N2183 X196.609 Y60.753 Z-1.537
N2184 X196.6 Y60.794 Z-1.539
N2185 X196.587 Y60.833 Z-1.541
N2186 X196.571 Y60.871 Z-1.543
N2187 X196.552 Y60.908 Z-1.545
N2188 X196.53 Y60.943 Z-1.546
N2189 X196.505 Y60.976 Z-1.548
N2190 X196.477 Y61.007 Z-1.549
N2191 X196.446 Y61.035 Z-1.55
N2192 X196.413 Y61.06 Z-1.552
N2193 X196.378 Y61.082 Z-1.553
N2194 X196.341 Y61.102
N2195 X196.303 Y61.117 Z-1.554
N2196 X196.263 Y61.13 Z-1.555
N2197 X196.222 Y61.139
N2198 X196.181 Y61.144
N2199 X196.14 Y61.146 Z-1.556
N2200 G2 X196.07 Z-1.572 I0 K-0.159
N2201 G3 X196 Z-1.588 I-0.07 K0.143
N2202 G1 X189.039 Z-1.586
N2203 X167.78 Z-1.486
N2204 X165.612 Z-1.491
N2205 X165.525 Z-1.503
N2206 X165.522 Z-2.5
N2207 X164.699
N2208 X164.695 Z0
N2209 X90.524
N2210 Z-2.5
N2211 X89.699
N2212 X89.697 Z-1.031
N2213 X89.558 Z-1.024
N2214 X64.715 Z-1.048
N2215 X64 Z-1.05
N2216 G3 X63.93 Z-1.033 I0 K0.159
N2217 G1 X63.926 Z-1.032
N2218 G2 X63.857 Z-1.016 I-0.07 K-0.143
N2219 G17 G2 X63.38 Y61.622 I0 J0.476
N2220 G1 Y62.257
N2221 G2 X63.857 Y62.733 I0.476 J0
N2222 G1 X63.86
N2223 G18 G3 X63.93 Z-1.032 I0 K-0.159
N2224 G2 X64 Z-1.048 I0.07 K0.143
N2225 G1 X89.187 Z-1.024
N2226 X89.619 Z-1.03
N2227 X89.695 Z-1.045
N2228 X89.699 Z-2.5
N2229 X90.524
N2230 Z0
N2231 X164.695
N2232 X164.699 Z-2.5
N2233 X165.524
N2234 Z-1.585
N2235 X165.534 Z-1.576
N2236 X165.645 Z-1.552
N2237 X166.01 Z-1.524
N2238 X166.762 Z-1.507
N2239 X184.419 Z-1.573
N2240 X196 Z-1.49
N2241 G2 X196.069 Z-1.474 I-0.001 K0.159
N2242 G3 X196.139 Z-1.458 I0.07 K-0.143
N2243 G1 X196.18 Y62.735
N2244 X196.221 Y62.741 Z-1.457
N2245 X196.262 Y62.749 Z-1.456
N2246 X196.301 Y62.762 Z-1.455
N2247 X196.34 Y62.778 Z-1.454
N2248 X196.377 Y62.797 Z-1.452
N2249 X196.412 Y62.819 Z-1.45
N2250 X196.445 Y62.844 Z-1.447
N2251 X196.475 Y62.872 Z-1.445
N2252 X196.503 Y62.903 Z-1.442
N2253 X196.529 Y62.936 Z-1.439
N2254 X196.551 Y62.97 Z-1.436
N2255 X196.57 Y63.007 Z-1.432
N2256 X196.586 Y63.045 Z-1.429
N2257 X196.599 Y63.085 Z-1.425
N2258 X196.608 Y63.125 Z-1.421
N2259 X196.613 Y63.166 Z-1.417
N2260 X196.615 Y63.208 Z-1.414
N2261 Y63.846 Z-1.354
N2262 X196.613 Y63.888 Z-1.35
N2263 X196.608 Y63.929 Z-1.346
N2264 X196.599 Y63.969 Z-1.343
N2265 X196.586 Y64.008 Z-1.339
N2266 X196.57 Y64.047 Z-1.335
N2267 X196.551 Y64.083 Z-1.332
N2268 X196.529 Y64.118 Z-1.329
N2269 X196.503 Y64.151 Z-1.326
N2270 X196.475 Y64.182 Z-1.323
N2271 X196.445 Y64.21 Z-1.32
N2272 X196.412 Y64.235 Z-1.318
N2273 X196.377 Y64.257 Z-1.316
N2274 X196.34 Y64.276 Z-1.314
N2275 X196.301 Y64.292 Z-1.313
N2276 X196.262 Y64.304 Z-1.311
N2277 X196.221 Y64.313
N2278 X196.18 Y64.319 Z-1.31
N2279 X196.139 Y64.32
N2280 X196.138
N2281 G2 X196.068 Z-1.326 I0 K-0.159
N2282 G3 X196 Z-1.342 I-0.07 K0.143
N2283 G1 X181.368 Z-1.479
N2284 X167.906 Z-1.565
N2285 X166.664 Z-1.576
N2286 X165.736 Z-1.624
N2287 X165.524 Z-1.643
N2288 Z-2.5
N2289 X164.699
N2290 X164.695 Z0
N2291 X90.524
N2292 Z-2.5
N2293 X89.699
N2294 X89.696 Z-1.168
N2295 X89.653 Z-1.14
N2296 X89.527 Z-1.11
N2297 X89.245 Z-1.079
N2298 X88.61 Z-1.054
N2299 X77.306 Z-1.039
N2300 X64 Z-1.053
N2301 G3 X63.93 Z-1.036 I0 K0.159
N2302 G2 X63.86 Z-1.02 I-0.07 K-0.143
N2303 G1 X63.819 Y64.322
N2304 X63.777 Y64.328 Z-1.021
N2305 X63.737 Y64.337
N2306 X63.697 Y64.349 Z-1.022
N2307 X63.659 Y64.365 Z-1.023
N2308 X63.622 Y64.384 Z-1.024
N2309 X63.587 Y64.406 Z-1.025
N2310 X63.554 Y64.432 Z-1.027
N2311 X63.523 Y64.46 Z-1.029
N2312 X63.495 Y64.49 Z-1.031
N2313 X63.47 Y64.523 Z-1.033
N2314 X63.448 Y64.558 Z-1.035
N2315 X63.428 Y64.595 Z-1.037
N2316 X63.413 Y64.633 Z-1.039
N2317 X63.4 Y64.673 Z-1.042
N2318 X63.391 Y64.713 Z-1.044
N2319 X63.386 Y64.754 Z-1.047
N2320 X63.384 Y64.796 Z-1.049
N2321 Y65.432 Z-1.088
N2322 X63.386 Y65.474 Z-1.091
N2323 X63.391 Y65.515 Z-1.093
N2324 X63.4 Y65.555 Z-1.096
N2325 X63.413 Y65.595 Z-1.098
N2326 X63.428 Y65.633 Z-1.1
N2327 X63.448 Y65.67 Z-1.103
N2328 X63.47 Y65.705 Z-1.105
N2329 X63.495 Y65.738 Z-1.107
N2330 X63.523 Y65.768 Z-1.109
N2331 X63.554 Y65.796 Z-1.11
N2332 X63.587 Y65.822 Z-1.112
N2333 X63.622 Y65.844 Z-1.113
N2334 X63.659 Y65.863 Z-1.115
N2335 X63.697 Y65.879 Z-1.116
N2336 X63.737 Y65.891
N2337 X63.777 Y65.9 Z-1.117
N2338 X63.819 Y65.906
N2339 X63.86 Y65.908
N2340 G3 X63.93 Z-1.133 I0 K-0.159
N2341 G2 X64 Z-1.15 I0.07 K0.143
N2342 G1 X73.57 Z-1.147
N2343 X88.008 Z-1.175
N2344 X88.676 Z-1.187
N2345 X89.214 Z-1.221
N2346 X89.504 Z-1.26
N2347 X89.653 Z-1.3
N2348 X89.696 Z-1.328
N2349 X89.699 Z-2.5
N2350 X90.524
N2351 Z0
N2352 X164.695
N2353 X164.699 Z-2.5
N2354 X165.523
N2355 X165.524 Z-1.568
N2356 X165.539 Z-1.543
N2357 X165.618 Z-1.497
N2358 X165.809 Z-1.433
N2359 X166.1 Z-1.368
N2360 X166.482 Z-1.316
N2361 X166.905 Z-1.29
N2362 X196 Z-1.199
N2363 G2 X196.069 Z-1.182 I-0.001 K0.159
N2364 G3 X196.139 Z-1.166 I0.07 K-0.143
N2365 G1 X196.141
N2366 X196.182 Y65.909
N2367 X196.223 Y65.915
N2368 X196.264 Y65.924 Z-1.165
N2369 X196.304 Y65.936
N2370 X196.342 Y65.952 Z-1.164
N2371 X196.379 Y65.971 Z-1.163
N2372 X196.414 Y65.994 Z-1.162
N2373 X196.447 Y66.019 Z-1.161
N2374 X196.477 Y66.047 Z-1.16
N2375 X196.505 Y66.078 Z-1.158
N2376 X196.531 Y66.111 Z-1.157
N2377 X196.553 Y66.146 Z-1.155
N2378 X196.572 Y66.182 Z-1.153
N2379 X196.588 Y66.221 Z-1.152
N2380 X196.601 Y66.26 Z-1.15
N2381 X196.61 Y66.301 Z-1.148
N2382 X196.615 Y66.342 Z-1.146
N2383 X196.617 Y66.383 Z-1.144
N2384 Y67.019 Z-1.114
N2385 X196.615 Y67.061 Z-1.112
N2386 X196.61 Y67.102 Z-1.111
N2387 X196.601 Y67.142 Z-1.109
N2388 X196.588 Y67.182 Z-1.107
N2389 X196.572 Y67.22 Z-1.105
N2390 X196.553 Y67.257 Z-1.103
N2391 X196.531 Y67.292 Z-1.102
N2392 X196.505 Y67.325 Z-1.1
N2393 X196.477 Y67.356 Z-1.099
N2394 X196.447 Y67.384 Z-1.097
N2395 X196.414 Y67.409 Z-1.096
N2396 X196.379 Y67.431 Z-1.095
N2397 X196.342 Y67.45 Z-1.094
N2398 X196.304 Y67.466
N2399 X196.264 Y67.479 Z-1.093
N2400 X196.223 Y67.488
N2401 X196.182 Y67.493 Z-1.092
N2402 X196.141 Y67.495
N2403 G2 X196.071 Z-1.108 I0 K-0.159
N2404 G3 X196 Z-1.125 I-0.07 K0.143
N2405 G1 X182.148 Z-1.047
N2406 X170.247 Z-1.006
N2407 X166.735
N2408 X166.245 Z-1.029
N2409 X165.928 Z-1.068
N2410 X165.744 Z-1.112
N2411 X165.624 Z-1.163
N2412 X165.555 Z-1.217
N2413 X165.527 Z-1.267
N2414 X165.524 Z-2.5
N2415 X164.699
N2416 X164.695 Z0
N2417 X90.524
N2418 Z-2.5
N2419 X89.699
N2420 X89.697 Z-1.458
N2421 X89.619 Z-1.432
N2422 X89.387 Z-1.397
N2423 X88.935 Z-1.36
N2424 X88.304 Z-1.34
N2425 X66.044 Z-1.294
N2426 X64 Z-1.291
N2427 G3 X63.93 Z-1.275 I0 K0.159
N2428 G2 X63.861 Z-1.259 I-0.07 K-0.143
N2429 G1 X63.819 Y67.497 Z-1.258
N2430 X63.778 Y67.502
N2431 X63.737 Y67.511 Z-1.257
N2432 X63.698 Y67.523 Z-1.256
N2433 X63.659 Y67.539 Z-1.255
N2434 X63.622 Y67.558 Z-1.253
N2435 X63.587 Y67.581 Z-1.251
N2436 X63.554 Y67.606 Z-1.249
N2437 X63.524 Y67.634 Z-1.246
N2438 X63.496 Y67.664 Z-1.243
N2439 X63.47 Y67.697 Z-1.24
N2440 X63.448 Y67.732 Z-1.237
N2441 X63.429 Y67.769 Z-1.234
N2442 X63.413 Y67.807 Z-1.23
N2443 X63.401 Y67.846 Z-1.227
N2444 X63.392 Y67.887 Z-1.223
N2445 X63.386 Y67.928 Z-1.219
N2446 X63.384 Y67.969 Z-1.216
N2447 Y68.608 Z-1.158
N2448 X63.386 Y68.649 Z-1.154
N2449 X63.392 Y68.69 Z-1.15
N2450 X63.401 Y68.73 Z-1.147
N2451 X63.413 Y68.77 Z-1.143
N2452 X63.429 Y68.808 Z-1.139
N2453 X63.448 Y68.845 Z-1.136
N2454 X63.47 Y68.88 Z-1.133
N2455 X63.496 Y68.913 Z-1.13
N2456 X63.524 Y68.943 Z-1.127
N2457 X63.554 Y68.971 Z-1.125
N2458 X63.587 Y68.996 Z-1.122
N2459 X63.622 Y69.018 Z-1.12
N2460 X63.659 Y69.038 Z-1.119
N2461 X63.698 Y69.053 Z-1.117
N2462 X63.737 Y69.066 Z-1.116
N2463 X63.778 Y69.075 Z-1.115
N2464 X63.819 Y69.08
N2465 X63.861 Y69.082
N2466 X63.863
N2467 G3 X63.933 Z-1.131 I0 K-0.159
N2468 G2 X64 Z-1.147 I0.07 K0.143
N2469 G1 X70.791 Z-1.249
N2470 X79.57 Z-1.347
N2471 X88.74 Z-1.409
N2472 X89.188 Z-1.424
N2473 X89.514 Z-1.457
N2474 X89.697 Z-1.494
N2475 X89.699 Z-2.5
N2476 X90.95
N2477 Z0
N2478 X164.274
N2479 Z-2.5
N2480 X165.524
N2481 Z-1.002
N2482 X165.529 Z-0.991
N2483 X165.569 Z-0.975
N2484 X171.417 Z-0.98
N2485 X183.318 Z-1.03
N2486 X196 Z-1.115
N2487 G2 X196.071 Z-1.099 I0.001 K0.159
N2488 G3 X196.141 Z-1.083 I0.07 K-0.143
N2489 G1 X196.15
N2490 G17 G3 X196.626 Y69.558 I0 J0.476
N2491 G1 Y70.193
N2492 G3 X196.15 Y70.669 I-0.476 J0
N2493 G18 G2 X196.08 Z-1.099 I0 K-0.159
N2494 G1 X196.071 Z-1.103
N2495 G3 X196 Z-1.119 I-0.07 K0.143
N2496 G1 X184.684 Z-1.039
N2497 X173.368 Z-0.987
N2498 X165.77 Z-0.973
N2499 X165.386 Z-0.985
N2500 X165.036 Z-1.025
N2501 X164.374 Z-1.132
N2502 X163.985 Z-1.165
N2503 X163.611 Z-1.172
N2504 X141.175 Z-1.137
N2505 X130.116 Z-1.151
N2506 X119.19 Z-1.202
N2507 X104.753 Z-1.261
N2508 X97.392 Z-1.258
N2509 X87.247 Z-1.206
N2510 X76.907 Z-1.113
N2511 X64 Z-0.952
N2512 G3 X63.932 Z-0.935 I0.002 K0.159
N2513 G2 X63.862 Z-0.919 I-0.07 K-0.143
N2514 G1 X63.86
N2515 X63.819 Y70.671
N2516 X63.778 Y70.676
N2517 X63.737 Y70.685
N2518 X63.697 Y70.698 Z-0.918
N2519 X63.659 Y70.714 Z-0.917
N2520 X63.622 Y70.733
N2521 X63.587 Y70.755 Z-0.916
N2522 X63.554 Y70.781 Z-0.915
N2523 X63.524 Y70.809 Z-0.913
N2524 X63.495 Y70.839 Z-0.912
N2525 X63.47 Y70.872 Z-0.911
N2526 X63.448 Y70.907 Z-0.909
N2527 X63.429 Y70.944 Z-0.908
N2528 X63.413 Y70.982 Z-0.906
N2529 X63.4 Y71.022 Z-0.905
N2530 X63.391 Y71.062 Z-0.903
N2531 X63.386 Y71.104 Z-0.901
N2532 X63.384 Y71.145 Z-0.9
N2533 Y71.781 Z-0.873
N2534 X63.386 Y71.822 Z-0.872
N2535 X63.391 Y71.863 Z-0.87
N2536 X63.4 Y71.904 Z-0.868
N2537 X63.413 Y71.943 Z-0.867
N2538 X63.429 Y71.982 Z-0.865
N2539 X63.448 Y72.018 Z-0.863
N2540 X63.47 Y72.053 Z-0.862
N2541 X63.495 Y72.086 Z-0.861
N2542 X63.524 Y72.117 Z-0.859
N2543 X63.554 Y72.145 Z-0.858
N2544 X63.587 Y72.17 Z-0.857
N2545 X63.622 Y72.193 Z-0.856
N2546 X63.659 Y72.212 Z-0.855
N2547 X63.697 Y72.228
N2548 X63.737 Y72.24 Z-0.854
N2549 X63.778 Y72.249
N2550 X63.819 Y72.255
N2551 X63.86 Y72.256
N2552 G3 X63.93 Z-0.87 I0 K-0.159
N2553 G2 X64 Z-0.886 I0.07 K0.143
N2554 G1 X64.418
N2555 X119.952 Z-1.191
N2556 X130.231 Z-1.149
N2557 X141.547 Z-1.137
N2558 X163.108 Z-1.169
N2559 X163.664 Z-1.155
N2560 X165.502 Z-1.047
N2561 X166.345 Z-1.019
N2562 X172.588 Z-1.034
N2563 X185.074 Z-1.093
N2564 X196 Z-1.172
N2565 G2 X196.071 Z-1.156 I0.001 K0.159
N2566 G3 X196.141 Z-1.139 I0.07 K-0.143
N2567 G1 X196.182 Y72.258
N2568 X196.224 Y72.264 Z-1.14
N2569 X196.264 Y72.273 Z-1.141
N2570 X196.304 Y72.285 Z-1.142
N2571 X196.342 Y72.301 Z-1.143
N2572 X196.379 Y72.32 Z-1.145
N2573 X196.414 Y72.342 Z-1.147
N2574 X196.447 Y72.367 Z-1.149
N2575 X196.478 Y72.395 Z-1.151
N2576 X196.506 Y72.426 Z-1.154
N2577 X196.531 Y72.459 Z-1.156
N2578 X196.553 Y72.494 Z-1.159
N2579 X196.572 Y72.53 Z-1.162
N2580 X196.588 Y72.569 Z-1.166
N2581 X196.601 Y72.608 Z-1.169
N2582 X196.61 Y72.649 Z-1.172
N2583 X196.615 Y72.69 Z-1.176
N2584 X196.617 Y72.731 Z-1.179
N2585 Y73.369 Z-1.233
N2586 X196.615 Y73.41 Z-1.236
N2587 X196.61 Y73.451 Z-1.24
N2588 X196.601 Y73.492 Z-1.243
N2589 X196.588 Y73.531 Z-1.246
N2590 X196.572 Y73.57 Z-1.25
N2591 X196.553 Y73.606 Z-1.253
N2592 X196.531 Y73.641 Z-1.256
N2593 X196.506 Y73.674 Z-1.258
N2594 X196.478 Y73.705 Z-1.261
N2595 X196.447 Y73.733 Z-1.263
N2596 X196.414 Y73.758 Z-1.265
N2597 X196.379 Y73.78 Z-1.267
N2598 X196.342 Y73.799 Z-1.269
N2599 X196.304 Y73.815 Z-1.27
N2600 X196.264 Y73.827 Z-1.271
N2601 X196.224 Y73.836 Z-1.272
N2602 X196.182 Y73.842
N2603 X196.141 Y73.844 Z-1.273
N2604 X196.14
N2605 G2 X196.07 Z-1.289 I0 K-0.159
N2606 G3 X196 Z-1.305 I-0.07 K0.143
N2607 G1 X172.978 Z-1.233
N2608 X140.006 Z-1.165
N2609 X128.105 Z-1.174
N2610 X123.201 Z-1.183
N2611 X109.007 Z-1.054
N2612 X100.179 Z-0.998
N2613 X81.644 Z-0.944
N2614 X68.573 Z-0.901
N2615 X64.376 Z-0.886
N2616 X64
N2617 G3 X63.93 Z-0.87 I0 K0.159
N2618 G2 X63.86 Z-0.854 I-0.07 K-0.143
N2619 G1 X63.856
N2620 G17 G2 X63.38 Y74.32 I0 J0.476
N2621 G1 Y74.954
N2622 G2 X63.856 Y75.431 I0.476 J0
N2623 G18 G3 X63.926 Z-0.87 I0 K-0.159
N2624 G1 X63.931 Z-0.872
N2625 G2 X64 Z-0.888 I0.07 K0.143
N2626 G1 X68.218 Z-0.904
N2627 X98.263 Z-0.988
N2628 X106.653 Z-1.031
N2629 X120.31 Z-1.139
N2630 X127.04 Z-1.187
N2631 X139.486 Z-1.188
N2632 X152.947 Z-1.224
N2633 X168.165 Z-1.299
N2634 X190.212 Z-1.448
N2635 X196 Z-1.453
N2636 G2 X196.07 Z-1.437 I0 K0.159
N2637 G3 X196.14 Z-1.42 I0.07 K-0.143
N2638 G1 X196.141
N2639 X196.183 Y75.433
N2640 X196.224 Y75.438
N2641 X196.265 Y75.447 Z-1.419
N2642 X196.304 Y75.459 Z-1.418
N2643 X196.343 Y75.475 Z-1.417
N2644 X196.38 Y75.494 Z-1.416
N2645 X196.415 Y75.517 Z-1.414
N2646 X196.448 Y75.542 Z-1.412
N2647 X196.478 Y75.57 Z-1.41
N2648 X196.506 Y75.6 Z-1.408
N2649 X196.531 Y75.633 Z-1.406
N2650 X196.554 Y75.668 Z-1.403
N2651 X196.573 Y75.705 Z-1.401
N2652 X196.589 Y75.743 Z-1.398
N2653 X196.601 Y75.783 Z-1.395
N2654 X196.61 Y75.823 Z-1.392
N2655 X196.616 Y75.864 Z-1.389
N2656 X196.618 Y75.906 Z-1.386
N2657 Y76.543 Z-1.34
N2658 X196.616 Y76.584 Z-1.337
N2659 X196.61 Y76.625 Z-1.334
N2660 X196.601 Y76.666 Z-1.331
N2661 X196.589 Y76.705 Z-1.328
N2662 X196.573 Y76.744 Z-1.326
N2663 X196.554 Y76.78 Z-1.323
N2664 X196.531 Y76.815 Z-1.32
N2665 X196.506 Y76.848 Z-1.318
N2666 X196.478 Y76.879 Z-1.316
N2667 X196.448 Y76.907 Z-1.314
N2668 X196.415 Y76.932 Z-1.312
N2669 X196.38 Y76.954 Z-1.31
N2670 X196.343 Y76.973 Z-1.309
N2671 X196.304 Y76.989 Z-1.308
N2672 X196.265 Y77.002 Z-1.307
N2673 X196.224 Y77.011 Z-1.306
N2674 X196.183 Y77.016
N2675 X196.141 Y77.018
N2676 G2 X196.072 Z-1.322 I0 K-0.159
N2677 G3 X196 Z-1.338 I-0.07 K0.143
N2678 G1 X186.44 Z-1.239
N2679 X176.88 Z-1.168
N2680 X165.76 Z-1.117
N2681 X153.663 Z-1.096
N2682 X141.003 Z-1.106
N2683 X133.98 Z-1.142
N2684 X127.533 Z-1.187
N2685 X123.046 Z-1.163
N2686 X105.877 Z-1.034
N2687 X96.512 Z-0.992
N2688 X82.699 Z-0.971
N2689 X68.39 Z-0.987
N2690 X64 Z-1
N2691 G3 X63.93 Z-0.984 I0 K0.159
N2692 G2 X63.86 Z-0.967 I-0.07 K-0.143
N2693 G1 X63.818 Y77.02
N2694 X63.777 Y77.025 Z-0.968
N2695 X63.737 Y77.034
N2696 X63.697 Y77.047
N2697 X63.659 Y77.062
N2698 X63.622 Y77.082 Z-0.969
N2699 X63.587 Y77.104
N2700 X63.554 Y77.129 Z-0.97
N2701 X63.523 Y77.157 Z-0.971
N2702 X63.495 Y77.188
N2703 X63.47 Y77.221 Z-0.972
N2704 X63.447 Y77.256 Z-0.973
N2705 X63.428 Y77.293 Z-0.974
N2706 X63.412 Y77.331 Z-0.975
N2707 X63.4 Y77.371 Z-0.976
N2708 X63.391 Y77.411
N2709 X63.385 Y77.453 Z-0.977
N2710 X63.384 Y77.494 Z-0.978
N2711 Y78.129 Z-0.993
N2712 X63.385 Y78.17 Z-0.994
N2713 X63.391 Y78.212 Z-0.995
N2714 X63.4 Y78.252 Z-0.996
N2715 X63.412 Y78.292 Z-0.997
N2716 X63.428 Y78.33
N2717 X63.447 Y78.367 Z-0.998
N2718 X63.47 Y78.402 Z-0.999
N2719 X63.495 Y78.435 Z-1
N2720 X63.523 Y78.466 Z-1.001
N2721 X63.554 Y78.494
N2722 X63.587 Y78.519 Z-1.002
N2723 X63.622 Y78.541
N2724 X63.659 Y78.56 Z-1.003
N2725 X63.697 Y78.576
N2726 X63.737 Y78.589
N2727 X63.777 Y78.598 Z-1.004
N2728 X63.818 Y78.603
N2729 X63.86 Y78.605
N2730 X63.861
N2731 G3 X63.931 Z-1.02 I0 K-0.159
N2732 G2 X64 Z-1.036 I0.07 K0.143
N2733 G1 X67.286 Z-1.06
N2734 X95.38 Z-1.212
N2735 X106.818 Z-1.228
N2736 X127.123 Z-1.191
N2737 X137.073 Z-1.122
N2738 X143.901 Z-1.1
N2739 X159.516 Z-1.101
N2740 X171.613 Z-1.136
N2741 X182.928 Z-1.201
N2742 X196 Z-1.31
N2743 G2 X196.071 Z-1.294 I0.001 K0.159
N2744 G3 X196.141 Z-1.277 I0.07 K-0.143
N2745 G1 X196.151
N2746 G17 G3 X196.627 Y79.081 I0 J0.476
N2747 G1 Y79.716
N2748 G3 X196.151 Y80.192 I-0.476 J0
N2749 G18 G2 X196.081 Z-1.294 I0 K-0.159
N2750 G1 X196.071 Z-1.298
N2751 G3 X196 Z-1.314 I-0.07 K0.143
N2752 G1 X183.904 Z-1.216
N2753 X173.173 Z-1.157
N2754 X160.297 Z-1.132
N2755 X143.323 Z-1.152
N2756 X136.104 Z-1.185
N2757 X120.496 Z-1.299
N2758 X117.44 Z-1.301
N2759 X103.734 Z-1.25
N2760 X85.444 Z-1.149
N2761 X73.494 Z-1.063
N2762 X65.085 Z-0.981
N2763 X64
N2764 G3 X63.682 Z-0.663 I0 K0.317 F457.2
N2765 G0 Z15
N2766 G17
N2767 Z1
N2768 M5
N2769 M30
