%
(Program Name       : LJN Cutting Program)
(Programmed By      : Donovan Prince)
(Date               : 10/4/17)
(Machine            : Nomad 883)
(Tools Used         : 4mm flatend mill)
(Estimated Run Time : 55s)
n01 G90 G17 G21 (Absolute XY mm)
n02 m06 t01 (Change Tool)
n03 s10000 m03 (Spindle On Clockwise/Speed 10000RPM)
n04 g00 x8 y42 (Origin to A)
n05 z5 (Lower Tool)
n06 g01 f300 z-1.5 (First Plunge)
n07 g91 (Alsolute to Relative)
n08 f750 y-34 (A to B)
n09 x16 (B to C)
n10 g00 z3 (Raise Tool)
n11 x8 y4 (C to D)
n12 g01 z-3 f300 (Second Plunge)
n13 g03 f750 x4 y-4 i4 j0 (D to E)
n14 g01 x8 (E to G)
n15 g03 x2 y2 i0 j2 (G to H)
n16 g01 y30 (H to J)
n17 z3 g00 (Raise Tool)
n18 x8 y-32 (J to K)
n19 g01 z-3 f300 (Third Plunge)
n20 f750 y32 (K to L)
n21 x16 y-32 (L to M)
n22 y32 (M to N)
n23 G00 z30 (ending sequence) 
n24 g00 y80
n25 M05
n26 M30
% 