%
(1001)
(T6  D=0.25 CR=0.125 - ZMIN=-0.4646 - ball end mill)
N0 G90
N1 G17
(Adaptive3)
N2 T6 M6
(T6 1/4 Ballnose)
N3 S10000 M3
N5 G0 X3.9778 Y1.6954
N6 Z0.5906
N7 Z0.1969
N8 Z0.1143
N9 G1 Z0.0985 F30
N10 G3 X3.9411 Y1.6448 Z0.0951 I-0.0183 J-0.0253
N11 X3.9778 Y1.6954 Z0.0916 I0.0183 J0.0253
N12 X3.9411 Y1.6448 Z0.0882 I-0.0183 J-0.0253
N13 X3.9778 Y1.6954 Z0.0848 I0.0183 J0.0253
N14 X3.9411 Y1.6448 Z0.0814 I-0.0183 J-0.0253
N15 X3.9778 Y1.6954 Z0.0779 I0.0183 J0.0253
N16 X3.9411 Y1.6448 Z0.0745 I-0.0183 J-0.0253
N17 X3.9778 Y1.6954 Z0.0711 I0.0183 J0.0253
N18 X3.9411 Y1.6448 Z0.0676 I-0.0183 J-0.0253
N19 X3.9778 Y1.6954 Z0.0642 I0.0183 J0.0253
N20 X3.9411 Y1.6448 Z0.0608 I-0.0183 J-0.0253
N21 X3.9778 Y1.6954 Z0.0574 I0.0183 J0.0253
N22 X3.9411 Y1.6448 Z0.0539 I-0.0183 J-0.0253
N23 X3.9778 Y1.6954 Z0.0505 I0.0183 J0.0253
N24 X3.9411 Y1.6448 Z0.0471 I-0.0183 J-0.0253
N25 X3.9778 Y1.6954 Z0.0437 I0.0183 J0.0253
N26 X3.9411 Y1.6448 Z0.0402 I-0.0183 J-0.0253
N27 X3.9778 Y1.6954 Z0.0368 I0.0183 J0.0253
N28 X3.9411 Y1.6448 Z0.0334 I-0.0183 J-0.0253
N29 X3.9778 Y1.6954 Z0.0299 I0.0183 J0.0253
N30 X3.9411 Y1.6448 Z0.0265 I-0.0183 J-0.0253
N31 X3.9778 Y1.6954 Z0.0231 I0.0183 J0.0253
N32 X3.9411 Y1.6448 Z0.0197 I-0.0183 J-0.0253
N33 X3.9778 Y1.6954 Z0.0162 I0.0183 J0.0253
N34 X3.9411 Y1.6448 Z0.0128 I-0.0183 J-0.0253
N35 X3.9778 Y1.6954 Z0.0094 I0.0183 J0.0253
N36 X3.9411 Y1.6448 Z0.0059 I-0.0183 J-0.0253
N37 X3.9778 Y1.6954 Z0.0025 I0.0183 J0.0253
N38 X3.9411 Y1.6448 Z-0.0009 I-0.0183 J-0.0253
N39 X3.9778 Y1.6954 Z-0.0043 I0.0183 J0.0253
N40 X3.9411 Y1.6448 Z-0.0078 I-0.0183 J-0.0253
N41 X3.9778 Y1.6954 Z-0.0112 I0.0183 J0.0253
N42 X3.9411 Y1.6448 Z-0.0146 I-0.0183 J-0.0253
N43 X3.9778 Y1.6954 Z-0.0181 I0.0183 J0.0253
N44 X3.9411 Y1.6448 Z-0.0215 I-0.0183 J-0.0253
N45 X3.9778 Y1.6954 Z-0.0249 I0.0183 J0.0253
N46 X3.9411 Y1.6448 Z-0.0283 I-0.0183 J-0.0253
N47 X3.9778 Y1.6954 Z-0.0318 I0.0183 J0.0253
N48 X3.9411 Y1.6448 Z-0.0352 I-0.0183 J-0.0253
N49 X3.9778 Y1.6954 Z-0.0386 I0.0183 J0.0253
N50 X3.9411 Y1.6448 Z-0.0421 I-0.0183 J-0.0253
N51 X3.9778 Y1.6954 Z-0.0455 I0.0183 J0.0253
N52 X3.9411 Y1.6448 Z-0.0489 I-0.0183 J-0.0253
N53 X3.9778 Y1.6954 Z-0.0523 I0.0183 J0.0253
N54 X3.9411 Y1.6448 Z-0.0558 I-0.0183 J-0.0253
N55 X3.9778 Y1.6954 Z-0.0592 I0.0183 J0.0253
N56 X3.9411 Y1.6448 Z-0.0626 I-0.0183 J-0.0253
N57 X3.9778 Y1.6954 Z-0.0661 I0.0183 J0.0253
N58 X3.9411 Y1.6448 Z-0.0695 I-0.0183 J-0.0253
N59 X3.9778 Y1.6954 Z-0.0729 I0.0183 J0.0253
N60 X3.9411 Y1.6448 Z-0.0763 I-0.0183 J-0.0253
N61 X3.9907 Y1.6701 Z-0.0787 I0.0183 J0.0253
N62 X3.9282 I-0.0313 J0
N63 X3.9907 I0.0313 J0
N64 G1 X3.9921 Y1.688 F60
N65 X3.9928 Y1.6938
N66 X3.992 Y1.6997
N67 X3.9899 Y1.7052
N68 X3.9868 Y1.7102
N69 X3.9829 Y1.7147
N70 X3.9784 Y1.7185
N71 X3.9734 Y1.7216
N72 X3.968 Y1.724
N73 X3.9624 Y1.7258
N74 X3.9566 Y1.7267
N75 X3.9507 Y1.727
N76 X3.9448 Y1.7266
N77 X3.939 Y1.7256
N78 X3.9333 Y1.7239
N79 X3.9279 Y1.7216
N80 X3.9227 Y1.7187
N81 X3.9179 Y1.7153
N82 X3.9134 Y1.7114
N83 X3.9094 Y1.7071
N84 X3.9058 Y1.7024
N85 X3.9027 Y1.6974
N86 X3.9001 Y1.6921
N87 X3.898 Y1.6866
N88 X3.8965 Y1.6808
N89 X3.8956 Y1.675
N90 X3.8952 Y1.6691
N91 X3.8953 Y1.6632
N92 X3.896 Y1.6574
N93 X3.8973 Y1.6516
N94 X3.8991 Y1.646
N95 X3.9014 Y1.6405
N96 X3.9042 Y1.6353
N97 X3.9074 Y1.6304
N98 X3.9111 Y1.6258
N99 X3.9152 Y1.6216
N100 X3.9197 Y1.6177
N101 X3.9245 Y1.6143
N102 X3.9296 Y1.6113
N103 X3.935 Y1.6088
N104 X3.9405 Y1.6068
N105 X3.9463 Y1.6053
N106 X3.9521 Y1.6043
N107 X3.958 Y1.6039
N108 X3.9639 Y1.604
N109 X3.9697 Y1.6046
N110 X3.9755 Y1.6057
N111 X3.9812 Y1.6073
N112 X3.9867 Y1.6095
N113 X3.992 Y1.6121
N114 X3.997 Y1.6152
N115 X4.0018 Y1.6187
N116 X4.0062 Y1.6227
N117 X4.0103 Y1.6269
N118 X4.0142 Y1.6313
N119 X4.0179 Y1.6359
N120 X4.0212 Y1.6408
N121 X4.0242 Y1.6459
N122 X4.0269 Y1.6512
N123 X4.0292 Y1.6566
N124 X4.0311 Y1.6622
N125 X4.0326 Y1.6679
N126 X4.0336 Y1.6737
N127 X4.0343 Y1.6796
N128 X4.0345 Y1.6855
N129 X4.0343 Y1.6914
N130 X4.0337 Y1.6973
N131 X4.0326 Y1.7031
N132 X4.0311 Y1.7088
N133 X4.0292 Y1.7144
N134 X4.0269 Y1.7198
N135 X4.0242 Y1.7251
N136 X4.0211 Y1.7301
N137 X4.0177 Y1.7349
N138 X4.014 Y1.7395
N139 X4.0099 Y1.7437
N140 X4.0055 Y1.7477
N141 X4.0009 Y1.7514
N142 X3.996 Y1.7547
N143 X3.9909 Y1.7577
N144 X3.9856 Y1.7603
N145 X3.9801 Y1.7626
N146 X3.9746 Y1.7645
N147 X3.9689 Y1.766
N148 X3.9631 Y1.7671
N149 X3.9572 Y1.7679
N150 X3.9513 Y1.7683
N151 X3.9454
N152 X3.9395 Y1.7679
N153 X3.9337 Y1.7672
N154 X3.9278 Y1.7661
N155 X3.9221 Y1.7646
N156 X3.9165 Y1.7628
N157 X3.911 Y1.7606
N158 X3.9057 Y1.7582
N159 X3.9005 Y1.7553
N160 X3.8954 Y1.7522
N161 X3.8906 Y1.7488
N162 X3.886 Y1.7451
N163 X3.8816 Y1.7412
N164 X3.8775 Y1.737
N165 X3.8736 Y1.7325
N166 X3.87 Y1.7279
N167 X3.8666 Y1.723
N168 X3.8635 Y1.718
N169 X3.8608 Y1.7127
N170 X3.8583 Y1.7074
N171 X3.8561 Y1.7019
N172 X3.8543 Y1.6963
N173 X3.8528 Y1.6906
N174 X3.8516 Y1.6848
N175 X3.8507 Y1.6789
N176 X3.8501 Y1.6731
N177 X3.8499 Y1.6672
N178 X3.85 Y1.6613
N179 X3.8505 Y1.6554
N180 X3.8512 Y1.6495
N181 X3.8523 Y1.6437
N182 X3.8537 Y1.638
N183 X3.8554 Y1.6323
N184 X3.8574 Y1.6268
N185 X3.8597 Y1.6213
N186 X3.8623 Y1.616
N187 X3.8652 Y1.6109
N188 X3.8684 Y1.6059
N189 X3.8718 Y1.6011
N190 X3.8755 Y1.5965
N191 X3.8794 Y1.592
N192 X3.8836 Y1.5878
N193 X3.8879 Y1.5839
N194 X3.8925 Y1.5801
N195 X3.8973 Y1.5767
N196 X3.9022 Y1.5734
N197 X3.9073 Y1.5705
N198 X3.9126 Y1.5678
N199 X3.918 Y1.5654
N200 X3.9235 Y1.5633
N201 X3.9291 Y1.5615
N202 X3.9349 Y1.56
N203 X3.9406 Y1.5588
N204 X3.9465 Y1.5579
N205 X3.9523 Y1.5573
N206 X3.9582 Y1.557
N207 X3.9642 Y1.5571
N208 X3.97 Y1.5574
N209 X3.9759 Y1.5581
N210 X3.9817 Y1.559
N211 X3.9875 Y1.5603
N212 X3.9932 Y1.5618
N213 X3.9988 Y1.5636
N214 X4.0044 Y1.5657
N215 X4.0098 Y1.568
N216 X4.0151 Y1.5706
N217 X4.0203 Y1.5735
N218 X4.0253 Y1.5765
N219 X4.0302 Y1.5798
N220 X4.0349 Y1.5834
N221 X4.0395 Y1.5871
N222 X4.0439 Y1.5911
N223 X4.0481 Y1.5952
N224 X4.0521 Y1.5995
N225 X4.0559 Y1.604
N226 X4.0596 Y1.6087
N227 X4.0629 Y1.6136
N228 X4.0661 Y1.6185
N229 X4.069 Y1.6237
N230 X4.0717 Y1.6289
N231 X4.0742 Y1.6343
N232 X4.0764 Y1.6398
N233 X4.0784 Y1.6453
N234 X4.0801 Y1.651
N235 X4.0815 Y1.6567
N236 X4.0827 Y1.6625
N237 X4.0837 Y1.6683
N238 X4.0843 Y1.6742
N239 X4.0847 Y1.6801
N240 X4.0848 Y1.686
N241 X4.0847 Y1.6919
N242 X4.0843 Y1.6978
N243 X4.0836 Y1.7037
N244 X4.0827 Y1.7095
N245 X4.0815 Y1.7153
N246 X4.08 Y1.721
N247 X4.0783 Y1.7266
N248 X4.0764 Y1.7322
N249 X4.0742 Y1.7377
N250 X4.0717 Y1.7431
N251 X4.069 Y1.7483
N252 X4.0661 Y1.7535
N253 X4.063 Y1.7585
N254 X4.0596 Y1.7633
N255 X4.056 Y1.768
N256 X4.0523 Y1.7726
N257 X4.0483 Y1.777
N258 X4.0442 Y1.7812
N259 X4.0398 Y1.7852
N260 X4.0353 Y1.789
N261 X4.0307 Y1.7926
N262 X4.0259 Y1.796
N263 X4.0209 Y1.7993
N264 X4.0158 Y1.8023
N265 X4.0106 Y1.805
N266 X4.0053 Y1.8076
N267 X3.9999 Y1.8099
N268 X3.9943 Y1.812
N269 X3.9887 Y1.8139
N270 X3.9831 Y1.8155
N271 X3.9773 Y1.8169
N272 X3.9715 Y1.818
N273 X3.9657 Y1.819
N274 X3.9598 Y1.8196
N275 X3.9539 Y1.82
N276 X3.948 Y1.8202
N277 X3.9421
N278 X3.9362 Y1.8199
N279 X3.9303 Y1.8193
N280 X3.9245 Y1.8186
N281 X3.9187 Y1.8176
N282 X3.9129 Y1.8163
N283 X3.9072 Y1.8148
N284 X3.9015 Y1.8131
N285 X3.8959 Y1.8112
N286 X3.8904 Y1.8091
N287 X3.885 Y1.8067
N288 X3.8797 Y1.8041
N289 X3.8745 Y1.8013
N290 X3.8694 Y1.7984
N291 X3.8644 Y1.7952
N292 X3.8596 Y1.7918
N293 X3.8548 Y1.7882
N294 X3.8503 Y1.7845
N295 X3.8458 Y1.7805
N296 X3.8415 Y1.7764
N297 X3.8374 Y1.7722
N298 X3.8334 Y1.7677
N299 X3.8296 Y1.7631
N300 X3.826 Y1.7584
N301 X3.8225 Y1.7534
N302 X3.8192 Y1.7484
N303 X3.8162 Y1.7432
N304 X3.8133 Y1.7379
N305 X3.8106 Y1.7324
N306 X3.8081 Y1.727
N307 X3.8058 Y1.7213
N308 X3.8038 Y1.7155
N309 X3.802 Y1.7097
N310 X3.8004 Y1.7039
N311 X3.799 Y1.6978
N312 X3.7978 Y1.6918
N313 X3.7969 Y1.6858
N314 X3.7962 Y1.6796
N315 X3.7958 Y1.6734
N316 X3.7956 Y1.6673
N317 Y1.6611
N318 X3.7959 Y1.6548
N319 X3.7964 Y1.6487
N320 X3.7971 Y1.6425
N321 X3.7981 Y1.6363
N322 X3.7993 Y1.6302
N323 X3.8008 Y1.6241
N324 X3.8025 Y1.6181
N325 X3.8045 Y1.6121
N326 X3.8066 Y1.6062
N327 X3.809 Y1.6004
N328 X3.8117 Y1.5946
N329 X3.8145 Y1.589
N330 X3.8176 Y1.5835
N331 X3.8209 Y1.5781
N332 X3.8244 Y1.5728
N333 X3.8281 Y1.5677
N334 X3.8319 Y1.5627
N335 X3.8361 Y1.5578
N336 X3.8404 Y1.5531
N337 X3.8448 Y1.5486
N338 X3.8495 Y1.5442
N339 X3.8543 Y1.54
N340 X3.8593 Y1.536
N341 X3.8644 Y1.5322
N342 X3.8697 Y1.5286
N343 X3.8751 Y1.5252
N344 X3.8806 Y1.522
N345 X3.8863 Y1.519
N346 X3.8922 Y1.5163
N347 X3.8981 Y1.5137
N348 X3.904 Y1.5114
N349 X3.9102 Y1.5093
N350 X3.9164 Y1.5075
N351 X3.9227 Y1.5059
N352 X3.929 Y1.5045
N353 X3.9354 Y1.5034
N354 X3.942 Y1.5025
N355 X3.9486 Y1.5018
N356 X3.9552 Y1.5015
N357 X3.9618 Y1.5013
N358 X3.9685 Y1.5015
N359 X3.9753 Y1.5019
N360 X3.982 Y1.5025
N361 X3.9887 Y1.5034
N362 X3.9954 Y1.5046
N363 X4.0021 Y1.506
N364 X4.0087 Y1.5078
N365 X4.0154 Y1.5097
N366 X4.0219 Y1.512
N367 X4.0283 Y1.5144
N368 X4.0347 Y1.5172
N369 X4.041 Y1.5202
N370 X4.0473 Y1.5235
N371 X4.0534 Y1.527
N372 X4.0593 Y1.5307
N373 X4.0651 Y1.5347
N374 X4.0708 Y1.5389
N375 X4.0763 Y1.5433
N376 X4.0817 Y1.548
N377 X4.0869 Y1.5529
N378 X4.0919 Y1.558
N379 X4.0967 Y1.5632
N380 X4.1013 Y1.5687
N381 X4.1057 Y1.5743
N382 X4.1099 Y1.5802
N383 X4.1139 Y1.5862
N384 X4.1176 Y1.5923
N385 X4.1211 Y1.5985
N386 X4.1243 Y1.6049
N387 X4.1262 Y1.609
N388 X4.129 Y1.6156
N389 X4.1316 Y1.6223
N390 X4.1339 Y1.6292
N391 X4.136 Y1.6361
N392 X4.1378 Y1.6431
N393 X4.1394 Y1.6502
N394 X4.1406 Y1.6574
N395 X4.1416 Y1.6646
N396 X4.1423 Y1.6718
N397 X4.1427 Y1.679
N398 X4.1429 Y1.6863
N399 X4.1427 Y1.6936
N400 X4.1423 Y1.7009
N401 X4.1416 Y1.7082
N402 X4.1406 Y1.7155
N403 X4.1394 Y1.7227
N404 X4.1378 Y1.7298
N405 X4.136 Y1.737
N406 X4.1339 Y1.744
N407 X4.1315 Y1.751
N408 X4.1289 Y1.758
N409 X4.1259 Y1.7648
N410 X4.1227 Y1.7715
N411 X4.1193 Y1.778
N412 X4.1156 Y1.7845
N413 X4.1117 Y1.7908
N414 X4.1075 Y1.7969
N415 X4.103 Y1.8029
N416 X4.0983 Y1.8088
N417 X4.0934 Y1.8145
N418 X4.0882 Y1.82
N419 X4.0828 Y1.8253
N420 X4.0772 Y1.8304
N421 X4.0715 Y1.8353
N422 X4.0655 Y1.8399
N423 X4.0593 Y1.8444
N424 X4.053 Y1.8486
N425 X4.0465 Y1.8525
N426 X4.0398 Y1.8563
N427 X4.0329 Y1.8597
N428 X4.0259 Y1.863
N429 X4.0188 Y1.8659
N430 X4.0115 Y1.8686
N431 X4.0042 Y1.871
N432 X3.9967 Y1.8731
N433 X3.9891 Y1.8749
N434 X3.9815 Y1.8765
N435 X3.9738 Y1.8777
N436 X3.966 Y1.8787
N437 X3.9582 Y1.8793
N438 X3.9503 Y1.8797
N439 X3.9425
N440 X3.9346 Y1.8794
N441 X3.9266 Y1.8789
N442 X3.9188 Y1.878
N443 X3.9109 Y1.8768
N444 X3.903 Y1.8753
N445 X3.8952 Y1.8735
N446 X3.8875 Y1.8714
N447 X3.8798 Y1.869
N448 X3.8722 Y1.8663
N449 X3.8647 Y1.8633
N450 X3.8573 Y1.86
N451 X3.8501 Y1.8564
N452 X3.8429 Y1.8525
N453 X3.8359 Y1.8483
N454 X3.829 Y1.8439
N455 X3.8224 Y1.8392
N456 X3.8158 Y1.8342
N457 X3.8095 Y1.829
N458 X3.8034 Y1.8235
N459 X3.7974 Y1.8178
N460 X3.7917 Y1.8118
N461 X3.7862 Y1.8056
N462 X3.7809 Y1.7992
N463 X3.7759 Y1.7925
N464 X3.7712 Y1.7857
N465 X3.7666 Y1.7787
N466 X3.7624 Y1.7715
N467 X3.7584 Y1.7641
N468 X3.7548 Y1.7566
N469 X3.7514 Y1.7489
N470 X3.7483 Y1.7411
N471 X3.7455 Y1.7331
N472 X3.743 Y1.725
N473 X3.7408 Y1.7169
N474 X3.7389 Y1.7086
N475 X3.7373 Y1.7003
N476 X3.7361 Y1.6918
N477 X3.7352 Y1.6834
N478 X3.7346 Y1.6749
N479 X3.7344 Y1.6663
N480 X3.7345 Y1.6578
N481 X3.7349 Y1.6492
N482 X3.7356 Y1.6407
N483 X3.7367 Y1.6322
N484 X3.7381 Y1.6237
N485 X3.7398 Y1.6153
N486 X3.7419 Y1.6069
N487 X3.7443 Y1.5986
N488 X3.747 Y1.5904
N489 X3.75 Y1.5823
N490 X3.7533 Y1.5744
N491 X3.757 Y1.5665
N492 X3.7609 Y1.5588
N493 X3.7652 Y1.5512
N494 X3.7697 Y1.5438
N495 X3.7746 Y1.5366
N496 X3.7797 Y1.5295
N497 X3.7851 Y1.5227
N498 X3.7907 Y1.516
N499 X3.7966 Y1.5096
N500 X3.8028 Y1.5034
N501 X3.8092 Y1.4974
N502 X3.8158 Y1.4917
N503 X3.8227 Y1.4863
N504 X3.8298 Y1.4811
N505 X3.8371 Y1.4761
N506 X3.8445 Y1.4715
N507 X3.8522 Y1.4671
N508 X3.8601 Y1.4631
N509 X3.8681 Y1.4593
N510 X3.8762 Y1.4558
N511 X3.8845 Y1.4527
N512 X3.893 Y1.4498
N513 X3.9016 Y1.4473
N514 X3.9103 Y1.4451
N515 X3.9191 Y1.4433
N516 X3.9279 Y1.4417
N517 X3.9369 Y1.4406
N518 X3.9459 Y1.4397
N519 X3.955 Y1.4392
N520 X3.9641 Y1.4391
N521 X3.9733 Y1.4393
N522 X3.9824 Y1.4399
N523 X3.9915 Y1.4408
N524 X4.0007 Y1.4421
N525 X4.0098 Y1.4437
N526 X4.0188 Y1.4457
N527 X4.0278 Y1.4481
N528 X4.0367 Y1.4508
N529 X4.0455 Y1.4538
N530 X4.0542 Y1.4572
N531 X4.0628 Y1.461
N532 X4.0713 Y1.4651
N533 X4.0796 Y1.4695
N534 X4.0877 Y1.4742
N535 X4.0957 Y1.4793
N536 X4.1035 Y1.4846
N537 X4.1111 Y1.4903
N538 X4.1184 Y1.4963
N539 X4.1256 Y1.5025
N540 X4.1324 Y1.509
N541 X4.139 Y1.5158
N542 X4.1454 Y1.5229
N543 X4.1516 Y1.5303
N544 X4.1574 Y1.5378
N545 X4.163 Y1.5457
N546 X4.1683 Y1.5537
N547 X4.1732 Y1.5619
N548 X4.1779 Y1.5704
N549 X4.1822 Y1.579
N550 X4.1862 Y1.5878
N551 X4.1898 Y1.5967
N552 X4.1931 Y1.6058
N553 X4.1961 Y1.615
N554 X4.1986 Y1.6243
N555 X4.2009 Y1.6338
N556 X4.2027 Y1.6433
N557 X4.2042 Y1.6529
N558 X4.2054 Y1.6626
N559 X4.2061 Y1.6723
N560 X4.2065 Y1.682
N561 Y1.6918
N562 X4.2061 Y1.7015
N563 X4.2054 Y1.7113
N564 X4.2042 Y1.721
N565 X4.2027 Y1.7307
N566 X4.2008 Y1.7403
N567 X4.1986 Y1.7499
N568 X4.196 Y1.7594
N569 X4.193 Y1.7687
N570 X4.1896 Y1.778
N571 X4.1859 Y1.7872
N572 X4.1818 Y1.7962
N573 X4.1774 Y1.8051
N574 X4.1726 Y1.8137
N575 X4.1675 Y1.8223
N576 X4.162 Y1.8306
N577 X4.1562 Y1.8387
N578 X4.1502 Y1.8466
N579 X4.1437 Y1.8543
N580 X4.137 Y1.8617
N581 X4.13 Y1.8689
N582 X4.1228 Y1.8758
N583 X4.1152 Y1.8824
N584 X4.1074 Y1.8887
N585 X4.0993 Y1.8948
N586 X4.091 Y1.9005
N587 X4.0824 Y1.906
N588 X4.0737 Y1.9111
N589 X4.0647 Y1.9158
N590 X4.0555 Y1.9203
N591 X4.0462 Y1.9243
N592 X4.0367 Y1.928
N593 X4.027 Y1.9314
N594 X4.0172 Y1.9344
N595 X4.0073 Y1.937
N596 X3.9972 Y1.9392
N597 X3.9871 Y1.941
N598 X3.9769 Y1.9425
N599 X3.9666 Y1.9435
N600 X3.9562 Y1.9442
N601 X3.9458 Y1.9444
N602 X3.9354 Y1.9443
N603 X3.925 Y1.9437
N604 X3.9146 Y1.9428
N605 X3.9043 Y1.9414
N606 X3.8939 Y1.9396
N607 X3.8837 Y1.9375
N608 X3.8735 Y1.9349
N609 X3.8633 Y1.9319
N610 X3.8533 Y1.9286
N611 X3.8449 Y1.9254
N612 X3.8352 Y1.9213
N613 X3.8255 Y1.9169
N614 X3.8161 Y1.912
N615 X3.8068 Y1.9068
N616 X3.7977 Y1.9012
N617 X3.7888 Y1.8953
N618 X3.7801 Y1.889
N619 X3.7717 Y1.8824
N620 X3.7635 Y1.8755
N621 X3.7556 Y1.8682
N622 X3.7479 Y1.8606
N623 X3.7406 Y1.8527
N624 X3.7335 Y1.8445
N625 X3.7268 Y1.836
N626 X3.7203 Y1.8273
N627 X3.7143 Y1.8183
N628 X3.7085 Y1.8091
N629 X3.7031 Y1.7996
N630 X3.6981 Y1.79
N631 X3.6934 Y1.7801
N632 X3.6891 Y1.77
N633 X3.6852 Y1.7598
N634 X3.6817 Y1.7494
N635 X3.6786 Y1.7389
N636 X3.6759 Y1.7282
N637 X3.6736 Y1.7174
N638 X3.6718 Y1.7066
N639 X3.6703 Y1.6956
N640 X3.6693 Y1.6846
N641 X3.6687 Y1.6736
N642 X3.6685 Y1.6625
N643 X3.6688 Y1.6514
N644 X3.6695 Y1.6404
N645 X3.6706 Y1.6293
N646 X3.6721 Y1.6183
N647 X3.6741 Y1.6073
N648 X3.6765 Y1.5964
N649 X3.6793 Y1.5856
N650 X3.6825 Y1.5749
N651 X3.6862 Y1.5644
N652 X3.6902 Y1.5539
N653 X3.6947 Y1.5437
N654 X3.6995 Y1.5336
N655 X3.7048 Y1.5236
N656 X3.7104 Y1.5139
N657 X3.7164 Y1.5044
N658 X3.7228 Y1.4952
N659 X3.7296 Y1.4861
N660 X3.7367 Y1.4774
N661 X3.7441 Y1.4689
N662 X3.7519 Y1.4607
N663 X3.7599 Y1.4528
N664 X3.7683 Y1.4452
N665 X3.777 Y1.4379
N666 X3.786 Y1.431
N667 X3.7952 Y1.4243
N668 X3.8048 Y1.4181
N669 X3.8145 Y1.4122
N670 X3.8245 Y1.4067
N671 X3.8347 Y1.4016
N672 X3.8452 Y1.3968
N673 X3.8558 Y1.3925
N674 X3.8666 Y1.3886
N675 X3.8776 Y1.385
N676 X3.8887 Y1.3819
N677 X3.8999 Y1.3793
N678 X3.9113 Y1.377
N679 X3.9228 Y1.3752
N680 X3.9343 Y1.3739
N681 X3.946 Y1.373
N682 X3.9576 Y1.3725
N683 X3.9693
N684 X3.9811 Y1.3729
N685 X3.9928 Y1.3738
N686 X4.0045 Y1.3752
N687 X4.0161 Y1.377
N688 X4.0278 Y1.3792
N689 X4.0393 Y1.3819
N690 X4.0507 Y1.3851
N691 X4.0621 Y1.3887
N692 X4.0733 Y1.3928
N693 X4.0843 Y1.3972
N694 X4.0952 Y1.4022
N695 X4.1059 Y1.4075
N696 X4.1164 Y1.4133
N697 X4.1267 Y1.4194
N698 X4.1367 Y1.426
N699 X4.1466 Y1.433
N700 X4.1561 Y1.4403
N701 X4.1654 Y1.4481
N702 X4.1744 Y1.4562
N703 X4.183 Y1.4646
N704 X4.1914 Y1.4734
N705 X4.1994 Y1.4825
N706 X4.2071 Y1.4919
N707 X4.2144 Y1.5017
N708 X4.2213 Y1.5117
N709 X4.2278 Y1.522
N710 X4.234 Y1.5325
N711 X4.2397 Y1.5433
N712 X4.2451 Y1.5543
N713 X4.25 Y1.5655
N714 X4.2544 Y1.5769
N715 X4.2585 Y1.5885
N716 X4.262 Y1.6003
N717 X4.2652 Y1.6122
N718 X4.2678 Y1.6242
N719 X4.27 Y1.6363
N720 X4.2718 Y1.6485
N721 X4.273 Y1.6608
N722 X4.2738 Y1.6731
N723 X4.2741 Y1.6855
N724 X4.274 Y1.6978
N725 X4.2733 Y1.7102
N726 X4.2722 Y1.7225
N727 X4.2706 Y1.7349
N728 X4.2685 Y1.7471
N729 X4.266 Y1.7593
N730 X4.2629 Y1.7714
N731 X4.2594 Y1.7833
N732 X4.2555 Y1.7952
N733 X4.2511 Y1.8069
N734 X4.2462 Y1.8184
N735 X4.2409 Y1.8297
N736 X4.2351 Y1.8408
N737 X4.2289 Y1.8518
N738 X4.2223 Y1.8624
N739 X4.2152 Y1.8729
N740 X4.2078 Y1.883
N741 X4.2 Y1.8929
N742 X4.1917 Y1.9025
N743 X4.1831 Y1.9118
N744 X4.1742 Y1.9207
N745 X4.1648 Y1.9293
N746 X4.1552 Y1.9376
N747 X4.1452 Y1.9454
N748 X4.1349 Y1.9529
N749 X4.1243 Y1.96
N750 X4.1134 Y1.9667
N751 X4.1023 Y1.973
N752 X4.0909 Y1.9789
N753 X4.0793 Y1.9843
N754 X4.0675 Y1.9892
N755 X4.0554 Y1.9937
N756 X4.0432 Y1.9978
N757 X4.0308 Y2.0014
N758 X4.0183 Y2.0045
N759 X4.0056 Y2.0071
N760 X3.9928 Y2.0092
N761 X3.98 Y2.0109
N762 X3.967 Y2.012
N763 X3.954 Y2.0126
N764 X3.941 Y2.0128
N765 X3.9279 Y2.0124
N766 X3.915 Y2.0116
N767 X3.9019 Y2.0102
N768 X3.8889 Y2.0083
N769 X3.876 Y2.0059
N770 X3.8632 Y2.003
N771 X3.8504 Y1.9996
N772 X3.8378 Y1.9957
N773 X3.8253 Y1.9913
N774 X3.813 Y1.9865
N775 X3.8009 Y1.9811
N776 X3.7889 Y1.9753
N777 X3.781 Y1.9711
N778 X3.7695 Y1.9645
N779 X3.7582 Y1.9575
N780 X3.7471 Y1.95
N781 X3.7364 Y1.9421
N782 X3.7259 Y1.9337
N783 X3.7158 Y1.925
N784 X3.706 Y1.9159
N785 X3.6965 Y1.9063
N786 X3.6874 Y1.8964
N787 X3.6787 Y1.8862
N788 X3.6703 Y1.8756
N789 X3.6624 Y1.8646
N790 X3.6549 Y1.8534
N791 X3.6478 Y1.8419
N792 X3.6412 Y1.83
N793 X3.635 Y1.818
N794 X3.6293 Y1.8056
N795 X3.6241 Y1.7931
N796 X3.6193 Y1.7803
N797 X3.6151 Y1.7674
N798 X3.6113 Y1.7543
N799 X3.608 Y1.741
N800 X3.6053 Y1.7276
N801 X3.6031 Y1.7141
N802 X3.6014 Y1.7005
N803 X3.6002 Y1.6868
N804 X3.5995 Y1.6731
N805 X3.5994 Y1.6594
N806 X3.5998 Y1.6456
N807 X3.6008 Y1.6319
N808 X3.6023 Y1.6182
N809 X3.6043 Y1.6045
N810 X3.6068 Y1.591
N811 X3.6099 Y1.5775
N812 X3.6134 Y1.5641
N813 X3.6175 Y1.5509
N814 X3.6222 Y1.5378
N815 X3.6273 Y1.525
N816 X3.6329 Y1.5123
N817 X3.639 Y1.4998
N818 X3.6456 Y1.4876
N819 X3.6526 Y1.4756
N820 X3.6602 Y1.4639
N821 X3.6682 Y1.4524
N822 X3.6766 Y1.4413
N823 X3.6854 Y1.4305
N824 X3.6947 Y1.4201
N825 X3.7044 Y1.41
N826 X3.7145 Y1.4003
N827 X3.7249 Y1.3909
N828 X3.7358 Y1.382
N829 X3.7469 Y1.3735
N830 X3.7585 Y1.3654
N831 X3.7703 Y1.3577
N832 X3.7824 Y1.3505
N833 X3.7948 Y1.3438
N834 X3.8075 Y1.3376
N835 X3.8205 Y1.3318
N836 X3.8336 Y1.3265
N837 X3.847 Y1.3217
N838 X3.8606 Y1.3175
N839 X3.8743 Y1.3138
N840 X3.8883 Y1.3106
N841 X3.9023 Y1.3079
N842 X3.9165 Y1.3058
N843 X3.9307 Y1.3042
N844 X3.9451 Y1.3032
N845 X3.9594 Y1.3027
N846 X3.9739 Y1.3028
N847 X3.9883 Y1.3034
N848 X4.0027 Y1.3046
N849 X4.0171 Y1.3064
N850 X4.0314 Y1.3087
N851 X4.0456 Y1.3116
N852 X4.0598 Y1.315
N853 X4.0738 Y1.319
N854 X4.0876 Y1.3235
N855 X4.1013 Y1.3286
N856 X4.1148 Y1.3342
N857 X4.1281 Y1.3403
N858 X4.1412 Y1.3469
N859 X4.154 Y1.3541
N860 X4.1666 Y1.3618
N861 X4.1789 Y1.3699
N862 X4.1908 Y1.3785
N863 X4.2024 Y1.3876
N864 X4.2137 Y1.3971
N865 X4.2246 Y1.4071
N866 X4.2352 Y1.4175
N867 X4.2453 Y1.4283
N868 X4.255 Y1.4396
N869 X4.2643 Y1.4512
N870 X4.2732 Y1.4631
N871 X4.2816 Y1.4754
N872 X4.2895 Y1.488
N873 X4.2969 Y1.501
N874 X4.3038 Y1.5142
N875 X4.3102 Y1.5277
N876 X4.3161 Y1.5415
N877 X4.3215 Y1.5554
N878 X4.3263 Y1.5696
N879 X4.3306 Y1.584
N880 X4.3343 Y1.5985
N881 X4.3374 Y1.6132
N882 X4.34 Y1.628
N883 X4.342 Y1.6429
N884 X4.3435 Y1.6579
N885 X4.3443 Y1.673
N886 X4.3446 Y1.6881
N887 X4.3443 Y1.7032
N888 X4.3434 Y1.7183
N889 X4.3419 Y1.7333
N890 X4.3398 Y1.7483
N891 X4.3372 Y1.7632
N892 X4.334 Y1.7781
N893 X4.3302 Y1.7928
N894 X4.3258 Y1.8073
N895 X4.3209 Y1.8217
N896 X4.3154 Y1.8359
N897 X4.3094 Y1.8499
N898 X4.3028 Y1.8637
N899 X4.2957 Y1.8772
N900 X4.288 Y1.8904
N901 X4.2799 Y1.9034
N902 X4.2712 Y1.916
N903 X4.2621 Y1.9283
N904 X4.2524 Y1.9403
N905 X4.2424 Y1.9519
N906 X4.2318 Y1.9631
N907 X4.2208 Y1.9739
N908 X4.2094 Y1.9843
N909 X4.1976 Y1.9942
N910 X4.1854 Y2.0037
N911 X4.1728 Y2.0127
N912 X4.1599 Y2.0213
N913 X4.1466 Y2.0293
N914 X4.133 Y2.0368
N915 X4.125 Y2.0409
N916 X4.111 Y2.0476
N917 X4.0968 Y2.0537
N918 X4.0822 Y2.0593
N919 X4.0675 Y2.0644
N920 X4.0525 Y2.0689
N921 X4.0374 Y2.0728
N922 X4.0221 Y2.0761
N923 X4.0066 Y2.0788
N924 X3.9911 Y2.081
N925 X3.9754 Y2.0825
N926 X3.9597 Y2.0834
N927 X3.944 Y2.0838
N928 X3.9282 Y2.0835
N929 X3.9124 Y2.0826
N930 X3.8966 Y2.0811
N931 X3.8809 Y2.0789
N932 X3.8653 Y2.0762
N933 X3.8497 Y2.0729
N934 X3.8347 Y2.069
N935 X3.8193 Y2.0645
N936 X3.8042 Y2.0593
N937 X3.7892 Y2.0536
N938 X3.7745 Y2.0473
N939 X3.76 Y2.0404
N940 X3.7458 Y2.033
N941 X3.7318 Y2.025
N942 X3.7182 Y2.0164
N943 X3.7049 Y2.0073
N944 X3.6919 Y1.9978
N945 X3.6793 Y1.9877
N946 X3.6671 Y1.9771
N947 X3.6553 Y1.966
N948 X3.6439 Y1.9545
N949 X3.633 Y1.9425
N950 X3.6225 Y1.9301
N951 X3.6125 Y1.9173
N952 X3.603 Y1.9042
N953 X3.594 Y1.8906
N954 X3.5855 Y1.8767
N955 X3.5776 Y1.8624
N956 X3.5702 Y1.8479
N957 X3.5633 Y1.833
N958 X3.5571 Y1.8179
N959 X3.5514 Y1.8026
N960 X3.5463 Y1.787
N961 X3.5419 Y1.7712
N962 X3.538 Y1.7552
N963 X3.5347 Y1.7391
N964 X3.5321 Y1.7229
N965 X3.5301 Y1.7066
N966 X3.5287 Y1.6901
N967 X3.528 Y1.6737
N968 X3.5279 Y1.6571
N969 X3.5284 Y1.6406
N970 X3.5296 Y1.6241
N971 X3.5314 Y1.6077
N972 X3.5339 Y1.5913
N973 X3.537 Y1.575
N974 X3.5407 Y1.5589
N975 X3.545 Y1.5429
N976 X3.55 Y1.527
N977 X3.5556 Y1.5113
N978 X3.5618 Y1.4959
N979 X3.5685 Y1.4807
N980 X3.5759 Y1.4658
N981 X3.5838 Y1.4511
N982 X3.5924 Y1.4368
N983 X3.6014 Y1.4227
N984 X3.611 Y1.4091
N985 X3.6212 Y1.3958
N986 X3.6318 Y1.3828
N987 X3.643 Y1.3703
N988 X3.6546 Y1.3583
N989 X3.6668 Y1.3467
N990 X3.6793 Y1.3355
N991 X3.6923 Y1.3248
N992 X3.7057 Y1.3147
N993 X3.7196 Y1.305
N994 X3.7338 Y1.2959
N995 X3.7483 Y1.2873
N996 X3.7632 Y1.2793
N997 X3.7784 Y1.2718
N998 X3.7939 Y1.265
N999 X3.8097 Y1.2587
N1000 X3.8257 Y1.253
N1001 X3.842 Y1.248
N1002 X3.8584 Y1.2436
N1003 X3.8751 Y1.2398
N1004 X3.8919 Y1.2367
N1005 X3.9088 Y1.2342
N1006 X3.9258 Y1.2323
N1007 X3.943 Y1.2312
N1008 X3.9601 Y1.2306
N1009 X3.9773 Y1.2308
N1010 X3.9945 Y1.2316
N1011 X4.0117 Y1.2331
N1012 X4.0288 Y1.2352
N1013 X4.0459 Y1.238
N1014 X4.0629 Y1.2415
N1015 X4.0797 Y1.2456
N1016 X4.0964 Y1.2504
N1017 X4.1129 Y1.2559
N1018 X4.1292 Y1.2619
N1019 X4.1452 Y1.2686
N1020 X4.161 Y1.276
N1021 X4.1766 Y1.2839
N1022 X4.1918 Y1.2925
N1023 X4.2067 Y1.3016
N1024 X4.2213 Y1.3113
N1025 X4.2355 Y1.3216
N1026 X4.2493 Y1.3325
N1027 X4.2627 Y1.3438
N1028 X4.2756 Y1.3557
N1029 X4.2881 Y1.3681
N1030 X4.3001 Y1.381
N1031 X4.3116 Y1.3944
N1032 X4.3226 Y1.4082
N1033 X4.3331 Y1.4224
N1034 X4.343 Y1.4371
N1035 X4.3477 Y1.4447
N1036 X4.3568 Y1.4599
N1037 X4.3653 Y1.4754
N1038 X4.3731 Y1.4913
N1039 X4.3804 Y1.5075
N1040 X4.387 Y1.5239
N1041 X4.393 Y1.5407
N1042 X4.3984 Y1.5576
N1043 X4.403 Y1.5748
N1044 X4.4071 Y1.5921
N1045 X4.4104 Y1.6097
N1046 X4.4131 Y1.6273
N1047 X4.4151 Y1.645
N1048 X4.4164 Y1.6629
N1049 X4.417 Y1.6807
N1050 Y1.6986
N1051 X4.4162 Y1.7165
N1052 X4.4147 Y1.7344
N1053 X4.4126 Y1.7522
N1054 X4.4098 Y1.7699
N1055 X4.4062 Y1.7875
N1056 X4.402 Y1.805
N1057 X4.3972 Y1.8224
N1058 X4.3916 Y1.8395
N1059 X4.3854 Y1.8564
N1060 X4.3785 Y1.8731
N1061 X4.371 Y1.8895
N1062 X4.3628 Y1.9057
N1063 X4.3541 Y1.9215
N1064 X4.3447 Y1.937
N1065 X4.3347 Y1.9521
N1066 X4.3241 Y1.9668
N1067 X4.3129 Y1.9812
N1068 X4.3012 Y1.9951
N1069 X4.289 Y2.0085
N1070 X4.2762 Y2.0215
N1071 X4.2629 Y2.034
N1072 X4.2492 Y2.046
N1073 X4.2352 Y2.0572
N1074 X4.2205 Y2.0681
N1075 X4.2053 Y2.0785
N1076 X4.1898 Y2.0883
N1077 X4.1738 Y2.0975
N1078 X4.1576 Y2.106
N1079 X4.1409 Y2.114
N1080 X4.124 Y2.1213
N1081 X4.1068 Y2.1279
N1082 X4.0894 Y2.1339
N1083 X4.0717 Y2.1391
N1084 X4.0538 Y2.1438
N1085 X4.0357 Y2.1477
N1086 X4.0175 Y2.1509
N1087 X3.9992 Y2.1534
N1088 X3.9807 Y2.1552
N1089 X3.9621 Y2.1563
N1090 X3.9436 Y2.1567
N1091 X3.9249 Y2.1563
N1092 X3.9064 Y2.1553
N1093 X3.8879 Y2.1535
N1094 X3.8694 Y2.151
N1095 X3.851 Y2.1478
N1096 X3.8327 Y2.1438
N1097 X3.8145 Y2.1392
N1098 X3.7966 Y2.1338
N1099 X3.7788 Y2.1278
N1100 X3.7612 Y2.121
N1101 X3.7439 Y2.1136
N1102 X3.7269 Y2.1055
N1103 X3.7102 Y2.0968
N1104 X3.6938 Y2.0874
N1105 X3.6778 Y2.0773
N1106 X3.6621 Y2.0667
N1107 X3.6469 Y2.0554
N1108 X3.6321 Y2.0435
N1109 X3.6178 Y2.0311
N1110 X3.6039 Y2.0181
N1111 X3.5906 Y2.0046
N1112 X3.5777 Y1.9905
N1113 X3.5654 Y1.9759
N1114 X3.5537 Y1.9609
N1115 X3.5425 Y1.9454
N1116 X3.532 Y1.9295
N1117 X3.522 Y1.9132
N1118 X3.5127 Y1.8965
N1119 X3.504 Y1.8794
N1120 X3.496 Y1.8619
N1121 X3.4887 Y1.8442
N1122 X3.4821 Y1.8262
N1123 X3.4761 Y1.8079
N1124 X3.4709 Y1.7894
N1125 X3.4663 Y1.7707
N1126 X3.4625 Y1.7518
N1127 X3.4594 Y1.7328
N1128 X3.4571 Y1.7136
N1129 X3.4555 Y1.6944
N1130 X3.4547 Y1.6751
N1131 X3.4545 Y1.6557
N1132 X3.4552 Y1.6364
N1133 X3.4566 Y1.6171
N1134 X3.4587 Y1.5978
N1135 X3.4616 Y1.5786
N1136 X3.4652 Y1.5596
N1137 X3.4696 Y1.5406
N1138 X3.4747 Y1.5219
N1139 X3.4805 Y1.5033
N1140 X3.487 Y1.485
N1141 X3.4943 Y1.4669
N1142 X3.5016 Y1.4505
N1143 X3.5101 Y1.4331
N1144 X3.5194 Y1.4159
N1145 X3.5293 Y1.3991
N1146 X3.5398 Y1.3827
N1147 X3.551 Y1.3666
N1148 X3.5628 Y1.3511
N1149 X3.5753 Y1.3359
N1150 X3.5883 Y1.3213
N1151 X3.6018 Y1.3071
N1152 X3.616 Y1.2935
N1153 X3.6306 Y1.2804
N1154 X3.6458 Y1.2679
N1155 X3.6614 Y1.2559
N1156 X3.6775 Y1.2446
N1157 X3.6941 Y1.2339
N1158 X3.7111 Y1.2238
N1159 X3.7284 Y1.2144
N1160 X3.7462 Y1.2056
N1161 X3.7643 Y1.1975
N1162 X3.7827 Y1.1902
N1163 X3.8014 Y1.1835
N1164 X3.8204 Y1.1776
N1165 X3.8396 Y1.1723
N1166 X3.859 Y1.1679
N1167 X3.8785 Y1.1642
N1168 X3.8983 Y1.1612
N1169 X3.9182 Y1.159
N1170 X3.9381 Y1.1576
N1171 X3.9581 Y1.1569
N1172 X3.9782 Y1.157
N1173 X3.9982 Y1.1579
N1174 X4.0183 Y1.1596
N1175 X4.0382 Y1.162
N1176 X4.0581 Y1.1652
N1177 X4.0779 Y1.1692
N1178 X4.0975 Y1.174
N1179 X4.1169 Y1.1795
N1180 X4.1361 Y1.1857
N1181 X4.1551 Y1.1927
N1182 X4.1738 Y1.2005
N1183 X4.1923 Y1.209
N1184 X4.2104 Y1.2182
N1185 X4.2281 Y1.228
N1186 X4.2455 Y1.2386
N1187 X4.2625 Y1.2499
N1188 X4.279 Y1.2618
N1189 X4.2951 Y1.2744
N1190 X4.3107 Y1.2875
N1191 X4.3258 Y1.3013
N1192 X4.3403 Y1.3157
N1193 X4.3538 Y1.33
N1194 X4.3673 Y1.3456
N1195 X4.3802 Y1.3617
N1196 X4.3925 Y1.3783
N1197 X4.4041 Y1.3954
N1198 X4.4151 Y1.4128
N1199 X4.4253 Y1.4307
N1200 X4.4349 Y1.449
N1201 X4.4437 Y1.4676
N1202 X4.4519 Y1.4866
N1203 X4.4593 Y1.5059
N1204 X4.4659 Y1.5254
N1205 X4.4718 Y1.5452
N1206 X4.4769 Y1.5653
N1207 X4.4813 Y1.5855
N1208 X4.4849 Y1.6059
N1209 X4.4876 Y1.6264
N1210 X4.4896 Y1.647
N1211 X4.4908 Y1.6678
N1212 X4.4912 Y1.6885
N1213 X4.4908 Y1.7093
N1214 X4.4895 Y1.73
N1215 X4.4875 Y1.7507
N1216 X4.4847 Y1.7714
N1217 X4.4811 Y1.7919
N1218 X4.4766 Y1.8122
N1219 X4.4714 Y1.8324
N1220 X4.4654 Y1.8524
N1221 X4.4587 Y1.8722
N1222 X4.4512 Y1.8917
N1223 X4.4429 Y1.9109
N1224 X4.4338 Y1.9298
N1225 X4.4241 Y1.9484
N1226 X4.4136 Y1.9665
N1227 X4.4024 Y1.9843
N1228 X4.3906 Y2.0016
N1229 X4.378 Y2.0185
N1230 X4.3648 Y2.0349
N1231 X4.3511 Y2.0507
N1232 X4.3367 Y2.066
N1233 X4.3216 Y2.0808
N1234 X4.306 Y2.095
N1235 X4.2899 Y2.1086
N1236 X4.2732 Y2.1216
N1237 X4.256 Y2.134
N1238 X4.2383 Y2.1457
N1239 X4.2229 Y2.155
N1240 X4.2045 Y2.1654
N1241 X4.1856 Y2.175
N1242 X4.1664 Y2.184
N1243 X4.1468 Y2.1922
N1244 X4.1269 Y2.1997
N1245 X4.1067 Y2.2064
N1246 X4.0862 Y2.2123
N1247 X4.0655 Y2.2174
N1248 X4.0446 Y2.2217
N1249 X4.0235 Y2.2253
N1250 X4.0023 Y2.228
N1251 X3.9809 Y2.2298
N1252 X3.9595 Y2.2309
N1253 X3.9381 Y2.2311
N1254 X3.9166 Y2.2305
N1255 X3.8951 Y2.2291
N1256 X3.8737 Y2.2268
N1257 X3.8524 Y2.2237
N1258 X3.8312 Y2.2198
N1259 X3.8101 Y2.2151
N1260 X3.7892 Y2.2095
N1261 X3.7685 Y2.2031
N1262 X3.7481 Y2.196
N1263 X3.7279 Y2.188
N1264 X3.708 Y2.1792
N1265 X3.6885 Y2.1697
N1266 X3.6693 Y2.1594
N1267 X3.6505 Y2.1484
N1268 X3.6322 Y2.1367
N1269 X3.6143 Y2.1242
N1270 X3.5969 Y2.1111
N1271 X3.58 Y2.0972
N1272 X3.5636 Y2.0827
N1273 X3.5477 Y2.0676
N1274 X3.5325 Y2.0519
N1275 X3.5179 Y2.0355
N1276 X3.5039 Y2.0186
N1277 X3.4905 Y2.0012
N1278 X3.4779 Y1.9833
N1279 X3.4659 Y1.9648
N1280 X3.4546 Y1.9459
N1281 X3.4441 Y1.9266
N1282 X3.4343 Y1.9068
N1283 X3.4253 Y1.8867
N1284 X3.417 Y1.8662
N1285 X3.4096 Y1.8454
N1286 X3.4029 Y1.8243
N1287 X3.3971 Y1.8029
N1288 X3.3921 Y1.7814
N1289 X3.3879 Y1.7596
N1290 X3.3846 Y1.7377
N1291 X3.3821 Y1.7156
N1292 X3.3805 Y1.6935
N1293 X3.3797 Y1.6713
N1294 X3.3798 Y1.649
N1295 X3.3808 Y1.6268
N1296 X3.3826 Y1.6046
N1297 X3.3852 Y1.5825
N1298 X3.3888 Y1.5605
N1299 X3.3931 Y1.5386
N1300 X3.3983 Y1.517
N1301 X3.4044 Y1.4955
N1302 X3.4113 Y1.4742
N1303 X3.419 Y1.4532
N1304 X3.4275 Y1.4325
N1305 X3.4369 Y1.4121
N1306 X3.447 Y1.3921
N1307 X3.4579 Y1.3725
N1308 X3.4695 Y1.3533
N1309 X3.4819 Y1.3346
N1310 X3.495 Y1.3164
N1311 X3.5088 Y1.2986
N1312 X3.5233 Y1.2814
N1313 X3.5384 Y1.2648
N1314 X3.5542 Y1.2487
N1315 X3.5706 Y1.2333
N1316 X3.5877 Y1.2185
N1317 X3.6053 Y1.2043
N1318 X3.6234 Y1.1909
N1319 X3.6421 Y1.1781
N1320 X3.6612 Y1.166
N1321 X3.6809 Y1.1547
N1322 X3.7009 Y1.1442
N1323 X3.7214 Y1.1344
N1324 X3.7423 Y1.1254
N1325 X3.7635 Y1.1172
N1326 X3.785 Y1.1099
N1327 X3.8069 Y1.1033
N1328 X3.8289 Y1.0976
N1329 X3.8465 Y1.0938
N1330 X3.8689 Y1.0897
N1331 X3.8916 Y1.0864
N1332 X3.9143 Y1.084
N1333 X3.9372 Y1.0825
N1334 X3.9601 Y1.0818
N1335 X3.983 Y1.082
N1336 X4.006 Y1.0832
N1337 X4.0289 Y1.0852
N1338 X4.0517 Y1.0881
N1339 X4.0745 Y1.0919
N1340 X4.0971 Y1.0965
N1341 X4.1195 Y1.1021
N1342 X4.1417 Y1.1085
N1343 X4.1636 Y1.1157
N1344 X4.1853 Y1.1239
N1345 X4.2067 Y1.1328
N1346 X4.2277 Y1.1426
N1347 X4.2483 Y1.1532
N1348 X4.2686 Y1.1646
N1349 X4.2884 Y1.1768
N1350 X4.3077 Y1.1897
N1351 X4.3265 Y1.2034
N1352 X4.3447 Y1.2178
N1353 X4.3624 Y1.2329
N1354 X4.3795 Y1.2486
N1355 X4.396 Y1.2651
N1356 X4.4119 Y1.2823
N1357 X4.4272 Y1.3
N1358 X4.4418 Y1.3184
N1359 X4.4556 Y1.3373
N1360 X4.4688 Y1.3567
N1361 X4.4812 Y1.3767
N1362 X4.4928 Y1.3971
N1363 X4.5036 Y1.418
N1364 X4.5136 Y1.4393
N1365 X4.5228 Y1.461
N1366 X4.5311 Y1.483
N1367 X4.5386 Y1.5054
N1368 X4.5452 Y1.528
N1369 X4.5509 Y1.5509
N1370 X4.5558 Y1.574
N1371 X4.5597 Y1.5973
N1372 X4.5628 Y1.6207
N1373 X4.565 Y1.6443
N1374 X4.5662 Y1.6679
N1375 X4.5665 Y1.6916
N1376 X4.5659 Y1.7152
N1377 X4.5644 Y1.7389
N1378 X4.562 Y1.7625
N1379 X4.5587 Y1.786
N1380 X4.5544 Y1.8094
N1381 X4.5493 Y1.8326
N1382 X4.5432 Y1.8556
N1383 X4.5363 Y1.8783
N1384 X4.5285 Y1.9008
N1385 X4.5198 Y1.923
N1386 X4.5103 Y1.9449
N1387 X4.4999 Y1.9663
N1388 X4.4887 Y1.9874
N1389 X4.4766 Y2.0081
N1390 X4.4638 Y2.0282
N1391 X4.4502 Y2.0479
N1392 X4.4359 Y2.067
N1393 X4.4208 Y2.0856
N1394 X4.405 Y2.1036
N1395 X4.3884 Y2.121
N1396 X4.3712 Y2.1378
N1397 X4.3534 Y2.1538
N1398 X4.335 Y2.1692
N1399 X4.3159 Y2.1839
N1400 X4.2962 Y2.1979
N1401 X4.276 Y2.2111
N1402 X4.2553 Y2.2236
N1403 X4.2341 Y2.2352
N1404 X4.2124 Y2.246
N1405 X4.1904 Y2.256
N1406 X4.168 Y2.2651
N1407 X4.1452 Y2.2733
N1408 X4.1221 Y2.2807
N1409 X4.0987 Y2.2871
N1410 X4.0751 Y2.2927
N1411 X4.0512 Y2.2973
N1412 X4.0272 Y2.3011
N1413 X4.0094 Y2.3031
N1414 X3.9852 Y2.3053
N1415 X3.961 Y2.3064
N1416 X3.9366 Y2.3067
N1417 X3.9123 Y2.306
N1418 X3.888 Y2.3043
N1419 X3.8637 Y2.3018
N1420 X3.8395 Y2.2982
N1421 X3.8154 Y2.2938
N1422 X3.7915 Y2.2884
N1423 X3.7678 Y2.2821
N1424 X3.7443 Y2.2748
N1425 X3.7211 Y2.2667
N1426 X3.6982 Y2.2576
N1427 X3.6757 Y2.2477
N1428 X3.6536 Y2.2369
N1429 X3.6318 Y2.2252
N1430 X3.6105 Y2.2127
N1431 X3.5897 Y2.1994
N1432 X3.5694 Y2.1852
N1433 X3.5497 Y2.1703
N1434 X3.5305 Y2.1546
N1435 X3.5119 Y2.1382
N1436 X3.494 Y2.121
N1437 X3.4767 Y2.1032
N1438 X3.4602 Y2.0847
N1439 X3.4443 Y2.0655
N1440 X3.4292 Y2.0457
N1441 X3.4148 Y2.0254
N1442 X3.4013 Y2.0045
N1443 X3.3885 Y1.983
N1444 X3.3766 Y1.9611
N1445 X3.3655 Y1.9387
N1446 X3.3553 Y1.9159
N1447 X3.346 Y1.8927
N1448 X3.3375 Y1.8691
N1449 X3.33 Y1.8453
N1450 X3.3234 Y1.8211
N1451 X3.3178 Y1.7966
N1452 X3.313 Y1.772
N1453 X3.3093 Y1.7472
N1454 X3.3065 Y1.7222
N1455 X3.3047 Y1.6971
N1456 X3.3038 Y1.672
N1457 X3.3039 Y1.6468
N1458 X3.305 Y1.6217
N1459 X3.3071 Y1.5966
N1460 X3.3101 Y1.5716
N1461 X3.3141 Y1.5467
N1462 X3.3191 Y1.5219
N1463 X3.325 Y1.4973
N1464 X3.3318 Y1.473
N1465 X3.3396 Y1.449
N1466 X3.3484 Y1.4252
N1467 X3.358 Y1.4018
N1468 X3.3686 Y1.3788
N1469 X3.38 Y1.3562
N1470 X3.3924 Y1.334
N1471 X3.4055 Y1.3123
N1472 X3.4195 Y1.2911
N1473 X3.4344 Y1.2705
N1474 X3.45 Y1.2504
N1475 X3.4664 Y1.231
N1476 X3.4835 Y1.2122
N1477 X3.5014 Y1.194
N1478 X3.52 Y1.1766
N1479 X3.5392 Y1.1599
N1480 X3.5591 Y1.1439
N1481 X3.5796 Y1.1287
N1482 X3.6007 Y1.1142
N1483 X3.6224 Y1.1006
N1484 X3.6446 Y1.0879
N1485 X3.6673 Y1.0759
N1486 X3.6904 Y1.0649
N1487 X3.714 Y1.0548
N1488 X3.7373 Y1.0458
N1489 X3.7618 Y1.0374
N1490 X3.7865 Y1.03
N1491 X3.8116 Y1.0236
N1492 X3.8291 Y1.0198
N1493 X3.8542 Y1.015
N1494 X3.8796 Y1.0112
N1495 X3.9051 Y1.0084
N1496 X3.9308 Y1.0065
N1497 X3.9566 Y1.0057
N1498 X3.9824 Y1.0058
N1499 X4.0083 Y1.0069
N1500 X4.0341 Y1.0091
N1501 X4.0598 Y1.0122
N1502 X4.0854 Y1.0164
N1503 X4.1109 Y1.0215
N1504 X4.1362 Y1.0276
N1505 X4.1612 Y1.0347
N1506 X4.186 Y1.0428
N1507 X4.2105 Y1.0518
N1508 X4.2346 Y1.0618
N1509 X4.2584 Y1.0727
N1510 X4.2817 Y1.0845
N1511 X4.3046 Y1.0973
N1512 X4.3269 Y1.1109
N1513 X4.3487 Y1.1253
N1514 X4.3699 Y1.1406
N1515 X4.3906 Y1.1567
N1516 X4.4106 Y1.1737
N1517 X4.43 Y1.1914
N1518 X4.4488 Y1.2098
N1519 X4.4668 Y1.229
N1520 X4.484 Y1.2489
N1521 X4.5005 Y1.2695
N1522 X4.5162 Y1.2907
N1523 X4.5311 Y1.3125
N1524 X4.5452 Y1.3349
N1525 X4.5583 Y1.3579
N1526 X4.5706 Y1.3813
N1527 X4.582 Y1.4052
N1528 X4.5924 Y1.4295
N1529 X4.6019 Y1.4543
N1530 X4.6105 Y1.4794
N1531 X4.618 Y1.5048
N1532 X4.6246 Y1.5305
N1533 X4.6302 Y1.5565
N1534 X4.6348 Y1.5827
N1535 X4.6384 Y1.609
N1536 X4.6409 Y1.6355
N1537 X4.6424 Y1.6621
N1538 X4.6429 Y1.6887
N1539 X4.6424 Y1.7153
N1540 X4.6408 Y1.7419
N1541 X4.6383 Y1.7685
N1542 X4.6346 Y1.7949
N1543 X4.63 Y1.8212
N1544 X4.6243 Y1.8473
N1545 X4.6177 Y1.8732
N1546 X4.61 Y1.8989
N1547 X4.6014 Y1.9242
N1548 X4.5917 Y1.9492
N1549 X4.5811 Y1.9738
N1550 X4.5696 Y1.998
N1551 X4.5571 Y2.0217
N1552 X4.5437 Y2.045
N1553 X4.5294 Y2.0677
N1554 X4.5142 Y2.0899
N1555 X4.4982 Y2.1115
N1556 X4.4813 Y2.1324
N1557 X4.4637 Y2.1528
N1558 X4.4452 Y2.1724
N1559 X4.426 Y2.1913
N1560 X4.406 Y2.2095
N1561 X4.3854 Y2.2269
N1562 X4.364 Y2.2435
N1563 X4.342 Y2.2593
N1564 X4.3194 Y2.2742
N1565 X4.2963 Y2.2883
N1566 X4.2725 Y2.3014
N1567 X4.2565 Y2.3095
N1568 X4.2321 Y2.3211
N1569 X4.2072 Y2.3318
N1570 X4.1819 Y2.3415
N1571 X4.1562 Y2.3502
N1572 X4.1301 Y2.3579
N1573 X4.1041 Y2.3646
N1574 X4.0773 Y2.3703
N1575 X4.0504 Y2.375
N1576 X4.0233 Y2.3787
N1577 X3.996 Y2.3813
N1578 X3.9687 Y2.3828
N1579 X3.9414 Y2.3833
N1580 X3.914 Y2.3827
N1581 X3.8867 Y2.3811
N1582 X3.8594 Y2.3784
N1583 X3.8322 Y2.3747
N1584 X3.8052 Y2.3699
N1585 X3.7784 Y2.364
N1586 X3.7517 Y2.3572
N1587 X3.7254 Y2.3492
N1588 X3.6993 Y2.3403
N1589 X3.6736 Y2.3304
N1590 X3.6483 Y2.3194
N1591 X3.6234 Y2.3075
N1592 X3.5989 Y2.2946
N1593 X3.575 Y2.2808
N1594 X3.5516 Y2.2661
N1595 X3.5287 Y2.2504
N1596 X3.5065 Y2.2339
N1597 X3.4849 Y2.2165
N1598 X3.464 Y2.1982
N1599 X3.4438 Y2.1792
N1600 X3.4243 Y2.1594
N1601 X3.4056 Y2.1388
N1602 X3.3877 Y2.1175
N1603 X3.3706 Y2.0955
N1604 X3.3543 Y2.0729
N1605 X3.339 Y2.0496
N1606 X3.3245 Y2.0257
N1607 X3.311 Y2.0013
N1608 X3.2984 Y1.9763
N1609 X3.2868 Y1.9509
N1610 X3.2762 Y1.925
N1611 X3.2665 Y1.8988
N1612 X3.2579 Y1.8721
N1613 X3.2503 Y1.8451
N1614 X3.2438 Y1.8179
N1615 X3.2383 Y1.7903
N1616 X3.2339 Y1.7626
N1617 X3.2306 Y1.7347
N1618 X3.2283 Y1.7067
N1619 X3.2271 Y1.6786
N1620 X3.227 Y1.6505
N1621 X3.228 Y1.6224
N1622 X3.2301 Y1.5943
N1623 X3.2333 Y1.5663
N1624 X3.2376 Y1.5384
N1625 X3.2429 Y1.5107
N1626 X3.2493 Y1.4832
N1627 X3.2568 Y1.456
N1628 X3.2653 Y1.4291
N1629 X3.2748 Y1.4025
N1630 X3.2854 Y1.3762
N1631 X3.297 Y1.3504
N1632 X3.3096 Y1.325
N1633 X3.3232 Y1.3002
N1634 X3.3377 Y1.2758
N1635 X3.3532 Y1.2521
N1636 X3.3695 Y1.2289
N1637 X3.3868 Y1.2064
N1638 X3.405 Y1.1845
N1639 X3.4169 Y1.1712
N1640 X3.4362 Y1.1506
N1641 X3.4563 Y1.1308
N1642 X3.4773 Y1.1117
N1643 X3.4989 Y1.0935
N1644 X3.5213 Y1.076
N1645 X3.5444 Y1.0594
N1646 X3.5682 Y1.0437
N1647 X3.5926 Y1.0289
N1648 X3.6174 Y1.0151
N1649 X3.6428 Y1.0022
N1650 X3.6688 Y0.9903
N1651 X3.6952 Y0.9794
N1652 X3.7211 Y0.9699
N1653 X3.7489 Y0.9609
N1654 X3.7768 Y0.953
N1655 X3.805 Y0.9462
N1656 X3.8333 Y0.9405
N1657 X3.8618 Y0.9359
N1658 X3.8904 Y0.9324
N1659 X3.9192 Y0.9301
N1660 X3.948 Y0.9288
N1661 X3.9769 Y0.9287
N1662 X4.0058 Y0.9297
N1663 X4.0346 Y0.9318
N1664 X4.0633 Y0.935
N1665 X4.092 Y0.9393
N1666 X4.1204 Y0.9448
N1667 X4.1486 Y0.9513
N1668 X4.1766 Y0.9589
N1669 X4.2043 Y0.9676
N1670 X4.2317 Y0.9774
N1671 X4.2587 Y0.9883
N1672 X4.2852 Y1.0002
N1673 X4.3113 Y1.0131
N1674 X4.3369 Y1.027
N1675 X4.3619 Y1.0419
N1676 X4.3864 Y1.0577
N1677 X4.4102 Y1.0745
N1678 X4.4334 Y1.0923
N1679 X4.4559 Y1.1109
N1680 X4.4777 Y1.1304
N1681 X4.4988 Y1.1508
N1682 X4.519 Y1.1719
N1683 X4.5385 Y1.1939
N1684 X4.557 Y1.2166
N1685 X4.5747 Y1.24
N1686 X4.5915 Y1.2641
N1687 X4.6074 Y1.2889
N1688 X4.6223 Y1.3142
N1689 X4.6362 Y1.3402
N1690 X4.6491 Y1.3666
N1691 X4.661 Y1.3936
N1692 X4.6719 Y1.421
N1693 X4.6817 Y1.4488
N1694 X4.6904 Y1.477
N1695 X4.698 Y1.5055
N1696 X4.7045 Y1.5344
N1697 X4.7099 Y1.5634
N1698 X4.7141 Y1.5927
N1699 X4.7172 Y1.6221
N1700 X4.7192 Y1.6516
N1701 X4.7201 Y1.6812
N1702 X4.7198 Y1.7108
N1703 X4.7183 Y1.7404
N1704 X4.7158 Y1.77
N1705 X4.712 Y1.7994
N1706 X4.7072 Y1.8287
N1707 X4.7012 Y1.8578
N1708 X4.6969 Y1.8752
N1709 X4.6893 Y1.9035
N1710 X4.6805 Y1.9315
N1711 X4.6707 Y1.9593
N1712 X4.6597 Y1.9868
N1713 X4.6477 Y2.0139
N1714 X4.6346 Y2.0406
N1715 X4.6205 Y2.0667
N1716 X4.6053 Y2.0924
N1717 X4.5891 Y2.1174
N1718 X4.572 Y2.1419
N1719 X4.554 Y2.1656
N1720 X4.535 Y2.1887
N1721 X4.5151 Y2.2111
N1722 X4.4943 Y2.2327
N1723 X4.4727 Y2.2534
N1724 X4.4503 Y2.2734
N1725 X4.4272 Y2.2925
N1726 X4.4033 Y2.3107
N1727 X4.3793 Y2.3275
N1728 X4.3538 Y2.3439
N1729 X4.3277 Y2.3593
N1730 X4.3011 Y2.3737
N1731 X4.274 Y2.3871
N1732 X4.2464 Y2.3993
N1733 X4.2184 Y2.4105
N1734 X4.19 Y2.4206
N1735 X4.1611 Y2.4296
N1736 X4.1319 Y2.4374
N1737 X4.1024 Y2.4442
N1738 X4.0727 Y2.4498
N1739 X4.0427 Y2.4543
N1740 X4.0125 Y2.4576
N1741 X3.9823 Y2.4597
N1742 X3.952 Y2.4606
N1743 X3.9216 Y2.4604
N1744 X3.8912 Y2.459
N1745 X3.861 Y2.4565
N1746 X3.8308 Y2.4527
N1747 X3.8007 Y2.4478
N1748 X3.7709 Y2.4418
N1749 X3.7412 Y2.4345
N1750 X3.7119 Y2.4262
N1751 X3.6829 Y2.4167
N1752 X3.6542 Y2.4061
N1753 X3.626 Y2.3943
N1754 X3.5982 Y2.3815
N1755 X3.5709 Y2.3676
N1756 X3.5442 Y2.3527
N1757 X3.518 Y2.3367
N1758 X3.4925 Y2.3197
N1759 X3.4676 Y2.3017
N1760 X3.4434 Y2.2827
N1761 X3.42 Y2.2629
N1762 X3.3973 Y2.2421
N1763 X3.3754 Y2.2204
N1764 X3.3544 Y2.1979
N1765 X3.3342 Y2.1746
N1766 X3.315 Y2.1505
N1767 X3.2967 Y2.1257
N1768 X3.2793 Y2.1002
N1769 X3.2629 Y2.074
N1770 X3.2476 Y2.0471
N1771 X3.2333 Y2.0197
N1772 X3.22 Y1.9917
N1773 X3.2079 Y1.9633
N1774 X3.2015 Y1.9465
N1775 X3.1911 Y1.9174
N1776 X3.1818 Y1.888
N1777 X3.1737 Y1.8581
N1778 X3.1667 Y1.8279
N1779 X3.1609 Y1.7974
N1780 X3.1563 Y1.7668
N1781 X3.1528 Y1.7359
N1782 X3.1506 Y1.7049
N1783 X3.1495 Y1.6738
N1784 X3.1497 Y1.6427
N1785 X3.151 Y1.6116
N1786 X3.1536 Y1.5805
N1787 X3.1573 Y1.5496
N1788 X3.1623 Y1.5188
N1789 X3.1684 Y1.4882
N1790 X3.1758 Y1.4578
N1791 X3.1843 Y1.4278
N1792 X3.1939 Y1.398
N1793 X3.2047 Y1.3687
N1794 X3.2167 Y1.3398
N1795 X3.2297 Y1.3113
N1796 X3.2439 Y1.2834
N1797 X3.2591 Y1.256
N1798 X3.2754 Y1.2292
N1799 X3.2927 Y1.2031
N1800 X3.3112 Y1.1774
N1801 X3.3306 Y1.1525
N1802 X3.3509 Y1.1284
N1803 X3.3721 Y1.1052
N1804 X3.3941 Y1.0828
N1805 X3.417 Y1.0613
N1806 X3.4408 Y1.0407
N1807 X3.4653 Y1.021
N1808 X3.4906 Y1.0022
N1809 X3.5166 Y0.9845
N1810 X3.5432 Y0.9677
N1811 X3.5705 Y0.952
N1812 X3.5983 Y0.9375
N1813 X3.6267 Y0.9239
N1814 X3.6557 Y0.9115
N1815 X3.6853 Y0.9001
N1816 X3.7154 Y0.8898
N1817 X3.7458 Y0.8807
N1818 X3.7766 Y0.8728
N1819 X3.8077 Y0.8661
N1820 X3.8391 Y0.8606
N1821 X3.8706 Y0.8563
N1822 X3.9023 Y0.8533
N1823 X3.9342 Y0.8514
N1824 X3.966 Y0.8508
N1825 X3.9979 Y0.8514
N1826 X4.0298 Y0.8533
N1827 X4.0616 Y0.8564
N1828 X4.0932 Y0.8607
N1829 X4.1247 Y0.8662
N1830 X4.156 Y0.873
N1831 X4.187 Y0.8809
N1832 X4.2177 Y0.8901
N1833 X4.248 Y0.9004
N1834 X4.278 Y0.912
N1835 X4.3074 Y0.9246
N1836 X4.3364 Y0.9385
N1837 X4.3523 Y0.9468
N1838 X4.3804 Y0.9623
N1839 X4.4079 Y0.9789
N1840 X4.4347 Y0.9966
N1841 X4.4609 Y1.0153
N1842 X4.4864 Y1.0351
N1843 X4.5111 Y1.0558
N1844 X4.5349 Y1.0775
N1845 X4.558 Y1.1001
N1846 X4.5802 Y1.1236
N1847 X4.6014 Y1.1479
N1848 X4.6217 Y1.1731
N1849 X4.6411 Y1.199
N1850 X4.6594 Y1.2257
N1851 X4.6767 Y1.2531
N1852 X4.693 Y1.2812
N1853 X4.7081 Y1.3099
N1854 X4.7221 Y1.3391
N1855 X4.735 Y1.3689
N1856 X4.7468 Y1.3992
N1857 X4.7574 Y1.43
N1858 X4.7667 Y1.4611
N1859 X4.7749 Y1.4926
N1860 X4.7819 Y1.5244
N1861 X4.7876 Y1.5564
N1862 X4.792 Y1.5887
N1863 X4.7953 Y1.6211
N1864 X4.7972 Y1.6537
N1865 X4.798 Y1.6863
N1866 X4.7974 Y1.7189
N1867 X4.7956 Y1.7515
N1868 X4.7925 Y1.784
N1869 X4.7882 Y1.8165
N1870 X4.7826 Y1.8491
N1871 X4.7757 Y1.8812
N1872 X4.7676 Y1.9129
N1873 X4.7584 Y1.9443
N1874 X4.7479 Y1.9753
N1875 X4.7362 Y2.0058
N1876 X4.7234 Y2.0359
N1877 X4.7094 Y2.0655
N1878 X4.6942 Y2.0946
N1879 X4.6779 Y2.123
N1880 X4.6605 Y2.1509
N1881 X4.6421 Y2.178
N1882 X4.6226 Y2.2045
N1883 X4.602 Y2.2302
N1884 X4.5805 Y2.2551
N1885 X4.558 Y2.2792
N1886 X4.5346 Y2.3024
N1887 X4.5103 Y2.3247
N1888 X4.4852 Y2.3459
N1889 X4.4593 Y2.3662
N1890 X4.4325 Y2.3856
N1891 X4.4049 Y2.4039
N1892 X4.3766 Y2.4212
N1893 X4.3477 Y2.4374
N1894 X4.3181 Y2.4525
N1895 X4.288 Y2.4664
N1896 X4.2574 Y2.4791
N1897 X4.2262 Y2.4907
N1898 X4.2092 Y2.4963
N1899 X4.1775 Y2.5059
N1900 X4.1455 Y2.5144
N1901 X4.1131 Y2.5216
N1902 X4.0804 Y2.5275
N1903 X4.0475 Y2.5322
N1904 X4.0143 Y2.5357
N1905 X3.9811 Y2.5378
N1906 X3.9477 Y2.5387
N1907 X3.9144 Y2.5382
N1908 X3.881 Y2.5365
N1909 X3.8477 Y2.5335
N1910 X3.8146 Y2.5292
N1911 X3.7816 Y2.5236
N1912 X3.7488 Y2.5168
N1913 X3.7163 Y2.5086
N1914 X3.6841 Y2.4993
N1915 X3.6523 Y2.4886
N1916 X3.6209 Y2.4768
N1917 X3.5899 Y2.4637
N1918 X3.5595 Y2.4495
N1919 X3.5296 Y2.434
N1920 X3.5003 Y2.4174
N1921 X3.4717 Y2.3997
N1922 X3.4437 Y2.3809
N1923 X3.4165 Y2.3609
N1924 X3.3901 Y2.34
N1925 X3.3645 Y2.318
N1926 X3.3397 Y2.295
N1927 X3.3158 Y2.2711
N1928 X3.2929 Y2.2463
N1929 X3.2709 Y2.2205
N1930 X3.2499 Y2.194
N1931 X3.2299 Y2.1666
N1932 X3.211 Y2.1384
N1933 X3.1932 Y2.1096
N1934 X3.1766 Y2.08
N1935 X3.1614 Y2.0506
N1936 X3.1469 Y2.0195
N1937 X3.1337 Y1.988
N1938 X3.1217 Y1.956
N1939 X3.1109 Y1.9237
N1940 X3.1014 Y1.8909
N1941 X3.0932 Y1.8578
N1942 X3.0863 Y1.8245
N1943 X3.0807 Y1.7909
N1944 X3.0764 Y1.757
N1945 X3.0734 Y1.7231
N1946 X3.0717 Y1.689
N1947 X3.0713 Y1.6548
N1948 X3.0722 Y1.6207
N1949 X3.0745 Y1.5866
N1950 X3.0781 Y1.5526
N1951 X3.0829 Y1.5187
N1952 X3.0891 Y1.4851
N1953 X3.0967 Y1.4517
N1954 X3.1054 Y1.4186
N1955 X3.1155 Y1.3858
N1956 X3.1268 Y1.3534
N1957 X3.1334 Y1.3367
N1958 X3.1465 Y1.3054
N1959 X3.1607 Y1.2745
N1960 X3.1763 Y1.2441
N1961 X3.193 Y1.2141
N1962 X3.2109 Y1.1848
N1963 X3.23 Y1.1562
N1964 X3.2501 Y1.1283
N1965 X3.2714 Y1.1012
N1966 X3.2937 Y1.075
N1967 X3.3169 Y1.0496
N1968 X3.3412 Y1.0251
N1969 X3.3664 Y1.0016
N1970 X3.3924 Y0.9791
N1971 X3.4194 Y0.9575
N1972 X3.4472 Y0.9371
N1973 X3.4757 Y0.9177
N1974 X3.5049 Y0.8995
N1975 X3.5349 Y0.8823
N1976 X3.5655 Y0.8664
N1977 X3.5968 Y0.8515
N1978 X3.6287 Y0.8379
N1979 X3.6611 Y0.8256
N1980 X3.694 Y0.8144
N1981 X3.7274 Y0.8046
N1982 X3.7402 Y0.8013
N1983 X3.7453 Y0.8003
N1984 X3.7504 Y0.7996
N1985 X3.7556 Y0.7994
N1986 X4.1001
N1987 X4.1345 Y0.8011
N1988 X4.1518 Y0.8027
N1989 X4.1716 Y0.8052
N1990 X4.1916 Y0.8086
N1991 X4.2142 Y0.8133
N1992 X4.2387 Y0.8194
N1993 X4.2631 Y0.8265
N1994 X4.2894 Y0.8353
N1995 X4.3164 Y0.8454
N1996 X4.3445 Y0.8573
N1997 X4.3733 Y0.8707
N1998 X4.4023 Y0.8857
N1999 X4.4313 Y0.9021
N2000 X4.4601 Y0.9199
N2001 X4.4885 Y0.939
N2002 X4.5164 Y0.9593
N2003 X4.5436 Y0.9809
N2004 X4.5701 Y1.0036
N2005 X4.5958 Y1.0274
N2006 X4.6206 Y1.0522
N2007 X4.6445 Y1.078
N2008 X4.6674 Y1.1048
N2009 X4.6893 Y1.1325
N2010 X4.7102 Y1.161
N2011 X4.7299 Y1.1903
N2012 X4.7485 Y1.2205
N2013 X4.766 Y1.2513
N2014 X4.7822 Y1.2828
N2015 X4.7972 Y1.315
N2016 X4.811 Y1.3477
N2017 X4.8235 Y1.3809
N2018 X4.8348 Y1.4146
N2019 X4.8447 Y1.4488
N2020 X4.8533 Y1.4833
N2021 X4.8605 Y1.5181
N2022 X4.8664 Y1.5532
N2023 X4.871 Y1.5885
N2024 X4.8741 Y1.624
N2025 X4.876 Y1.6596
N2026 X4.8764 Y1.6953
N2027 X4.8754 Y1.7309
N2028 X4.8731 Y1.7666
N2029 X4.8694 Y1.8023
N2030 X4.8643 Y1.8377
N2031 X4.8578 Y1.8729
N2032 X4.85 Y1.9078
N2033 X4.8409 Y1.9424
N2034 X4.8304 Y1.9766
N2035 X4.8186 Y2.0104
N2036 X4.8055 Y2.0437
N2037 X4.7911 Y2.0765
N2038 X4.7755 Y2.1087
N2039 X4.7586 Y2.1403
N2040 X4.7405 Y2.1712
N2041 X4.7212 Y2.2014
N2042 X4.7007 Y2.2309
N2043 X4.6792 Y2.2596
N2044 X4.6565 Y2.2874
N2045 X4.6327 Y2.3144
N2046 X4.608 Y2.3403
N2047 X4.5822 Y2.3654
N2048 X4.5555 Y2.3894
N2049 X4.5279 Y2.4123
N2050 X4.4995 Y2.4342
N2051 X4.4702 Y2.455
N2052 X4.4401 Y2.4746
N2053 X4.4093 Y2.493
N2054 X4.3779 Y2.5103
N2055 X4.3457 Y2.5263
N2056 X4.3263 Y2.5352
N2057 X4.318 Y2.5382
N2058 X4.3093 Y2.5401
N2059 X4.3005 Y2.5407
N2060 X3.6598
N2061 X3.6419 Y2.5398
N2062 X3.6313 Y2.5389
N2063 X3.6196 Y2.5374
N2064 X3.6075 Y2.5354
N2065 X3.5935 Y2.5324
N2066 X3.5791 Y2.5289
N2067 X3.5628 Y2.5241
N2068 X3.5457 Y2.5184
N2069 X3.5262 Y2.5111
N2070 X3.5067 Y2.5029
N2071 X3.4847 Y2.4926
N2072 X3.4613 Y2.4806
N2073 X3.4379 Y2.4674
N2074 X3.4129 Y2.452
N2075 X3.387 Y2.4346
N2076 X3.3607 Y2.4154
N2077 X3.3344 Y2.3946
N2078 X3.3082 Y2.3722
N2079 X3.2825 Y2.3484
N2080 X3.2575 Y2.3234
N2081 X3.2332 Y2.2973
N2082 X3.2099 Y2.27
N2083 X3.1876 Y2.2419
N2084 X3.1664 Y2.2129
N2085 X3.1463 Y2.1832
N2086 X3.1273 Y2.1527
N2087 X3.1096 Y2.1215
N2088 X3.093 Y2.0896
N2089 X3.0776 Y2.0572
N2090 X3.0635 Y2.0242
N2091 X3.0506 Y1.9907
N2092 X3.0389 Y1.9567
N2093 X3.0286 Y1.9224
N2094 X3.0195 Y1.8876
N2095 X3.0117 Y1.8526
N2096 X3.0053 Y1.8173
N2097 X3.0001 Y1.7818
N2098 X2.9963 Y1.7461
N2099 X2.9939 Y1.7102
N2100 X2.9927 Y1.6744
N2101 X2.9929 Y1.6385
N2102 X2.9945 Y1.6026
N2103 X2.9974 Y1.5668
N2104 X3.0016 Y1.5312
N2105 X3.0071 Y1.4957
N2106 X3.0139 Y1.4605
N2107 X3.0221 Y1.4255
N2108 X3.0313 Y1.3917
N2109 X3.0421 Y1.3575
N2110 X3.0541 Y1.3237
N2111 X3.0673 Y1.2903
N2112 X3.0818 Y1.2574
N2113 X3.0974 Y1.2251
N2114 X3.1143 Y1.1934
N2115 X3.1323 Y1.1624
N2116 X3.1514 Y1.132
N2117 X3.1717 Y1.1024
N2118 X3.193 Y1.0735
N2119 X3.2154 Y1.0454
N2120 X3.2388 Y1.0182
N2121 X3.2632 Y0.9919
N2122 X3.2885 Y0.9665
N2123 X3.3148 Y0.942
N2124 X3.342 Y0.9186
N2125 X3.37 Y0.8961
N2126 X3.3989 Y0.8748
N2127 X3.4285 Y0.8545
N2128 X3.4589 Y0.8353
N2129 X3.4899 Y0.8173
N2130 X3.5096 Y0.8067
N2131 X3.519 Y0.8027
N2132 X3.5289 Y0.8002
N2133 X3.539 Y0.7994
N2134 X3.7556
N2135 G3 X3.7651 Y0.8016 I-0.0009 J0.025 F30
N2136 G1 X3.7679 Y0.8029 Z-0.0784
N2137 X3.7706 Y0.8041 Z-0.0775
N2138 X3.7731 Y0.8053 Z-0.0761
N2139 X3.7752 Y0.8063 Z-0.0741
N2140 X3.777 Y0.8071 Z-0.0717
N2141 X3.7783 Y0.8077 Z-0.069
N2142 X3.7792 Y0.808 Z-0.0661
N2143 X3.7794 Y0.8082 Z-0.063
N2144 G0 Z0.1969
N2145 X3.67 Y2.5188
N2146 Z-0.0472
N2147 G1 Z-0.063 F30
N2148 Y2.5191 Z-0.0661
N2149 X3.6698 Y2.52 Z-0.069
N2150 X3.6696 Y2.5214 Z-0.0717
N2151 X3.6692 Y2.5233 Z-0.0741
N2152 X3.6688 Y2.5257 Z-0.0761
N2153 X3.6683 Y2.5284 Z-0.0775
N2154 X3.6678 Y2.5313 Z-0.0784
N2155 X3.6673 Y2.5343 Z-0.0787
N2156 G3 X3.6598 Y2.5407 I-0.0077 J-0.0014
N2157 G1 X3.4968 F60
N2158 X3.4878 Y2.5403
N2159 X3.4806 Y2.5397
N2160 X3.4726 Y2.5388
N2161 X3.4638 Y2.5374
N2162 X3.4548 Y2.5356
N2163 X3.4447 Y2.5332
N2164 X3.4337 Y2.5301
N2165 X3.4224 Y2.5265
N2166 X3.4094 Y2.5218
N2167 X3.3961 Y2.5163
N2168 X3.3812 Y2.5096
N2169 X3.3655 Y2.5017
N2170 X3.3482 Y2.4921
N2171 X3.3302 Y2.4813
N2172 X3.31 Y2.468
N2173 X3.2898 Y2.4536
N2174 X3.2681 Y2.4368
N2175 X3.2451 Y2.4175
N2176 X3.2213 Y2.396
N2177 X3.1978 Y2.3729
N2178 X3.1744 Y2.3482
N2179 X3.1509 Y2.3213
N2180 X3.1283 Y2.2934
N2181 X3.1068 Y2.2646
N2182 X3.0863 Y2.2351
N2183 X3.067 Y2.2049
N2184 X3.0487 Y2.174
N2185 X3.0315 Y2.1425
N2186 X3.0154 Y2.1104
N2187 X3.0005 Y2.0778
N2188 X2.9866 Y2.0446
N2189 X2.974 Y2.011
N2190 X2.9625 Y1.977
N2191 X2.9522 Y1.9426
N2192 X2.9431 Y1.9079
N2193 X2.9353 Y1.8729
N2194 X2.9286 Y1.8376
N2195 X2.9232 Y1.8021
N2196 X2.919 Y1.7665
N2197 X2.916 Y1.7307
N2198 X2.9142 Y1.6948
N2199 X2.9137 Y1.6589
N2200 X2.9144 Y1.623
N2201 X2.9164 Y1.5872
N2202 X2.9195 Y1.5514
N2203 X2.9239 Y1.5158
N2204 X2.9296 Y1.4804
N2205 X2.9364 Y1.4451
N2206 X2.9445 Y1.4101
N2207 X2.9538 Y1.3755
N2208 X2.9643 Y1.3412
N2209 X2.976 Y1.3072
N2210 X2.9888 Y1.2737
N2211 X3.0028 Y1.2406
N2212 X3.0178 Y1.208
N2213 X3.034 Y1.1759
N2214 X3.0512 Y1.1445
N2215 X3.0695 Y1.1136
N2216 X3.0889 Y1.0833
N2217 X3.1092 Y1.0538
N2218 X3.1306 Y1.0249
N2219 X3.153 Y0.9969
N2220 X3.1763 Y0.9696
N2221 X3.2006 Y0.9431
N2222 X3.2257 Y0.9175
N2223 X3.2517 Y0.8927
N2224 X3.2785 Y0.8689
N2225 X3.3062 Y0.846
N2226 X3.3346 Y0.824
N2227 X3.3523 Y0.8112
N2228 X3.3636 Y0.8047
N2229 X3.3759 Y0.8008
N2230 X3.3888 Y0.7994
N2231 X3.539
N2232 G3 X3.5485 Y0.8016 I-0.0009 J0.025 F30
N2233 G1 X3.5513 Y0.8029 Z-0.0784
N2234 X3.554 Y0.8041 Z-0.0775
N2235 X3.5565 Y0.8053 Z-0.0761
N2236 X3.5587 Y0.8063 Z-0.0741
N2237 X3.5604 Y0.8071 Z-0.0717
N2238 X3.5618 Y0.8077 Z-0.069
N2239 X3.5626 Y0.808 Z-0.0661
N2240 X3.5629 Y0.8082 Z-0.063
N2241 G0 Z0.1969
N2242 X3.507 Y2.5188
N2243 Z-0.0472
N2244 G1 Z-0.063 F30
N2245 X3.5069 Y2.5191 Z-0.0661
N2246 X3.5068 Y2.52 Z-0.069
N2247 X3.5065 Y2.5214 Z-0.0717
N2248 X3.5062 Y2.5233 Z-0.0741
N2249 X3.5058 Y2.5257 Z-0.0761
N2250 X3.5053 Y2.5284 Z-0.0775
N2251 X3.5047 Y2.5313 Z-0.0784
N2252 X3.5042 Y2.5343 Z-0.0787
N2253 G3 X3.4968 Y2.5407 I-0.0077 J-0.0014
N2254 G1 X3.3664 F60
N2255 X3.3619 Y2.5405
N2256 X3.3558 Y2.5401
N2257 X3.3494 Y2.5395
N2258 X3.3424 Y2.5385
N2259 X3.3348 Y2.5371
N2260 X3.327 Y2.5354
N2261 X3.3183 Y2.5331
N2262 X3.309 Y2.5303
N2263 X3.2994 Y2.527
N2264 X3.2886 Y2.5228
N2265 X3.2773 Y2.5179
N2266 X3.2652 Y2.512
N2267 X3.2517 Y2.5049
N2268 X3.238 Y2.497
N2269 X3.2225 Y2.4871
N2270 X3.2068 Y2.4763
N2271 X3.1895 Y2.4633
N2272 X3.171 Y2.4484
N2273 X3.1522 Y2.4319
N2274 X3.1317 Y2.4125
N2275 X3.1102 Y2.3905
N2276 X3.0887 Y2.3667
N2277 X3.067 Y2.3408
N2278 X3.045 Y2.3124
N2279 X3.0242 Y2.2832
N2280 X3.0044 Y2.2532
N2281 X2.9857 Y2.2225
N2282 X2.9681 Y2.1913
N2283 X2.9515 Y2.1595
N2284 X2.9359 Y2.1271
N2285 X2.9215 Y2.0942
N2286 X2.9081 Y2.0609
N2287 X2.8957 Y2.0272
N2288 X2.8845 Y1.9931
N2289 X2.8744 Y1.9587
N2290 X2.8655 Y1.9239
N2291 X2.8576 Y1.8889
N2292 X2.8509 Y1.8536
N2293 X2.8454 Y1.8181
N2294 X2.841 Y1.7825
N2295 X2.8377 Y1.7468
N2296 X2.8356 Y1.7109
N2297 X2.8346 Y1.675
N2298 X2.8347 Y1.6391
N2299 X2.836 Y1.6033
N2300 X2.8384 Y1.5675
N2301 X2.842 Y1.5317
N2302 X2.8467 Y1.4961
N2303 X2.8526 Y1.4607
N2304 X2.8596 Y1.4255
N2305 X2.8677 Y1.3906
N2306 X2.877 Y1.3559
N2307 X2.8874 Y1.3215
N2308 X2.8989 Y1.2875
N2309 X2.9114 Y1.2539
N2310 X2.925 Y1.2206
N2311 X2.9397 Y1.1879
N2312 X2.9553 Y1.1556
N2313 X2.972 Y1.1238
N2314 X2.9897 Y1.0925
N2315 X3.0084 Y1.0619
N2316 X3.028 Y1.0318
N2317 X3.0485 Y1.0024
N2318 X3.0701 Y0.9737
N2319 X3.0925 Y0.9456
N2320 X3.1158 Y0.9183
N2321 X3.14 Y0.8918
N2322 X3.165 Y0.866
N2323 X3.1908 Y0.8411
N2324 X3.2174 Y0.817
N2325 X3.2206 Y0.8143
N2326 X3.2296 Y0.8079
N2327 X3.2395 Y0.8032
N2328 X3.2501 Y0.8004
N2329 X3.2611 Y0.7994
N2330 X3.3888
N2331 G3 X3.3983 Y0.8016 I-0.0009 J0.025 F30
N2332 G1 X3.4011 Y0.8029 Z-0.0784
N2333 X3.4038 Y0.8041 Z-0.0775
N2334 X3.4063 Y0.8053 Z-0.0761
N2335 X3.4085 Y0.8063 Z-0.0741
N2336 X3.4103 Y0.8071 Z-0.0717
N2337 X3.4116 Y0.8077 Z-0.069
N2338 X3.4124 Y0.808 Z-0.0661
N2339 X3.4127 Y0.8082 Z-0.063
N2340 G0 Z0.1969
N2341 X3.3766 Y2.5188
N2342 Z-0.0472
N2343 G1 Z-0.063 F30
N2344 X3.3765 Y2.5191 Z-0.0661
N2345 X3.3763 Y2.52 Z-0.069
N2346 X3.3761 Y2.5214 Z-0.0717
N2347 X3.3757 Y2.5233 Z-0.0741
N2348 X3.3753 Y2.5257 Z-0.0761
N2349 X3.3748 Y2.5284 Z-0.0775
N2350 X3.3743 Y2.5313 Z-0.0784
N2351 X3.3738 Y2.5343 Z-0.0787
N2352 G3 X3.3664 Y2.5407 I-0.0077 J-0.0014
N2353 G1 X3.2522 F60
N2354 X3.2433 Y2.5403
N2355 X3.2374 Y2.5397
N2356 X3.2312 Y2.539
N2357 X3.2248 Y2.5379
N2358 X3.2178 Y2.5364
N2359 X3.2102 Y2.5345
N2360 X3.2024 Y2.5323
N2361 X3.1938 Y2.5294
N2362 X3.1848 Y2.526
N2363 X3.1753 Y2.522
N2364 X3.1647 Y2.5171
N2365 X3.1541 Y2.5116
N2366 X3.1421 Y2.5048
N2367 X3.1297 Y2.4972
N2368 X3.1163 Y2.4881
N2369 X3.1021 Y2.4778
N2370 X3.0867 Y2.4656
N2371 X3.0709 Y2.4521
N2372 X3.0531 Y2.4356
N2373 X3.0357 Y2.4182
N2374 X3.0168 Y2.3979
N2375 X2.9968 Y2.3745
N2376 X2.9762 Y2.3485
N2377 X2.9554 Y2.32
N2378 X2.9353 Y2.2902
N2379 X2.9164 Y2.2597
N2380 X2.8986 Y2.2285
N2381 X2.8818 Y2.1968
N2382 X2.866 Y2.1645
N2383 X2.8513 Y2.1318
N2384 X2.8376 Y2.0986
N2385 X2.825 Y2.065
N2386 X2.8133 Y2.0311
N2387 X2.8028 Y1.9968
N2388 X2.7932 Y1.9622
N2389 X2.7847 Y1.9273
N2390 X2.7773 Y1.8922
N2391 X2.7709 Y1.8568
N2392 X2.7656 Y1.8213
N2393 X2.7614 Y1.7857
N2394 X2.7582 Y1.7499
N2395 X2.7561 Y1.7141
N2396 X2.7551 Y1.6782
N2397 Y1.6423
N2398 X2.7563 Y1.6064
N2399 X2.7585 Y1.5706
N2400 X2.7617 Y1.5348
N2401 X2.766 Y1.4992
N2402 X2.7714 Y1.4637
N2403 X2.7779 Y1.4284
N2404 X2.7854 Y1.3933
N2405 X2.794 Y1.3584
N2406 X2.8036 Y1.3238
N2407 X2.8142 Y1.2896
N2408 X2.8258 Y1.2556
N2409 X2.8385 Y1.222
N2410 X2.8521 Y1.1888
N2411 X2.8668 Y1.156
N2412 X2.8823 Y1.1237
N2413 X2.8989 Y1.0918
N2414 X2.9164 Y1.0605
N2415 X2.9348 Y1.0296
N2416 X2.9541 Y0.9994
N2417 X2.9743 Y0.9697
N2418 X2.9954 Y0.9406
N2419 X3.0173 Y0.9122
N2420 X3.0401 Y0.8845
N2421 X3.0637 Y0.8574
N2422 X3.088 Y0.8311
N2423 X3.1006 Y0.8183
N2424 X3.1018 Y0.8171
N2425 X3.1112 Y0.8096
N2426 X3.1218 Y0.804
N2427 X3.1334 Y0.8006
N2428 X3.1454 Y0.7994
N2429 X3.2611
N2430 G3 X3.2706 Y0.8016 I-0.0009 J0.025 F30
N2431 G1 X3.2734 Y0.8029 Z-0.0784
N2432 X3.2761 Y0.8041 Z-0.0775
N2433 X3.2785 Y0.8053 Z-0.0761
N2434 X3.2807 Y0.8063 Z-0.0741
N2435 X3.2825 Y0.8071 Z-0.0717
N2436 X3.2838 Y0.8077 Z-0.069
N2437 X3.2846 Y0.808 Z-0.0661
N2438 X3.2849 Y0.8082 Z-0.063
N2439 G0 Z0.1969
N2440 X3.2624 Y2.5188
N2441 Z-0.0472
N2442 G1 Z-0.063 F30
N2443 Y2.5191 Z-0.0661
N2444 X3.2622 Y2.52 Z-0.069
N2445 X3.262 Y2.5214 Z-0.0717
N2446 X3.2616 Y2.5233 Z-0.0741
N2447 X3.2612 Y2.5257 Z-0.0761
N2448 X3.2607 Y2.5284 Z-0.0775
N2449 X3.2602 Y2.5313 Z-0.0784
N2450 X3.2596 Y2.5343 Z-0.0787
N2451 G3 X3.2522 Y2.5407 I-0.0077 J-0.0014
N2452 G1 X3.1462 F60
N2453 X3.1373 Y2.5403
N2454 X3.1314 Y2.5398
N2455 X3.1255 Y2.539
N2456 X3.1196 Y2.538
N2457 X3.113 Y2.5366
N2458 X3.1062 Y2.5349
N2459 X3.099 Y2.5328
N2460 X3.091 Y2.5301
N2461 X3.0829 Y2.527
N2462 X3.0741 Y2.5233
N2463 X3.0646 Y2.5189
N2464 X3.055 Y2.5139
N2465 X3.0442 Y2.5078
N2466 X3.0333 Y2.501
N2467 X3.0213 Y2.4929
N2468 X3.0087 Y2.4837
N2469 X2.9952 Y2.473
N2470 X2.981 Y2.4608
N2471 X2.9655 Y2.4464
N2472 X2.9498 Y2.4307
N2473 X2.9325 Y2.4119
N2474 X2.9148 Y2.3912
N2475 X2.8967 Y2.3682
N2476 X2.8775 Y2.3419
N2477 X2.8579 Y2.3126
N2478 X2.8391 Y2.282
N2479 X2.8214 Y2.2508
N2480 X2.8047 Y2.2189
N2481 X2.7891 Y2.1866
N2482 X2.7746 Y2.1538
N2483 X2.761 Y2.1206
N2484 X2.7484 Y2.0869
N2485 X2.7368 Y2.053
N2486 X2.7262 Y2.0187
N2487 X2.7167 Y1.9841
N2488 X2.7081 Y1.9492
N2489 X2.7005 Y1.9141
N2490 X2.6939 Y1.8788
N2491 X2.6883 Y1.8434
N2492 X2.6837 Y1.8078
N2493 X2.6801 Y1.7721
N2494 X2.6775 Y1.7363
N2495 X2.6759 Y1.7004
N2496 X2.6753 Y1.6645
N2497 X2.6758 Y1.6286
N2498 X2.6772 Y1.5927
N2499 X2.6796 Y1.5569
N2500 X2.683 Y1.5212
N2501 X2.6874 Y1.4856
N2502 X2.6929 Y1.4501
N2503 X2.6993 Y1.4148
N2504 X2.7068 Y1.3796
N2505 X2.7152 Y1.3447
N2506 X2.7246 Y1.3101
N2507 X2.7349 Y1.2757
N2508 X2.7463 Y1.2417
N2509 X2.7585 Y1.2079
N2510 X2.7717 Y1.1745
N2511 X2.7858 Y1.1415
N2512 X2.8009 Y1.1089
N2513 X2.8168 Y1.0768
N2514 X2.8336 Y1.045
N2515 X2.8513 Y1.0138
N2516 X2.8698 Y0.9831
N2517 X2.8892 Y0.9529
N2518 X2.9095 Y0.9232
N2519 X2.9306 Y0.8942
N2520 X2.9524 Y0.8657
N2521 X2.9751 Y0.8379
N2522 X2.9904 Y0.8201
N2523 X3.0001 Y0.8098
N2524 X3.0075 Y0.8041
N2525 X3.016 Y0.8006
N2526 X3.0252 Y0.7994
N2527 X3.1454
N2528 G3 X3.1549 Y0.8016 I-0.0009 J0.025 F30
N2529 G1 X3.1577 Y0.8029 Z-0.0784
N2530 X3.1603 Y0.8041 Z-0.0775
N2531 X3.1628 Y0.8053 Z-0.0761
N2532 X3.165 Y0.8063 Z-0.0741
N2533 X3.1668 Y0.8071 Z-0.0717
N2534 X3.1681 Y0.8077 Z-0.069
N2535 X3.1689 Y0.808 Z-0.0661
N2536 X3.1692 Y0.8082 Z-0.063
N2537 G0 Z0.1969
N2538 X3.1564 Y2.5188
N2539 Z-0.0472
N2540 G1 Z-0.063 F30
N2541 Y2.5191 Z-0.0661
N2542 X3.1562 Y2.52 Z-0.069
N2543 X3.156 Y2.5214 Z-0.0717
N2544 X3.1556 Y2.5233 Z-0.0741
N2545 X3.1552 Y2.5257 Z-0.0761
N2546 X3.1547 Y2.5284 Z-0.0775
N2547 X3.1542 Y2.5313 Z-0.0784
N2548 X3.1537 Y2.5343 Z-0.0787
N2549 G3 X3.1462 Y2.5407 I-0.0077 J-0.0014
N2550 G1 X3.0439 F60
N2551 X3.0395 Y2.5405
N2552 X3.0336 Y2.5401
N2553 X3.0277 Y2.5395
N2554 X3.0219 Y2.5386
N2555 X3.0159 Y2.5374
N2556 X3.0097 Y2.5359
N2557 X3.0028 Y2.534
N2558 X2.9957 Y2.5317
N2559 X2.9882 Y2.529
N2560 X2.98 Y2.5257
N2561 X2.9717 Y2.5219
N2562 X2.9625 Y2.5173
N2563 X2.9531 Y2.5121
N2564 X2.943 Y2.506
N2565 X2.9321 Y2.4989
N2566 X2.921 Y2.491
N2567 X2.9087 Y2.4815
N2568 X2.8963 Y2.4711
N2569 X2.8826 Y2.4587
N2570 X2.8686 Y2.4451
N2571 X2.8534 Y2.429
N2572 X2.8374 Y2.4107
N2573 X2.8211 Y2.3907
N2574 X2.8037 Y2.3673
N2575 X2.7854 Y2.3408
N2576 X2.7667 Y2.3113
N2577 X2.7487 Y2.2802
N2578 X2.7318 Y2.2486
N2579 X2.716 Y2.2163
N2580 X2.7012 Y2.1836
N2581 X2.6875 Y2.1504
N2582 X2.6747 Y2.1169
N2583 X2.6629 Y2.083
N2584 X2.6521 Y2.0487
N2585 X2.6422 Y2.0142
N2586 X2.6333 Y1.9795
N2587 X2.6253 Y1.9445
N2588 X2.6183 Y1.9093
N2589 X2.6122 Y1.8739
N2590 X2.607 Y1.8383
N2591 X2.6028 Y1.8027
N2592 X2.5996 Y1.7669
N2593 X2.5972 Y1.7311
N2594 X2.5959 Y1.6953
N2595 X2.5954 Y1.6594
N2596 X2.5959 Y1.6235
N2597 X2.5974 Y1.5876
N2598 X2.5998 Y1.5518
N2599 X2.6032 Y1.516
N2600 X2.6075 Y1.4804
N2601 X2.6128 Y1.4449
N2602 X2.619 Y1.4095
N2603 X2.6262 Y1.3744
N2604 X2.6342 Y1.3394
N2605 X2.6432 Y1.3046
N2606 X2.6531 Y1.2701
N2607 X2.6639 Y1.2359
N2608 X2.6756 Y1.2019
N2609 X2.6882 Y1.1683
N2610 X2.7016 Y1.135
N2611 X2.7159 Y1.1021
N2612 X2.7311 Y1.0696
N2613 X2.7471 Y1.0374
N2614 X2.764 Y1.0058
N2615 X2.7817 Y0.9745
N2616 X2.8002 Y0.9438
N2617 X2.8195 Y0.9135
N2618 X2.8396 Y0.8838
N2619 X2.8605 Y0.8546
N2620 X2.8807 Y0.8278
N2621 X2.8917 Y0.8145
N2622 X2.9003 Y0.8048
N2623 X2.9039 Y0.8019
N2624 X2.9082 Y0.8
N2625 X2.9128 Y0.7994
N2626 X3.0252
N2627 G3 X3.0347 Y0.8016 I-0.0009 J0.025 F30
N2628 G1 X3.0375 Y0.8029 Z-0.0784
N2629 X3.0402 Y0.8041 Z-0.0775
N2630 X3.0426 Y0.8053 Z-0.0761
N2631 X3.0448 Y0.8063 Z-0.0741
N2632 X3.0466 Y0.8071 Z-0.0717
N2633 X3.0479 Y0.8077 Z-0.069
N2634 X3.0487 Y0.808 Z-0.0661
N2635 X3.049 Y0.8082 Z-0.063
N2636 G0 Z0.1969
N2637 X3.0541 Y2.5188
N2638 Z-0.0472
N2639 G1 Z-0.063 F30
N2640 Y2.5191 Z-0.0661
N2641 X3.0539 Y2.52 Z-0.069
N2642 X3.0537 Y2.5214 Z-0.0717
N2643 X3.0533 Y2.5233 Z-0.0741
N2644 X3.0529 Y2.5257 Z-0.0761
N2645 X3.0524 Y2.5284 Z-0.0775
N2646 X3.0519 Y2.5313 Z-0.0784
N2647 X3.0514 Y2.5343 Z-0.0787
N2648 G3 X3.0439 Y2.5407 I-0.0077 J-0.0014
N2649 G1 X2.9461 F60
N2650 X2.9416 Y2.5405
N2651 X2.9357 Y2.5401
N2652 X2.9299 Y2.5394
N2653 X2.924 Y2.5384
N2654 X2.9181 Y2.5372
N2655 X2.9121 Y2.5357
N2656 X2.9054 Y2.5337
N2657 X2.8985 Y2.5314
N2658 X2.8913 Y2.5287
N2659 X2.8833 Y2.5253
N2660 X2.8753 Y2.5216
N2661 X2.8666 Y2.5171
N2662 X2.8574 Y2.5119
N2663 X2.8479 Y2.506
N2664 X2.8374 Y2.499
N2665 X2.827 Y2.4913
N2666 X2.8152 Y2.482
N2667 X2.8037 Y2.4721
N2668 X2.7904 Y2.4598
N2669 X2.7776 Y2.4469
N2670 X2.7629 Y2.4311
N2671 X2.7484 Y2.4141
N2672 X2.7327 Y2.3943
N2673 X2.716 Y2.3714
N2674 X2.699 Y2.3461
N2675 X2.6817 Y2.318
N2676 X2.664 Y2.2868
N2677 X2.6476 Y2.2548
N2678 X2.6322 Y2.2224
N2679 X2.618 Y2.1895
N2680 X2.6047 Y2.1561
N2681 X2.5924 Y2.1224
N2682 X2.581 Y2.0883
N2683 X2.5706 Y2.054
N2684 X2.5611 Y2.0194
N2685 X2.5525 Y1.9845
N2686 X2.5447 Y1.9495
N2687 X2.5379 Y1.9142
N2688 X2.532 Y1.8788
N2689 X2.527 Y1.8433
N2690 X2.5229 Y1.8076
N2691 X2.5196 Y1.7718
N2692 X2.5173 Y1.736
N2693 X2.5159 Y1.7002
N2694 X2.5154 Y1.6643
N2695 X2.5157 Y1.6284
N2696 X2.517 Y1.5925
N2697 X2.5192 Y1.5567
N2698 X2.5223 Y1.5209
N2699 X2.5262 Y1.4852
N2700 X2.5311 Y1.4496
N2701 X2.5368 Y1.4142
N2702 X2.5435 Y1.3789
N2703 X2.551 Y1.3438
N2704 X2.5593 Y1.3089
N2705 X2.5686 Y1.2742
N2706 X2.5787 Y1.2398
N2707 X2.5896 Y1.2056
N2708 X2.6014 Y1.1717
N2709 X2.614 Y1.1381
N2710 X2.6274 Y1.1048
N2711 X2.6417 Y1.0718
N2712 X2.6568 Y1.0393
N2713 X2.6727 Y1.0071
N2714 X2.6894 Y0.9753
N2715 X2.7069 Y0.9439
N2716 X2.7251 Y0.913
N2717 X2.7442 Y0.8826
N2718 X2.7639 Y0.8526
N2719 X2.7818 Y0.827
N2720 X2.784 Y0.8241
N2721 X2.7918 Y0.8156
N2722 X2.801 Y0.8087
N2723 X2.8113 Y0.8036
N2724 X2.8224 Y0.8005
N2725 X2.8338 Y0.7994
N2726 X2.9128
N2727 G3 X2.9223 Y0.8016 I-0.0009 J0.025 F30
N2728 G1 X2.9251 Y0.8029 Z-0.0784
N2729 X2.9278 Y0.8041 Z-0.0775
N2730 X2.9302 Y0.8053 Z-0.0761
N2731 X2.9324 Y0.8063 Z-0.0741
N2732 X2.9342 Y0.8071 Z-0.0717
N2733 X2.9355 Y0.8077 Z-0.069
N2734 X2.9363 Y0.808 Z-0.0661
N2735 X2.9366 Y0.8082 Z-0.063
N2736 G0 Z0.1969
N2737 X2.9563 Y2.5188
N2738 Z-0.0472
N2739 G1 Z-0.063 F30
N2740 Y2.5191 Z-0.0661
N2741 X2.9561 Y2.52 Z-0.069
N2742 X2.9558 Y2.5214 Z-0.0717
N2743 X2.9555 Y2.5233 Z-0.0741
N2744 X2.9551 Y2.5257 Z-0.0761
N2745 X2.9546 Y2.5284 Z-0.0775
N2746 X2.9541 Y2.5313 Z-0.0784
N2747 X2.9535 Y2.5343 Z-0.0787
N2748 G3 X2.9461 Y2.5407 I-0.0077 J-0.0014
N2749 G1 X2.8528 F60
N2750 X2.8483 Y2.5405
N2751 X2.8424 Y2.5401
N2752 X2.8365 Y2.5394
N2753 X2.8307 Y2.5385
N2754 X2.8249 Y2.5373
N2755 X2.8191 Y2.5358
N2756 X2.8127 Y2.5339
N2757 X2.8061 Y2.5317
N2758 X2.7991 Y2.5291
N2759 X2.7914 Y2.5259
N2760 X2.7838 Y2.5223
N2761 X2.7754 Y2.518
N2762 X2.7667 Y2.5131
N2763 X2.7576 Y2.5074
N2764 X2.7477 Y2.5008
N2765 X2.7378 Y2.4935
N2766 X2.7266 Y2.4847
N2767 X2.7157 Y2.4753
N2768 X2.7032 Y2.4638
N2769 X2.6911 Y2.4516
N2770 X2.6774 Y2.4369
N2771 X2.6639 Y2.421
N2772 X2.6491 Y2.4024
N2773 X2.6335 Y2.3809
N2774 X2.6181 Y2.358
N2775 X2.6016 Y2.3314
N2776 X2.5846 Y2.3012
N2777 X2.5681 Y2.2693
N2778 X2.5529 Y2.2368
N2779 X2.5387 Y2.2038
N2780 X2.5255 Y2.1705
N2781 X2.5133 Y2.1367
N2782 X2.502 Y2.1026
N2783 X2.4917 Y2.0682
N2784 X2.4822 Y2.0336
N2785 X2.4736 Y1.9987
N2786 X2.4659 Y1.9637
N2787 X2.4591 Y1.9284
N2788 X2.4531 Y1.893
N2789 X2.448 Y1.8575
N2790 X2.4438 Y1.8219
N2791 X2.4404 Y1.7861
N2792 X2.4378 Y1.7503
N2793 X2.4362 Y1.7145
N2794 X2.4353 Y1.6786
N2795 Y1.6427
N2796 X2.4362 Y1.6068
N2797 X2.4379 Y1.5709
N2798 X2.4405 Y1.5351
N2799 X2.4439 Y1.4994
N2800 X2.4482 Y1.4637
N2801 X2.4533 Y1.4282
N2802 X2.4592 Y1.3928
N2803 X2.466 Y1.3576
N2804 X2.4736 Y1.3225
N2805 X2.482 Y1.2876
N2806 X2.4912 Y1.2529
N2807 X2.5013 Y1.2184
N2808 X2.5121 Y1.1842
N2809 X2.5238 Y1.1503
N2810 X2.5363 Y1.1166
N2811 X2.5496 Y1.0832
N2812 X2.5636 Y1.0502
N2813 X2.5784 Y1.0175
N2814 X2.594 Y0.9852
N2815 X2.6103 Y0.9532
N2816 X2.6274 Y0.9216
N2817 X2.6452 Y0.8905
N2818 X2.6638 Y0.8597
N2819 X2.6759 Y0.841
N2820 X2.684 Y0.8293
N2821 X2.688 Y0.8241
N2822 X2.6958 Y0.8156
N2823 X2.7049 Y0.8087
N2824 X2.7153 Y0.8036
N2825 X2.7263 Y0.8005
N2826 X2.7378 Y0.7994
N2827 X2.8338
N2828 G3 X2.8433 Y0.8016 I-0.0009 J0.025 F30
N2829 G1 X2.8461 Y0.8029 Z-0.0784
N2830 X2.8488 Y0.8041 Z-0.0775
N2831 X2.8513 Y0.8053 Z-0.0761
N2832 X2.8535 Y0.8063 Z-0.0741
N2833 X2.8552 Y0.8071 Z-0.0717
N2834 X2.8566 Y0.8077 Z-0.069
N2835 X2.8574 Y0.808 Z-0.0661
N2836 X2.8577 Y0.8082 Z-0.063
N2837 G0 Z0.1969
N2838 X2.863 Y2.5188
N2839 Z-0.0472
N2840 G1 Z-0.063 F30
N2841 X2.8629 Y2.5191 Z-0.0661
N2842 X2.8628 Y2.52 Z-0.069
N2843 X2.8625 Y2.5214 Z-0.0717
N2844 X2.8621 Y2.5233 Z-0.0741
N2845 X2.8617 Y2.5257 Z-0.0761
N2846 X2.8612 Y2.5284 Z-0.0775
N2847 X2.8607 Y2.5313 Z-0.0784
N2848 X2.8602 Y2.5343 Z-0.0787
N2849 G3 X2.8528 Y2.5407 I-0.0077 J-0.0014
N2850 G1 X2.7631 F60
N2851 X2.7541 Y2.5403
N2852 X2.7482 Y2.5398
N2853 X2.7424 Y2.539
N2854 X2.7366 Y2.5379
N2855 X2.7308 Y2.5366
N2856 X2.7247 Y2.5349
N2857 X2.7185 Y2.533
N2858 X2.7119 Y2.5306
N2859 X2.7047 Y2.5277
N2860 X2.6975 Y2.5245
N2861 X2.6895 Y2.5206
N2862 X2.6815 Y2.5163
N2863 X2.6728 Y2.5111
N2864 X2.6637 Y2.5052
N2865 X2.6542 Y2.4986
N2866 X2.6439 Y2.4907
N2867 X2.6336 Y2.4822
N2868 X2.6222 Y2.472
N2869 X2.6109 Y2.4611
N2870 X2.5983 Y2.4481
N2871 X2.5858 Y2.4339
N2872 X2.5721 Y2.4173
N2873 X2.5579 Y2.3985
N2874 X2.5434 Y2.3778
N2875 X2.5279 Y2.3537
N2876 X2.5117 Y2.3264
N2877 X2.4952 Y2.2958
N2878 X2.4794 Y2.2635
N2879 X2.4648 Y2.2307
N2880 X2.4513 Y2.1975
N2881 X2.4388 Y2.1638
N2882 X2.4272 Y2.1298
N2883 X2.4166 Y2.0956
N2884 X2.4068 Y2.061
N2885 X2.398 Y2.0262
N2886 X2.39 Y1.9912
N2887 X2.3828 Y1.9561
N2888 X2.3764 Y1.9207
N2889 X2.3709 Y1.8853
N2890 X2.3662 Y1.8497
N2891 X2.3623 Y1.814
N2892 X2.3593 Y1.7782
N2893 X2.357 Y1.7424
N2894 X2.3556 Y1.7065
N2895 X2.355 Y1.6706
N2896 X2.3551 Y1.6347
N2897 X2.3561 Y1.5988
N2898 X2.3579 Y1.563
N2899 X2.3605 Y1.5272
N2900 X2.3639 Y1.4914
N2901 X2.3682 Y1.4558
N2902 X2.3732 Y1.4203
N2903 X2.379 Y1.3848
N2904 X2.3856 Y1.3495
N2905 X2.393 Y1.3144
N2906 X2.4012 Y1.2795
N2907 X2.4102 Y1.2447
N2908 X2.4199 Y1.2102
N2909 X2.4304 Y1.1758
N2910 X2.4417 Y1.1418
N2911 X2.4538 Y1.1079
N2912 X2.4665 Y1.0744
N2913 X2.4801 Y1.0411
N2914 X2.4944 Y1.0082
N2915 X2.5094 Y0.9756
N2916 X2.5251 Y0.9433
N2917 X2.5415 Y0.9114
N2918 X2.5587 Y0.8799
N2919 X2.5734 Y0.8546
N2920 X2.5835 Y0.8386
N2921 X2.5907 Y0.8281
N2922 X2.5935 Y0.8245
N2923 X2.6012 Y0.8159
N2924 X2.6105 Y0.8089
N2925 X2.6208 Y0.8037
N2926 X2.632 Y0.8005
N2927 X2.6435 Y0.7994
N2928 X2.7378
N2929 G3 X2.7473 Y0.8016 I-0.0009 J0.025 F30
N2930 G1 X2.7501 Y0.8029 Z-0.0784
N2931 X2.7527 Y0.8041 Z-0.0775
N2932 X2.7552 Y0.8053 Z-0.0761
N2933 X2.7574 Y0.8063 Z-0.0741
N2934 X2.7592 Y0.8071 Z-0.0717
N2935 X2.7605 Y0.8077 Z-0.069
N2936 X2.7613 Y0.808 Z-0.0661
N2937 X2.7616 Y0.8082 Z-0.063
N2938 G0 Z0.1969
N2939 X2.7733 Y2.5188
N2940 Z-0.0472
N2941 G1 Z-0.063 F30
N2942 X2.7732 Y2.5191 Z-0.0661
N2943 X2.7731 Y2.52 Z-0.069
N2944 X2.7728 Y2.5214 Z-0.0717
N2945 X2.7725 Y2.5233 Z-0.0741
N2946 X2.7721 Y2.5257 Z-0.0761
N2947 X2.7716 Y2.5284 Z-0.0775
N2948 X2.7711 Y2.5313 Z-0.0784
N2949 X2.7705 Y2.5343 Z-0.0787
N2950 G3 X2.7631 Y2.5407 I-0.0077 J-0.0014
N2951 G1 X2.6734 F60
N2952 X2.6645 Y2.5403
N2953 X2.6586 Y2.5398
N2954 X2.6527 Y2.539
N2955 X2.6469 Y2.5379
N2956 X2.6412 Y2.5366
N2957 X2.6353 Y2.535
N2958 X2.629 Y2.533
N2959 X2.6227 Y2.5308
N2960 X2.6157 Y2.528
N2961 X2.6085 Y2.5248
N2962 X2.601 Y2.5211
N2963 X2.5928 Y2.5166
N2964 X2.5847 Y2.5118
N2965 X2.5757 Y2.5059
N2966 X2.5666 Y2.4996
N2967 X2.5568 Y2.4921
N2968 X2.5467 Y2.4837
N2969 X2.5359 Y2.4741
N2970 X2.5248 Y2.4634
N2971 X2.5129 Y2.4509
N2972 X2.5007 Y2.4372
N2973 X2.4874 Y2.4209
N2974 X2.4742 Y2.4035
N2975 X2.4597 Y2.3828
N2976 X2.4451 Y2.3599
N2977 X2.4301 Y2.3346
N2978 X2.4144 Y2.3054
N2979 X2.3987 Y2.2732
N2980 X2.3841 Y2.2403
N2981 X2.3707 Y2.207
N2982 X2.3583 Y2.1733
N2983 X2.3469 Y2.1393
N2984 X2.3364 Y2.105
N2985 X2.3267 Y2.0704
N2986 X2.318 Y2.0356
N2987 X2.31 Y2.0006
N2988 X2.3029 Y1.9654
N2989 X2.2966 Y1.9301
N2990 X2.2911 Y1.8946
N2991 X2.2864 Y1.859
N2992 X2.2825 Y1.8233
N2993 X2.2793 Y1.7876
N2994 X2.277 Y1.7517
N2995 X2.2754 Y1.7159
N2996 X2.2746 Y1.68
N2997 Y1.6441
N2998 X2.2753 Y1.6082
N2999 X2.2768 Y1.5723
N3000 X2.2791 Y1.5365
N3001 X2.2822 Y1.5007
N3002 X2.286 Y1.465
N3003 X2.2906 Y1.4294
N3004 X2.2959 Y1.3939
N3005 X2.302 Y1.3586
N3006 X2.3089 Y1.3233
N3007 X2.3165 Y1.2882
N3008 X2.3248 Y1.2533
N3009 X2.3339 Y1.2186
N3010 X2.3437 Y1.1841
N3011 X2.3543 Y1.1498
N3012 X2.3656 Y1.1157
N3013 X2.3776 Y1.0818
N3014 X2.3903 Y1.0483
N3015 X2.4038 Y1.015
N3016 X2.4179 Y0.982
N3017 X2.4328 Y0.9493
N3018 X2.4483 Y0.917
N3019 X2.4646 Y0.885
N3020 X2.4786 Y0.8593
N3021 X2.4882 Y0.8432
N3022 X2.4953 Y0.8323
N3023 X2.4999 Y0.8258
N3024 X2.5077 Y0.8168
N3025 X2.517 Y0.8094
N3026 X2.5276 Y0.8039
N3027 X2.539 Y0.8005
N3028 X2.5509 Y0.7994
N3029 X2.6435
N3030 G3 X2.653 Y0.8016 I-0.0009 J0.025 F30
N3031 G1 X2.6558 Y0.8029 Z-0.0784
N3032 X2.6585 Y0.8041 Z-0.0775
N3033 X2.661 Y0.8053 Z-0.0761
N3034 X2.6631 Y0.8063 Z-0.0741
N3035 X2.6649 Y0.8071 Z-0.0717
N3036 X2.6662 Y0.8077 Z-0.069
N3037 X2.6671 Y0.808 Z-0.0661
N3038 X2.6673 Y0.8082 Z-0.063
N3039 G0 Z0.1969
N3040 X2.6836 Y2.5188
N3041 Z-0.0472
N3042 G1 Z-0.063 F30
N3043 Y2.5191 Z-0.0661
N3044 X2.6834 Y2.52 Z-0.069
N3045 X2.6831 Y2.5214 Z-0.0717
N3046 X2.6828 Y2.5233 Z-0.0741
N3047 X2.6824 Y2.5257 Z-0.0761
N3048 X2.6819 Y2.5284 Z-0.0775
N3049 X2.6814 Y2.5313 Z-0.0784
N3050 X2.6808 Y2.5343 Z-0.0787
N3051 G3 X2.6734 Y2.5407 I-0.0077 J-0.0014
N3052 G1 X2.5837 F60
N3053 X2.5734 Y2.5402
N3054 X2.5675 Y2.5395
N3055 X2.5617 Y2.5386
N3056 X2.5559 Y2.5374
N3057 X2.5501 Y2.536
N3058 X2.5441 Y2.5342
N3059 X2.538 Y2.5322
N3060 X2.5314 Y2.5297
N3061 X2.5245 Y2.5267
N3062 X2.5173 Y2.5234
N3063 X2.5095 Y2.5193
N3064 X2.5017 Y2.5148
N3065 X2.4931 Y2.5095
N3066 X2.4845 Y2.5037
N3067 X2.4752 Y2.4968
N3068 X2.4655 Y2.4891
N3069 X2.4553 Y2.4804
N3070 X2.4446 Y2.4704
N3071 X2.4335 Y2.4593
N3072 X2.4219 Y2.4466
N3073 X2.4096 Y2.4322
N3074 X2.397 Y2.4162
N3075 X2.3832 Y2.3972
N3076 X2.3699 Y2.3772
N3077 X2.3555 Y2.3537
N3078 X2.3404 Y2.3269
N3079 X2.3249 Y2.2967
N3080 X2.3098 Y2.2641
N3081 X2.2959 Y2.231
N3082 X2.2831 Y2.1975
N3083 X2.2714 Y2.1636
N3084 X2.2606 Y2.1293
N3085 X2.2507 Y2.0948
N3086 X2.2416 Y2.0601
N3087 X2.2334 Y2.0251
N3088 X2.226 Y1.99
N3089 X2.2194 Y1.9547
N3090 X2.2136 Y1.9193
N3091 X2.2085 Y1.8838
N3092 X2.2042 Y1.8481
N3093 X2.2007 Y1.8124
N3094 X2.1979 Y1.7766
N3095 X2.1959 Y1.7408
N3096 X2.1946 Y1.7049
N3097 X2.194 Y1.669
N3098 X2.1942 Y1.6331
N3099 X2.1951 Y1.5972
N3100 X2.1968 Y1.5614
N3101 X2.1992 Y1.5255
N3102 X2.2023 Y1.4898
N3103 X2.2061 Y1.4541
N3104 X2.2107 Y1.4185
N3105 X2.216 Y1.383
N3106 X2.2221 Y1.3476
N3107 X2.2289 Y1.3123
N3108 X2.2363 Y1.2772
N3109 X2.2445 Y1.2423
N3110 X2.2534 Y1.2075
N3111 X2.263 Y1.1729
N3112 X2.2734 Y1.1385
N3113 X2.2844 Y1.1044
N3114 X2.2961 Y1.0704
N3115 X2.3085 Y1.0367
N3116 X2.3215 Y1.0033
N3117 X2.3353 Y0.9701
N3118 X2.3497 Y0.9373
N3119 X2.3648 Y0.9047
N3120 X2.3808 Y0.8726
N3121 X2.3911 Y0.8536
N3122 X2.3992 Y0.84
N3123 X2.4057 Y0.83
N3124 X2.4087 Y0.8258
N3125 X2.4165 Y0.8168
N3126 X2.4258 Y0.8094
N3127 X2.4364 Y0.8039
N3128 X2.4478 Y0.8005
N3129 X2.4597 Y0.7994
N3130 X2.5509
N3131 G3 X2.5604 Y0.8016 I-0.0009 J0.025 F30
N3132 G1 X2.5632 Y0.8029 Z-0.0784
N3133 X2.5659 Y0.8041 Z-0.0775
N3134 X2.5684 Y0.8053 Z-0.0761
N3135 X2.5705 Y0.8063 Z-0.0741
N3136 X2.5723 Y0.8071 Z-0.0717
N3137 X2.5737 Y0.8077 Z-0.069
N3138 X2.5745 Y0.808 Z-0.0661
N3139 X2.5747 Y0.8082 Z-0.063
N3140 G0 Z0.1969
N3141 X2.5939 Y2.5188
N3142 Z-0.0472
N3143 G1 Z-0.063 F30
N3144 Y2.5191 Z-0.0661
N3145 X2.5937 Y2.52 Z-0.069
N3146 X2.5935 Y2.5214 Z-0.0717
N3147 X2.5931 Y2.5233 Z-0.0741
N3148 X2.5927 Y2.5257 Z-0.0761
N3149 X2.5922 Y2.5284 Z-0.0775
N3150 X2.5917 Y2.5313 Z-0.0784
N3151 X2.5912 Y2.5343 Z-0.0787
N3152 G3 X2.5837 Y2.5407 I-0.0077 J-0.0014
N3153 G1 X2.4941 F60
N3154 X2.4896 Y2.5405
N3155 X2.4837 Y2.5401
N3156 X2.4778 Y2.5393
N3157 X2.472 Y2.5383
N3158 X2.4663 Y2.537
N3159 X2.4606 Y2.5354
N3160 X2.4546 Y2.5336
N3161 X2.4483 Y2.5313
N3162 X2.4418 Y2.5287
N3163 X2.4346 Y2.5256
N3164 X2.4275 Y2.5221
N3165 X2.4198 Y2.5179
N3166 X2.4118 Y2.5132
N3167 X2.4035 Y2.5078
N3168 X2.3945 Y2.5015
N3169 X2.3854 Y2.4946
N3170 X2.3756 Y2.4865
N3171 X2.3658 Y2.4777
N3172 X2.3549 Y2.4673
N3173 X2.3442 Y2.4561
N3174 X2.3324 Y2.4428
N3175 X2.3205 Y2.4284
N3176 X2.3078 Y2.4116
N3177 X2.2945 Y2.3927
N3178 X2.2811 Y2.3719
N3179 X2.2668 Y2.3477
N3180 X2.252 Y2.3202
N3181 X2.237 Y2.2897
N3182 X2.2225 Y2.2569
N3183 X2.2091 Y2.2236
N3184 X2.1969 Y2.1898
N3185 X2.1857 Y2.1557
N3186 X2.1754 Y2.1214
N3187 X2.166 Y2.0867
N3188 X2.1574 Y2.0519
N3189 X2.1497 Y2.0168
N3190 X2.1427 Y1.9816
N3191 X2.1365 Y1.9462
N3192 X2.1311 Y1.9107
N3193 X2.1264 Y1.8752
N3194 X2.1224 Y1.8395
N3195 X2.1192 Y1.8037
N3196 X2.1166 Y1.7679
N3197 X2.1148 Y1.7321
N3198 X2.1138 Y1.6962
N3199 X2.1134 Y1.6603
N3200 X2.1137 Y1.6244
N3201 X2.1147 Y1.5885
N3202 X2.1165 Y1.5526
N3203 X2.1189 Y1.5168
N3204 X2.1221 Y1.4811
N3205 X2.1259 Y1.4454
N3206 X2.1305 Y1.4098
N3207 X2.1357 Y1.3743
N3208 X2.1417 Y1.3389
N3209 X2.1483 Y1.3036
N3210 X2.1557 Y1.2684
N3211 X2.1637 Y1.2334
N3212 X2.1724 Y1.1986
N3213 X2.1817 Y1.164
N3214 X2.1918 Y1.1295
N3215 X2.2025 Y1.0952
N3216 X2.2139 Y1.0612
N3217 X2.2259 Y1.0274
N3218 X2.2386 Y0.9938
N3219 X2.2519 Y0.9604
N3220 X2.2659 Y0.9274
N3221 X2.2806 Y0.8947
N3222 X2.2936 Y0.8681
N3223 X2.3025 Y0.8515
N3224 X2.3098 Y0.8393
N3225 X2.316 Y0.8296
N3226 X2.3184 Y0.8261
N3227 X2.3262 Y0.817
N3228 X2.3355 Y0.8095
N3229 X2.3462 Y0.804
N3230 X2.3577 Y0.8006
N3231 X2.3696 Y0.7994
N3232 X2.4597
N3233 G3 X2.4692 Y0.8016 I-0.0009 J0.025 F30
N3234 G1 X2.472 Y0.8029 Z-0.0784
N3235 X2.4747 Y0.8041 Z-0.0775
N3236 X2.4772 Y0.8053 Z-0.0761
N3237 X2.4793 Y0.8063 Z-0.0741
N3238 X2.4811 Y0.8071 Z-0.0717
N3239 X2.4824 Y0.8077 Z-0.069
N3240 X2.4833 Y0.808 Z-0.0661
N3241 X2.4835 Y0.8082 Z-0.063
N3242 G0 Z0.1969
N3243 X2.5043 Y2.5188
N3244 Z-0.0472
N3245 G1 Z-0.063 F30
N3246 X2.5042 Y2.5191 Z-0.0661
N3247 X2.5041 Y2.52 Z-0.069
N3248 X2.5038 Y2.5214 Z-0.0717
N3249 X2.5035 Y2.5233 Z-0.0741
N3250 X2.503 Y2.5257 Z-0.0761
N3251 X2.5025 Y2.5284 Z-0.0775
N3252 X2.502 Y2.5313 Z-0.0784
N3253 X2.5015 Y2.5343 Z-0.0787
N3254 G3 X2.4941 Y2.5407 I-0.0077 J-0.0014
N3255 G1 X2.4081 F60
N3256 X2.4036 Y2.5405
N3257 X2.3977 Y2.5401
N3258 X2.3918 Y2.5394
N3259 X2.386 Y2.5384
N3260 X2.3802 Y2.5371
N3261 X2.3745 Y2.5356
N3262 X2.3688 Y2.5338
N3263 X2.3626 Y2.5316
N3264 X2.3561 Y2.529
N3265 X2.3494 Y2.5261
N3266 X2.3421 Y2.5225
N3267 X2.3348 Y2.5186
N3268 X2.3267 Y2.5138
N3269 X2.3187 Y2.5087
N3270 X2.31 Y2.5026
N3271 X2.301 Y2.4958
N3272 X2.2916 Y2.4881
N3273 X2.2817 Y2.4794
N3274 X2.2715 Y2.4695
N3275 X2.2607 Y2.4584
N3276 X2.2494 Y2.4458
N3277 X2.2377 Y2.4316
N3278 X2.2252 Y2.4153
N3279 X2.2128 Y2.3976
N3280 X2.1992 Y2.3767
N3281 X2.1857 Y2.354
N3282 X2.1718 Y2.3283
N3283 X2.1573 Y2.2989
N3284 X2.1426 Y2.2661
N3285 X2.1292 Y2.2328
N3286 X2.1169 Y2.1991
N3287 X2.1057 Y2.165
N3288 X2.0954 Y2.1306
N3289 X2.086 Y2.096
N3290 X2.0775 Y2.0611
N3291 X2.0697 Y2.0261
N3292 X2.0627 Y1.9908
N3293 X2.0565 Y1.9555
N3294 X2.0511 Y1.92
N3295 X2.0463 Y1.8844
N3296 X2.0423 Y1.8488
N3297 X2.039 Y1.813
N3298 X2.0364 Y1.7772
N3299 X2.0345 Y1.7414
N3300 X2.0332 Y1.7055
N3301 X2.0327 Y1.6696
N3302 X2.0328 Y1.6337
N3303 X2.0336 Y1.5978
N3304 X2.0351 Y1.5619
N3305 X2.0373 Y1.5261
N3306 X2.0401 Y1.4903
N3307 X2.0437 Y1.4546
N3308 X2.0479 Y1.4189
N3309 X2.0527 Y1.3834
N3310 X2.0582 Y1.3479
N3311 X2.0644 Y1.3125
N3312 X2.0713 Y1.2773
N3313 X2.0788 Y1.2422
N3314 X2.0869 Y1.2072
N3315 X2.0957 Y1.1724
N3316 X2.1052 Y1.1378
N3317 X2.1153 Y1.1033
N3318 X2.126 Y1.0691
N3319 X2.1374 Y1.035
N3320 X2.1494 Y1.0012
N3321 X2.1621 Y0.9676
N3322 X2.1754 Y0.9343
N3323 X2.1894 Y0.9013
N3324 X2.2024 Y0.8732
N3325 X2.2111 Y0.8562
N3326 X2.2187 Y0.8428
N3327 X2.2246 Y0.8331
N3328 X2.2286 Y0.8272
N3329 X2.2363 Y0.8177
N3330 X2.2458 Y0.8099
N3331 X2.2566 Y0.8042
N3332 X2.2683 Y0.8006
N3333 X2.2805 Y0.7994
N3334 X2.3696
N3335 G3 X2.3791 Y0.8016 I-0.0009 J0.025 F30
N3336 G1 X2.3819 Y0.8029 Z-0.0784
N3337 X2.3846 Y0.8041 Z-0.0775
N3338 X2.3871 Y0.8053 Z-0.0761
N3339 X2.3893 Y0.8063 Z-0.0741
N3340 X2.391 Y0.8071 Z-0.0717
N3341 X2.3924 Y0.8077 Z-0.069
N3342 X2.3932 Y0.808 Z-0.0661
N3343 X2.3935 Y0.8082 Z-0.063
N3344 G0 Z0.1969
N3345 X2.4183 Y2.5188
N3346 Z-0.0472
N3347 G1 Z-0.063 F30
N3348 X2.4182 Y2.5191 Z-0.0661
N3349 X2.418 Y2.52 Z-0.069
N3350 X2.4178 Y2.5214 Z-0.0717
N3351 X2.4174 Y2.5233 Z-0.0741
N3352 X2.417 Y2.5257 Z-0.0761
N3353 X2.4165 Y2.5284 Z-0.0775
N3354 X2.416 Y2.5313 Z-0.0784
N3355 X2.4155 Y2.5343 Z-0.0787
N3356 G3 X2.4081 Y2.5407 I-0.0077 J-0.0014
N3357 G1 X2.3229 F60
N3358 X2.3184 Y2.5405
N3359 X2.3125 Y2.5401
N3360 X2.3066 Y2.5394
N3361 X2.3008 Y2.5385
N3362 X2.295 Y2.5372
N3363 X2.2893 Y2.5357
N3364 X2.2836 Y2.5339
N3365 X2.2774 Y2.5318
N3366 X2.2712 Y2.5293
N3367 X2.2644 Y2.5263
N3368 X2.2574 Y2.5229
N3369 X2.25 Y2.519
N3370 X2.2421 Y2.5144
N3371 X2.2342 Y2.5093
N3372 X2.2255 Y2.5033
N3373 X2.217 Y2.4968
N3374 X2.2075 Y2.4891
N3375 X2.198 Y2.4808
N3376 X2.1877 Y2.4709
N3377 X2.1774 Y2.4603
N3378 X2.1661 Y2.4477
N3379 X2.1551 Y2.4345
N3380 X2.1427 Y2.4184
N3381 X2.1308 Y2.4015
N3382 X2.1178 Y2.3814
N3383 X2.1043 Y2.3588
N3384 X2.0909 Y2.3343
N3385 X2.0768 Y2.3059
N3386 X2.0622 Y2.2735
N3387 X2.0488 Y2.2402
N3388 X2.0365 Y2.2065
N3389 X2.0252 Y2.1724
N3390 X2.015 Y2.138
N3391 X2.0056 Y2.1033
N3392 X1.9971 Y2.0685
N3393 X1.9894 Y2.0334
N3394 X1.9824 Y1.9982
N3395 X1.9763 Y1.9628
N3396 X1.9708 Y1.9273
N3397 X1.966 Y1.8918
N3398 X1.962 Y1.8561
N3399 X1.9586 Y1.8204
N3400 X1.956 Y1.7846
N3401 X1.954 Y1.7487
N3402 X1.9526 Y1.7128
N3403 X1.952 Y1.6769
N3404 X1.9519 Y1.641
N3405 X1.9526 Y1.6052
N3406 X1.9539 Y1.5693
N3407 X1.9558 Y1.5334
N3408 X1.9584 Y1.4976
N3409 X1.9617 Y1.4619
N3410 X1.9656 Y1.4262
N3411 X1.9701 Y1.3906
N3412 X1.9753 Y1.3551
N3413 X1.9811 Y1.3196
N3414 X1.9875 Y1.2843
N3415 X1.9946 Y1.2491
N3416 X2.0023 Y1.2141
N3417 X2.0106 Y1.1791
N3418 X2.0195 Y1.1444
N3419 X2.0291 Y1.1098
N3420 X2.0393 Y1.0753
N3421 X2.0501 Y1.0411
N3422 X2.0615 Y1.0071
N3423 X2.0735 Y0.9733
N3424 X2.0862 Y0.9397
N3425 X2.0997 Y0.9064
N3426 X2.1123 Y0.878
N3427 X2.1211 Y0.86
N3428 X2.1287 Y0.8459
N3429 X2.1345 Y0.8361
N3430 X2.1409 Y0.8261
N3431 X2.1487 Y0.817
N3432 X2.1581 Y0.8095
N3433 X2.1687 Y0.804
N3434 X2.1802 Y0.8006
N3435 X2.1922 Y0.7994
N3436 X2.2805
N3437 G3 X2.29 Y0.8016 I-0.0009 J0.025 F30
N3438 G1 X2.2928 Y0.8029 Z-0.0784
N3439 X2.2955 Y0.8041 Z-0.0775
N3440 X2.298 Y0.8053 Z-0.0761
N3441 X2.3002 Y0.8063 Z-0.0741
N3442 X2.3019 Y0.8071 Z-0.0717
N3443 X2.3033 Y0.8077 Z-0.069
N3444 X2.3041 Y0.808 Z-0.0661
N3445 X2.3044 Y0.8082 Z-0.063
N3446 G0 Z0.1969
N3447 X2.3331 Y2.5188
N3448 Z-0.0472
N3449 G1 Z-0.063 F30
N3450 X2.333 Y2.5191 Z-0.0661
N3451 X2.3329 Y2.52 Z-0.069
N3452 X2.3326 Y2.5214 Z-0.0717
N3453 X2.3323 Y2.5233 Z-0.0741
N3454 X2.3318 Y2.5257 Z-0.0761
N3455 X2.3314 Y2.5284 Z-0.0775
N3456 X2.3308 Y2.5313 Z-0.0784
N3457 X2.3303 Y2.5343 Z-0.0787
N3458 G3 X2.3229 Y2.5407 I-0.0077 J-0.0014
N3459 G1 X2.2369 F60
N3460 X2.2324 Y2.5405
N3461 X2.2265 Y2.5401
N3462 X2.2206 Y2.5394
N3463 X2.2148 Y2.5383
N3464 X2.2091 Y2.537
N3465 X2.2034 Y2.5355
N3466 X2.1975 Y2.5337
N3467 X2.1914 Y2.5315
N3468 X2.1851 Y2.5289
N3469 X2.1782 Y2.5259
N3470 X2.1714 Y2.5225
N3471 X2.1639 Y2.5184
N3472 X2.1563 Y2.5139
N3473 X2.1482 Y2.5086
N3474 X2.1398 Y2.5027
N3475 X2.131 Y2.496
N3476 X2.1218 Y2.4883
N3477 X2.1123 Y2.4798
N3478 X2.1021 Y2.47
N3479 X2.0919 Y2.4592
N3480 X2.0809 Y2.4469
N3481 X2.0697 Y2.4331
N3482 X2.058 Y2.4176
N3483 X2.0455 Y2.3998
N3484 X2.0331 Y2.3805
N3485 X2.0198 Y2.3578
N3486 X2.0062 Y2.3324
N3487 X1.9926 Y2.3044
N3488 X1.9783 Y2.2721
N3489 X1.9651 Y2.2387
N3490 X1.9531 Y2.2049
N3491 X1.9421 Y2.1707
N3492 X1.9321 Y2.1363
N3493 X1.923 Y2.1015
N3494 X1.9147 Y2.0666
N3495 X1.9072 Y2.0315
N3496 X1.9005 Y1.9962
N3497 X1.8945 Y1.9608
N3498 X1.8892 Y1.9253
N3499 X1.8846 Y1.8897
N3500 X1.8807 Y1.854
N3501 X1.8775 Y1.8183
N3502 X1.8749 Y1.7825
N3503 X1.873 Y1.7466
N3504 X1.8717 Y1.7108
N3505 X1.8711 Y1.6749
N3506 Y1.639
N3507 X1.8717 Y1.6031
N3508 X1.873 Y1.5672
N3509 X1.8749 Y1.5314
N3510 X1.8774 Y1.4956
N3511 X1.8806 Y1.4598
N3512 X1.8843 Y1.4241
N3513 X1.8887 Y1.3885
N3514 X1.8937 Y1.3529
N3515 X1.8993 Y1.3175
N3516 X1.9056 Y1.2821
N3517 X1.9124 Y1.2469
N3518 X1.9199 Y1.2117
N3519 X1.9279 Y1.1768
N3520 X1.9365 Y1.1419
N3521 X1.9458 Y1.1072
N3522 X1.9556 Y1.0727
N3523 X1.966 Y1.0384
N3524 X1.9771 Y1.0042
N3525 X1.9887 Y0.9702
N3526 X2.001 Y0.9365
N3527 X2.0142 Y0.9031
N3528 X2.0257 Y0.8767
N3529 X2.0337 Y0.8599
N3530 X2.0411 Y0.8461
N3531 X2.0467 Y0.8364
N3532 X2.0527 Y0.827
N3533 X2.053 Y0.8264
N3534 X2.0608 Y0.8172
N3535 X2.0702 Y0.8096
N3536 X2.0809 Y0.804
N3537 X2.0925 Y0.8006
N3538 X2.1045 Y0.7994
N3539 X2.1922
N3540 G3 X2.2016 Y0.8016 I-0.0009 J0.025 F30
N3541 G1 X2.2044 Y0.8029 Z-0.0784
N3542 X2.2071 Y0.8041 Z-0.0775
N3543 X2.2096 Y0.8053 Z-0.0761
N3544 X2.2118 Y0.8063 Z-0.0741
N3545 X2.2136 Y0.8071 Z-0.0717
N3546 X2.2149 Y0.8077 Z-0.069
N3547 X2.2157 Y0.808 Z-0.0661
N3548 X2.216 Y0.8082 Z-0.063
N3549 G0 Z0.1969
N3550 X2.2471 Y2.5188
N3551 Z-0.0472
N3552 G1 Z-0.063 F30
N3553 X2.247 Y2.5191 Z-0.0661
N3554 X2.2469 Y2.52 Z-0.069
N3555 X2.2466 Y2.5214 Z-0.0717
N3556 X2.2462 Y2.5233 Z-0.0741
N3557 X2.2458 Y2.5257 Z-0.0761
N3558 X2.2453 Y2.5284 Z-0.0775
N3559 X2.2448 Y2.5313 Z-0.0784
N3560 X2.2443 Y2.5343 Z-0.0787
N3561 G3 X2.2369 Y2.5407 I-0.0077 J-0.0014
N3562 G1 X2.1517 F60
N3563 X2.1472 Y2.5405
N3564 X2.1413 Y2.5401
N3565 X2.1354 Y2.5393
N3566 X2.1296 Y2.5382
N3567 X2.1239 Y2.5369
N3568 X2.1182 Y2.5354
N3569 X2.1124 Y2.5335
N3570 X2.1063 Y2.5313
N3571 X2.1 Y2.5287
N3572 X2.0932 Y2.5256
N3573 X2.0863 Y2.5222
N3574 X2.0789 Y2.5181
N3575 X2.0713 Y2.5135
N3576 X2.0633 Y2.5083
N3577 X2.0549 Y2.5023
N3578 X2.0462 Y2.4956
N3579 X2.037 Y2.4879
N3580 X2.0277 Y2.4795
N3581 X2.0175 Y2.4696
N3582 X2.0074 Y2.4589
N3583 X1.9965 Y2.4464
N3584 X1.9854 Y2.4328
N3585 X1.9738 Y2.4172
N3586 X1.9616 Y2.3996
N3587 X1.9493 Y2.3802
N3588 X1.9362 Y2.3575
N3589 X1.9229 Y2.3326
N3590 X1.9095 Y2.3047
N3591 X1.8955 Y2.2725
N3592 X1.8824 Y2.2391
N3593 X1.8706 Y2.2052
N3594 X1.8598 Y2.171
N3595 X1.8499 Y2.1364
N3596 X1.8409 Y2.1017
N3597 X1.8328 Y2.0667
N3598 X1.8255 Y2.0316
N3599 X1.8189 Y1.9963
N3600 X1.8131 Y1.9609
N3601 X1.8079 Y1.9253
N3602 X1.8034 Y1.8897
N3603 X1.7996 Y1.854
N3604 X1.7964 Y1.8183
N3605 X1.7939 Y1.7825
N3606 X1.792 Y1.7466
N3607 X1.7908 Y1.7107
N3608 X1.7901 Y1.6748
N3609 Y1.6389
N3610 X1.7907 Y1.6031
N3611 X1.7919 Y1.5672
N3612 X1.7937 Y1.5313
N3613 X1.7962 Y1.4955
N3614 X1.7992 Y1.4597
N3615 X1.8028 Y1.424
N3616 X1.8071 Y1.3884
N3617 X1.8119 Y1.3528
N3618 X1.8173 Y1.3173
N3619 X1.8233 Y1.2819
N3620 X1.8299 Y1.2466
N3621 X1.8371 Y1.2115
N3622 X1.8448 Y1.1764
N3623 X1.8531 Y1.1415
N3624 X1.862 Y1.1067
N3625 X1.8715 Y1.0721
N3626 X1.8816 Y1.0376
N3627 X1.8922 Y1.0033
N3628 X1.9035 Y0.9693
N3629 X1.9154 Y0.9354
N3630 X1.9283 Y0.9019
N3631 X1.9392 Y0.8763
N3632 X1.9467 Y0.8603
N3633 X1.9538 Y0.8467
N3634 X1.9593 Y0.8371
N3635 X1.9652 Y0.8277
N3636 X1.9658 Y0.8268
N3637 X1.9735 Y0.8175
N3638 X1.983 Y0.8098
N3639 X1.9937 Y0.8041
N3640 X2.0054 Y0.8006
N3641 X2.0175 Y0.7994
N3642 X2.1045
N3643 G3 X2.114 Y0.8016 I-0.0009 J0.025 F30
N3644 G1 X2.1168 Y0.8029 Z-0.0784
N3645 X2.1195 Y0.8041 Z-0.0775
N3646 X2.122 Y0.8053 Z-0.0761
N3647 X2.1241 Y0.8063 Z-0.0741
N3648 X2.1259 Y0.8071 Z-0.0717
N3649 X2.1272 Y0.8077 Z-0.069
N3650 X2.1281 Y0.808 Z-0.0661
N3651 X2.1283 Y0.8082 Z-0.063
N3652 G0 Z0.1969
N3653 X2.1619 Y2.5188
N3654 Z-0.0472
N3655 G1 Z-0.063 F30
N3656 X2.1618 Y2.5191 Z-0.0661
N3657 X2.1617 Y2.52 Z-0.069
N3658 X2.1614 Y2.5214 Z-0.0717
N3659 X2.1611 Y2.5233 Z-0.0741
N3660 X2.1606 Y2.5257 Z-0.0761
N3661 X2.1602 Y2.5284 Z-0.0775
N3662 X2.1596 Y2.5313 Z-0.0784
N3663 X2.1591 Y2.5343 Z-0.0787
N3664 G3 X2.1517 Y2.5407 I-0.0077 J-0.0014
N3665 G1 X2.0702 F60
N3666 X2.0598 Y2.5402
N3667 X2.0539 Y2.5396
N3668 X2.0481 Y2.5387
N3669 X2.0423 Y2.5375
N3670 X2.0366 Y2.536
N3671 X2.0309 Y2.5343
N3672 X2.0249 Y2.5323
N3673 X2.0188 Y2.5299
N3674 X2.0123 Y2.5271
N3675 X2.0054 Y2.5238
N3676 X1.9984 Y2.5201
N3677 X1.9908 Y2.5157
N3678 X1.9832 Y2.5109
N3679 X1.9749 Y2.5052
N3680 X1.9666 Y2.499
N3681 X1.9576 Y2.4917
N3682 X1.9485 Y2.4838
N3683 X1.9388 Y2.4746
N3684 X1.9289 Y2.4645
N3685 X1.9183 Y2.4528
N3686 X1.9077 Y2.4401
N3687 X1.896 Y2.4251
N3688 X1.8848 Y2.4094
N3689 X1.8723 Y2.3905
N3690 X1.86 Y2.3702
N3691 X1.8472 Y2.347
N3692 X1.8338 Y2.3204
N3693 X1.8201 Y2.2902
N3694 X1.8065 Y2.257
N3695 X1.7941 Y2.2233
N3696 X1.7829 Y2.1892
N3697 X1.7727 Y2.1548
N3698 X1.7634 Y2.1201
N3699 X1.755 Y2.0852
N3700 X1.7474 Y2.0501
N3701 X1.7406 Y2.0149
N3702 X1.7345 Y1.9795
N3703 X1.7291 Y1.944
N3704 X1.7244 Y1.9084
N3705 X1.7203 Y1.8727
N3706 X1.7169 Y1.837
N3707 X1.7141 Y1.8012
N3708 X1.712 Y1.7654
N3709 X1.7104 Y1.7295
N3710 X1.7094 Y1.6936
N3711 X1.7091 Y1.6577
N3712 X1.7093 Y1.6218
N3713 X1.7102 Y1.586
N3714 X1.7116 Y1.5501
N3715 X1.7137 Y1.5142
N3716 X1.7163 Y1.4784
N3717 X1.7194 Y1.4427
N3718 X1.7232 Y1.407
N3719 X1.7275 Y1.3714
N3720 X1.7325 Y1.3358
N3721 X1.7379 Y1.3003
N3722 X1.744 Y1.2649
N3723 X1.7506 Y1.2296
N3724 X1.7577 Y1.1945
N3725 X1.7655 Y1.1594
N3726 X1.7738 Y1.1245
N3727 X1.7826 Y1.0897
N3728 X1.7921 Y1.0551
N3729 X1.8021 Y1.0206
N3730 X1.8126 Y0.9863
N3731 X1.8239 Y0.9522
N3732 X1.8359 Y0.9184
N3733 X1.8473 Y0.8895
N3734 X1.8564 Y0.8687
N3735 X1.8635 Y0.8542
N3736 X1.8695 Y0.8428
N3737 X1.8749 Y0.8337
N3738 X1.8783 Y0.8283
N3739 X1.8861 Y0.8185
N3740 X1.8957 Y0.8104
N3741 X1.9066 Y0.8044
N3742 X1.9186 Y0.8007
N3743 X1.931 Y0.7994
N3744 X2.0175
N3745 G3 X2.027 Y0.8016 I-0.0009 J0.025 F30
N3746 G1 X2.0298 Y0.8029 Z-0.0784
N3747 X2.0325 Y0.8041 Z-0.0775
N3748 X2.0349 Y0.8053 Z-0.0761
N3749 X2.0371 Y0.8063 Z-0.0741
N3750 X2.0389 Y0.8071 Z-0.0717
N3751 X2.0402 Y0.8077 Z-0.069
N3752 X2.041 Y0.808 Z-0.0661
N3753 X2.0413 Y0.8082 Z-0.063
N3754 G0 Z0.1969
N3755 X2.0804 Y2.5188
N3756 Z-0.0472
N3757 G1 Z-0.063 F30
N3758 X2.0803 Y2.5191 Z-0.0661
N3759 X2.0801 Y2.52 Z-0.069
N3760 X2.0799 Y2.5214 Z-0.0717
N3761 X2.0795 Y2.5233 Z-0.0741
N3762 X2.0791 Y2.5257 Z-0.0761
N3763 X2.0786 Y2.5284 Z-0.0775
N3764 X2.0781 Y2.5313 Z-0.0784
N3765 X2.0776 Y2.5343 Z-0.0787
N3766 G3 X2.0702 Y2.5407 I-0.0077 J-0.0014
N3767 G1 X1.9841 F60
N3768 X1.9797 Y2.5405
N3769 X1.9738 Y2.5401
N3770 X1.9679 Y2.5394
N3771 X1.9621 Y2.5383
N3772 X1.9563 Y2.537
N3773 X1.9506 Y2.5355
N3774 X1.9449 Y2.5336
N3775 X1.939 Y2.5315
N3776 X1.9326 Y2.5289
N3777 X1.9262 Y2.526
N3778 X1.9192 Y2.5225
N3779 X1.912 Y2.5186
N3780 X1.9045 Y2.5141
N3781 X1.8966 Y2.5089
N3782 X1.8885 Y2.5032
N3783 X1.8797 Y2.4964
N3784 X1.871 Y2.4892
N3785 X1.8615 Y2.4806
N3786 X1.8521 Y2.4715
N3787 X1.8418 Y2.4606
N3788 X1.8316 Y2.4491
N3789 X1.8205 Y2.4354
N3790 X1.8094 Y2.4206
N3791 X1.7976 Y2.4036
N3792 X1.7853 Y2.3843
N3793 X1.7731 Y2.3633
N3794 X1.76 Y2.3388
N3795 X1.7466 Y2.311
N3796 X1.7331 Y2.2803
N3797 X1.72 Y2.2469
N3798 X1.7082 Y2.213
N3799 X1.6974 Y2.1787
N3800 X1.6877 Y2.1442
N3801 X1.6788 Y2.1094
N3802 X1.6708 Y2.0744
N3803 X1.6636 Y2.0392
N3804 X1.6571 Y2.0039
N3805 X1.6513 Y1.9685
N3806 X1.6463 Y1.933
N3807 X1.6418 Y1.8973
N3808 X1.638 Y1.8616
N3809 X1.6349 Y1.8259
N3810 X1.6323 Y1.7901
N3811 X1.6304 Y1.7542
N3812 X1.629 Y1.7183
N3813 X1.6283 Y1.6825
N3814 X1.6281 Y1.6466
N3815 X1.6285 Y1.6107
N3816 X1.6295 Y1.5748
N3817 X1.631 Y1.5389
N3818 X1.6331 Y1.5031
N3819 X1.6358 Y1.4673
N3820 X1.639 Y1.4315
N3821 X1.6428 Y1.3958
N3822 X1.6472 Y1.3602
N3823 X1.6521 Y1.3246
N3824 X1.6575 Y1.2891
N3825 X1.6635 Y1.2538
N3826 X1.6701 Y1.2185
N3827 X1.6772 Y1.1833
N3828 X1.6848 Y1.1482
N3829 X1.693 Y1.1132
N3830 X1.7017 Y1.0784
N3831 X1.711 Y1.0438
N3832 X1.7209 Y1.0092
N3833 X1.7314 Y0.9749
N3834 X1.7426 Y0.9408
N3835 X1.7547 Y0.907
N3836 X1.7649 Y0.8816
N3837 X1.7725 Y0.8646
N3838 X1.7795 Y0.8505
N3839 X1.7848 Y0.8406
N3840 X1.7905 Y0.831
N3841 X1.7926 Y0.8279
N3842 X1.8003 Y0.8182
N3843 X1.8098 Y0.8102
N3844 X1.8208 Y0.8043
N3845 X1.8326 Y0.8006
N3846 X1.845 Y0.7994
N3847 X1.931
N3848 G3 X1.9405 Y0.8016 I-0.0009 J0.025 F30
N3849 G1 X1.9433 Y0.8029 Z-0.0784
N3850 X1.946 Y0.8041 Z-0.0775
N3851 X1.9485 Y0.8053 Z-0.0761
N3852 X1.9507 Y0.8063 Z-0.0741
N3853 X1.9524 Y0.8071 Z-0.0717
N3854 X1.9538 Y0.8077 Z-0.069
N3855 X1.9546 Y0.808 Z-0.0661
N3856 X1.9549 Y0.8082 Z-0.063
N3857 G0 Z0.1969
N3858 X1.9943 Y2.5188
N3859 Z-0.0472
N3860 G1 Z-0.063 F30
N3861 Y2.5191 Z-0.0661
N3862 X1.9941 Y2.52 Z-0.069
N3863 X1.9939 Y2.5214 Z-0.0717
N3864 X1.9935 Y2.5233 Z-0.0741
N3865 X1.9931 Y2.5257 Z-0.0761
N3866 X1.9926 Y2.5284 Z-0.0775
N3867 X1.9921 Y2.5313 Z-0.0784
N3868 X1.9916 Y2.5343 Z-0.0787
N3869 G3 X1.9841 Y2.5407 I-0.0077 J-0.0014
N3870 G1 X1.9026 F60
N3871 X1.8922 Y2.5402
N3872 X1.8864 Y2.5396
N3873 X1.8805 Y2.5387
N3874 X1.8748 Y2.5374
N3875 X1.869 Y2.536
N3876 X1.8634 Y2.5343
N3877 X1.8575 Y2.5322
N3878 X1.8515 Y2.5298
N3879 X1.8449 Y2.527
N3880 X1.8383 Y2.5238
N3881 X1.8312 Y2.52
N3882 X1.8238 Y2.5157
N3883 X1.8162 Y2.5109
N3884 X1.808 Y2.5052
N3885 X1.7998 Y2.4991
N3886 X1.7908 Y2.4918
N3887 X1.782 Y2.484
N3888 X1.7722 Y2.4748
N3889 X1.7627 Y2.465
N3890 X1.7521 Y2.4533
N3891 X1.7418 Y2.4409
N3892 X1.7305 Y2.4262
N3893 X1.7192 Y2.4103
N3894 X1.7073 Y2.3922
N3895 X1.6947 Y2.3712
N3896 X1.6825 Y2.349
N3897 X1.6696 Y2.3231
N3898 X1.6562 Y2.2936
N3899 X1.6427 Y2.2604
N3900 X1.6305 Y2.2266
N3901 X1.6194 Y2.1925
N3902 X1.6094 Y2.158
N3903 X1.6003 Y2.1233
N3904 X1.5921 Y2.0883
N3905 X1.5846 Y2.0532
N3906 X1.578 Y2.0179
N3907 X1.572 Y1.9825
N3908 X1.5668 Y1.947
N3909 X1.5622 Y1.9114
N3910 X1.5582 Y1.8757
N3911 X1.5549 Y1.84
N3912 X1.5521 Y1.8042
N3913 X1.55 Y1.7684
N3914 X1.5484 Y1.7325
N3915 X1.5475 Y1.6966
N3916 X1.547 Y1.6607
N3917 X1.5472 Y1.6248
N3918 X1.5479 Y1.5889
N3919 X1.5492 Y1.553
N3920 X1.551 Y1.5172
N3921 X1.5533 Y1.4814
N3922 X1.5562 Y1.4456
N3923 X1.5597 Y1.4099
N3924 X1.5636 Y1.3742
N3925 X1.5682 Y1.3386
N3926 X1.5732 Y1.303
N3927 X1.5788 Y1.2676
N3928 X1.5849 Y1.2322
N3929 X1.5916 Y1.1969
N3930 X1.5987 Y1.1617
N3931 X1.6064 Y1.1267
N3932 X1.6147 Y1.0917
N3933 X1.6234 Y1.0569
N3934 X1.6328 Y1.0223
N3935 X1.6427 Y0.9878
N3936 X1.6533 Y0.9535
N3937 X1.6648 Y0.9195
N3938 X1.6754 Y0.8915
N3939 X1.684 Y0.8711
N3940 X1.6909 Y0.8563
N3941 X1.6968 Y0.8449
N3942 X1.702 Y0.8357
N3943 X1.7062 Y0.829
N3944 X1.7139 Y0.819
N3945 X1.7235 Y0.8107
N3946 X1.7346 Y0.8045
N3947 X1.7467 Y0.8007
N3948 X1.7593 Y0.7994
N3949 X1.845
N3950 G3 X1.8545 Y0.8016 I-0.0009 J0.025 F30
N3951 G1 X1.8573 Y0.8029 Z-0.0784
N3952 X1.86 Y0.8041 Z-0.0775
N3953 X1.8624 Y0.8053 Z-0.0761
N3954 X1.8646 Y0.8063 Z-0.0741
N3955 X1.8664 Y0.8071 Z-0.0717
N3956 X1.8677 Y0.8077 Z-0.069
N3957 X1.8685 Y0.808 Z-0.0661
N3958 X1.8688 Y0.8082 Z-0.063
N3959 G0 Z0.1969
N3960 X1.9128 Y2.5188
N3961 Z-0.0472
N3962 G1 Z-0.063 F30
N3963 Y2.5191 Z-0.0661
N3964 X1.9126 Y2.52 Z-0.069
N3965 X1.9124 Y2.5214 Z-0.0717
N3966 X1.912 Y2.5233 Z-0.0741
N3967 X1.9116 Y2.5257 Z-0.0761
N3968 X1.9111 Y2.5284 Z-0.0775
N3969 X1.9106 Y2.5313 Z-0.0784
N3970 X1.91 Y2.5343 Z-0.0787
N3971 G3 X1.9026 Y2.5407 I-0.0077 J-0.0014
N3972 G1 X1.8174 F60
N3973 X1.813 Y2.5405
N3974 X1.8071 Y2.5401
N3975 X1.8012 Y2.5394
N3976 X1.7954 Y2.5383
N3977 X1.7896 Y2.537
N3978 X1.7839 Y2.5355
N3979 X1.7782 Y2.5336
N3980 X1.7724 Y2.5315
N3981 X1.766 Y2.5289
N3982 X1.7597 Y2.5261
N3983 X1.7528 Y2.5226
N3984 X1.7457 Y2.5187
N3985 X1.7382 Y2.5142
N3986 X1.7304 Y2.5091
N3987 X1.7224 Y2.5034
N3988 X1.7138 Y2.4968
N3989 X1.7052 Y2.4896
N3990 X1.6957 Y2.481
N3991 X1.6864 Y2.472
N3992 X1.6763 Y2.4613
N3993 X1.6662 Y2.4498
N3994 X1.6554 Y2.4365
N3995 X1.6444 Y2.4218
N3996 X1.6329 Y2.4052
N3997 X1.6208 Y2.3861
N3998 X1.6089 Y2.3656
N3999 X1.5962 Y2.3417
N4000 X1.583 Y2.3145
N4001 X1.57 Y2.2847
N4002 X1.557 Y2.2512
N4003 X1.5452 Y2.2173
N4004 X1.5345 Y2.183
N4005 X1.5248 Y2.1485
N4006 X1.5161 Y2.1136
N4007 X1.5082 Y2.0786
N4008 X1.5011 Y2.0434
N4009 X1.4947 Y2.0081
N4010 X1.4891 Y1.9727
N4011 X1.4841 Y1.9371
N4012 X1.4798 Y1.9015
N4013 X1.476 Y1.8658
N4014 X1.4729 Y1.83
N4015 X1.4704 Y1.7942
N4016 X1.4684 Y1.7584
N4017 X1.467 Y1.7225
N4018 X1.4662 Y1.6866
N4019 X1.4659 Y1.6507
N4020 X1.4662 Y1.6148
N4021 X1.467 Y1.5789
N4022 X1.4683 Y1.543
N4023 X1.4702 Y1.5072
N4024 X1.4726 Y1.4714
N4025 X1.4756 Y1.4356
N4026 X1.479 Y1.3999
N4027 X1.483 Y1.3642
N4028 X1.4875 Y1.3286
N4029 X1.4925 Y1.293
N4030 X1.4981 Y1.2576
N4031 X1.5041 Y1.2222
N4032 X1.5107 Y1.1869
N4033 X1.5178 Y1.1517
N4034 X1.5254 Y1.1166
N4035 X1.5336 Y1.0816
N4036 X1.5422 Y1.0468
N4037 X1.5515 Y1.0121
N4038 X1.5613 Y0.9776
N4039 X1.572 Y0.9433
N4040 X1.5833 Y0.9101
N4041 X1.5929 Y0.8849
N4042 X1.6004 Y0.8675
N4043 X1.6073 Y0.853
N4044 X1.6126 Y0.843
N4045 X1.6181 Y0.8334
N4046 X1.621 Y0.8287
N4047 X1.6288 Y0.8187
N4048 X1.6384 Y0.8105
N4049 X1.6494 Y0.8044
N4050 X1.6614 Y0.8007
N4051 X1.674 Y0.7994
N4052 X1.7593
N4053 G3 X1.7688 Y0.8016 I-0.0009 J0.025 F30
N4054 G1 X1.7716 Y0.8029 Z-0.0784
N4055 X1.7743 Y0.8041 Z-0.0775
N4056 X1.7768 Y0.8053 Z-0.0761
N4057 X1.7789 Y0.8063 Z-0.0741
N4058 X1.7807 Y0.8071 Z-0.0717
N4059 X1.782 Y0.8077 Z-0.069
N4060 X1.7828 Y0.808 Z-0.0661
N4061 X1.7831 Y0.8082 Z-0.063
N4062 G0 Z0.1969
N4063 X1.8276 Y2.5188
N4064 Z-0.0472
N4065 G1 Z-0.063 F30
N4066 Y2.5191 Z-0.0661
N4067 X1.8274 Y2.52 Z-0.069
N4068 X1.8272 Y2.5214 Z-0.0717
N4069 X1.8268 Y2.5233 Z-0.0741
N4070 X1.8264 Y2.5257 Z-0.0761
N4071 X1.8259 Y2.5284 Z-0.0775
N4072 X1.8254 Y2.5313 Z-0.0784
N4073 X1.8249 Y2.5343 Z-0.0787
N4074 G3 X1.8174 Y2.5407 I-0.0077 J-0.0014
N4075 G1 X1.7359 F60
N4076 X1.7255 Y2.5402
N4077 X1.7197 Y2.5395
N4078 X1.7138 Y2.5386
N4079 X1.7081 Y2.5373
N4080 X1.7024 Y2.5358
N4081 X1.6967 Y2.5341
N4082 X1.6909 Y2.532
N4083 X1.6848 Y2.5296
N4084 X1.6782 Y2.5267
N4085 X1.6717 Y2.5235
N4086 X1.6645 Y2.5197
N4087 X1.6573 Y2.5155
N4088 X1.6496 Y2.5105
N4089 X1.6416 Y2.505
N4090 X1.6334 Y2.4987
N4091 X1.6246 Y2.4915
N4092 X1.6157 Y2.4836
N4093 X1.6062 Y2.4745
N4094 X1.5966 Y2.4646
N4095 X1.5863 Y2.4531
N4096 X1.5759 Y2.4405
N4097 X1.5649 Y2.4262
N4098 X1.5535 Y2.4099
N4099 X1.542 Y2.3923
N4100 X1.5296 Y2.3713
N4101 X1.5176 Y2.3492
N4102 X1.505 Y2.3237
N4103 X1.4919 Y2.2946
N4104 X1.4787 Y2.2615
N4105 X1.4666 Y2.2277
N4106 X1.4557 Y2.1935
N4107 X1.4458 Y2.159
N4108 X1.4369 Y2.1242
N4109 X1.4288 Y2.0892
N4110 X1.4215 Y2.0541
N4111 X1.415 Y2.0188
N4112 X1.4092 Y1.9833
N4113 X1.4041 Y1.9478
N4114 X1.3996 Y1.9122
N4115 X1.3958 Y1.8765
N4116 X1.3925 Y1.8407
N4117 X1.3899 Y1.8049
N4118 X1.3878 Y1.7691
N4119 X1.3862 Y1.7332
N4120 X1.3852 Y1.6974
N4121 X1.3848 Y1.6615
N4122 X1.3849 Y1.6256
N4123 X1.3855 Y1.5897
N4124 X1.3866 Y1.5538
N4125 X1.3883 Y1.5179
N4126 X1.3904 Y1.4821
N4127 X1.3931 Y1.4463
N4128 X1.3963 Y1.4105
N4129 X1.4 Y1.3748
N4130 X1.4042 Y1.3392
N4131 X1.4089 Y1.3036
N4132 X1.4141 Y1.2681
N4133 X1.4198 Y1.2326
N4134 X1.4261 Y1.1973
N4135 X1.4328 Y1.162
N4136 X1.44 Y1.1269
N4137 X1.4477 Y1.0918
N4138 X1.456 Y1.0569
N4139 X1.4648 Y1.0221
N4140 X1.4742 Y0.9874
N4141 X1.4843 Y0.953
N4142 X1.4954 Y0.9188
N4143 X1.5052 Y0.8922
N4144 X1.5133 Y0.8725
N4145 X1.5201 Y0.8575
N4146 X1.5258 Y0.8462
N4147 X1.5309 Y0.837
N4148 X1.5367 Y0.8275
N4149 X1.5444 Y0.8179
N4150 X1.5539 Y0.8101
N4151 X1.5648 Y0.8042
N4152 X1.5766 Y0.8006
N4153 X1.5889 Y0.7994
N4154 X1.674
N4155 G3 X1.6835 Y0.8016 I-0.0009 J0.025 F30
N4156 G1 X1.6863 Y0.8029 Z-0.0784
N4157 X1.689 Y0.8041 Z-0.0775
N4158 X1.6914 Y0.8053 Z-0.0761
N4159 X1.6936 Y0.8063 Z-0.0741
N4160 X1.6954 Y0.8071 Z-0.0717
N4161 X1.6967 Y0.8077 Z-0.069
N4162 X1.6975 Y0.808 Z-0.0661
N4163 X1.6978 Y0.8082 Z-0.063
N4164 G0 Z0.1969
N4165 X1.7461 Y2.5188
N4166 Z-0.0472
N4167 G1 Z-0.063 F30
N4168 Y2.5191 Z-0.0661
N4169 X1.7459 Y2.52 Z-0.069
N4170 X1.7456 Y2.5214 Z-0.0717
N4171 X1.7453 Y2.5233 Z-0.0741
N4172 X1.7449 Y2.5257 Z-0.0761
N4173 X1.7444 Y2.5284 Z-0.0775
N4174 X1.7439 Y2.5313 Z-0.0784
N4175 X1.7433 Y2.5343 Z-0.0787
N4176 G3 X1.7359 Y2.5407 I-0.0077 J-0.0014
N4177 G1 X1.6519 F60
N4178 X1.6474 Y2.5405
N4179 X1.6416 Y2.5401
N4180 X1.6357 Y2.5394
N4181 X1.6299 Y2.5384
N4182 X1.6241 Y2.5371
N4183 X1.6184 Y2.5355
N4184 X1.6127 Y2.5337
N4185 X1.607 Y2.5316
N4186 X1.6006 Y2.5291
N4187 X1.5943 Y2.5262
N4188 X1.5875 Y2.5228
N4189 X1.5805 Y2.519
N4190 X1.5731 Y2.5145
N4191 X1.5653 Y2.5094
N4192 X1.5574 Y2.5038
N4193 X1.5489 Y2.4973
N4194 X1.5404 Y2.4902
N4195 X1.531 Y2.4818
N4196 X1.5219 Y2.4729
N4197 X1.5118 Y2.4623
N4198 X1.502 Y2.4511
N4199 X1.4913 Y2.4379
N4200 X1.4806 Y2.4236
N4201 X1.4692 Y2.4072
N4202 X1.4574 Y2.3887
N4203 X1.4456 Y2.3685
N4204 X1.433 Y2.3449
N4205 X1.4204 Y2.3187
N4206 X1.4077 Y2.2896
N4207 X1.3946 Y2.2562
N4208 X1.3828 Y2.2223
N4209 X1.3721 Y2.188
N4210 X1.3625 Y2.1534
N4211 X1.3538 Y2.1186
N4212 X1.346 Y2.0836
N4213 X1.3389 Y2.0484
N4214 X1.3326 Y2.013
N4215 X1.327 Y1.9776
N4216 X1.322 Y1.942
N4217 X1.3177 Y1.9064
N4218 X1.314 Y1.8707
N4219 X1.3109 Y1.8349
N4220 X1.3083 Y1.7991
N4221 X1.3063 Y1.7633
N4222 X1.3049 Y1.7274
N4223 X1.3039 Y1.6915
N4224 X1.3036 Y1.6556
N4225 X1.3037 Y1.6197
N4226 X1.3043 Y1.5838
N4227 X1.3055 Y1.5479
N4228 X1.3071 Y1.5121
N4229 X1.3093 Y1.4762
N4230 X1.312 Y1.4404
N4231 X1.3151 Y1.4047
N4232 X1.3188 Y1.369
N4233 X1.323 Y1.3333
N4234 X1.3276 Y1.2977
N4235 X1.3327 Y1.2622
N4236 X1.3384 Y1.2267
N4237 X1.3445 Y1.1914
N4238 X1.3511 Y1.1561
N4239 X1.3582 Y1.1209
N4240 X1.3658 Y1.0858
N4241 X1.3739 Y1.0508
N4242 X1.3826 Y1.016
N4243 X1.3919 Y0.9813
N4244 X1.402 Y0.9469
N4245 X1.4127 Y0.9139
N4246 X1.422 Y0.8886
N4247 X1.4298 Y0.8699
N4248 X1.4362 Y0.8559
N4249 X1.4418 Y0.8449
N4250 X1.4467 Y0.836
N4251 X1.4507 Y0.8294
N4252 X1.4584 Y0.8193
N4253 X1.4681 Y0.8108
N4254 X1.4792 Y0.8046
N4255 X1.4914 Y0.8007
N4256 X1.5041 Y0.7994
N4257 X1.5889
N4258 G3 X1.5983 Y0.8016 I-0.0009 J0.025 F30
N4259 G1 X1.6011 Y0.8029 Z-0.0784
N4260 X1.6038 Y0.8041 Z-0.0775
N4261 X1.6063 Y0.8053 Z-0.0761
N4262 X1.6085 Y0.8063 Z-0.0741
N4263 X1.6103 Y0.8071 Z-0.0717
N4264 X1.6116 Y0.8077 Z-0.069
N4265 X1.6124 Y0.808 Z-0.0661
N4266 X1.6127 Y0.8082 Z-0.063
N4267 G0 Z0.1969
N4268 X1.6621 Y2.5188
N4269 Z-0.0472
N4270 G1 Z-0.063 F30
N4271 Y2.5191 Z-0.0661
N4272 X1.6619 Y2.52 Z-0.069
N4273 X1.6617 Y2.5214 Z-0.0717
N4274 X1.6613 Y2.5233 Z-0.0741
N4275 X1.6609 Y2.5257 Z-0.0761
N4276 X1.6604 Y2.5284 Z-0.0775
N4277 X1.6599 Y2.5313 Z-0.0784
N4278 X1.6593 Y2.5343 Z-0.0787
N4279 G3 X1.6519 Y2.5407 I-0.0077 J-0.0014
N4280 G1 X1.5684 F60
N4281 X1.5639 Y2.5405
N4282 X1.558 Y2.5401
N4283 X1.5522 Y2.5393
N4284 X1.5464 Y2.5382
N4285 X1.5406 Y2.5369
N4286 X1.5349 Y2.5353
N4287 X1.5291 Y2.5334
N4288 X1.5234 Y2.5313
N4289 X1.5171 Y2.5287
N4290 X1.5106 Y2.5257
N4291 X1.5039 Y2.5223
N4292 X1.4967 Y2.5183
N4293 X1.4894 Y2.5139
N4294 X1.4815 Y2.5086
N4295 X1.4737 Y2.503
N4296 X1.465 Y2.4962
N4297 X1.4566 Y2.4891
N4298 X1.4472 Y2.4805
N4299 X1.4381 Y2.4715
N4300 X1.428 Y2.4607
N4301 X1.4182 Y2.4494
N4302 X1.4072 Y2.4358
N4303 X1.3967 Y2.4216
N4304 X1.3852 Y2.4047
N4305 X1.3737 Y2.3863
N4306 X1.3618 Y2.3656
N4307 X1.3492 Y2.3416
N4308 X1.3368 Y2.3154
N4309 X1.3241 Y2.2858
N4310 X1.3112 Y2.2523
N4311 X1.2996 Y2.2183
N4312 X1.2891 Y2.184
N4313 X1.2797 Y2.1494
N4314 X1.2712 Y2.1145
N4315 X1.2635 Y2.0794
N4316 X1.2566 Y2.0442
N4317 X1.2504 Y2.0088
N4318 X1.245 Y1.9733
N4319 X1.2401 Y1.9378
N4320 X1.2359 Y1.9021
N4321 X1.2323 Y1.8664
N4322 X1.2293 Y1.8306
N4323 X1.2268 Y1.7948
N4324 X1.2249 Y1.759
N4325 X1.2235 Y1.7231
N4326 X1.2226 Y1.6872
N4327 X1.2223 Y1.6513
N4328 X1.2224 Y1.6154
N4329 X1.2231 Y1.5795
N4330 X1.2243 Y1.5436
N4331 X1.2259 Y1.5078
N4332 X1.228 Y1.472
N4333 X1.2307 Y1.4362
N4334 X1.2338 Y1.4004
N4335 X1.2374 Y1.3647
N4336 X1.2415 Y1.329
N4337 X1.246 Y1.2934
N4338 X1.2511 Y1.2579
N4339 X1.2566 Y1.2224
N4340 X1.2626 Y1.187
N4341 X1.2691 Y1.1517
N4342 X1.276 Y1.1165
N4343 X1.2835 Y1.0814
N4344 X1.2915 Y1.0464
N4345 X1.3 Y1.0115
N4346 X1.3093 Y0.9768
N4347 X1.3193 Y0.9423
N4348 X1.3295 Y0.911
N4349 X1.3385 Y0.8866
N4350 X1.3456 Y0.8695
N4351 X1.3522 Y0.855
N4352 X1.3573 Y0.8448
N4353 X1.3626 Y0.8354
N4354 X1.3662 Y0.8294
N4355 X1.3739 Y0.8193
N4356 X1.3836 Y0.8109
N4357 X1.3947 Y0.8046
N4358 X1.4069 Y0.8007
N4359 X1.4196 Y0.7994
N4360 X1.5041
N4361 G3 X1.5136 Y0.8016 I-0.0009 J0.025 F30
N4362 G1 X1.5164 Y0.8029 Z-0.0784
N4363 X1.5191 Y0.8041 Z-0.0775
N4364 X1.5216 Y0.8053 Z-0.0761
N4365 X1.5237 Y0.8063 Z-0.0741
N4366 X1.5255 Y0.8071 Z-0.0717
N4367 X1.5268 Y0.8077 Z-0.069
N4368 X1.5277 Y0.808 Z-0.0661
N4369 X1.5279 Y0.8082 Z-0.063
N4370 G0 Z0.1969
N4371 X1.5786 Y2.5188
N4372 Z-0.0472
N4373 G1 Z-0.063 F30
N4374 X1.5785 Y2.5191 Z-0.0661
N4375 X1.5784 Y2.52 Z-0.069
N4376 X1.5781 Y2.5214 Z-0.0717
N4377 X1.5778 Y2.5233 Z-0.0741
N4378 X1.5773 Y2.5257 Z-0.0761
N4379 X1.5769 Y2.5284 Z-0.0775
N4380 X1.5763 Y2.5313 Z-0.0784
N4381 X1.5758 Y2.5343 Z-0.0787
N4382 G3 X1.5684 Y2.5407 I-0.0077 J-0.0014
N4383 G1 X1.4869 F60
N4384 X1.4824 Y2.5405
N4385 X1.4765 Y2.5401
N4386 X1.4706 Y2.5394
N4387 X1.4648 Y2.5384
N4388 X1.459 Y2.5371
N4389 X1.4533 Y2.5355
N4390 X1.4477 Y2.5337
N4391 X1.4419 Y2.5316
N4392 X1.4358 Y2.5292
N4393 X1.4292 Y2.5262
N4394 X1.4227 Y2.5229
N4395 X1.4155 Y2.519
N4396 X1.4083 Y2.5147
N4397 X1.4006 Y2.5096
N4398 X1.3927 Y2.504
N4399 X1.3844 Y2.4976
N4400 X1.3757 Y2.4904
N4401 X1.3668 Y2.4823
N4402 X1.3574 Y2.4732
N4403 X1.3478 Y2.463
N4404 X1.3377 Y2.4516
N4405 X1.3272 Y2.4387
N4406 X1.3166 Y2.4245
N4407 X1.3051 Y2.4079
N4408 X1.294 Y2.3905
N4409 X1.2818 Y2.3696
N4410 X1.2698 Y2.347
N4411 X1.2576 Y2.3216
N4412 X1.2448 Y2.2924
N4413 X1.2318 Y2.2592
N4414 X1.22 Y2.2253
N4415 X1.2094 Y2.191
