%
(MachineCode)
(T6  D=9.525 CR=4.762 - ZMIN=-12 - ball end mill)
N0 G90
N1 G17
(Adaptive3)
N2 T6 M6
(T6 3/8 Ballnose)
N3 S3000 M3
N5 G0 X-4.448 Y23.379
N6 Z15
N7 Z5
N8 Z2.902
N9 G1 Z2.502 F457.2
N10 Z-2
N11 X-4.308
N12 X-4.176 Y23.45
N13 X-4.056 Y23.54
N14 X-3.945 Y23.641
N15 X-3.841 Y23.748
N16 X-3.743 Y23.862
N17 X-3.65 Y23.98
N18 X-3.563 Y24.102
N19 X-3.475 Y24.237
N20 X-3.382 Y24.389
N21 X-3.286 Y24.562
N22 X-3.186 Y24.758
N23 X-3.082 Y24.982
N24 X-2.975 Y25.237
N25 X-2.864 Y25.529
N26 X-2.75 Y25.868
N27 X-2.633 Y26.262
N28 X-2.513 Y26.729
N29 X-2.39 Y27.291
N30 X-2.265 Y27.987
N31 X-2.138 Y28.885
N32 X-2.021 Y29.997
N33 X-1.941 Y31.113
N34 X-1.886 Y32.229
N35 X-1.849 Y33.347
N36 X-1.822 Y34.465
N37 X-1.804 Y35.583
N38 X-1.792 Y36.701
N39 X-1.783 Y37.819
N40 X-1.777 Y38.937
N41 X-1.773 Y40.056
N42 X-1.769 Y42.292
N43 X-1.766 Y45.647
N44 X-1.765 Y54.592
N45 X-1.767 Y73.602
N46 X-1.768 Y81.989
N47 X-1.732 Y82.266
N48 X-1.664 Y82.537
N49 X-1.466 Y83.06
N50 X-0.865 Y84.003
N51 X-0.774 Y84.101
N52 X-0.689 Y84.203
N53 X-0.609 Y84.311
N54 X-0.113 Y85.024
N55 X-0.039 Y85.098
N56 X-0.024 Y85.112
N57 X0.679 Y85.603
N58 X0.691 Y85.611
N59 X1.292 Y85.831
N60 X1.309 Y85.835
N61 X2.4 Y86.082
N62 X3.501 Y86.277
N63 X4.611 Y86.416
N64 X5.724 Y86.514
N65 X6.841 Y86.583
N66 X7.958 Y86.631
N67 X9.075 Y86.665
N68 X10.193 Y86.689
N69 X11.312 Y86.705
N70 X12.43 Y86.717
N71 X13.548 Y86.725
N72 X14.666 Y86.73
N73 X15.784 Y86.734
N74 X18.021 Y86.739
N75 X21.375 Y86.742
N76 X31.439 Y86.745
N77 X51.567 Y86.748
N78 X101.887 Y86.755
N79 X152.206 Y86.762
N80 X196.935 Y86.769
N81 X197.213 Y86.742
N82 X197.486 Y86.683
N83 X198.015 Y86.501
N84 X198.967 Y85.914
N85 X199.085 Y85.796
N86 X199.21 Y85.687
N87 X199.343 Y85.587
N88 X200.024 Y85.112
N89 X200.039 Y85.098
N90 X200.113 Y85.024
N91 X200.61 Y84.309
N92 X200.625 Y84.271
N93 X200.832 Y83.705
N94 X200.836 Y83.687
N95 X201.082 Y82.596
N96 X201.277 Y81.495
N97 X201.416 Y80.385
N98 X201.515 Y79.272
N99 X201.584 Y78.155
N100 X201.632 Y77.038
N101 X201.666 Y75.921
N102 X201.69 Y74.803
N103 X201.707 Y73.685
N104 X201.718 Y72.566
N105 X201.727 Y71.448
N106 X201.733 Y70.33
N107 X201.737 Y69.212
N108 X201.742 Y66.975
N109 X201.746 Y63.621
N110 X201.751 Y53.557
N111 X201.757 Y33.429
N112 X201.767 Y3.237
N113 X201.755 Y2.958
N114 X201.711 Y2.682
N115 X201.559 Y2.144
N116 X201.024 Y1.162
N117 X200.955 Y1.095
N118 X200.832 Y0.968
N119 X200.717 Y0.833
N120 X200.61 Y0.691
N121 X200.113 Y-0.024
N122 X200.039 Y-0.098
N123 X200.024 Y-0.112
N124 X199.321 Y-0.603
N125 X199.309 Y-0.611
N126 X198.708 Y-0.831
N127 X198.691 Y-0.835
N128 X197.6 Y-1.082
N129 X196.499 Y-1.277
N130 X195.389 Y-1.416
N131 X194.276 Y-1.514
N132 X193.159 Y-1.583
N133 X192.042 Y-1.631
N134 X190.925 Y-1.665
N135 X189.807 Y-1.689
N136 X188.688 Y-1.705
N137 X187.57 Y-1.717
N138 X186.452 Y-1.725
N139 X185.334 Y-1.73
N140 X184.216 Y-1.734
N141 X181.979 Y-1.739
N142 X178.625 Y-1.742
N143 X168.561 Y-1.745
N144 X148.433 Y-1.748
N145 X98.113 Y-1.755
N146 X47.794 Y-1.762
N147 X3.065 Y-1.769
N148 X2.787 Y-1.743
N149 X2.513 Y-1.685
N150 X1.984 Y-1.505
N151 X1.029 Y-0.924
N152 X0.895 Y-0.787
N153 X0.761 Y-0.668
N154 X0.618 Y-0.561
N155 X-0.024 Y-0.112
N156 X-0.039 Y-0.098
N157 X-0.113 Y-0.024
N158 X-0.61 Y0.691
N159 X-0.625 Y0.729
N160 X-0.832 Y1.295
N161 X-0.836 Y1.313
N162 X-1.082 Y2.404
N163 X-1.282 Y3.504
N164 X-1.425 Y4.613
N165 X-1.526 Y5.727
N166 X-1.597 Y6.843
N167 X-1.647 Y7.96
N168 X-1.681 Y9.078
N169 X-1.705 Y10.196
N170 X-1.722 Y11.314
N171 X-1.734 Y12.432
N172 X-1.742 Y13.55
N173 X-1.748 Y14.668
N174 X-1.752 Y15.786
N175 X-1.757 Y18.023
N176 X-1.759 Y19.141
N177 X-1.595 Y20.247
N178 X-1.335 Y21.335
N179 X-1.034 Y22.412
N180 X-0.729 Y23.488
N181 X-0.445 Y24.569
N182 X-0.192 Y25.658
N183 X0.024 Y26.756
N184 X0.203 Y27.859
N185 X0.349 Y28.968
N186 X0.464 Y30.08
N187 X0.554 Y31.195
N188 X0.623 Y32.311
N189 X0.676 Y33.428
N190 X0.716 Y34.545
N191 X0.746 Y35.663
N192 X0.768 Y36.781
N193 X0.785 Y37.899
N194 X0.797 Y39.017
N195 X0.806 Y40.136
N196 X0.813 Y41.254
N197 X0.818 Y42.372
N198 X0.824 Y44.608
N199 X0.828 Y47.963
N200 X0.829 Y51.318
N201 Y63.062
N202 X0.795 Y63.459
N203 X0.696 Y63.844
N204 X0.535 Y64.208
N205 X0.315 Y64.539
N206 X0.043 Y64.83
N207 X0.031 Y64.841
N208 X-0.117 Y65.024
N209 X-0.437 Y65.617
N210 X-0.566 Y65.91
N211 X-0.651 Y66.188
N212 X-0.727 Y66.473
N213 X-0.851 Y67.115
N214 X-0.878 Y67.329
N215 X-0.938 Y67.9
N216 X-0.951 Y68.185
N217 X-0.972 Y68.756
N218 X-0.973 Y73.037
N219 Y82.17
N220 X-0.967 Y82.455
N221 X-0.96 Y82.74
N222 X-0.95 Y83.026
N223 X-0.836 Y83.687
N224 X-0.832 Y83.705
N225 X-0.616 Y84.296
N226 X-0.609 Y84.311
N227 X-0.608 Y84.314
N228 G2 X-0.487 Y84.649 I1.979 J-0.526
N229 X-0.481 Y84.662 I0.864 J-0.401
N230 X-0.215 Y84.995 I0.858 J-0.413
N231 G1 X0.556 Y85.606
N232 G2 X0.939 Y85.789 I0.592 J-0.746
N233 X0.954 Y85.793 I0.209 J-0.929
N234 X1.308 Y85.835 I0.417 J-2.005
N235 G1 X1.309
N236 X1.72 Y85.906
N237 X2.006 Y85.954
N238 X2.577 Y85.968
N239 X2.863 Y85.973
N240 X197.137
N241 X197.423 Y85.968
N242 X197.994 Y85.954
N243 X198.28 Y85.906
N244 X198.691 Y85.835
N245 X198.708 Y85.831
N246 X199.309 Y85.611
N247 X199.333 Y85.594
N248 X199.343 Y85.587
N249 X199.346 Y85.586
N250 G2 X199.675 Y85.467 I-0.518 J-1.94
N251 X199.694 Y85.458 I-0.402 J-0.864
N252 X200.023 Y85.191 I-0.42 J-0.855
N253 G1 X200.613 Y84.439
N254 G2 X200.793 Y84.058 I-0.749 J-0.588
N255 X200.798 Y84.036 I-0.93 J-0.207
N256 X200.836 Y83.688 I-1.97 J-0.39
N257 G1 Y83.687
N258 X200.95 Y83.026
N259 X200.96 Y82.74
N260 X200.967 Y82.455
N261 X200.973 Y82.17
N262 X200.972 Y69.042
N263 Y68.756
N264 X200.951 Y68.185
N265 X200.938 Y67.9
N266 X200.878 Y67.329
N267 X200.851 Y67.115
N268 X200.727 Y66.473
N269 X200.651 Y66.188
N270 X200.563 Y65.902
N271 X200.437 Y65.617
N272 X200.381 Y65.489
N273 X200.271 Y65.203
N274 X200.158 Y64.873
N275 X200.041 Y64.489
N276 X199.922 Y64.035
N277 X199.8 Y63.49
N278 X199.675 Y62.819
N279 X199.548 Y61.961
N280 X199.426 Y60.85
N281 X199.342 Y59.735
N282 X199.284 Y58.618
N283 X199.245 Y57.5
N284 X199.217 Y56.383
N285 X199.199 Y55.265
N286 X199.186 Y54.146
N287 X199.177 Y53.028
N288 X199.171 Y51.91
N289 X199.167 Y50.792
N290 X199.162 Y48.555
N291 X199.16 Y45.201
N292 X199.161 Y37.373
N293 X199.167 Y21.632
N294 X199.202 Y21.252
N295 X199.307 Y20.886
N296 X199.479 Y20.545
N297 X199.71 Y20.241
N298 X199.994 Y19.986
N299 X200.022 Y19.954
N300 X200.196 Y19.669
N301 X200.368 Y19.383
N302 X200.511 Y19.098
N303 X200.566 Y18.96
N304 X200.616 Y18.812
N305 X200.699 Y18.527
N306 X200.82 Y17.956
N307 X200.851 Y17.797
N308 X200.931 Y17.1
N309 X200.947 Y16.815
N310 X200.971 Y16.244
N311 X200.973 Y14.817
N312 Y2.83
N313 X200.967 Y2.545
N314 X200.96 Y2.26
N315 X200.95 Y1.974
N316 X200.836 Y1.313
N317 X200.832 Y1.295
N318 X200.616 Y0.704
N319 X200.61 Y0.691
N320 Y0.689
N321 G2 X200.569 Y0.527 I-1.875 J0.39
N322 X200.489 Y0.339 I-0.912 J0.275
N323 X200.249 Y0.056 I-0.832 J0.463
N324 G1 X199.39 Y-0.626
N325 G2 X198.859 Y-0.831 I-0.593 J0.746
N326 X198.692 Y-0.835 I-0.124 J1.911
N327 G1 X198.691
N328 X198.28 Y-0.906
N329 X197.994 Y-0.954
N330 X197.423 Y-0.968
N331 X197.137 Y-0.973
N332 X2.863
N333 X2.577 Y-0.968
N334 X2.006 Y-0.954
N335 X1.72 Y-0.906
N336 X1.309 Y-0.835
N337 X1.292 Y-0.831
N338 X0.691 Y-0.611
N339 X0.667 Y-0.594
N340 X0.618 Y-0.561
N341 X0.616 Y-0.559
N342 G2 X0.295 Y-0.443 I0.505 J1.89
N343 X-0.056 Y-0.163 I0.402 J0.864
N344 G1 X-0.619 Y0.563
N345 G2 X-0.803 Y0.973 I0.753 J0.584
N346 X-0.836 Y1.312 I1.923 J0.358
N347 G1 Y1.313
N348 X-0.95 Y1.974
N349 X-0.96 Y2.26
N350 X-0.967 Y2.545
N351 X-0.973 Y2.83
N352 X-0.972 Y15.673
N353 X-0.971 Y16.244
N354 X-0.947 Y16.815
N355 X-0.931 Y17.1
N356 X-0.851 Y17.797
N357 X-0.82 Y17.956
N358 X-0.699 Y18.527
N359 X-0.616 Y18.812
N360 X-0.566 Y18.96
N361 X-0.511 Y19.098
N362 X-0.368 Y19.383
N363 X-0.196 Y19.669
N364 X-0.022 Y19.954
N365 X0.006 Y19.986
N366 X0.097 Y20.092
N367 X0.321 Y20.475
N368 X0.566 Y20.934
N369 X0.805 Y21.423
N370 X1.066 Y22.012
N371 X1.316 Y22.637
N372 X1.575 Y23.358
N373 X1.835 Y24.18
N374 X2.08 Y25.063
N375 X2.318 Y26.061
N376 X2.536 Y27.158
N377 X2.717 Y28.261
N378 X2.864 Y29.37
N379 X2.984 Y30.481
N380 X3.08 Y31.595
N381 X3.157 Y32.711
N382 X3.218 Y33.828
N383 X3.265 Y34.945
N384 X3.303 Y36.062
N385 X3.332 Y37.18
N386 X3.354 Y38.298
N387 X3.371 Y39.416
N388 X3.385 Y40.534
N389 X3.395 Y41.653
N390 X3.402 Y42.771
N391 X3.408 Y43.889
N392 X3.412 Y45.007
N393 X3.418 Y47.244
N394 X3.422 Y50.598
N395 X3.423 Y56.189
N396 Y59.544
N397 Y60.652
N398 X3.401 Y61.218
N399 X3.37 Y61.64
N400 X3.328 Y62.018
N401 X3.277 Y62.357
N402 X3.225 Y62.639
N403 X3.102 Y63.015
N404 X2.909 Y63.36
N405 X2.655 Y63.663
N406 X2.348 Y63.912
N407 X1.999 Y64.099
N408 X1.621 Y64.216
N409 X1.228 Y64.258
N410 X1.184 Y64.259
N411 X1.167 Y64.263
N412 X0.553 Y64.427
N413 X0.516 Y64.446
N414 X0.043 Y64.83
N415 G3 X-1.339 Y64.186 I-0.541 J-0.644
N416 G1 X-1.313 Y20.677
N417 G3 X0.006 Y19.986 I0.841 J0.001
N418 G1 X0.649 Y20.457
N419 X0.667 Y20.463
N420 X0.763 Y20.487
N421 X0.897 Y20.527
N422 X1.035 Y20.587
N423 X1.168 Y20.655
N424 X1.298 Y20.73
N425 X1.425 Y20.811
N426 X1.547 Y20.897
N427 X1.667 Y20.988
N428 X1.793 Y21.091
N429 X1.929 Y21.21
N430 X2.073 Y21.348
N431 X2.215 Y21.493
N432 X2.365 Y21.658
N433 X2.526 Y21.849
N434 X2.689 Y22.057
N435 X2.854 Y22.285
N436 X3.031 Y22.549
N437 X3.213 Y22.842
N438 X3.392 Y23.158
N439 X3.586 Y23.53
N440 X3.778 Y23.933
N441 X3.975 Y24.39
N442 X4.177 Y24.911
N443 X4.379 Y25.495
N444 X4.584 Y26.164
N445 X4.794 Y26.953
N446 X5.001 Y27.866
N447 X5.206 Y28.956
N448 X5.373 Y30.061
N449 X5.507 Y31.171
N450 X5.615 Y32.285
N451 X5.701 Y33.399
N452 X5.769 Y34.516
N453 X5.824 Y35.632
N454 X5.867 Y36.75
N455 X5.901 Y37.867
N456 X5.928 Y38.985
N457 X5.949 Y40.103
N458 X5.965 Y41.222
N459 X5.978 Y42.34
N460 X5.987 Y43.458
N461 X5.995 Y44.576
N462 X6.001 Y45.694
N463 X6.005 Y46.812
N464 X6.011 Y49.049
N465 X6.016 Y52.403
N466 X6.018 Y56.876
N467 Y57.995
N468 X6.004 Y59.113
N469 X5.968 Y59.947
N470 X5.926 Y60.474
N471 X5.875 Y60.907
N472 X5.824 Y61.239
N473 X5.758 Y61.58
N474 X5.693 Y61.863
N475 X5.627 Y62.108
N476 X5.546 Y62.368
N477 X5.464 Y62.602
N478 X5.385 Y62.804
N479 X5.379 Y62.819
N480 X5.192 Y63.166
N481 X4.951 Y63.478
N482 X4.661 Y63.745
N483 X4.331 Y63.961
N484 X3.97 Y64.12
N485 X3.588 Y64.217
N486 X3.195 Y64.25
N487 X2.006
N488 X1.72 Y64.252
N489 X1.228 Y64.258
N490 G3 X0.853 Y63.881 I0.008 J-0.383
N491 G1 X0.302 Y20.866
N492 G3 X0.763 Y20.487 I0.383 J-0.005
N493 G1 X1.167 Y20.587
N494 X1.184 Y20.588
N495 X1.72 Y20.596
N496 X1.916 Y20.598
N497 X2.056 Y20.606
N498 X2.204 Y20.626
N499 X2.351 Y20.655
N500 X2.497 Y20.693
N501 X2.64 Y20.738
N502 X2.78 Y20.791
N503 X2.918 Y20.849
N504 X3.054 Y20.914
N505 X3.187 Y20.984
N506 X3.324 Y21.062
N507 X3.465 Y21.15
N508 X3.615 Y21.252
N509 X3.765 Y21.361
N510 X3.926 Y21.487
N511 X4.085 Y21.623
N512 X4.253 Y21.777
N513 X4.425 Y21.946
N514 X4.601 Y22.132
N515 X4.786 Y22.343
N516 X4.967 Y22.566
N517 X5.163 Y22.826
N518 X5.351 Y23.095
N519 X5.554 Y23.409
N520 X5.753 Y23.744
N521 X5.96 Y24.124
N522 X6.169 Y24.542
N523 X6.379 Y25.007
N524 X6.596 Y25.537
N525 X6.808 Y26.113
N526 X7.023 Y26.771
N527 X7.242 Y27.536
N528 X7.452 Y28.387
N529 X7.664 Y29.404
N530 X7.852 Y30.507
N531 X8.004 Y31.615
N532 X8.126 Y32.726
N533 X8.225 Y33.84
N534 X8.305 Y34.955
N535 X8.369 Y36.072
N536 X8.42 Y37.189
N537 X8.461 Y38.306
N538 X8.494 Y39.424
N539 X8.52 Y40.542
N540 X8.541 Y41.66
N541 X8.557 Y42.778
N542 X8.57 Y43.896
N543 X8.58 Y45.014
N544 X8.587 Y46.132
N545 X8.593 Y47.251
N546 X8.598 Y48.369
N547 X8.605 Y50.605
N548 X8.609 Y53.96
N549 X8.61 Y55.078
N550 X8.608 Y56.196
N551 X8.597 Y57.314
N552 X8.563 Y58.415
N553 X8.509 Y59.219
N554 X8.441 Y59.871
N555 X8.36 Y60.436
N556 X8.282 Y60.874
N557 X8.194 Y61.28
N558 X8.109 Y61.611
N559 X8.022 Y61.903
N560 X7.923 Y62.198
N561 X7.831 Y62.443
N562 X7.733 Y62.676
N563 X7.622 Y62.914
N564 X7.604 Y62.95
N565 X7.408 Y63.268
N566 X7.166 Y63.552
N567 X6.882 Y63.795
N568 X6.563 Y63.99
N569 X6.218 Y64.133
N570 X5.855 Y64.22
N571 X5.482 Y64.25
N572 X3.195
N573 G3 X2.277 Y63.327 I0.033 J-0.952
N574 G1 X0.988 Y21.579
N575 G3 X1.916 Y20.598 I0.952 J-0.029
N576 G1 X2.006 Y20.599
N577 X3.662
N578 X3.802 Y20.606
N579 X3.951 Y20.618
N580 X4.1 Y20.638
N581 X4.247 Y20.666
N582 X4.393 Y20.702
N583 X4.537 Y20.744
N584 X4.679 Y20.793
N585 X4.819 Y20.846
N586 X4.963 Y20.908
N587 X5.108 Y20.977
N588 X5.262 Y21.057
N589 X5.418 Y21.146
N590 X5.582 Y21.247
N591 X5.75 Y21.36
N592 X5.923 Y21.485
N593 X6.102 Y21.625
N594 X6.285 Y21.779
N595 X6.475 Y21.952
N596 X6.667 Y22.139
N597 X6.867 Y22.35
N598 X7.068 Y22.577
N599 X7.277 Y22.832
N600 X7.486 Y23.106
N601 X7.703 Y23.414
N602 X7.919 Y23.746
N603 X8.143 Y24.121
N604 X8.366 Y24.525
N605 X8.594 Y24.978
N606 X8.822 Y25.477
N607 X9.053 Y26.032
N608 X9.286 Y26.659
N609 X9.511 Y27.341
N610 X9.743 Y28.138
N611 X9.972 Y29.049
N612 X10.194 Y30.098
N613 X10.386 Y31.199
N614 X10.543 Y32.307
N615 X10.671 Y33.417
N616 X10.776 Y34.531
N617 X10.861 Y35.646
N618 X10.93 Y36.762
N619 X10.986 Y37.879
N620 X11.031 Y38.996
N621 X11.068 Y40.114
N622 X11.097 Y41.231
N623 X11.12 Y42.349
N624 X11.139 Y43.467
N625 X11.154 Y44.586
N626 X11.166 Y45.704
N627 X11.175 Y46.822
N628 X11.182 Y47.94
N629 X11.188 Y49.058
N630 X11.196 Y51.295
N631 X11.199 Y52.413
N632 X11.2 Y53.531
N633 X11.198 Y54.649
N634 X11.187 Y55.767
N635 X11.159 Y56.885
N636 X11.102 Y57.999
N637 X11.026 Y58.865
N638 X10.938 Y59.566
N639 X10.838 Y60.177
N640 X10.729 Y60.721
N641 X10.624 Y61.16
N642 X10.512 Y61.56
N643 X10.408 Y61.885
N644 X10.302 Y62.18
N645 X10.188 Y62.464
N646 X10.083 Y62.7
N647 X9.966 Y62.94
N648 X9.937 Y62.994
N649 X9.702 Y63.351
N650 X9.407 Y63.66
N651 X9.061 Y63.912
N652 X8.676 Y64.097
N653 X8.264 Y64.211
N654 X7.838 Y64.25
N655 X5.482
N656 G3 X4.564 Y63.339 I0.033 J-0.952
N657 G1 X2.744 Y21.592
N658 G3 X3.662 Y20.599 I0.952 J-0.041
N659 G1 X5.72
N660 X5.859 Y20.606
N661 X6.009 Y20.617
N662 X6.158 Y20.636
N663 X6.305 Y20.663
N664 X6.452 Y20.697
N665 X6.596 Y20.736
N666 X6.739 Y20.782
N667 X6.88 Y20.833
N668 X7.032 Y20.894
N669 X7.185 Y20.963
N670 X7.349 Y21.043
N671 X7.513 Y21.131
N672 X7.688 Y21.234
N673 X7.864 Y21.346
N674 X8.05 Y21.475
N675 X8.238 Y21.615
N676 X8.435 Y21.773
N677 X8.633 Y21.945
N678 X8.841 Y22.139
N679 X9.049 Y22.348
N680 X9.268 Y22.585
N681 X9.484 Y22.837
N682 X9.714 Y23.125
N683 X9.937 Y23.428
N684 X10.177 Y23.778
N685 X10.405 Y24.14
N686 X10.651 Y24.564
N687 X10.887 Y25.007
N688 X11.136 Y25.519
N689 X11.379 Y26.069
N690 X11.626 Y26.691
N691 X11.876 Y27.393
N692 X12.113 Y28.145
N693 X12.355 Y29.023
N694 X12.594 Y30.035
N695 X12.811 Y31.132
N696 X12.991 Y32.236
N697 X13.139 Y33.344
N698 X13.262 Y34.455
N699 X13.363 Y35.569
N700 X13.447 Y36.684
N701 X13.515 Y37.8
N702 X13.571 Y38.917
N703 X13.616 Y40.034
N704 X13.653 Y41.152
N705 X13.683 Y42.27
N706 X13.707 Y43.388
N707 X13.727 Y44.506
N708 X13.743 Y45.624
N709 X13.755 Y46.742
N710 X13.765 Y47.86
N711 X13.773 Y48.978
N712 X13.779 Y50.096
N713 X13.784 Y51.215
N714 X13.786 Y52.333
N715 X13.783 Y53.451
N716 X13.772 Y54.569
N717 X13.747 Y55.687
N718 X13.697 Y56.804
N719 X13.616 Y57.898
N720 X13.517 Y58.788
N721 X13.407 Y59.529
N722 X13.287 Y60.176
N723 X13.16 Y60.738
N724 X13.036 Y61.212
N725 X12.916 Y61.607
N726 X12.792 Y61.966
N727 X12.684 Y62.247
N728 X12.56 Y62.537
N729 X12.437 Y62.797
N730 X12.324 Y63.014
N731 X12.309 Y63.041
N732 X12.072 Y63.386
N733 X11.778 Y63.684
N734 X11.436 Y63.925
N735 X11.058 Y64.104
N736 X10.654 Y64.213
N737 X10.237 Y64.25
N738 X7.838
N739 G3 X6.92 Y63.346 I0.033 J-0.952
N740 G1 X4.802 Y21.599
N741 G3 X5.72 Y20.599 I0.951 J-0.048
N742 G1 X7.877
N743 X8.016 Y20.606
N744 X8.166 Y20.616
N745 X8.315 Y20.634
N746 X8.463 Y20.658
N747 X8.61 Y20.69
N748 X8.755 Y20.728
N749 X8.899 Y20.772
N750 X9.044 Y20.821
N751 X9.201 Y20.882
N752 X9.358 Y20.949
N753 X9.527 Y21.029
N754 X9.698 Y21.118
N755 X9.878 Y21.219
N756 X10.061 Y21.332
N757 X10.253 Y21.46
N758 X10.45 Y21.602
N759 X10.654 Y21.761
N760 X10.86 Y21.934
N761 X11.076 Y22.13
N762 X11.295 Y22.342
N763 X11.523 Y22.581
N764 X11.749 Y22.837
N765 X11.99 Y23.129
N766 X12.224 Y23.436
N767 X12.476 Y23.793
N768 X12.717 Y24.162
N769 X12.974 Y24.588
N770 X13.224 Y25.041
N771 X13.482 Y25.552
N772 X13.743 Y26.119
N773 X13.999 Y26.733
N774 X14.267 Y27.448
N775 X14.518 Y28.203
N776 X14.771 Y29.07
N777 X15.024 Y30.069
N778 X15.258 Y31.163
N779 X15.454 Y32.263
N780 X15.619 Y33.369
N781 X15.756 Y34.479
N782 X15.87 Y35.592
N783 X15.965 Y36.706
N784 X16.044 Y37.821
N785 X16.11 Y38.937
N786 X16.163 Y40.054
N787 X16.208 Y41.172
N788 X16.244 Y42.289
N789 X16.274 Y43.407
N790 X16.298 Y44.525
N791 X16.318 Y45.643
N792 X16.334 Y46.761
N793 X16.346 Y47.879
N794 X16.357 Y48.998
N795 X16.364 Y50.116
N796 X16.367 Y51.234
N797 X16.365 Y52.352
N798 X16.355 Y53.47
N799 X16.331 Y54.588
N800 X16.288 Y55.706
N801 X16.219 Y56.822
N802 X16.116 Y57.919
N803 X15.999 Y58.812
N804 X15.87 Y59.58
N805 X15.733 Y60.24
N806 X15.593 Y60.815
N807 X15.454 Y61.301
N808 X15.327 Y61.693
N809 X15.195 Y62.053
N810 X15.08 Y62.335
N811 X14.95 Y62.624
N812 X14.822 Y62.881
N813 X14.755 Y63.005
N814 X14.519 Y63.359
N815 X14.225 Y63.666
N816 X13.88 Y63.915
N817 X13.496 Y64.099
N818 X13.086 Y64.212
N819 X12.662 Y64.25
N820 X10.237
N821 G3 X9.319 Y63.351 I0.033 J-0.952
N822 G1 X6.959 Y21.604
N823 G3 X7.877 Y20.599 I0.951 J-0.054
N824 G1 X10.162
N825 X10.302 Y20.606
N826 X10.452 Y20.618
N827 X10.6 Y20.637
N828 X10.748 Y20.663
N829 X10.894 Y20.696
N830 X11.039 Y20.734
N831 X11.188 Y20.78
N832 X11.339 Y20.832
N833 X11.502 Y20.895
N834 X11.664 Y20.966
N835 X11.841 Y21.05
N836 X12.017 Y21.142
N837 X12.206 Y21.25
N838 X12.394 Y21.366
N839 X12.597 Y21.502
N840 X12.798 Y21.648
N841 X13.013 Y21.817
N842 X13.226 Y21.997
N843 X13.454 Y22.205
N844 X13.678 Y22.424
N845 X13.919 Y22.679
N846 X14.154 Y22.945
N847 X14.405 Y23.252
N848 X14.651 Y23.576
N849 X14.91 Y23.946
N850 X15.169 Y24.346
N851 X15.431 Y24.784
N852 X15.704 Y25.282
N853 X15.965 Y25.802
N854 X16.244 Y26.413
N855 X16.51 Y27.058
N856 X16.781 Y27.79
N857 X17.055 Y28.622
N858 X17.322 Y29.546
N859 X17.582 Y30.591
N860 X17.813 Y31.686
N861 X18.008 Y32.787
N862 X18.172 Y33.893
N863 X18.311 Y35.002
N864 X18.428 Y36.114
N865 X18.526 Y37.228
N866 X18.607 Y38.344
N867 X18.676 Y39.46
N868 X18.733 Y40.576
N869 X18.78 Y41.694
N870 X18.819 Y42.811
N871 X18.851 Y43.929
N872 X18.878 Y45.047
N873 X18.899 Y46.165
N874 X18.917 Y47.283
N875 X18.93 Y48.401
N876 X18.94 Y49.519
N877 X18.943 Y50.637
N878 X18.94 Y51.756
N879 X18.927 Y52.874
N880 X18.899 Y53.992
N881 X18.853 Y55.109
N882 X18.784 Y56.225
N883 X18.684 Y57.339
N884 X18.562 Y58.326
N885 X18.422 Y59.193
N886 X18.277 Y59.921
N887 X18.128 Y60.549
N888 X17.975 Y61.102
N889 X17.841 Y61.526
N890 X17.697 Y61.928
N891 X17.576 Y62.23
N892 X17.444 Y62.529
N893 X17.311 Y62.802
N894 X17.19 Y63.027
N895 X17.168 Y63.066
N896 X16.929 Y63.404
N897 X16.636 Y63.696
N898 X16.297 Y63.933
N899 X15.921 Y64.107
N900 X15.522 Y64.214
N901 X15.11 Y64.25
N902 X12.662
N903 G3 X11.745 Y63.355 I0.033 J-0.952
N904 G1 X9.245 Y21.608
N905 G3 X10.162 Y20.599 I0.951 J-0.057
N906 G1 X12.448
N907 X12.588 Y20.606
N908 X12.737 Y20.617
N909 X12.886 Y20.635
N910 X13.034 Y20.66
N911 X13.181 Y20.692
N912 X13.326 Y20.729
N913 X13.474 Y20.773
N914 X13.631 Y20.826
N915 X13.791 Y20.887
N916 X13.962 Y20.959
N917 X14.134 Y21.04
N918 X14.32 Y21.135
N919 X14.505 Y21.238
N920 X14.705 Y21.36
N921 X14.903 Y21.491
N922 X15.117 Y21.644
N923 X15.328 Y21.806
N924 X15.556 Y21.996
N925 X15.78 Y22.196
N926 X16.02 Y22.427
N927 X16.255 Y22.672
N928 X16.508 Y22.954
N929 X16.757 Y23.254
N930 X17.017 Y23.591
N931 X17.281 Y23.96
N932 X17.547 Y24.364
N933 X17.826 Y24.822
N934 X18.095 Y25.304
N935 X18.383 Y25.866
N936 X18.658 Y26.457
N937 X18.942 Y27.129
N938 X19.232 Y27.893
N939 X19.504 Y28.697
N940 X19.781 Y29.625
N941 X20.056 Y30.691
N942 X20.295 Y31.783
N943 X20.499 Y32.883
N944 X20.673 Y33.987
N945 X20.822 Y35.096
N946 X20.947 Y36.207
N947 X21.053 Y37.32
N948 X21.143 Y38.435
N949 X21.219 Y39.55
N950 X21.282 Y40.667
N951 X21.335 Y41.784
N952 X21.38 Y42.901
N953 X21.417 Y44.018
N954 X21.447 Y45.136
N955 X21.472 Y46.254
N956 X21.492 Y47.372
N957 X21.506 Y48.49
N958 X21.513 Y49.609
N959 Y50.727
N960 X21.503 Y51.845
N961 X21.481 Y52.963
N962 X21.442 Y54.08
N963 X21.384 Y55.197
N964 X21.301 Y56.312
N965 X21.185 Y57.424
N966 X21.043 Y58.45
N967 X20.893 Y59.298
N968 X20.736 Y60.029
N969 X20.575 Y60.666
N970 X20.415 Y61.213
N971 X20.278 Y61.624
N972 X20.13 Y62.018
N973 X20.005 Y62.318
N974 X19.871 Y62.608
N975 X19.734 Y62.879
N976 X19.655 Y63.021
N977 X19.419 Y63.371
N978 X19.124 Y63.674
N979 X18.781 Y63.92
N980 X18.4 Y64.101
N981 X17.992 Y64.212
N982 X17.572 Y64.25
N983 X15.11
N984 G3 X14.192 Y63.358 I0.033 J-0.952
N985 G1 X11.531 Y21.611
N986 G3 X12.448 Y20.599 I0.951 J-0.061
N987 G1 X14.734
N988 X15.023 Y20.614
N989 X15.172 Y20.63
N990 X15.32 Y20.652
N991 X15.468 Y20.681
N992 X15.613 Y20.716
N993 X15.759 Y20.757
N994 X15.917 Y20.808
N995 X16.075 Y20.865
N996 X16.247 Y20.934
N997 X16.419 Y21.011
N998 X16.605 Y21.102
N999 X16.792 Y21.203
N1000 X16.99 Y21.319
N1001 X17.192 Y21.447
N1002 X17.404 Y21.594
N1003 X17.621 Y21.755
N1004 X17.847 Y21.937
N1005 X18.076 Y22.135
N1006 X18.316 Y22.36
N1007 X18.559 Y22.603
N1008 X18.815 Y22.88
N1009 X19.066 Y23.173
N1010 X19.337 Y23.512
N1011 X19.598 Y23.866
N1012 X19.88 Y24.277
N1013 X20.155 Y24.714
N1014 X20.438 Y25.201
N1015 X20.731 Y25.751
N1016 X21.012 Y26.329
N1017 X21.313 Y27.009
N1018 X21.6 Y27.73
N1019 X21.887 Y28.536
N1020 X22.178 Y29.456
N1021 X22.465 Y30.497
N1022 X22.722 Y31.586
N1023 X22.943 Y32.682
N1024 X23.133 Y33.784
N1025 X23.296 Y34.89
N1026 X23.435 Y36
N1027 X23.554 Y37.111
N1028 X23.655 Y38.225
N1029 X23.741 Y39.34
N1030 X23.814 Y40.456
N1031 X23.876 Y41.572
N1032 X23.927 Y42.689
N1033 X23.971 Y43.807
N1034 X24.007 Y44.924
N1035 X24.035 Y46.042
N1036 X24.058 Y47.16
N1037 X24.073 Y48.278
N1038 X24.08 Y49.396
N1039 X24.078 Y50.515
N1040 X24.065 Y51.633
N1041 X24.039 Y52.751
N1042 X23.995 Y53.868
N1043 X23.931 Y54.984
N1044 X23.842 Y56.099
N1045 X23.723 Y57.211
N1046 X23.577 Y58.252
N1047 X23.416 Y59.164
N1048 X23.251 Y59.928
N1049 X23.085 Y60.578
N1050 X22.918 Y61.149
N1051 X22.772 Y61.585
N1052 X22.62 Y61.99
N1053 X22.493 Y62.292
N1054 X22.352 Y62.597
N1055 X22.216 Y62.865
N1056 X22.086 Y63.099
N1057 X21.847 Y63.428
N1058 X21.555 Y63.712
N1059 X21.218 Y63.942
N1060 X20.848 Y64.111
N1061 X20.454 Y64.215
N1062 X20.048 Y64.25
N1063 X17.572
N1064 G3 X16.655 Y63.362 I0.033 J-0.952
N1065 G1 X13.817 Y21.615
N1066 G3 X14.734 Y20.599 I0.95 J-0.065
N1067 G1 X17.148
N1068 X17.287 Y20.606
N1069 X17.437 Y20.617
N1070 X17.586 Y20.635
N1071 X17.734 Y20.659
N1072 X17.881 Y20.69
N1073 X18.026 Y20.727
N1074 X18.181 Y20.772
N1075 X18.337 Y20.824
N1076 X18.506 Y20.887
N1077 X18.677 Y20.958
N1078 X18.859 Y21.042
N1079 X19.045 Y21.135
N1080 X19.241 Y21.243
N1081 X19.443 Y21.364
N1082 X19.652 Y21.501
N1083 X19.869 Y21.654
N1084 X20.092 Y21.824
N1085 X20.323 Y22.014
N1086 X20.561 Y22.225
N1087 X20.807 Y22.458
N1088 X21.06 Y22.718
N1089 X21.315 Y23
N1090 X21.586 Y23.321
N1091 X21.852 Y23.663
N1092 X22.138 Y24.058
N1093 X22.412 Y24.468
N1094 X22.703 Y24.941
N1095 X22.995 Y25.455
N1096 X23.288 Y26.019
N1097 X23.598 Y26.675
N1098 X23.887 Y27.349
N1099 X24.189 Y28.13
N1100 X24.493 Y29.011
N1101 X24.792 Y29.996
N1102 X25.078 Y31.077
N1103 X25.325 Y32.168
N1104 X25.538 Y33.265
N1105 X25.722 Y34.368
N1106 X25.881 Y35.475
N1107 X26.017 Y36.585
N1108 X26.134 Y37.697
N1109 X26.235 Y38.811
N1110 X26.32 Y39.926
N1111 X26.393 Y41.042
N1112 X26.455 Y42.158
N1113 X26.507 Y43.275
N1114 X26.55 Y44.392
N1115 X26.585 Y45.51
N1116 X26.612 Y46.628
N1117 X26.631 Y47.746
N1118 X26.641 Y48.864
N1119 Y49.982
N1120 X26.629 Y51.101
N1121 X26.603 Y52.219
N1122 X26.56 Y53.336
N1123 X26.498 Y54.452
N1124 X26.414 Y55.567
N1125 X26.301 Y56.68
N1126 X26.157 Y57.789
N1127 X25.997 Y58.753
N1128 X25.824 Y59.598
N1129 X25.654 Y60.301
N1130 X25.48 Y60.917
N1131 X25.315 Y61.43
N1132 X25.169 Y61.833
N1133 X25.023 Y62.194
N1134 X24.896 Y62.478
N1135 X24.751 Y62.771
N1136 X24.617 Y63.02
N1137 X24.584 Y63.076
N1138 X24.345 Y63.411
N1139 X24.052 Y63.701
N1140 X23.714 Y63.935
N1141 X23.34 Y64.108
N1142 X22.942 Y64.214
N1143 X22.531 Y64.25
N1144 X20.048
N1145 G3 X19.131 Y63.364 I0.033 J-0.952
N1146 G1 X16.231 Y21.617
N1147 G3 X17.148 Y20.599 I0.95 J-0.066
N1148 G1 X19.52
N1149 X19.659 Y20.606
N1150 X19.809 Y20.616
N1151 X19.958 Y20.633
N1152 X20.106 Y20.657
N1153 X20.253 Y20.687
N1154 X20.401 Y20.723
N1155 X20.55 Y20.766
N1156 X20.714 Y20.819
N1157 X20.877 Y20.878
N1158 X21.054 Y20.951
N1159 X21.232 Y21.031
N1160 X21.423 Y21.126
N1161 X21.618 Y21.232
N1162 X21.823 Y21.353
N1163 X22.033 Y21.488
N1164 X22.251 Y21.64
N1165 X22.477 Y21.81
N1166 X22.711 Y21.999
N1167 X22.951 Y22.21
N1168 X23.2 Y22.444
N1169 X23.453 Y22.7
N1170 X23.718 Y22.989
N1171 X23.985 Y23.302
N1172 X24.268 Y23.66
N1173 X24.541 Y24.033
N1174 X24.836 Y24.469
N1175 X25.124 Y24.929
N1176 X25.424 Y25.451
N1177 X25.731 Y26.034
N1178 X26.031 Y26.658
N1179 X26.348 Y27.383
N1180 X26.655 Y28.163
N1181 X26.958 Y29.025
N1182 X27.264 Y30.01
N1183 X27.557 Y31.089
N1184 X27.811 Y32.178
N1185 X28.032 Y33.274
N1186 X28.224 Y34.375
N1187 X28.39 Y35.481
N1188 X28.534 Y36.59
N1189 X28.659 Y37.701
N1190 X28.766 Y38.814
N1191 X28.858 Y39.929
N1192 X28.937 Y41.044
N1193 X29.004 Y42.161
N1194 X29.06 Y43.277
N1195 X29.107 Y44.395
N1196 X29.144 Y45.512
N1197 X29.172 Y46.63
N1198 X29.191 Y47.748
N1199 X29.199 Y48.866
N1200 X29.196 Y49.984
N1201 X29.18 Y51.103
N1202 X29.149 Y52.22
N1203 X29.101 Y53.338
N1204 X29.033 Y54.454
N1205 X28.942 Y55.568
N1206 X28.823 Y56.68
N1207 X28.672 Y57.788
N1208 X28.497 Y58.803
N1209 X28.322 Y59.633
N1210 X28.142 Y60.351
N1211 X27.964 Y60.968
N1212 X27.802 Y61.461
N1213 X27.645 Y61.883
N1214 X27.503 Y62.227
N1215 X27.372 Y62.514
N1216 X27.225 Y62.808
N1217 X27.092 Y63.049
N1218 X27.068 Y63.09
N1219 X26.829 Y63.422
N1220 X26.536 Y63.708
N1221 X26.199 Y63.939
N1222 X25.827 Y64.11
N1223 X25.431 Y64.214
N1224 X25.024 Y64.25
N1225 X22.531
N1226 G3 X21.615 Y63.366 I0.033 J-0.952
N1227 G1 X18.603 Y21.619
N1228 G3 X19.52 Y20.599 I0.95 J-0.069
N1229 G1 X21.876
N1230 X22.165 Y20.613
N1231 X22.315 Y20.628
N1232 X22.463 Y20.649
N1233 X22.611 Y20.677
N1234 X22.758 Y20.711
N1235 X22.906 Y20.751
N1236 X23.066 Y20.8
N1237 X23.229 Y20.857
N1238 X23.403 Y20.925
N1239 X23.584 Y21.004
N1240 X23.771 Y21.093
N1241 X23.967 Y21.196
N1242 X24.168 Y21.311
N1243 X24.382 Y21.444
N1244 X24.597 Y21.589
N1245 X24.826 Y21.756
N1246 X25.055 Y21.937
N1247 X25.3 Y22.145
N1248 X25.545 Y22.369
N1249 X25.805 Y22.624
N1250 X26.066 Y22.901
N1251 X26.337 Y23.21
N1252 X26.615 Y23.552
N1253 X26.899 Y23.928
N1254 X27.197 Y24.354
N1255 X27.486 Y24.803
N1256 X27.796 Y25.324
N1257 X28.098 Y25.876
N1258 X28.409 Y26.5
N1259 X28.733 Y27.215
N1260 X29.038 Y27.957
N1261 X29.353 Y28.813
N1262 X29.669 Y29.781
N1263 X29.977 Y30.856
N1264 X30.246 Y31.941
N1265 X30.482 Y33.034
N1266 X30.687 Y34.133
N1267 X30.866 Y35.237
N1268 X31.022 Y36.344
N1269 X31.157 Y37.454
N1270 X31.274 Y38.566
N1271 X31.375 Y39.68
N1272 X31.462 Y40.795
N1273 X31.537 Y41.911
N1274 X31.599 Y43.027
N1275 X31.651 Y44.144
N1276 X31.693 Y45.262
N1277 X31.724 Y46.379
N1278 X31.744 Y47.497
N1279 X31.753 Y48.616
N1280 X31.75 Y49.734
N1281 X31.734 Y50.852
N1282 X31.702 Y51.97
N1283 X31.653 Y53.087
N1284 X31.584 Y54.203
N1285 X31.492 Y55.317
N1286 X31.374 Y56.429
N1287 X31.226 Y57.538
N1288 X31.055 Y58.555
N1289 X30.871 Y59.454
N1290 X30.69 Y60.194
N1291 X30.508 Y60.835
N1292 X30.333 Y61.377
N1293 X30.182 Y61.792
N1294 X30.029 Y62.168
N1295 X29.898 Y62.459
N1296 X29.75 Y62.757
N1297 X29.613 Y63.01
N1298 X29.572 Y63.079
N1299 X29.333 Y63.414
N1300 X29.041 Y63.702
N1301 X28.702 Y63.936
N1302 X28.329 Y64.109
N1303 X27.932 Y64.214
N1304 X27.522 Y64.25
N1305 X25.024
N1306 G3 X24.107 Y63.369 I0.033 J-0.952
N1307 G1 X20.959 Y21.622
N1308 G3 X21.876 Y20.599 I0.95 J-0.072
N1309 G1 X24.377
N1310 X24.516 Y20.606
N1311 X24.666 Y20.617
N1312 X24.815 Y20.635
N1313 X24.963 Y20.66
N1314 X25.109 Y20.691
N1315 X25.255 Y20.728
N1316 X25.415 Y20.774
N1317 X25.575 Y20.826
N1318 X25.748 Y20.89
N1319 X25.924 Y20.963
N1320 X26.111 Y21.048
N1321 X26.303 Y21.145
N1322 X26.504 Y21.255
N1323 X26.715 Y21.381
N1324 X26.93 Y21.521
N1325 X27.156 Y21.679
N1326 X27.386 Y21.854
N1327 X27.629 Y22.053
N1328 X27.875 Y22.269
N1329 X28.132 Y22.513
N1330 X28.394 Y22.781
N1331 X28.665 Y23.078
N1332 X28.945 Y23.41
N1333 X29.229 Y23.772
N1334 X29.53 Y24.186
N1335 X29.819 Y24.617
N1336 X30.131 Y25.12
N1337 X30.436 Y25.656
N1338 X30.751 Y26.259
N1339 X31.081 Y26.952
N1340 X31.391 Y27.67
N1341 X31.714 Y28.5
N1342 X32.039 Y29.437
N1343 X32.361 Y30.489
N1344 X32.649 Y31.57
N1345 X32.902 Y32.659
N1346 X33.124 Y33.755
N1347 X33.318 Y34.856
N1348 X33.488 Y35.961
N1349 X33.636 Y37.07
N1350 X33.765 Y38.181
N1351 X33.877 Y39.293
N1352 X33.974 Y40.407
N1353 X34.057 Y41.522
N1354 X34.127 Y42.638
N1355 X34.185 Y43.755
N1356 X34.232 Y44.872
N1357 X34.267 Y45.99
N1358 X34.291 Y47.108
N1359 X34.303 Y48.226
N1360 X34.302 Y49.344
N1361 X34.288 Y50.462
N1362 X34.258 Y51.58
N1363 X34.211 Y52.697
N1364 X34.144 Y53.814
N1365 X34.056 Y54.928
N1366 X33.943 Y56.041
N1367 X33.801 Y57.15
N1368 X33.626 Y58.254
N1369 X33.441 Y59.193
N1370 X33.254 Y59.985
N1371 X33.068 Y60.664
N1372 X32.886 Y61.242
N1373 X32.732 Y61.675
N1374 X32.571 Y62.08
N1375 X32.438 Y62.383
N1376 X32.292 Y62.683
N1377 X32.15 Y62.95
N1378 X32.085 Y63.062
N1379 X31.847 Y63.401
N1380 X31.553 Y63.694
N1381 X31.214 Y63.931
N1382 X30.838 Y64.106
N1383 X30.438 Y64.213
N1384 X30.025 Y64.25
N1385 X27.522
N1386 G3 X26.605 Y63.369 I0.033 J-0.952
N1387 G1 X23.46 Y21.622
N1388 G3 X24.377 Y20.599 I0.95 J-0.072
N1389 G1 X26.733
N1390 X27.022 Y20.613
N1391 X27.172 Y20.627
N1392 X27.32 Y20.649
N1393 X27.468 Y20.676
N1394 X27.614 Y20.709
N1395 X27.767 Y20.75
N1396 X27.926 Y20.798
N1397 X28.096 Y20.858
N1398 X28.268 Y20.924
N1399 X28.454 Y21.005
N1400 X28.64 Y21.093
N1401 X28.842 Y21.198
N1402 X29.045 Y21.314
N1403 X29.261 Y21.448
N1404 X29.48 Y21.595
N1405 X29.712 Y21.763
N1406 X29.949 Y21.948
N1407 X30.196 Y22.157
N1408 X30.447 Y22.385
N1409 X30.712 Y22.644
N1410 X30.978 Y22.924
N1411 X31.261 Y23.246
N1412 X31.541 Y23.587
N1413 X31.841 Y23.983
N1414 X32.132 Y24.396
N1415 X32.441 Y24.874
N1416 X32.753 Y25.394
N1417 X33.068 Y25.967
N1418 X33.403 Y26.635
N1419 X33.717 Y27.322
N1420 X34.045 Y28.116
N1421 X34.378 Y29.012
N1422 X34.709 Y30.015
N1423 X35.02 Y31.089
N1424 X35.293 Y32.173
N1425 X35.534 Y33.265
N1426 X35.746 Y34.363
N1427 X35.932 Y35.466
N1428 X36.095 Y36.572
N1429 X36.237 Y37.681
N1430 X36.362 Y38.793
N1431 X36.47 Y39.906
N1432 X36.562 Y41.02
N1433 X36.641 Y42.135
N1434 X36.707 Y43.252
N1435 X36.761 Y44.369
N1436 X36.802 Y45.486
N1437 X36.831 Y46.604
N1438 X36.848 Y47.722
N1439 X36.851 Y48.84
N1440 X36.841 Y49.958
N1441 X36.815 Y51.076
N1442 X36.772 Y52.194
N1443 X36.711 Y53.31
N1444 X36.629 Y54.425
N1445 X36.524 Y55.539
N1446 X36.392 Y56.649
N1447 X36.229 Y57.755
N1448 X36.043 Y58.778
N1449 X35.852 Y59.644
N1450 X35.665 Y60.365
N1451 X35.476 Y60.999
N1452 X35.31 Y61.487
N1453 X35.144 Y61.923
N1454 X35.002 Y62.258
N1455 X34.864 Y62.555
N1456 X34.715 Y62.846
N1457 X34.583 Y63.081
N1458 X34.566 Y63.108
N1459 X34.326 Y63.435
N1460 X34.034 Y63.717
N1461 X33.699 Y63.945
N1462 X33.33 Y64.112
N1463 X32.937 Y64.215
N1464 X32.533 Y64.25
N1465 X30.025
N1466 G3 X29.108 Y63.373 I0.033 J-0.952
N1467 G1 X25.817 Y21.626
N1468 G3 X26.733 Y20.599 I0.95 J-0.075
N1469 G1 X29.233
N1470 X29.373 Y20.606
N1471 X29.523 Y20.616
N1472 X29.672 Y20.633
N1473 X29.82 Y20.656
N1474 X29.967 Y20.685
N1475 X30.113 Y20.72
N1476 X30.271 Y20.765
N1477 X30.433 Y20.817
N1478 X30.604 Y20.878
N1479 X30.784 Y20.95
N1480 X30.968 Y21.033
N1481 X31.167 Y21.13
N1482 X31.365 Y21.236
N1483 X31.579 Y21.362
N1484 X31.792 Y21.497
N1485 X32.024 Y21.657
N1486 X32.253 Y21.827
N1487 X32.501 Y22.027
N1488 X32.746 Y22.238
N1489 X33.011 Y22.486
N1490 X33.271 Y22.746
N1491 X33.554 Y23.052
N1492 X33.831 Y23.373
N1493 X34.126 Y23.742
N1494 X34.421 Y24.141
N1495 X34.726 Y24.587
N1496 X35.044 Y25.09
N1497 X35.355 Y25.625
N1498 X35.69 Y26.253
N1499 X36.012 Y26.915
N1500 X36.343 Y27.663
N1501 X36.682 Y28.51
N1502 X37.02 Y29.458
N1503 X37.355 Y30.518
N1504 X37.653 Y31.596
N1505 X37.916 Y32.682
N1506 X38.148 Y33.776
N1507 X38.352 Y34.876
N1508 X38.532 Y35.979
N1509 X38.69 Y37.087
N1510 X38.828 Y38.196
N1511 X38.948 Y39.308
N1512 X39.053 Y40.421
N1513 X39.142 Y41.536
N1514 X39.217 Y42.652
N1515 X39.279 Y43.768
N1516 X39.328 Y44.885
N1517 X39.364 Y46.003
N1518 X39.387 Y47.121
N1519 X39.396 Y48.239
N1520 X39.392 Y49.357
N1521 X39.372 Y50.475
N1522 X39.336 Y51.593
N1523 X39.282 Y52.71
N1524 X39.208 Y53.826
N1525 X39.113 Y54.94
N1526 X38.993 Y56.051
N1527 X38.844 Y57.16
N1528 X38.661 Y58.263
N1529 X38.472 Y59.198
N1530 X38.276 Y60.011
N1531 X38.088 Y60.683
N1532 X37.899 Y61.273
N1533 X37.743 Y61.703
N1534 X37.58 Y62.107
N1535 X37.444 Y62.411
N1536 X37.299 Y62.707
N1537 X37.155 Y62.975
N1538 X37.097 Y63.073
N1539 X36.859 Y63.409
N1540 X36.566 Y63.699
N1541 X36.227 Y63.935
N1542 X35.853 Y64.108
N1543 X35.454 Y64.214
N1544 X35.043 Y64.25
N1545 X32.533
N1546 G3 X31.617 Y63.373 I0.033 J-0.952
N1547 G1 X28.317 Y21.626
N1548 G3 X29.233 Y20.599 I0.95 J-0.075
N1549 G1 X31.718
N1550 X31.858 Y20.606
N1551 X32.007 Y20.617
N1552 X32.156 Y20.635
N1553 X32.304 Y20.66
N1554 X32.451 Y20.69
N1555 X32.605 Y20.728
N1556 X32.76 Y20.773
N1557 X32.929 Y20.828
N1558 X33.099 Y20.89
N1559 X33.282 Y20.966
N1560 X33.469 Y21.05
N1561 X33.667 Y21.149
N1562 X33.871 Y21.261
N1563 X34.084 Y21.387
N1564 X34.306 Y21.53
N1565 X34.534 Y21.689
N1566 X34.774 Y21.871
N1567 X35.017 Y22.069
N1568 X35.273 Y22.293
N1569 X35.534 Y22.539
N1570 X35.807 Y22.817
N1571 X36.086 Y23.122
N1572 X36.372 Y23.459
N1573 X36.672 Y23.84
N1574 X36.969 Y24.246
N1575 X37.29 Y24.722
N1576 X37.597 Y25.215
N1577 X37.927 Y25.792
N1578 X38.258 Y26.422
N1579 X38.589 Y27.113
N1580 X38.932 Y27.903
N1581 X39.276 Y28.781
N1582 X39.611 Y29.739
N1583 X39.941 Y30.807
N1584 X40.232 Y31.886
N1585 X40.491 Y32.974
N1586 X40.719 Y34.069
N1587 X40.921 Y35.169
N1588 X41.099 Y36.273
N1589 X41.255 Y37.38
N1590 X41.392 Y38.49
N1591 X41.512 Y39.602
N1592 X41.615 Y40.715
N1593 X41.703 Y41.83
N1594 X41.777 Y42.946
N1595 X41.836 Y44.062
N1596 X41.883 Y45.18
N1597 X41.915 Y46.297
N1598 X41.934 Y47.415
N1599 X41.939 Y48.534
N1600 X41.929 Y49.652
N1601 X41.903 Y50.77
N1602 X41.86 Y51.887
N1603 X41.799 Y53.004
N1604 X41.717 Y54.119
N1605 X41.613 Y55.232
N1606 X41.484 Y56.343
N1607 X41.325 Y57.45
N1608 X41.131 Y58.538
N1609 X40.935 Y59.447
N1610 X40.738 Y60.224
N1611 X40.548 Y60.871
N1612 X40.368 Y61.409
N1613 X40.204 Y61.845
N1614 X40.052 Y62.207
N1615 X39.916 Y62.502
N1616 X39.764 Y62.802
N1617 X39.628 Y63.048
N1618 X39.597 Y63.099
N1619 X39.357 Y63.428
N1620 X39.065 Y63.712
N1621 X38.728 Y63.942
N1622 X38.358 Y64.111
N1623 X37.964 Y64.215
N1624 X37.558 Y64.25
N1625 X35.043
N1626 G3 X34.127 Y63.373 I0.033 J-0.952
N1627 G1 X30.802 Y21.626
N1628 G3 X31.718 Y20.599 I0.949 J-0.076
N1629 G1 X34.161
N1630 X34.301 Y20.606
N1631 X34.45 Y20.616
N1632 X34.599 Y20.633
N1633 X34.747 Y20.656
N1634 X34.895 Y20.686
N1635 X35.046 Y20.722
N1636 X35.203 Y20.766
N1637 X35.367 Y20.818
N1638 X35.542 Y20.881
N1639 X35.719 Y20.952
N1640 X35.912 Y21.038
N1641 X36.104 Y21.132
N1642 X36.312 Y21.244
N1643 X36.52 Y21.366
N1644 X36.745 Y21.509
N1645 X36.971 Y21.665
N1646 X37.212 Y21.844
N1647 X37.454 Y22.038
N1648 X37.712 Y22.262
N1649 X37.972 Y22.503
N1650 X38.248 Y22.781
N1651 X38.523 Y23.077
N1652 X38.82 Y23.422
N1653 X39.107 Y23.782
N1654 X39.421 Y24.205
N1655 X39.726 Y24.651
N1656 X40.05 Y25.164
N1657 X40.38 Y25.732
N1658 X40.706 Y26.342
N1659 X41.053 Y27.054
N1660 X41.391 Y27.818
N1661 X41.729 Y28.664
N1662 X42.074 Y29.63
N1663 X42.411 Y30.696
N1664 X42.71 Y31.773
N1665 X42.976 Y32.859
N1666 X43.211 Y33.953
N1667 X43.419 Y35.051
N1668 X43.604 Y36.154
N1669 X43.766 Y37.261
N1670 X43.909 Y38.37
N1671 X44.033 Y39.481
N1672 X44.141 Y40.594
N1673 X44.233 Y41.708
N1674 X44.31 Y42.824
N1675 X44.372 Y43.94
N1676 X44.421 Y45.058
N1677 X44.455 Y46.175
N1678 X44.475 Y47.293
N1679 X44.481 Y48.411
N1680 X44.471 Y49.53
N1681 X44.446 Y50.648
N1682 X44.403 Y51.765
N1683 X44.342 Y52.881
N1684 X44.26 Y53.997
N1685 X44.157 Y55.11
N1686 X44.027 Y56.221
N1687 X43.868 Y57.328
N1688 X43.679 Y58.413
N1689 X43.477 Y59.36
N1690 X43.282 Y60.137
N1691 X43.087 Y60.807
N1692 X42.9 Y61.369
N1693 X42.742 Y61.794
N1694 X42.582 Y62.18
N1695 X42.447 Y62.474
N1696 X42.295 Y62.775
N1697 X42.155 Y63.03
N1698 X42.117 Y63.093
N1699 X41.878 Y63.424
N1700 X41.585 Y63.709
N1701 X41.248 Y63.94
N1702 X40.877 Y64.11
N1703 X40.482 Y64.215
N1704 X40.075 Y64.25
N1705 X37.558
N1706 G3 X36.642 Y63.375 I0.033 J-0.952
N1707 G1 X33.245 Y21.628
N1708 G3 X34.161 Y20.599 I0.949 J-0.077
N1709 G1 X36.575
N1710 X36.865 Y20.613
N1711 X37.014 Y20.627
N1712 X37.162 Y20.648
N1713 X37.31 Y20.675
N1714 X37.458 Y20.707
N1715 X37.613 Y20.748
N1716 X37.773 Y20.797
N1717 X37.947 Y20.856
N1718 X38.121 Y20.923
N1719 X38.311 Y21.004
N1720 X38.5 Y21.093
N1721 X38.705 Y21.199
N1722 X38.913 Y21.316
N1723 X39.133 Y21.451
N1724 X39.358 Y21.6
N1725 X39.594 Y21.77
N1726 X39.837 Y21.959
N1727 X40.09 Y22.171
N1728 X40.351 Y22.407
N1729 X40.622 Y22.67
N1730 X40.898 Y22.958
N1731 X41.189 Y23.285
N1732 X41.48 Y23.638
N1733 X41.793 Y24.048
N1734 X42.095 Y24.473
N1735 X42.42 Y24.971
N1736 X42.743 Y25.505
N1737 X43.075 Y26.103
N1738 X43.425 Y26.795
N1739 X43.756 Y27.512
N1740 X44.102 Y28.339
N1741 X44.453 Y29.274
N1742 X44.805 Y30.326
N1743 X45.12 Y31.399
N1744 X45.4 Y32.482
N1745 X45.649 Y33.572
N1746 X45.87 Y34.668
N1747 X46.066 Y35.769
N1748 X46.239 Y36.874
N1749 X46.392 Y37.981
N1750 X46.525 Y39.092
N1751 X46.641 Y40.204
N1752 X46.741 Y41.318
N1753 X46.824 Y42.433
N1754 X46.893 Y43.549
N1755 X46.947 Y44.666
N1756 X46.986 Y45.783
N1757 X47.011 Y46.901
N1758 X47.021 Y48.019
N1759 X47.016 Y49.138
N1760 X46.994 Y50.256
N1761 X46.956 Y51.373
N1762 X46.9 Y52.49
N1763 X46.823 Y53.606
N1764 X46.725 Y54.719
N1765 X46.603 Y55.831
N1766 X46.453 Y56.939
N1767 X46.271 Y58.042
N1768 X46.075 Y59.027
N1769 X45.872 Y59.875
N1770 X45.679 Y60.573
N1771 X45.484 Y61.185
N1772 X45.321 Y61.639
N1773 X45.154 Y62.059
N1774 X45.014 Y62.372
N1775 X44.868 Y62.672
N1776 X44.721 Y62.947
N1777 X44.65 Y63.068
N1778 X44.412 Y63.406
N1779 X44.119 Y63.697
N1780 X43.779 Y63.933
N1781 X43.404 Y64.107
N1782 X43.005 Y64.214
N1783 X42.593 Y64.25
N1784 X40.075
N1785 G3 X39.159 Y63.377 I0.033 J-0.952
N1786 G1 X35.659 Y21.63
N1787 G3 X36.575 Y20.599 I0.949 J-0.08
N1788 G1 X39.146
N1789 X39.286 Y20.606
N1790 X39.436 Y20.617
N1791 X39.584 Y20.636
N1792 X39.732 Y20.66
N1793 X39.88 Y20.691
N1794 X40.03 Y20.728
N1795 X40.192 Y20.774
N1796 X40.358 Y20.828
N1797 X40.533 Y20.893
N1798 X40.718 Y20.968
N1799 X40.907 Y21.054
N1800 X41.111 Y21.156
N1801 X41.315 Y21.267
N1802 X41.536 Y21.398
N1803 X41.755 Y21.539
N1804 X41.994 Y21.706
N1805 X42.23 Y21.884
N1806 X42.487 Y22.092
N1807 X42.739 Y22.313
N1808 X43.014 Y22.573
N1809 X43.282 Y22.845
N1810 X43.577 Y23.167
N1811 X43.864 Y23.504
N1812 X44.171 Y23.894
N1813 X44.478 Y24.314
N1814 X44.796 Y24.785
N1815 X45.129 Y25.319
N1816 X45.454 Y25.885
N1817 X45.805 Y26.553
N1818 X46.144 Y27.261
N1819 X46.49 Y28.055
N1820 X46.843 Y28.957
N1821 X47.199 Y29.972
N1822 X47.53 Y31.04
N1823 X47.824 Y32.119
N1824 X48.086 Y33.206
N1825 X48.32 Y34.3
N1826 X48.527 Y35.399
N1827 X48.711 Y36.502
N1828 X48.873 Y37.608
N1829 X49.015 Y38.717
N1830 X49.139 Y39.828
N1831 X49.246 Y40.942
N1832 X49.336 Y42.056
N1833 X49.411 Y43.172
N1834 X49.47 Y44.288
N1835 X49.515 Y45.406
N1836 X49.544 Y46.524
N1837 X49.559 Y47.642
N1838 X49.558 Y48.76
N1839 X49.541 Y49.878
N1840 X49.507 Y50.996
N1841 X49.455 Y52.113
N1842 X49.384 Y53.229
N1843 X49.291 Y54.343
N1844 X49.176 Y55.455
N1845 X49.034 Y56.564
N1846 X48.862 Y57.669
N1847 X48.663 Y58.724
N1848 X48.461 Y59.616
N1849 X48.263 Y60.359
N1850 X48.066 Y61.004
N1851 X47.894 Y61.502
N1852 X47.723 Y61.943
N1853 X47.578 Y62.279
N1854 X47.435 Y62.579
N1855 X47.284 Y62.869
N1856 X47.151 Y63.103
N1857 X47.14 Y63.121
N1858 X46.9 Y63.444
N1859 X46.608 Y63.723
N1860 X46.274 Y63.948
N1861 X45.907 Y64.114
N1862 X45.517 Y64.215
N1863 X45.115 Y64.25
N1864 X42.593
N1865 G3 X41.677 Y63.376 I0.033 J-0.952
N1866 G1 X38.23 Y21.629
N1867 G3 X39.146 Y20.599 I0.949 J-0.078
N1868 G1 X41.589
N1869 X41.729 Y20.606
N1870 X41.878 Y20.615
N1871 X42.028 Y20.631
N1872 X42.176 Y20.654
N1873 X42.323 Y20.682
N1874 X42.472 Y20.717
N1875 X42.633 Y20.761
N1876 X42.795 Y20.812
N1877 X42.972 Y20.875
N1878 X43.15 Y20.945
N1879 X43.341 Y21.029
N1880 X43.537 Y21.123
N1881 X43.743 Y21.233
N1882 X43.957 Y21.356
N1883 X44.179 Y21.495
N1884 X44.412 Y21.654
N1885 X44.649 Y21.828
N1886 X44.901 Y22.028
N1887 X45.155 Y22.246
N1888 X45.424 Y22.493
N1889 X45.696 Y22.763
N1890 X45.983 Y23.069
N1891 X46.276 Y23.405
N1892 X46.576 Y23.776
N1893 X46.892 Y24.198
N1894 X47.202 Y24.645
N1895 X47.539 Y25.171
N1896 X47.863 Y25.721
N1897 X48.207 Y26.358
N1898 X48.562 Y27.075
N1899 X48.902 Y27.833
N1900 X49.257 Y28.706
N1901 X49.616 Y29.693
N1902 X49.959 Y30.757
N1903 X50.265 Y31.832
N1904 X50.538 Y32.917
N1905 X50.782 Y34.008
N1906 X50.998 Y35.105
N1907 X51.191 Y36.207
N1908 X51.361 Y37.312
N1909 X51.51 Y38.42
N1910 X51.641 Y39.531
N1911 X51.754 Y40.643
N1912 X51.85 Y41.757
N1913 X51.93 Y42.873
N1914 X51.994 Y43.989
N1915 X52.043 Y45.106
N1916 X52.077 Y46.224
N1917 X52.095 Y47.342
N1918 X52.097 Y48.46
N1919 X52.084 Y49.578
N1920 X52.053 Y50.696
N1921 X52.005 Y51.813
N1922 X51.938 Y52.929
N1923 X51.85 Y54.044
N1924 X51.739 Y55.157
N1925 X51.603 Y56.267
N1926 X51.438 Y57.373
N1927 X51.24 Y58.473
N1928 X51.037 Y59.401
N1929 X50.836 Y60.185
N1930 X50.637 Y60.856
N1931 X50.449 Y61.414
N1932 X50.291 Y61.831
N1933 X50.13 Y62.214
N1934 X49.994 Y62.507
N1935 X49.842 Y62.804
N1936 X49.7 Y63.058
N1937 X49.672 Y63.104
N1938 X49.433 Y63.432
N1939 X49.141 Y63.715
N1940 X48.805 Y63.943
N1941 X48.435 Y64.112
N1942 X48.042 Y64.215
N1943 X47.637 Y64.25
N1944 X45.115
N1945 G3 X44.199 Y63.378 I0.033 J-0.952
N1946 G1 X40.673 Y21.631
N1947 G3 X41.589 Y20.599 I0.949 J-0.08
N1948 G1 X44.09
N1949 X44.229 Y20.606
N1950 X44.379 Y20.615
N1951 X44.528 Y20.632
N1952 X44.676 Y20.655
N1953 X44.824 Y20.684
N1954 X44.978 Y20.72
N1955 X45.133 Y20.763
N1956 X45.302 Y20.816
N1957 X45.475 Y20.878
N1958 X45.657 Y20.95
N1959 X45.848 Y21.035
N1960 X46.045 Y21.13
N1961 X46.256 Y21.242
N1962 X46.467 Y21.365
N1963 X46.696 Y21.509
N1964 X46.922 Y21.664
N1965 X47.17 Y21.847
N1966 X47.414 Y22.041
N1967 X47.68 Y22.27
N1968 X47.94 Y22.51
N1969 X48.225 Y22.794
N1970 X48.502 Y23.091
N1971 X48.806 Y23.441
N1972 X49.103 Y23.811
N1973 X49.418 Y24.233
N1974 X49.739 Y24.698
N1975 X50.064 Y25.209
N1976 X50.414 Y25.804
N1977 X50.744 Y26.418
N1978 X51.098 Y27.137
N1979 X51.46 Y27.947
N1980 X51.811 Y28.817
N1981 X52.169 Y29.809
N1982 X52.511 Y30.874
N1983 X52.815 Y31.95
N1984 X53.087 Y33.034
N1985 X53.329 Y34.126
N1986 X53.545 Y35.223
N1987 X53.737 Y36.325
N1988 X53.907 Y37.43
N1989 X54.056 Y38.538
N1990 X54.186 Y39.649
N1991 X54.299 Y40.761
N1992 X54.394 Y41.875
N1993 X54.473 Y42.991
N1994 X54.536 Y44.107
N1995 X54.584 Y45.225
N1996 X54.616 Y46.342
N1997 X54.632 Y47.46
N1998 Y48.579
N1999 X54.616 Y49.697
N2000 X54.583 Y50.814
N2001 X54.532 Y51.931
N2002 X54.462 Y53.047
N2003 X54.372 Y54.162
N2004 X54.258 Y55.274
N2005 X54.118 Y56.384
N2006 X53.949 Y57.489
N2007 X53.749 Y58.565
N2008 X53.54 Y59.501
N2009 X53.337 Y60.274
N2010 X53.141 Y60.923
N2011 X52.956 Y61.464
N2012 X52.792 Y61.89
N2013 X52.637 Y62.252
N2014 X52.5 Y62.543
N2015 X52.346 Y62.841
N2016 X52.208 Y63.086
N2017 X52.19 Y63.114
N2018 X51.95 Y63.44
N2019 X51.659 Y63.72
N2020 X51.324 Y63.946
N2021 X50.955 Y64.113
N2022 X50.564 Y64.215
N2023 X50.161 Y64.25
N2024 X47.637
N2025 G3 X46.721 Y63.378 I0.033 J-0.952
N2026 G1 X43.174 Y21.631
N2027 G3 X44.09 Y20.599 I0.949 J-0.081
N2028 G1 X46.575
N2029 X46.714 Y20.606
N2030 X46.864 Y20.615
N2031 X47.013 Y20.631
N2032 X47.161 Y20.653
N2033 X47.309 Y20.681
N2034 X47.461 Y20.717
N2035 X47.618 Y20.759
N2036 X47.784 Y20.811
N2037 X47.96 Y20.873
N2038 X48.139 Y20.943
N2039 X48.333 Y21.028
N2040 X48.526 Y21.121
N2041 X48.738 Y21.233
N2042 X48.948 Y21.354
N2043 X49.176 Y21.496
N2044 X49.404 Y21.651
N2045 X49.649 Y21.83
N2046 X49.895 Y22.025
N2047 X50.157 Y22.249
N2048 X50.423 Y22.493
N2049 X50.705 Y22.772
N2050 X50.985 Y23.069
N2051 X51.289 Y23.417
N2052 X51.584 Y23.781
N2053 X51.908 Y24.212
N2054 X52.222 Y24.663
N2055 X52.555 Y25.182
N2056 X52.896 Y25.758
N2057 X53.235 Y26.382
N2058 X53.594 Y27.107
N2059 X53.949 Y27.892
N2060 X54.303 Y28.76
N2061 X54.665 Y29.752
N2062 X55.011 Y30.816
N2063 X55.319 Y31.891
N2064 X55.594 Y32.975
N2065 X55.84 Y34.065
N2066 X56.059 Y35.162
N2067 X56.254 Y36.263
N2068 X56.427 Y37.368
N2069 X56.579 Y38.476
N2070 X56.712 Y39.586
N2071 X56.826 Y40.698
N2072 X56.924 Y41.812
N2073 X57.004 Y42.928
N2074 X57.069 Y44.044
N2075 X57.117 Y45.161
N2076 X57.15 Y46.279
N2077 X57.167 Y47.397
N2078 X57.169 Y48.515
N2079 X57.153 Y49.633
N2080 X57.121 Y50.751
N2081 X57.07 Y51.868
N2082 X57.001 Y52.984
N2083 X56.91 Y54.099
N2084 X56.796 Y55.211
N2085 X56.656 Y56.321
N2086 X56.488 Y57.426
N2087 X56.289 Y58.507
N2088 X56.079 Y59.455
N2089 X55.877 Y60.226
N2090 X55.678 Y60.89
N2091 X55.489 Y61.443
N2092 X55.328 Y61.864
N2093 X55.169 Y62.237
N2094 X55.033 Y62.529
N2095 X54.879 Y62.827
N2096 X54.739 Y63.076
N2097 X54.717 Y63.111
N2098 X54.477 Y63.437
N2099 X54.186 Y63.718
N2100 X53.85 Y63.946
N2101 X53.482 Y64.113
N2102 X53.09 Y64.215
N2103 X52.686 Y64.25
N2104 X50.161
N2105 G3 X49.245 Y63.379 I0.033 J-0.952
N2106 G1 X45.659 Y21.632
N2107 G3 X46.575 Y20.599 I0.949 J-0.082
N2108 G1 X49.088
N2109 X49.228 Y20.606
N2110 X49.377 Y20.615
N2111 X49.526 Y20.632
N2112 X49.675 Y20.655
N2113 X49.822 Y20.683
N2114 X49.977 Y20.72
N2115 X50.132 Y20.763
N2116 X50.301 Y20.816
N2117 X50.475 Y20.878
N2118 X50.658 Y20.95
N2119 X50.85 Y21.035
N2120 X51.047 Y21.13
N2121 X51.26 Y21.243
N2122 X51.471 Y21.366
N2123 X51.702 Y21.511
N2124 X51.929 Y21.666
N2125 X52.178 Y21.849
N2126 X52.424 Y22.044
N2127 X52.691 Y22.274
N2128 X52.954 Y22.517
N2129 X53.241 Y22.802
N2130 X53.52 Y23.1
N2131 X53.827 Y23.453
N2132 X54.125 Y23.824
N2133 X54.446 Y24.253
N2134 X54.768 Y24.719
N2135 X55.098 Y25.236
N2136 X55.45 Y25.835
N2137 X55.785 Y26.455
N2138 X56.142 Y27.181
N2139 X56.508 Y27.998
N2140 X56.864 Y28.876
N2141 X57.227 Y29.879
N2142 X57.569 Y30.944
N2143 X57.875 Y32.019
N2144 X58.148 Y33.104
N2145 X58.393 Y34.195
N2146 X58.61 Y35.292
N2147 X58.804 Y36.393
N2148 X58.976 Y37.498
N2149 X59.127 Y38.606
N2150 X59.258 Y39.716
N2151 X59.372 Y40.829
N2152 X59.468 Y41.943
N2153 X59.547 Y43.058
N2154 X59.61 Y44.175
N2155 X59.657 Y45.292
N2156 X59.688 Y46.41
N2157 X59.703 Y47.528
N2158 X59.702 Y48.646
N2159 X59.684 Y49.764
N2160 X59.649 Y50.882
N2161 X59.596 Y51.999
N2162 X59.523 Y53.115
N2163 X59.43 Y54.229
N2164 X59.313 Y55.341
N2165 X59.169 Y56.45
N2166 X58.996 Y57.555
N2167 X58.794 Y58.625
N2168 X58.583 Y59.553
N2169 X58.378 Y60.322
N2170 X58.181 Y60.966
N2171 X57.996 Y61.498
N2172 X57.831 Y61.922
N2173 X57.678 Y62.278
N2174 X57.54 Y62.568
N2175 X57.385 Y62.864
N2176 X57.248 Y63.106
N2177 X57.238 Y63.122
N2178 X56.997 Y63.445
N2179 X56.706 Y63.723
N2180 X56.372 Y63.949
N2181 X56.005 Y64.114
N2182 X55.615 Y64.215
N2183 X55.213 Y64.25
N2184 X52.686
N2185 G3 X51.771 Y63.379 I0.033 J-0.952
N2186 G1 X48.172 Y21.632
N2187 G3 X49.088 Y20.599 I0.949 J-0.082
N2188 G1 X51.589
N2189 X51.728 Y20.606
N2190 X51.878 Y20.615
N2191 X52.027 Y20.631
N2192 X52.175 Y20.654
N2193 X52.323 Y20.682
N2194 X52.476 Y20.718
N2195 X52.633 Y20.761
N2196 X52.8 Y20.813
N2197 X52.977 Y20.876
N2198 X53.158 Y20.947
N2199 X53.353 Y21.033
N2200 X53.547 Y21.127
N2201 X53.76 Y21.239
N2202 X53.972 Y21.362
N2203 X54.201 Y21.505
N2204 X54.431 Y21.662
N2205 X54.677 Y21.842
N2206 X54.926 Y22.039
N2207 X55.19 Y22.265
N2208 X55.458 Y22.512
N2209 X55.742 Y22.794
N2210 X56.025 Y23.095
N2211 X56.331 Y23.446
N2212 X56.629 Y23.815
N2213 X56.956 Y24.251
N2214 X57.272 Y24.707
N2215 X57.61 Y25.234
N2216 X57.954 Y25.817
N2217 X58.296 Y26.45
N2218 X58.659 Y27.183
N2219 X59.019 Y27.983
N2220 X59.377 Y28.863
N2221 X59.743 Y29.87
N2222 X60.087 Y30.934
N2223 X60.395 Y32.009
N2224 X60.67 Y33.093
N2225 X60.916 Y34.184
N2226 X61.135 Y35.28
N2227 X61.331 Y36.381
N2228 X61.504 Y37.486
N2229 X61.656 Y38.594
N2230 X61.789 Y39.704
N2231 X61.903 Y40.817
N2232 X62 Y41.931
N2233 X62.08 Y43.046
N2234 X62.144 Y44.162
N2235 X62.191 Y45.279
N2236 X62.222 Y46.397
N2237 X62.238 Y47.515
N2238 X62.237 Y48.634
N2239 X62.219 Y49.752
N2240 X62.184 Y50.869
N2241 X62.131 Y51.986
N2242 X62.057 Y53.102
N2243 X61.963 Y54.216
N2244 X61.845 Y55.328
N2245 X61.701 Y56.437
N2246 X61.528 Y57.542
N2247 X61.327 Y58.604
N2248 X61.115 Y59.54
N2249 X60.912 Y60.301
N2250 X60.712 Y60.955
N2251 X60.526 Y61.494
N2252 X60.363 Y61.913
N2253 X60.207 Y62.275
N2254 X60.069 Y62.564
N2255 X59.915 Y62.86
N2256 X59.776 Y63.104
N2257 X59.766 Y63.121
N2258 X59.525 Y63.445
N2259 X59.234 Y63.723
N2260 X58.9 Y63.948
N2261 X58.532 Y64.114
N2262 X58.142 Y64.215
N2263 X57.741 Y64.25
N2264 X55.213
N2265 G3 X54.297 Y63.38 I0.033 J-0.952
N2266 G1 X50.673 Y21.633
N2267 G3 X51.589 Y20.599 I0.949 J-0.082
N2268 G1 X54.089
N2269 X54.229 Y20.606
N2270 X54.378 Y20.615
N2271 X54.528 Y20.63
N2272 X54.676 Y20.653
N2273 X54.823 Y20.681
N2274 X54.977 Y20.716
N2275 X55.134 Y20.759
N2276 X55.3 Y20.811
N2277 X55.477 Y20.873
N2278 X55.657 Y20.943
N2279 X55.852 Y21.028
N2280 X56.047 Y21.122
N2281 X56.259 Y21.234
N2282 X56.472 Y21.356
N2283 X56.7 Y21.498
N2284 X56.93 Y21.654
N2285 X57.176 Y21.834
N2286 X57.426 Y22.03
N2287 X57.69 Y22.255
N2288 X57.957 Y22.5
N2289 X58.241 Y22.781
N2290 X58.525 Y23.081
N2291 X58.831 Y23.431
N2292 X59.131 Y23.8
N2293 X59.458 Y24.235
N2294 X59.775 Y24.689
N2295 X60.113 Y25.214
N2296 X60.457 Y25.794
N2297 X60.801 Y26.427
N2298 X61.165 Y27.159
N2299 X61.525 Y27.955
N2300 X61.885 Y28.834
N2301 X62.253 Y29.839
N2302 X62.599 Y30.902
N2303 X62.909 Y31.976
N2304 X63.187 Y33.06
N2305 X63.435 Y34.15
N2306 X63.656 Y35.246
N2307 X63.853 Y36.347
N2308 X64.028 Y37.451
N2309 X64.182 Y38.559
N2310 X64.316 Y39.669
N2311 X64.432 Y40.781
N2312 X64.53 Y41.895
N2313 X64.611 Y43.01
N2314 X64.676 Y44.127
N2315 X64.724 Y45.244
N2316 X64.756 Y46.362
N2317 X64.772 Y47.48
N2318 X64.771 Y48.598
N2319 X64.754 Y49.716
N2320 X64.719 Y50.834
N2321 X64.666 Y51.951
N2322 X64.593 Y53.067
N2323 X64.498 Y54.181
N2324 X64.38 Y55.293
N2325 X64.236 Y56.402
N2326 X64.063 Y57.506
N2327 X63.863 Y58.574
N2328 X63.649 Y59.517
N2329 X63.446 Y60.282
N2330 X63.246 Y60.939
N2331 X63.058 Y61.483
N2332 X62.895 Y61.902
N2333 X62.738 Y62.268
N2334 X62.601 Y62.557
N2335 X62.447 Y62.854
N2336 X62.307 Y63.099
N2337 X62.294 Y63.12
N2338 X62.054 Y63.444
N2339 X61.763 Y63.722
N2340 X61.428 Y63.948
N2341 X61.061 Y64.114
N2342 X60.67 Y64.215
N2343 X60.268 Y64.25
N2344 X57.741
N2345 G3 X56.825 Y63.381 I0.033 J-0.952
N2346 G1 X53.173 Y21.634
N2347 G3 X54.089 Y20.599 I0.949 J-0.083
N2348 G1 X56.574
N2349 X56.863 Y20.613
N2350 X57.013 Y20.628
N2351 X57.161 Y20.649
N2352 X57.309 Y20.676
N2353 X57.46 Y20.71
N2354 X57.617 Y20.751
N2355 X57.782 Y20.801
N2356 X57.958 Y20.862
N2357 X58.136 Y20.93
N2358 X58.33 Y21.013
N2359 X58.523 Y21.104
N2360 X58.734 Y21.213
N2361 X58.946 Y21.333
N2362 X59.172 Y21.472
N2363 X59.402 Y21.626
N2364 X59.646 Y21.801
N2365 X59.895 Y21.995
N2366 X60.156 Y22.214
N2367 X60.425 Y22.457
N2368 X60.705 Y22.73
N2369 X60.99 Y23.028
N2370 X61.293 Y23.368
N2371 X61.594 Y23.734
N2372 X61.921 Y24.162
N2373 X62.235 Y24.606
N2374 X62.575 Y25.127
N2375 X62.914 Y25.689
N2376 X63.262 Y26.318
N2377 X63.629 Y27.043
N2378 X63.982 Y27.809
N2379 X64.345 Y28.68
N2380 X64.715 Y29.668
N2381 X65.069 Y30.729
N2382 X65.385 Y31.802
N2383 X65.669 Y32.883
N2384 X65.923 Y33.973
N2385 X66.15 Y35.067
N2386 X66.352 Y36.167
N2387 X66.531 Y37.271
N2388 X66.689 Y38.378
N2389 X66.828 Y39.488
N2390 X66.947 Y40.599
N2391 X67.049 Y41.713
N2392 X67.133 Y42.828
N2393 X67.2 Y43.944
N2394 X67.252 Y45.061
N2395 X67.286 Y46.179
N2396 X67.305 Y47.297
N2397 X67.307 Y48.415
N2398 X67.292 Y49.533
N2399 X67.26 Y50.651
N2400 X67.209 Y51.768
N2401 X67.138 Y52.884
N2402 X67.046 Y53.999
N2403 X66.931 Y55.111
N2404 X66.792 Y56.22
N2405 X66.623 Y57.326
N2406 X66.422 Y58.426
N2407 X66.212 Y59.377
N2408 X66.006 Y60.171
N2409 X65.803 Y60.848
N2410 X65.612 Y61.413
N2411 X65.451 Y61.834
N2412 X65.288 Y62.219
N2413 X65.151 Y62.512
N2414 X64.998 Y62.811
N2415 X64.856 Y63.064
N2416 X64.829 Y63.108
N2417 X64.589 Y63.435
N2418 X64.297 Y63.717
N2419 X63.962 Y63.945
N2420 X63.592 Y64.112
N2421 X63.2 Y64.215
N2422 X62.796 Y64.25
N2423 X60.268
N2424 G3 X59.353 Y63.382 I0.033 J-0.952
N2425 G1 X55.658 Y21.635
N2426 G3 X56.574 Y20.599 I0.949 J-0.084
N2427 G1 X59.145
N2428 X59.285 Y20.606
N2429 X59.434 Y20.616
N2430 X59.583 Y20.633
N2431 X59.732 Y20.657
N2432 X59.879 Y20.686
N2433 X60.033 Y20.723
N2434 X60.192 Y20.767
N2435 X60.364 Y20.822
N2436 X60.537 Y20.884
N2437 X60.726 Y20.96
N2438 X60.915 Y21.044
N2439 X61.118 Y21.144
N2440 X61.329 Y21.256
N2441 X61.547 Y21.384
N2442 X61.776 Y21.529
N2443 X62.011 Y21.69
N2444 X62.26 Y21.875
N2445 X62.511 Y22.077
N2446 X62.779 Y22.308
N2447 X63.049 Y22.558
N2448 X63.334 Y22.844
N2449 X63.625 Y23.157
N2450 X63.929 Y23.509
N2451 X64.242 Y23.9
N2452 X64.558 Y24.327
N2453 X64.898 Y24.822
N2454 X65.223 Y25.336
N2455 X65.577 Y25.942
N2456 X65.929 Y26.6
N2457 X66.284 Y27.327
N2458 X66.652 Y28.156
N2459 X67.025 Y29.087
N2460 X67.398 Y30.127
N2461 X67.736 Y31.193
N2462 X68.039 Y32.269
N2463 X68.311 Y33.354
N2464 X68.554 Y34.445
N2465 X68.771 Y35.542
N2466 X68.963 Y36.644
N2467 X69.134 Y37.749
N2468 X69.284 Y38.857
N2469 X69.414 Y39.968
N2470 X69.526 Y41.08
N2471 X69.62 Y42.195
N2472 X69.698 Y43.31
N2473 X69.758 Y44.427
N2474 X69.802 Y45.544
N2475 X69.83 Y46.662
N2476 X69.841 Y47.78
N2477 X69.835 Y48.898
N2478 X69.812 Y50.016
N2479 X69.771 Y51.134
N2480 X69.711 Y52.25
N2481 X69.631 Y53.366
N2482 X69.529 Y54.479
N2483 X69.404 Y55.59
N2484 X69.253 Y56.698
N2485 X69.07 Y57.802
N2486 X68.857 Y58.874
N2487 X68.651 Y59.739
N2488 X68.446 Y60.479
N2489 X68.245 Y61.115
N2490 X68.073 Y61.596
N2491 X67.902 Y62.022
N2492 X67.756 Y62.351
N2493 X67.613 Y62.645
N2494 X67.461 Y62.93
N2495 X67.381 Y63.067
N2496 X67.143 Y63.405
N2497 X66.85 Y63.696
N2498 X66.51 Y63.933
N2499 X66.135 Y64.107
N2500 X65.735 Y64.214
N2501 X65.323 Y64.25
N2502 X62.796
N2503 G3 X61.88 Y63.381 I0.033 J-0.952
N2504 G1 X58.23 Y21.634
N2505 G3 X59.145 Y20.599 I0.949 J-0.083
N2506 G1 X61.588
N2507 X61.877 Y20.612
N2508 X62.027 Y20.626
N2509 X62.175 Y20.647
N2510 X62.323 Y20.673
N2511 X62.47 Y20.705
N2512 X62.63 Y20.747
N2513 X62.791 Y20.794
N2514 X62.966 Y20.853
N2515 X63.145 Y20.921
N2516 X63.334 Y21.001
N2517 X63.533 Y21.094
N2518 X63.737 Y21.198
N2519 X63.955 Y21.32
N2520 X64.174 Y21.453
N2521 X64.412 Y21.61
N2522 X64.648 Y21.778
N2523 X64.905 Y21.976
N2524 X65.157 Y22.185
N2525 X65.434 Y22.433
N2526 X65.704 Y22.693
N2527 X66 Y23
N2528 X66.289 Y23.323
N2529 X66.602 Y23.698
N2530 X66.913 Y24.101
N2531 X67.24 Y24.559
N2532 X67.578 Y25.071
N2533 X67.916 Y25.625
N2534 X68.281 Y26.277
N2535 X68.629 Y26.956
N2536 X68.991 Y27.732
N2537 X69.363 Y28.611
N2538 X69.738 Y29.596
N2539 X70.096 Y30.655
N2540 X70.418 Y31.726
N2541 X70.706 Y32.806
N2542 X70.964 Y33.894
N2543 X71.194 Y34.988
N2544 X71.4 Y36.088
N2545 X71.582 Y37.191
N2546 X71.743 Y38.297
N2547 X71.884 Y39.407
N2548 X72.005 Y40.518
N2549 X72.108 Y41.632
N2550 X72.194 Y42.747
N2551 X72.263 Y43.863
N2552 X72.315 Y44.98
N2553 X72.351 Y46.097
N2554 X72.37 Y47.215
N2555 X72.373 Y48.334
N2556 X72.358 Y49.452
N2557 X72.325 Y50.57
N2558 X72.275 Y51.687
N2559 X72.204 Y52.803
N2560 X72.114 Y53.917
N2561 X72 Y55.03
N2562 X71.862 Y56.139
N2563 X71.696 Y57.245
N2564 X71.496 Y58.345
N2565 X71.287 Y59.307
N2566 X71.077 Y60.125
N2567 X70.878 Y60.796
N2568 X70.686 Y61.364
N2569 X70.516 Y61.814
N2570 X70.358 Y62.189
N2571 X70.219 Y62.489
N2572 X70.063 Y62.794
N2573 X69.925 Y63.043
N2574 X69.888 Y63.103
N2575 X69.648 Y63.432
N2576 X69.356 Y63.714
N2577 X69.02 Y63.943
N2578 X68.65 Y64.112
N2579 X68.257 Y64.215
N2580 X67.852 Y64.25
N2581 X65.323
N2582 G3 X64.408 Y63.383 I0.033 J-0.952
N2583 G1 X60.673 Y21.636
N2584 G3 X61.588 Y20.599 I0.949 J-0.085
N2585 G1 X64.159
N2586 X64.299 Y20.606
N2587 X64.449 Y20.615
N2588 X64.598 Y20.631
N2589 X64.746 Y20.654
N2590 X64.893 Y20.683
N2591 X65.046 Y20.718
N2592 X65.205 Y20.762
N2593 X65.376 Y20.815
N2594 X65.548 Y20.876
N2595 X65.736 Y20.95
N2596 X65.924 Y21.032
N2597 X66.128 Y21.13
N2598 X66.335 Y21.24
N2599 X66.554 Y21.366
N2600 X66.78 Y21.508
N2601 X67.015 Y21.668
N2602 X67.262 Y21.849
N2603 X67.515 Y22.049
N2604 X67.78 Y22.275
N2605 X68.051 Y22.524
N2606 X68.337 Y22.808
N2607 X68.628 Y23.118
N2608 X68.929 Y23.463
N2609 X69.244 Y23.851
N2610 X69.559 Y24.271
N2611 X69.9 Y24.763
N2612 X70.227 Y25.272
N2613 X70.582 Y25.874
N2614 X70.936 Y26.527
N2615 X71.293 Y27.248
N2616 X71.663 Y28.07
N2617 X72.038 Y28.991
N2618 X72.413 Y30.02
N2619 X72.758 Y31.083
N2620 X73.066 Y32.158
N2621 X73.343 Y33.242
N2622 X73.59 Y34.332
N2623 X73.81 Y35.429
N2624 X74.007 Y36.529
N2625 X74.181 Y37.634
N2626 X74.334 Y38.742
N2627 X74.467 Y39.852
N2628 X74.581 Y40.964
N2629 X74.677 Y42.078
N2630 X74.757 Y43.194
N2631 X74.819 Y44.31
N2632 X74.864 Y45.428
N2633 X74.893 Y46.545
N2634 X74.905 Y47.664
N2635 X74.9 Y48.782
N2636 X74.878 Y49.9
N2637 X74.838 Y51.017
N2638 X74.78 Y52.134
N2639 X74.701 Y53.249
N2640 X74.602 Y54.363
N2641 X74.479 Y55.475
N2642 X74.33 Y56.583
N2643 X74.15 Y57.687
N2644 X73.938 Y58.773
N2645 X73.73 Y59.657
N2646 X73.524 Y60.412
N2647 X73.323 Y61.055
N2648 X73.146 Y61.554
N2649 X72.976 Y61.984
N2650 X72.827 Y62.322
N2651 X72.685 Y62.616
N2652 X72.532 Y62.905
N2653 X72.442 Y63.06
N2654 X72.204 Y63.4
N2655 X71.911 Y63.693
N2656 X71.571 Y63.931
N2657 X71.195 Y64.106
N2658 X70.794 Y64.213
N2659 X70.381 Y64.25
N2660 X67.852
N2661 G3 X66.936 Y63.382 I0.033 J-0.952
N2662 G1 X63.244 Y21.635
N2663 G3 X64.159 Y20.599 I0.949 J-0.084
N2664 G1 X66.731
N2665 X66.87 Y20.606
N2666 X67.02 Y20.618
N2667 X67.168 Y20.636
N2668 X67.316 Y20.661
N2669 X67.463 Y20.692
N2670 X67.622 Y20.731
N2671 X67.782 Y20.777
N2672 X67.955 Y20.833
N2673 X68.132 Y20.899
N2674 X68.319 Y20.975
N2675 X68.517 Y21.065
N2676 X68.719 Y21.165
N2677 X68.935 Y21.284
N2678 X69.152 Y21.412
N2679 X69.389 Y21.565
N2680 X69.623 Y21.729
N2681 X69.878 Y21.921
N2682 X70.129 Y22.125
N2683 X70.404 Y22.366
N2684 X70.673 Y22.621
N2685 X70.969 Y22.921
N2686 X71.256 Y23.235
N2687 X71.569 Y23.603
N2688 X71.877 Y23.995
N2689 X72.206 Y24.445
N2690 X72.541 Y24.941
N2691 X72.88 Y25.486
N2692 X73.246 Y26.125
N2693 X73.592 Y26.783
N2694 X73.957 Y27.546
N2695 X74.332 Y28.407
N2696 X74.707 Y29.367
N2697 X75.077 Y30.422
N2698 X75.408 Y31.49
N2699 X75.704 Y32.569
N2700 X75.969 Y33.655
N2701 X76.207 Y34.748
N2702 X76.418 Y35.846
N2703 X76.606 Y36.948
N2704 X76.772 Y38.054
N2705 X76.918 Y39.162
N2706 X77.044 Y40.273
N2707 X77.152 Y41.386
N2708 X77.242 Y42.501
N2709 X77.314 Y43.617
N2710 X77.37 Y44.734
N2711 X77.409 Y45.851
N2712 X77.431 Y46.969
N2713 X77.437 Y48.087
N2714 X77.426 Y49.206
N2715 X77.397 Y50.323
N2716 X77.349 Y51.441
N2717 X77.283 Y52.557
N2718 X77.197 Y53.672
N2719 X77.088 Y54.785
N2720 X76.956 Y55.895
N2721 X76.796 Y57.002
N2722 X76.604 Y58.103
N2723 X76.389 Y59.123
N2724 X76.182 Y59.958
N2725 X75.979 Y60.66
N2726 X75.781 Y61.262
N2727 X75.613 Y61.718
N2728 X75.446 Y62.121
N2729 X75.307 Y62.426
N2730 X75.152 Y62.737
N2731 X75.01 Y62.995
N2732 X74.954 Y63.088
N2733 X74.715 Y63.421
N2734 X74.422 Y63.707
N2735 X74.085 Y63.939
N2736 X73.713 Y64.11
N2737 X73.317 Y64.214
N2738 X72.909 Y64.25
N2739 X70.381
N2740 G3 X69.465 Y63.381 I0.033 J-0.952
N2741 G1 X65.815 Y21.634
N2742 G3 X66.731 Y20.599 I0.949 J-0.083
N2743 G1 X69.231
N2744 X69.371 Y20.606
N2745 X69.52 Y20.617
N2746 X69.669 Y20.634
N2747 X69.817 Y20.658
N2748 X69.966 Y20.688
N2749 X70.117 Y20.725
N2750 X70.283 Y20.771
N2751 X70.449 Y20.824
N2752 X70.629 Y20.889
N2753 X70.813 Y20.964
N2754 X71.008 Y21.051
N2755 X71.212 Y21.151
N2756 X71.421 Y21.263
N2757 X71.645 Y21.395
N2758 X71.87 Y21.538
N2759 X72.114 Y21.706
N2760 X72.356 Y21.886
N2761 X72.619 Y22.098
N2762 X72.878 Y22.322
N2763 X73.163 Y22.588
N2764 X73.441 Y22.867
N2765 X73.742 Y23.193
N2766 X74.041 Y23.54
N2767 X74.359 Y23.939
N2768 X74.681 Y24.376
N2769 X75.013 Y24.861
N2770 X75.366 Y25.42
N2771 X75.706 Y26.005
N2772 X76.072 Y26.694
N2773 X76.439 Y27.446
N2774 X76.8 Y28.264
N2775 X77.172 Y29.198
N2776 X77.547 Y30.251
N2777 X77.884 Y31.318
N2778 X78.186 Y32.394
N2779 X78.456 Y33.479
N2780 X78.699 Y34.571
N2781 X78.915 Y35.668
N2782 X79.107 Y36.77
N2783 X79.277 Y37.875
N2784 X79.427 Y38.983
N2785 X79.556 Y40.094
N2786 X79.667 Y41.207
N2787 X79.76 Y42.321
N2788 X79.836 Y43.437
N2789 X79.895 Y44.553
N2790 X79.937 Y45.671
N2791 X79.962 Y46.789
N2792 X79.97 Y47.907
N2793 X79.962 Y49.025
N2794 X79.936 Y50.143
N2795 X79.891 Y51.26
N2796 X79.828 Y52.377
N2797 X79.744 Y53.492
N2798 X79.639 Y54.605
N2799 X79.51 Y55.716
N2800 X79.354 Y56.823
N2801 X79.166 Y57.925
N2802 X78.961 Y58.937
N2803 X78.748 Y59.817
N2804 X78.546 Y60.535
N2805 X78.346 Y61.161
N2806 X78.176 Y61.629
N2807 X78.003 Y62.056
N2808 X77.862 Y62.373
N2809 X77.712 Y62.677
N2810 X77.563 Y62.952
N2811 X77.492 Y63.074
N2812 X77.253 Y63.41
N2813 X76.96 Y63.7
N2814 X76.621 Y63.935
N2815 X76.247 Y64.108
N2816 X75.849 Y64.214
N2817 X75.438 Y64.25
N2818 X72.909
N2819 G3 X71.994 Y63.381 I0.033 J-0.952
N2820 G1 X68.316 Y21.634
N2821 G3 X69.231 Y20.599 I0.949 J-0.084
N2822 G1 X71.716
N2823 X71.856 Y20.606
N2824 X72.005 Y20.615
N2825 X72.154 Y20.631
N2826 X72.303 Y20.653
N2827 X72.45 Y20.681
N2828 X72.6 Y20.716
N2829 X72.764 Y20.76
N2830 X72.928 Y20.811
N2831 X73.106 Y20.873
N2832 X73.288 Y20.944
N2833 X73.481 Y21.028
N2834 X73.682 Y21.124
N2835 X73.89 Y21.234
N2836 X74.111 Y21.36
N2837 X74.334 Y21.499
N2838 X74.575 Y21.662
N2839 X74.815 Y21.837
N2840 X75.077 Y22.043
N2841 X75.334 Y22.262
N2842 X75.614 Y22.518
N2843 X75.89 Y22.79
N2844 X76.19 Y23.108
N2845 X76.487 Y23.446
N2846 X76.804 Y23.836
N2847 X77.125 Y24.261
N2848 X77.453 Y24.732
N2849 X77.803 Y25.274
N2850 X78.139 Y25.841
N2851 X78.505 Y26.51
N2852 X78.867 Y27.236
N2853 X79.228 Y28.032
N2854 X79.6 Y28.941
N2855 X79.977 Y29.965
N2856 X80.324 Y31.028
N2857 X80.635 Y32.102
N2858 X80.914 Y33.185
N2859 X81.164 Y34.275
N2860 X81.388 Y35.371
N2861 X81.587 Y36.471
N2862 X81.764 Y37.575
N2863 X81.919 Y38.682
N2864 X82.055 Y39.792
N2865 X82.171 Y40.905
N2866 X82.27 Y42.018
N2867 X82.35 Y43.134
N2868 X82.414 Y44.25
N2869 X82.46 Y45.367
N2870 X82.49 Y46.485
N2871 X82.503 Y47.603
N2872 X82.498 Y48.722
N2873 X82.477 Y49.84
N2874 X82.437 Y50.957
N2875 X82.379 Y52.074
N2876 X82.3 Y53.189
N2877 X82.201 Y54.303
N2878 X82.078 Y55.414
N2879 X81.929 Y56.523
N2880 X81.75 Y57.627
N2881 X81.541 Y58.704
N2882 X81.331 Y59.611
N2883 X81.126 Y60.366
N2884 X80.923 Y61.019
N2885 X80.746 Y61.52
N2886 X80.572 Y61.964
N2887 X80.425 Y62.299
N2888 X80.28 Y62.601
N2889 X80.127 Y62.89
N2890 X79.988 Y63.131
N2891 X79.748 Y63.452
N2892 X79.457 Y63.728
N2893 X79.124 Y63.951
N2894 X78.758 Y64.115
N2895 X78.369 Y64.216
N2896 X77.97 Y64.25
N2897 X75.438
N2898 G3 X74.523 Y63.382 I0.033 J-0.952
N2899 G1 X70.8 Y21.635
N2900 G3 X71.716 Y20.599 I0.949 J-0.085
N2901 G1 X74.287
N2902 X74.427 Y20.606
N2903 X74.576 Y20.617
N2904 X74.725 Y20.635
N2905 X74.873 Y20.659
N2906 X75.02 Y20.689
N2907 X75.179 Y20.728
N2908 X75.338 Y20.773
N2909 X75.511 Y20.829
N2910 X75.688 Y20.893
N2911 X75.875 Y20.969
N2912 X76.072 Y21.058
N2913 X76.273 Y21.157
N2914 X76.49 Y21.275
N2915 X76.707 Y21.402
N2916 X76.943 Y21.553
N2917 X77.176 Y21.715
N2918 X77.432 Y21.906
N2919 X77.683 Y22.11
N2920 X77.958 Y22.349
N2921 X78.227 Y22.601
N2922 X78.523 Y22.899
N2923 X78.81 Y23.212
N2924 X79.125 Y23.579
N2925 X79.433 Y23.968
N2926 X79.761 Y24.414
N2927 X80.096 Y24.906
N2928 X80.434 Y25.446
N2929 X80.8 Y26.078
N2930 X81.145 Y26.731
N2931 X81.511 Y27.488
N2932 X81.886 Y28.342
N2933 X82.264 Y29.296
N2934 X82.637 Y30.35
N2935 X82.971 Y31.418
N2936 X83.271 Y32.495
N2937 X83.54 Y33.58
N2938 X83.78 Y34.672
N2939 X83.995 Y35.77
N2940 X84.186 Y36.872
N2941 X84.354 Y37.977
N2942 X84.502 Y39.085
N2943 X84.631 Y40.196
N2944 X84.741 Y41.309
N2945 X84.833 Y42.423
N2946 X84.907 Y43.539
N2947 X84.964 Y44.656
N2948 X85.004 Y45.773
N2949 X85.028 Y46.891
N2950 X85.034 Y48.01
N2951 X85.023 Y49.128
N2952 X84.995 Y50.246
N2953 X84.949 Y51.363
N2954 X84.883 Y52.479
N2955 X84.797 Y53.594
N2956 X84.689 Y54.707
N2957 X84.558 Y55.817
N2958 X84.399 Y56.924
N2959 X84.209 Y58.026
N2960 X83.993 Y59.062
N2961 X83.785 Y59.904
N2962 X83.581 Y60.617
N2963 X83.379 Y61.237
N2964 X83.212 Y61.69
N2965 X83.043 Y62.103
N2966 X82.9 Y62.418
N2967 X82.754 Y62.711
N2968 X82.604 Y62.986
N2969 X82.546 Y63.084
N2970 X82.307 Y63.418
N2971 X82.014 Y63.705
N2972 X81.676 Y63.938
N2973 X81.304 Y64.109
N2974 X80.907 Y64.214
N2975 X80.498 Y64.25
N2976 X77.97
N2977 G3 X77.054 Y63.381 I0.033 J-0.952
N2978 G1 X73.372 Y21.634
N2979 G3 X74.287 Y20.599 I0.949 J-0.084
N2980 G1 X76.73
N2981 X77.019 Y20.613
N2982 X77.169 Y20.627
N2983 X77.317 Y20.648
N2984 X77.465 Y20.675
N2985 X77.612 Y20.707
N2986 X77.772 Y20.748
N2987 X77.936 Y20.798
N2988 X78.109 Y20.856
N2989 X78.294 Y20.927
N2990 X78.481 Y21.006
N2991 X78.684 Y21.101
N2992 X78.887 Y21.205
N2993 X79.108 Y21.328
N2994 X79.328 Y21.462
N2995 X79.565 Y21.62
N2996 X79.805 Y21.791
N2997 X80.061 Y21.989
N2998 X80.318 Y22.203
N2999 X80.594 Y22.45
N3000 X80.872 Y22.719
N3001 X81.169 Y23.027
N3002 X81.461 Y23.355
N3003 X81.781 Y23.74
N3004 X82.09 Y24.141
N3005 X82.427 Y24.615
N3006 X82.76 Y25.12
N3007 X83.109 Y25.694
N3008 X83.474 Y26.349
N3009 X83.826 Y27.038
N3010 X84.195 Y27.833
N3011 X84.572 Y28.727
N3012 X84.949 Y29.723
N3013 X85.306 Y30.783
N3014 X85.627 Y31.854
N3015 X85.914 Y32.935
N3016 X86.171 Y34.023
N3017 X86.401 Y35.117
N3018 X86.606 Y36.217
N3019 X86.788 Y37.32
N3020 X86.949 Y38.427
N3021 X87.089 Y39.536
N3022 X87.21 Y40.648
N3023 X87.312 Y41.761
N3024 X87.396 Y42.876
N3025 X87.464 Y43.992
N3026 X87.514 Y45.109
N3027 X87.547 Y46.227
N3028 X87.563 Y47.345
N3029 Y48.463
N3030 X87.545 Y49.582
N3031 X87.509 Y50.699
N3032 X87.455 Y51.816
N3033 X87.381 Y52.932
N3034 X87.287 Y54.046
N3035 X87.17 Y55.158
N3036 X87.027 Y56.267
N3037 X86.856 Y57.372
N3038 X86.651 Y58.472
N3039 X86.439 Y59.42
N3040 X86.228 Y60.221
N3041 X86.028 Y60.881
N3042 X85.84 Y61.431
N3043 X85.67 Y61.872
N3044 X85.514 Y62.236
N3045 X85.374 Y62.533
N3046 X85.219 Y62.833
N3047 X85.081 Y63.078
N3048 X85.058 Y63.115
N3049 X84.818 Y63.44
N3050 X84.526 Y63.72
N3051 X84.191 Y63.947
N3052 X83.823 Y64.113
N3053 X83.432 Y64.215
N3054 X83.029 Y64.25
N3055 X80.498
N3056 G3 X79.583 Y63.383 I0.033 J-0.952
N3057 G1 X75.815 Y21.636
N3058 G3 X76.73 Y20.599 I0.949 J-0.086
N3059 G1 X79.301
N3060 X79.441 Y20.606
N3061 X79.591 Y20.615
N3062 X79.74 Y20.632
N3063 X79.888 Y20.654
N3064 X80.035 Y20.683
N3065 X80.19 Y20.719
N3066 X80.348 Y20.762
N3067 X80.52 Y20.816
N3068 X80.693 Y20.876
N3069 X80.88 Y20.95
N3070 X81.072 Y21.034
N3071 X81.274 Y21.132
N3072 X81.484 Y21.243
N3073 X81.702 Y21.368
N3074 X81.933 Y21.513
N3075 X82.167 Y21.672
N3076 X82.418 Y21.856
N3077 X82.668 Y22.054
N3078 X82.939 Y22.285
N3079 X83.208 Y22.533
N3080 X83.499 Y22.821
N3081 X83.789 Y23.129
N3082 X84.095 Y23.48
N3083 X84.407 Y23.866
N3084 X84.729 Y24.295
N3085 X85.069 Y24.784
N3086 X85.402 Y25.304
N3087 X85.764 Y25.917
N3088 X86.115 Y26.564
N3089 X86.479 Y27.297
N3090 X86.853 Y28.129
N3091 X87.231 Y29.058
N3092 X87.608 Y30.09
N3093 X87.952 Y31.154
N3094 X88.261 Y32.228
N3095 X88.538 Y33.312
N3096 X88.785 Y34.402
N3097 X89.006 Y35.498
N3098 X89.203 Y36.599
N3099 X89.378 Y37.704
N3100 X89.531 Y38.811
N3101 X89.664 Y39.921
N3102 X89.778 Y41.034
N3103 X89.875 Y42.148
N3104 X89.953 Y43.263
N3105 X90.014 Y44.38
N3106 X90.058 Y45.497
N3107 X90.086 Y46.615
N3108 X90.096 Y47.733
N3109 X90.09 Y48.852
N3110 X90.066 Y49.969
N3111 X90.023 Y51.087
N3112 X89.963 Y52.203
N3113 X89.882 Y53.319
N3114 X89.78 Y54.432
N3115 X89.654 Y55.543
N3116 X89.503 Y56.651
N3117 X89.321 Y57.755
N3118 X89.106 Y58.83
N3119 X88.897 Y59.71
N3120 X88.69 Y60.46
N3121 X88.488 Y61.095
N3122 X88.312 Y61.588
N3123 X88.142 Y62.013
N3124 X87.994 Y62.347
N3125 X87.852 Y62.639
N3126 X87.698 Y62.926
N3127 X87.616 Y63.067
N3128 X87.378 Y63.405
N3129 X87.085 Y63.696
N3130 X86.745 Y63.933
N3131 X86.37 Y64.107
N3132 X85.971 Y64.214
N3133 X85.559 Y64.25
N3134 X83.029
N3135 G3 X82.113 Y63.382 I0.033 J-0.952
N3136 G1 X78.386 Y21.635
N3137 G3 X79.301 Y20.599 I0.949 J-0.085
N3138 G1 X81.872
N3139 X82.012 Y20.606
N3140 X82.162 Y20.617
N3141 X82.311 Y20.636
N3142 X82.458 Y20.66
N3143 X82.605 Y20.691
N3144 X82.764 Y20.729
N3145 X82.924 Y20.775
N3146 X83.096 Y20.831
N3147 X83.276 Y20.896
N3148 X83.462 Y20.972
N3149 X83.661 Y21.062
N3150 X83.861 Y21.162
N3151 X84.08 Y21.28
N3152 X84.296 Y21.408
N3153 X84.533 Y21.56
N3154 X84.768 Y21.723
N3155 X85.023 Y21.915
N3156 X85.275 Y22.12
N3157 X85.55 Y22.359
N3158 X85.823 Y22.616
N3159 X86.118 Y22.915
N3160 X86.407 Y23.23
N3161 X86.724 Y23.601
N3162 X87.031 Y23.989
N3163 X87.364 Y24.444
N3164 X87.696 Y24.934
N3165 X88.042 Y25.486
N3166 X88.407 Y26.12
N3167 X88.756 Y26.782
N3168 X89.125 Y27.549
N3169 X89.502 Y28.411
N3170 X89.879 Y29.367
N3171 X90.25 Y30.422
N3172 X90.583 Y31.489
N3173 X90.881 Y32.567
N3174 X91.149 Y33.653
N3175 X91.388 Y34.745
N3176 X91.601 Y35.843
N3177 X91.791 Y36.945
N3178 X91.959 Y38.05
N3179 X92.106 Y39.159
N3180 X92.233 Y40.27
N3181 X92.342 Y41.383
N3182 X92.432 Y42.497
N3183 X92.505 Y43.613
N3184 X92.561 Y44.73
N3185 X92.6 Y45.847
N3186 X92.622 Y46.965
N3187 X92.627 Y48.083
N3188 X92.615 Y49.202
N3189 X92.585 Y50.319
N3190 X92.537 Y51.437
N3191 X92.471 Y52.553
N3192 X92.383 Y53.668
N3193 X92.274 Y54.781
N3194 X92.141 Y55.891
N3195 X91.981 Y56.997
N3196 X91.788 Y58.099
N3197 X91.571 Y59.126
N3198 X91.363 Y59.958
N3199 X91.159 Y60.664
N3200 X90.96 Y61.267
N3201 X90.792 Y61.72
N3202 X90.624 Y62.125
N3203 X90.485 Y62.43
N3204 X90.329 Y62.74
N3205 X90.187 Y63
N3206 X90.133 Y63.09
N3207 X89.894 Y63.422
N3208 X89.601 Y63.708
N3209 X89.264 Y63.94
N3210 X88.892 Y64.11
N3211 X88.496 Y64.214
N3212 X88.089 Y64.25
N3213 X85.559
N3214 G3 X84.643 Y63.381 I0.033 J-0.952
N3215 G1 X80.957 Y21.634
N3216 G3 X81.872 Y20.599 I0.949 J-0.084
N3217 G1 X84.373
N3218 X84.513 Y20.606
N3219 X84.662 Y20.616
N3220 X84.811 Y20.633
N3221 X84.959 Y20.657
N3222 X85.108 Y20.686
N3223 X85.259 Y20.722
N3224 X85.424 Y20.767
N3225 X85.59 Y20.82
N3226 X85.769 Y20.884
N3227 X85.954 Y20.958
N3228 X86.148 Y21.044
N3229 X86.352 Y21.143
N3230 X86.561 Y21.254
N3231 X86.786 Y21.385
N3232 X87.01 Y21.527
N3233 X87.255 Y21.694
N3234 X87.496 Y21.873
N3235 X87.76 Y22.084
N3236 X88.019 Y22.306
N3237 X88.304 Y22.571
N3238 X88.583 Y22.848
N3239 X88.886 Y23.174
N3240 X89.183 Y23.518
N3241 X89.504 Y23.916
N3242 X89.826 Y24.349
N3243 X90.16 Y24.835
N3244 X90.512 Y25.388
N3245 X90.855 Y25.974
N3246 X91.224 Y26.661
N3247 X91.588 Y27.404
N3248 X91.952 Y28.22
N3249 X92.326 Y29.149
N3250 X92.704 Y30.197
N3251 X93.044 Y31.263
N3252 X93.349 Y32.338
N3253 X93.623 Y33.422
N3254 X93.869 Y34.513
N3255 X94.088 Y35.61
N3256 X94.283 Y36.711
N3257 X94.455 Y37.816
N3258 X94.607 Y38.924
N3259 X94.739 Y40.034
N3260 X94.851 Y41.147
N3261 X94.946 Y42.261
N3262 X95.023 Y43.376
N3263 X95.083 Y44.493
N3264 X95.125 Y45.61
N3265 X95.151 Y46.728
N3266 X95.16 Y47.847
N3267 X95.151 Y48.965
N3268 X95.126 Y50.083
N3269 X95.081 Y51.2
N3270 X95.019 Y52.316
N3271 X94.936 Y53.432
N3272 X94.831 Y54.545
N3273 X94.702 Y55.656
N3274 X94.547 Y56.763
N3275 X94.361 Y57.866
N3276 X94.152 Y58.897
N3277 X93.939 Y59.782
N3278 X93.737 Y60.505
N3279 X93.535 Y61.138
N3280 X93.364 Y61.612
N3281 X93.19 Y62.042
N3282 X93.047 Y62.363
N3283 X92.899 Y62.665
N3284 X92.749 Y62.944
N3285 X92.674 Y63.072
N3286 X92.435 Y63.409
N3287 X92.142 Y63.699
N3288 X91.803 Y63.934
N3289 X91.429 Y64.108
N3290 X91.03 Y64.214
N3291 X90.619 Y64.25
N3292 X88.089
N3293 G3 X87.173 Y63.382 I0.033 J-0.952
N3294 G1 X83.458 Y21.635
N3295 G3 X84.373 Y20.599 I0.949 J-0.084
N3296 G1 X86.858
N3297 X87.147 Y20.614
N3298 X87.297 Y20.629
N3299 X87.445 Y20.651
N3300 X87.592 Y20.678
N3301 X87.742 Y20.712
N3302 X87.905 Y20.755
N3303 X88.069 Y20.805
N3304 X88.247 Y20.866
N3305 X88.427 Y20.936
N3306 X88.62 Y21.019
N3307 X88.82 Y21.114
N3308 X89.028 Y21.222
N3309 X89.248 Y21.346
N3310 X89.472 Y21.484
N3311 X89.712 Y21.645
N3312 X89.952 Y21.818
N3313 X90.213 Y22.022
N3314 X90.47 Y22.239
N3315 X90.75 Y22.493
N3316 X91.026 Y22.762
N3317 X91.327 Y23.077
N3318 X91.623 Y23.413
N3319 X91.94 Y23.798
N3320 X92.261 Y24.22
N3321 X92.59 Y24.686
N3322 X92.94 Y25.224
N3323 X93.277 Y25.786
N3324 X93.643 Y26.45
N3325 X94.006 Y27.169
N3326 X94.369 Y27.959
N3327 X94.743 Y28.86
N3328 X95.121 Y29.875
N3329 X95.473 Y30.936
N3330 X95.789 Y32.009
N3331 X96.072 Y33.091
N3332 X96.326 Y34.18
N3333 X96.554 Y35.274
N3334 X96.756 Y36.374
N3335 X96.936 Y37.478
N3336 X97.094 Y38.585
N3337 X97.232 Y39.694
N3338 X97.351 Y40.806
N3339 X97.451 Y41.92
N3340 X97.534 Y43.035
N3341 X97.599 Y44.152
N3342 X97.647 Y45.269
N3343 X97.677 Y46.387
N3344 X97.691 Y47.505
N3345 X97.688 Y48.623
N3346 X97.667 Y49.741
N3347 X97.629 Y50.858
N3348 X97.571 Y51.975
N3349 X97.494 Y53.091
N3350 X97.396 Y54.205
N3351 X97.274 Y55.316
N3352 X97.127 Y56.425
N3353 X96.951 Y57.529
N3354 X96.741 Y58.627
N3355 X96.531 Y59.539
N3356 X96.324 Y60.311
N3357 X96.12 Y60.973
N3358 X95.941 Y61.487
N3359 X95.766 Y61.934
N3360 X95.617 Y62.277
N3361 X95.473 Y62.578
N3362 X95.319 Y62.871
N3363 X95.184 Y63.107
N3364 X95.173 Y63.126
N3365 X94.932 Y63.448
N3366 X94.641 Y63.725
N3367 X94.307 Y63.95
N3368 X93.94 Y64.115
N3369 X93.551 Y64.216
N3370 X93.15 Y64.25
N3371 X90.619
N3372 G3 X89.704 Y63.383 I0.033 J-0.952
N3373 G1 X85.942 Y21.636
N3374 G3 X86.858 Y20.599 I0.949 J-0.085
N3375 G1 X89.429
N3376 X89.569 Y20.606
N3377 X89.718 Y20.616
N3378 X89.867 Y20.633
N3379 X90.016 Y20.656
N3380 X90.163 Y20.686
N3381 X90.32 Y20.723
N3382 X90.478 Y20.767
N3383 X90.651 Y20.821
N3384 X90.826 Y20.884
N3385 X91.013 Y20.959
N3386 X91.208 Y21.045
N3387 X91.41 Y21.143
N3388 X91.625 Y21.258
N3389 X91.841 Y21.384
N3390 X92.076 Y21.532
N3391 X92.309 Y21.692
N3392 X92.564 Y21.881
N3393 X92.815 Y22.081
N3394 X93.089 Y22.317
N3395 X93.357 Y22.565
N3396 X93.652 Y22.859
N3397 X93.939 Y23.168
N3398 X94.252 Y23.53
N3399 X94.561 Y23.915
N3400 X94.888 Y24.354
N3401 X95.224 Y24.842
N3402 X95.562 Y25.374
N3403 X95.927 Y25.998
N3404 X96.274 Y26.644
N3405 X96.64 Y27.392
N3406 X97.017 Y28.236
N3407 X97.396 Y29.178
N3408 X97.773 Y30.224
N3409 X98.113 Y31.29
N3410 X98.418 Y32.365
N3411 X98.691 Y33.45
N3412 X98.936 Y34.541
N3413 X99.155 Y35.637
N3414 X99.349 Y36.739
N3415 X99.522 Y37.843
N3416 X99.673 Y38.951
N3417 X99.805 Y40.062
N3418 X99.917 Y41.174
N3419 X100.011 Y42.289
N3420 X100.088 Y43.404
N3421 X100.147 Y44.521
N3422 X100.189 Y45.638
N3423 X100.214 Y46.756
N3424 X100.223 Y47.874
N3425 X100.214 Y48.992
N3426 X100.187 Y50.11
N3427 X100.142 Y51.228
N3428 X100.079 Y52.344
N3429 X99.995 Y53.459
N3430 X99.889 Y54.572
N3431 X99.76 Y55.683
N3432 X99.605 Y56.79
N3433 X99.418 Y57.893
N3434 X99.201 Y58.953
N3435 X98.993 Y59.811
N3436 X98.787 Y60.543
N3437 X98.584 Y61.171
N3438 X98.413 Y61.643
N3439 X98.243 Y62.061
N3440 X98.097 Y62.386
N3441 X97.954 Y62.677
N3442 X97.802 Y62.959
N3443 X97.732 Y63.076
N3444 X97.494 Y63.412
N3445 X97.201 Y63.701
N3446 X96.862 Y63.936
N3447 X96.488 Y64.108
N3448 X96.09 Y64.214
N3449 X95.68 Y64.25
N3450 X93.15
N3451 G3 X92.235 Y63.382 I0.033 J-0.952
N3452 G1 X88.514 Y21.635
N3453 G3 X89.429 Y20.599 I0.949 J-0.085
N3454 G1 X91.943
N3455 X92.082 Y20.606
N3456 X92.232 Y20.615
N3457 X92.381 Y20.632
N3458 X92.529 Y20.654
N3459 X92.677 Y20.683
N3460 X92.829 Y20.718
N3461 X92.992 Y20.762
N3462 X93.157 Y20.814
N3463 X93.338 Y20.878
N3464 X93.519 Y20.949
N3465 X93.715 Y21.035
N3466 X93.915 Y21.131
N3467 X94.126 Y21.243
N3468 X94.346 Y21.369
N3469 X94.573 Y21.511
N3470 X94.813 Y21.674
N3471 X95.057 Y21.853
N3472 X95.316 Y22.058
N3473 X95.578 Y22.281
N3474 X95.858 Y22.539
N3475 X96.14 Y22.817
N3476 X96.436 Y23.133
N3477 X96.739 Y23.48
N3478 X97.052 Y23.866
N3479 X97.381 Y24.304
N3480 X97.708 Y24.775
N3481 X98.063 Y25.329
N3482 X98.403 Y25.903
N3483 X98.767 Y26.575
N3484 X99.141 Y27.329
N3485 X99.501 Y28.127
N3486 X99.874 Y29.042
N3487 X100.252 Y30.078
N3488 X100.597 Y31.142
N3489 X100.907 Y32.217
N3490 X101.184 Y33.3
N3491 X101.433 Y34.39
N3492 X101.656 Y35.486
N3493 X101.854 Y36.586
N3494 X102.03 Y37.691
N3495 X102.184 Y38.798
N3496 X102.318 Y39.908
N3497 X102.434 Y41.021
N3498 X102.53 Y42.135
N3499 X102.61 Y43.25
N3500 X102.671 Y44.367
N3501 X102.716 Y45.484
N3502 X102.744 Y46.602
N3503 X102.755 Y47.72
N3504 X102.748 Y48.838
N3505 X102.724 Y49.956
N3506 X102.682 Y51.073
N3507 X102.621 Y52.19
N3508 X102.54 Y53.305
N3509 X102.437 Y54.419
N3510 X102.311 Y55.53
N3511 X102.158 Y56.638
N3512 X101.976 Y57.741
N3513 X101.768 Y58.789
N3514 X101.554 Y59.695
N3515 X101.35 Y60.435
N3516 X101.147 Y61.076
N3517 X100.973 Y61.565
N3518 X100.798 Y62.003
N3519 X100.654 Y62.33
N3520 X100.506 Y62.635
N3521 X100.355 Y62.917
N3522 X100.27 Y63.064
N3523 X100.031 Y63.403
N3524 X99.738 Y63.695
N3525 X99.399 Y63.932
N3526 X99.023 Y64.107
N3527 X98.623 Y64.214
N3528 X98.211 Y64.25
N3529 X95.68
N3530 G3 X94.765 Y63.383 I0.033 J-0.952
N3531 G1 X91.027 Y21.636
N3532 G3 X91.943 Y20.599 I0.949 J-0.085
N3533 G1 X94.443
N3534 X94.733 Y20.614
N3535 X94.882 Y20.629
N3536 X95.03 Y20.65
N3537 X95.178 Y20.678
N3538 X95.329 Y20.712
N3539 X95.49 Y20.754
N3540 X95.655 Y20.804
N3541 X95.834 Y20.866
N3542 X96.013 Y20.935
N3543 X96.208 Y21.019
N3544 X96.405 Y21.112
N3545 X96.616 Y21.222
N3546 X96.833 Y21.345
N3547 X97.059 Y21.484
N3548 X97.296 Y21.642
N3549 X97.539 Y21.818
N3550 X97.797 Y22.02
N3551 X98.058 Y22.239
N3552 X98.334 Y22.489
N3553 X98.614 Y22.763
N3554 X98.91 Y23.073
N3555 X99.212 Y23.414
N3556 X99.525 Y23.795
N3557 X99.853 Y24.225
N3558 X100.176 Y24.684
N3559 X100.528 Y25.224
N3560 X100.866 Y25.787
N3561 X101.228 Y26.442
N3562 X101.6 Y27.181
N3563 X101.959 Y27.961
N3564 X102.332 Y28.858
N3565 X102.71 Y29.873
N3566 X103.062 Y30.935
N3567 X103.378 Y32.007
N3568 X103.662 Y33.089
N3569 X103.917 Y34.178
N3570 X104.144 Y35.273
N3571 X104.347 Y36.372
N3572 X104.528 Y37.476
N3573 X104.686 Y38.583
N3574 X104.825 Y39.692
N3575 X104.944 Y40.804
N3576 X105.044 Y41.918
N3577 X105.127 Y43.033
N3578 X105.192 Y44.149
N3579 X105.241 Y45.267
N3580 X105.272 Y46.384
N3581 X105.286 Y47.502
N3582 X105.283 Y48.621
N3583 X105.262 Y49.739
N3584 X105.224 Y50.856
N3585 X105.166 Y51.973
N3586 X105.089 Y53.088
N3587 X104.99 Y54.202
N3588 X104.868 Y55.314
N3589 X104.721 Y56.422
N3590 X104.544 Y57.527
N3591 X104.335 Y58.618
N3592 X104.123 Y59.542
N3593 X103.917 Y60.31
N3594 X103.712 Y60.972
N3595 X103.533 Y61.486
N3596 X103.357 Y61.935
N3597 X103.209 Y62.276
N3598 X103.064 Y62.58
N3599 X102.911 Y62.872
N3600 X102.776 Y63.107
N3601 X102.764 Y63.126
N3602 X102.524 Y63.448
N3603 X102.232 Y63.726
N3604 X101.899 Y63.95
N3605 X101.532 Y64.115
N3606 X101.143 Y64.216
N3607 X100.742 Y64.25
N3608 X98.211
N3609 G3 X97.295 Y63.383 I0.033 J-0.952
N3610 G1 X93.528 Y21.636
N3611 G3 X94.443 Y20.599 I0.949 J-0.086
N3612 G1 X97.014
N3613 X97.154 Y20.606
N3614 X97.304 Y20.616
N3615 X97.453 Y20.633
N3616 X97.601 Y20.656
N3617 X97.748 Y20.685
N3618 X97.905 Y20.722
N3619 X98.063 Y20.766
N3620 X98.236 Y20.821
N3621 X98.411 Y20.883
N3622 X98.598 Y20.958
N3623 X98.793 Y21.044
N3624 X98.994 Y21.142
N3625 X99.21 Y21.257
N3626 X99.426 Y21.382
N3627 X99.661 Y21.531
N3628 X99.893 Y21.69
N3629 X100.148 Y21.878
N3630 X100.399 Y22.079
N3631 X100.673 Y22.314
N3632 X100.942 Y22.562
N3633 X101.236 Y22.856
N3634 X101.523 Y23.164
N3635 X101.838 Y23.527
N3636 X102.147 Y23.912
N3637 X102.474 Y24.351
N3638 X102.809 Y24.838
N3639 X103.147 Y25.369
N3640 X103.513 Y25.993
N3641 X103.859 Y26.637
N3642 X104.226 Y27.384
N3643 X104.603 Y28.228
N3644 X104.982 Y29.17
N3645 X105.359 Y30.215
N3646 X105.7 Y31.28
N3647 X106.005 Y32.355
N3648 X106.279 Y33.44
N3649 X106.525 Y34.53
N3650 X106.744 Y35.627
N3651 X106.94 Y36.728
N3652 X107.112 Y37.833
N3653 X107.264 Y38.941
N3654 X107.396 Y40.051
N3655 X107.509 Y41.164
N3656 X107.604 Y42.278
N3657 X107.681 Y43.393
N3658 X107.741 Y44.51
N3659 X107.783 Y45.627
N3660 X107.809 Y46.745
N3661 X107.817 Y47.863
N3662 X107.809 Y48.982
N3663 X107.782 Y50.099
N3664 X107.738 Y51.217
N3665 X107.674 Y52.333
N3666 X107.59 Y53.448
N3667 X107.484 Y54.561
N3668 X107.355 Y55.672
N3669 X107.2 Y56.78
N3670 X107.013 Y57.882
N3671 X106.796 Y58.943
N3672 X106.587 Y59.804
N3673 X106.381 Y60.538
N3674 X106.178 Y61.166
N3675 X106.006 Y61.64
N3676 X105.836 Y62.059
N3677 X105.69 Y62.384
N3678 X105.547 Y62.675
N3679 X105.394 Y62.957
N3680 X105.325 Y63.076
N3681 X105.086 Y63.412
N3682 X104.793 Y63.701
N3683 X104.454 Y63.936
N3684 X104.081 Y64.108
N3685 X103.683 Y64.214
N3686 X103.272 Y64.25
N3687 X100.742
N3688 G3 X99.827 Y63.382 I0.033 J-0.952
N3689 G1 X96.099 Y21.635
N3690 G3 X97.014 Y20.599 I0.949 J-0.085
N3691 G1 X99.515
N3692 X99.655 Y20.606
N3693 X99.804 Y20.614
N3694 X99.954 Y20.63
N3695 X100.102 Y20.652
N3696 X100.249 Y20.68
N3697 X100.4 Y20.715
N3698 X100.563 Y20.758
N3699 X100.727 Y20.808
N3700 X100.907 Y20.871
N3701 X101.088 Y20.942
N3702 X101.282 Y21.026
N3703 X101.482 Y21.121
N3704 X101.691 Y21.23
N3705 X101.912 Y21.356
N3706 X102.137 Y21.496
N3707 X102.377 Y21.657
N3708 X102.619 Y21.833
N3709 X102.878 Y22.037
N3710 X103.138 Y22.256
N3711 X103.419 Y22.513
N3712 X103.697 Y22.786
N3713 X103.995 Y23.1
N3714 X104.295 Y23.441
N3715 X104.609 Y23.826
N3716 X104.933 Y24.254
N3717 X105.262 Y24.724
N3718 X105.617 Y25.271
N3719 X105.955 Y25.838
N3720 X106.321 Y26.507
N3721 X106.69 Y27.242
N3722 X107.051 Y28.036
N3723 X107.426 Y28.945
N3724 X107.805 Y29.97
N3725 X108.154 Y31.032
N3726 X108.467 Y32.106
N3727 X108.748 Y33.188
N3728 X109 Y34.277
N3729 X109.226 Y35.373
N3730 X109.427 Y36.473
N3731 X109.605 Y37.576
N3732 X109.762 Y38.684
N3733 X109.899 Y39.793
N3734 X110.016 Y40.905
N3735 X110.115 Y42.019
N3736 X110.197 Y43.135
N3737 X110.26 Y44.251
N3738 X110.307 Y45.368
N3739 X110.337 Y46.486
N3740 X110.349 Y47.604
N3741 X110.344 Y48.722
N3742 X110.322 Y49.84
N3743 X110.281 Y50.958
N3744 X110.222 Y52.074
N3745 X110.142 Y53.19
N3746 X110.042 Y54.303
N3747 X109.918 Y55.415
N3748 X109.768 Y56.523
N3749 X109.589 Y57.627
N3750 X109.378 Y58.708
N3751 X109.166 Y59.618
N3752 X108.96 Y60.374
N3753 X108.756 Y61.027
N3754 X108.579 Y61.527
N3755 X108.405 Y61.97
N3756 X108.258 Y62.305
N3757 X108.112 Y62.607
N3758 X107.96 Y62.895
N3759 X107.822 Y63.133
N3760 X107.582 Y63.453
N3761 X107.291 Y63.729
N3762 X106.958 Y63.952
N3763 X106.592 Y64.116
N3764 X106.204 Y64.216
N3765 X105.805 Y64.25
N3766 X103.272
N3767 G3 X102.357 Y63.383 I0.033 J-0.952
N3768 G1 X98.6 Y21.636
N3769 G3 X99.515 Y20.599 I0.949 J-0.085
N3770 G1 X102.086
N3771 X102.226 Y20.606
N3772 X102.376 Y20.617
N3773 X102.524 Y20.634
N3774 X102.673 Y20.658
N3775 X102.82 Y20.687
N3776 X102.978 Y20.725
N3777 X103.137 Y20.77
N3778 X103.309 Y20.825
N3779 X103.486 Y20.888
N3780 X103.672 Y20.963
N3781 X103.869 Y21.051
N3782 X104.07 Y21.15
N3783 X104.287 Y21.266
N3784 X104.503 Y21.393
N3785 X104.739 Y21.543
N3786 X104.972 Y21.703
N3787 X105.228 Y21.893
N3788 X105.48 Y22.096
N3789 X105.755 Y22.333
N3790 X106.024 Y22.584
N3791 X106.32 Y22.881
N3792 X106.608 Y23.192
N3793 X106.925 Y23.56
N3794 X107.233 Y23.946
N3795 X107.563 Y24.391
N3796 X107.897 Y24.88
N3797 X108.238 Y25.419
N3798 X108.604 Y26.049
N3799 X108.951 Y26.699
N3800 X109.32 Y27.455
N3801 X109.697 Y28.308
N3802 X110.076 Y29.257
N3803 X110.452 Y30.31
N3804 X110.79 Y31.376
N3805 X111.093 Y32.453
N3806 X111.364 Y33.537
N3807 X111.607 Y34.629
N3808 X111.825 Y35.726
N3809 X112.018 Y36.827
N3810 X112.189 Y37.932
N3811 X112.339 Y39.04
N3812 X112.47 Y40.151
N3813 X112.581 Y41.264
N3814 X112.674 Y42.378
N3815 X112.75 Y43.493
N3816 X112.808 Y44.61
N3817 X112.849 Y45.728
N3818 X112.873 Y46.846
N3819 X112.88 Y47.964
N3820 X112.869 Y49.082
N3821 X112.841 Y50.2
N3822 X112.795 Y51.317
N3823 X112.729 Y52.433
N3824 X112.643 Y53.548
N3825 X112.536 Y54.661
N3826 X112.404 Y55.772
N3827 X112.246 Y56.879
N3828 X112.056 Y57.981
N3829 X111.839 Y59.028
N3830 X111.631 Y59.874
N3831 X111.425 Y60.596
N3832 X111.222 Y61.218
N3833 X111.053 Y61.678
N3834 X110.884 Y62.092
N3835 X110.74 Y62.411
N3836 X110.595 Y62.702
N3837 X110.444 Y62.98
N3838 X110.383 Y63.083
N3839 X110.144 Y63.417
N3840 X109.851 Y63.704
N3841 X109.513 Y63.937
N3842 X109.14 Y64.109
N3843 X108.743 Y64.214
N3844 X108.335 Y64.25
N3845 X105.805
N3846 G3 X104.889 Y63.382 I0.033 J-0.952
N3847 G1 X101.171 Y21.635
N3848 G3 X102.086 Y20.599 I0.949 J-0.085
N3849 G1 X104.571
N3850 X104.711 Y20.606
N3851 X104.861 Y20.614
N3852 X105.01 Y20.63
N3853 X105.158 Y20.652
N3854 X105.306 Y20.679
N3855 X105.455 Y20.713
N3856 X105.618 Y20.757
N3857 X105.782 Y20.807
N3858 X105.959 Y20.869
N3859 X106.143 Y20.94
N3860 X106.335 Y21.023
N3861 X106.537 Y21.119
N3862 X106.744 Y21.227
N3863 X106.966 Y21.353
N3864 X107.189 Y21.491
N3865 X107.431 Y21.654
N3866 X107.67 Y21.827
N3867 X107.932 Y22.032
N3868 X108.189 Y22.249
N3869 X108.472 Y22.506
N3870 X108.748 Y22.777
N3871 X109.049 Y23.094
N3872 X109.344 Y23.428
N3873 X109.663 Y23.817
N3874 X109.981 Y24.237
N3875 X110.315 Y24.712
N3876 X110.662 Y25.247
N3877 X111.006 Y25.822
N3878 X111.377 Y26.497
N3879 X111.735 Y27.212
N3880 X112.102 Y28.013
N3881 X112.478 Y28.922
N3882 X112.857 Y29.944
N3883 X113.207 Y31.006
N3884 X113.521 Y32.08
N3885 X113.804 Y33.162
N3886 X114.057 Y34.251
N3887 X114.283 Y35.346
N3888 X114.485 Y36.446
N3889 X114.664 Y37.549
N3890 X114.821 Y38.657
N3891 X114.959 Y39.766
N3892 X115.077 Y40.878
N3893 X115.176 Y41.992
N3894 X115.258 Y43.107
N3895 X115.322 Y44.224
N3896 X115.368 Y45.341
N3897 X115.398 Y46.459
N3898 X115.411 Y47.577
N3899 X115.406 Y48.695
N3900 X115.384 Y49.813
N3901 X115.344 Y50.931
N3902 X115.285 Y52.047
N3903 X115.206 Y53.163
N3904 X115.106 Y54.276
N3905 X114.983 Y55.388
N3906 X114.834 Y56.496
N3907 X114.655 Y57.6
N3908 X114.442 Y58.698
N3909 X114.233 Y59.598
N3910 X114.025 Y60.363
N3911 X113.821 Y61.017
N3912 X113.644 Y61.521
N3913 X113.47 Y61.962
N3914 X113.322 Y62.301
N3915 X113.178 Y62.6
N3916 X113.024 Y62.891
N3917 X112.885 Y63.132
N3918 X112.645 Y63.452
N3919 X112.354 Y63.728
N3920 X112.02 Y63.951
N3921 X111.655 Y64.115
N3922 X111.266 Y64.216
N3923 X110.867 Y64.25
N3924 X108.335
N3925 G3 X107.419 Y63.383 I0.033 J-0.952
N3926 G1 X103.656 Y21.636
N3927 G3 X104.571 Y20.599 I0.949 J-0.086
N3928 G1 X107.142
N3929 X107.282 Y20.606
N3930 X107.432 Y20.616
N3931 X107.581 Y20.634
N3932 X107.729 Y20.657
N3933 X107.876 Y20.687
N3934 X108.034 Y20.724
N3935 X108.193 Y20.769
N3936 X108.365 Y20.824
N3937 X108.541 Y20.887
N3938 X108.728 Y20.962
N3939 X108.924 Y21.049
N3940 X109.125 Y21.147
N3941 X109.341 Y21.263
N3942 X109.558 Y21.389
N3943 X109.793 Y21.539
N3944 X110.026 Y21.699
N3945 X110.282 Y21.889
N3946 X110.533 Y22.09
N3947 X110.808 Y22.327
N3948 X111.077 Y22.577
N3949 X111.373 Y22.874
N3950 X111.662 Y23.185
N3951 X111.977 Y23.55
N3952 X112.285 Y23.935
N3953 X112.614 Y24.379
N3954 X112.949 Y24.868
N3955 X113.29 Y25.406
N3956 X113.657 Y26.035
N3957 X114.004 Y26.683
N3958 X114.372 Y27.438
N3959 X114.75 Y28.289
N3960 X115.13 Y29.236
N3961 X115.507 Y30.289
N3962 X115.845 Y31.355
N3963 X116.149 Y32.431
N3964 X116.421 Y33.515
N3965 X116.665 Y34.607
N3966 X116.883 Y35.703
N3967 X117.077 Y36.805
N3968 X117.249 Y37.91
N3969 X117.399 Y39.018
N3970 X117.53 Y40.128
N3971 X117.642 Y41.241
N3972 X117.735 Y42.355
N3973 X117.811 Y43.471
N3974 X117.869 Y44.587
N3975 X117.91 Y45.705
N3976 X117.934 Y46.823
N3977 X117.942 Y47.941
N3978 X117.931 Y49.059
N3979 X117.903 Y50.177
N3980 X117.857 Y51.294
N3981 X117.792 Y52.411
N3982 X117.707 Y53.526
N3983 X117.6 Y54.639
N3984 X117.469 Y55.749
N3985 X117.312 Y56.856
N3986 X117.122 Y57.958
N3987 X116.905 Y59.009
N3988 X116.697 Y59.859
N3989 X116.491 Y60.583
N3990 X116.288 Y61.206
N3991 X116.119 Y61.67
N3992 X115.949 Y62.085
N3993 X115.805 Y62.405
N3994 X115.66 Y62.696
N3995 X115.509 Y62.975
N3996 X115.446 Y63.081
N3997 X115.207 Y63.415
N3998 X114.914 Y63.704
N3999 X114.576 Y63.937
N4000 X114.203 Y64.109
N4001 X113.806 Y64.214
N4002 X113.397 Y64.25
N4003 X110.867
N4004 G3 X109.951 Y63.382 I0.033 J-0.952
N4005 G1 X106.227 Y21.635
N4006 G3 X107.142 Y20.599 I0.949 J-0.085
N4007 G1 X109.656
N4008 X109.795 Y20.606
N4009 X109.945 Y20.616
N4010 X110.094 Y20.632
N4011 X110.242 Y20.655
N4012 X110.39 Y20.684
N4013 X110.542 Y20.719
N4014 X110.706 Y20.764
N4015 X110.871 Y20.816
N4016 X111.052 Y20.88
N4017 X111.234 Y20.952
N4018 X111.43 Y21.038
N4019 X111.631 Y21.135
N4020 X111.842 Y21.247
N4021 X112.063 Y21.375
N4022 X112.29 Y21.517
N4023 X112.531 Y21.681
N4024 X112.775 Y21.86
N4025 X113.036 Y22.067
N4026 X113.297 Y22.291
N4027 X113.58 Y22.551
N4028 X113.86 Y22.829
N4029 X114.159 Y23.148
N4030 X114.461 Y23.495
N4031 X114.776 Y23.886
N4032 X115.104 Y24.323
N4033 X115.434 Y24.798
N4034 X115.79 Y25.356
N4035 X116.13 Y25.932
N4036 X116.497 Y26.61
N4037 X116.869 Y27.364
N4038 X117.231 Y28.169
N4039 X117.605 Y29.091
N4040 X117.984 Y30.134
N4041 X118.328 Y31.198
N4042 X118.636 Y32.273
N4043 X118.913 Y33.356
N4044 X119.161 Y34.447
N4045 X119.383 Y35.543
N4046 X119.58 Y36.643
N4047 X119.755 Y37.748
N4048 X119.909 Y38.855
N4049 X120.043 Y39.966
N4050 X120.157 Y41.078
N4051 X120.254 Y42.192
N4052 X120.332 Y43.307
N4053 X120.393 Y44.424
N4054 X120.437 Y45.541
N4055 X120.464 Y46.659
N4056 X120.474 Y47.777
N4057 X120.466 Y48.896
N4058 X120.441 Y50.013
N4059 X120.398 Y51.131
N4060 X120.335 Y52.247
N4061 X120.253 Y53.362
N4062 X120.149 Y54.476
N4063 X120.021 Y55.587
N4064 X119.867 Y56.694
N4065 X119.682 Y57.797
N4066 X119.474 Y58.837
N4067 X119.26 Y59.736
N4068 X119.056 Y60.47
N4069 X118.854 Y61.106
N4070 X118.681 Y61.588
N4071 X118.507 Y62.022
N4072 X118.363 Y62.345
N4073 X118.214 Y62.65
N4074 X118.064 Y62.93
N4075 X117.984 Y63.068
N4076 X117.745 Y63.406
N4077 X117.452 Y63.697
N4078 X117.113 Y63.933
N4079 X116.738 Y64.107
N4080 X116.339 Y64.214
N4081 X115.927 Y64.25
N4082 X113.397
N4083 G3 X112.481 Y63.383 I0.033 J-0.952
N4084 G1 X108.74 Y21.636
N4085 G3 X109.656 Y20.599 I0.949 J-0.085
N4086 G1 X112.156
N4087 X112.446 Y20.614
N4088 X112.595 Y20.629
N4089 X112.743 Y20.651
N4090 X112.891 Y20.679
N4091 X113.042 Y20.713
N4092 X113.204 Y20.756
N4093 X113.369 Y20.806
N4094 X113.548 Y20.868
N4095 X113.728 Y20.938
N4096 X113.922 Y21.021
N4097 X114.121 Y21.116
N4098 X114.331 Y21.225
N4099 X114.549 Y21.349
N4100 X114.775 Y21.489
N4101 X115.013 Y21.648
N4102 X115.256 Y21.824
N4103 X115.516 Y22.027
N4104 X115.776 Y22.247
N4105 X116.054 Y22.499
N4106 X116.334 Y22.772
N4107 X116.631 Y23.085
N4108 X116.932 Y23.426
N4109 X117.248 Y23.81
N4110 X117.574 Y24.24
N4111 X117.9 Y24.703
N4112 X118.253 Y25.246
N4113 X118.591 Y25.81
N4114 X118.954 Y26.47
N4115 X119.326 Y27.208
N4116 X119.686 Y27.994
N4117 X120.06 Y28.897
N4118 X120.439 Y29.917
N4119 X120.79 Y30.979
N4120 X121.105 Y32.052
N4121 X121.388 Y33.134
N4122 X121.642 Y34.223
N4123 X121.87 Y35.318
N4124 X122.072 Y36.417
N4125 X122.252 Y37.521
N4126 X122.41 Y38.628
N4127 X122.548 Y39.738
N4128 X122.666 Y40.85
N4129 X122.767 Y41.963
N4130 X122.849 Y43.079
N4131 X122.914 Y44.195
N4132 X122.961 Y45.312
N4133 X122.992 Y46.43
N4134 X123.005 Y47.548
N4135 X123.001 Y48.666
N4136 X122.98 Y49.784
N4137 X122.94 Y50.902
N4138 X122.881 Y52.018
N4139 X122.803 Y53.134
N4140 X122.703 Y54.248
N4141 X122.58 Y55.359
N4142 X122.431 Y56.467
N4143 X122.253 Y57.571
N4144 X122.044 Y58.657
N4145 X121.831 Y59.575
N4146 X121.625 Y60.337
N4147 X121.421 Y60.995
N4148 X121.243 Y61.503
N4149 X121.067 Y61.951
N4150 X120.92 Y62.288
N4151 X120.774 Y62.592
N4152 X120.622 Y62.882
N4153 X120.487 Y63.116
N4154 X120.479 Y63.129
N4155 X120.238 Y63.451
N4156 X119.947 Y63.727
N4157 X119.614 Y63.951
N4158 X119.248 Y64.115
N4159 X118.859 Y64.216
N4160 X118.459 Y64.25
N4161 X115.927
N4162 G3 X115.012 Y63.383 I0.033 J-0.952
N4163 G1 X111.241 Y21.636
N4164 G3 X112.156 Y20.599 I0.949 J-0.086
N4165 G1 X114.728
N4166 X114.867 Y20.606
N4167 X115.017 Y20.616
N4168 X115.166 Y20.633
N4169 X115.314 Y20.657
N4170 X115.461 Y20.686
N4171 X115.619 Y20.723
N4172 X115.777 Y20.767
N4173 X115.95 Y20.822
N4174 X116.126 Y20.885
N4175 X116.312 Y20.959
N4176 X116.508 Y21.046
N4177 X116.709 Y21.144
N4178 X116.926 Y21.26
N4179 X117.142 Y21.386
N4180 X117.377 Y21.535
N4181 X117.61 Y21.694
N4182 X117.865 Y21.883
N4183 X118.117 Y22.084
N4184 X118.391 Y22.321
N4185 X118.66 Y22.57
N4186 X118.955 Y22.864
N4187 X119.243 Y23.173
N4188 X119.559 Y23.538
N4189 X119.867 Y23.923
N4190 X120.196 Y24.365
N4191 X120.53 Y24.851
N4192 X120.87 Y25.386
N4193 X121.236 Y26.013
N4194 X121.583 Y26.659
N4195 X121.951 Y27.41
N4196 X122.329 Y28.258
N4197 X122.708 Y29.202
N4198 X123.086 Y30.251
N4199 X123.426 Y31.316
N4200 X123.73 Y32.392
N4201 X124.004 Y33.476
N4202 X124.249 Y34.568
N4203 X124.468 Y35.664
N4204 X124.663 Y36.765
N4205 X124.835 Y37.87
N4206 X124.987 Y38.978
N4207 X125.118 Y40.088
N4208 X125.231 Y41.201
N4209 X125.325 Y42.315
N4210 X125.402 Y43.431
N4211 X125.461 Y44.547
N4212 X125.503 Y45.665
N4213 X125.528 Y46.783
N4214 X125.536 Y47.901
N4215 X125.526 Y49.019
N4216 X125.499 Y50.137
N4217 X125.454 Y51.254
N4218 X125.389 Y52.371
N4219 X125.304 Y53.486
N4220 X125.198 Y54.599
N4221 X125.068 Y55.709
N4222 X124.911 Y56.817
N4223 X124.723 Y57.919
N4224 X124.506 Y58.975
N4225 X124.297 Y59.831
N4226 X124.091 Y60.56
N4227 X123.888 Y61.186
N4228 X123.717 Y61.655
N4229 X123.548 Y62.072
N4230 X123.402 Y62.395
N4231 X123.258 Y62.686
N4232 X123.106 Y62.966
N4233 X123.04 Y63.079
N4234 X122.801 Y63.414
N4235 X122.508 Y63.702
N4236 X122.17 Y63.936
N4237 X121.796 Y64.109
N4238 X121.399 Y64.214
N4239 X120.989 Y64.25
N4240 X118.459
N4241 G3 X117.543 Y63.382 I0.033 J-0.952
N4242 G1 X113.812 Y21.635
N4243 G3 X114.728 Y20.599 I0.949 J-0.085
N4244 G1 X117.228
N4245 X117.368 Y20.606
N4246 X117.518 Y20.615
N4247 X117.667 Y20.63
N4248 X117.815 Y20.652
N4249 X117.963 Y20.68
N4250 X118.113 Y20.715
N4251 X118.276 Y20.759
N4252 X118.441 Y20.809
N4253 X118.62 Y20.872
N4254 X118.802 Y20.943
N4255 X118.996 Y21.027
N4256 X119.197 Y21.123
N4257 X119.406 Y21.232
N4258 X119.627 Y21.358
N4259 X119.852 Y21.498
N4260 X120.093 Y21.66
N4261 X120.334 Y21.836
N4262 X120.595 Y22.041
N4263 X120.854 Y22.26
N4264 X121.136 Y22.518
N4265 X121.414 Y22.791
N4266 X121.713 Y23.107
N4267 X122.012 Y23.447
N4268 X122.328 Y23.834
N4269 X122.652 Y24.262
N4270 X122.982 Y24.734
N4271 X123.336 Y25.281
N4272 X123.675 Y25.851
N4273 X124.043 Y26.523
N4274 X124.41 Y27.257
N4275 X124.773 Y28.055
N4276 X125.148 Y28.967
N4277 X125.528 Y29.995
N4278 X125.876 Y31.057
N4279 X126.189 Y32.131
N4280 X126.47 Y33.213
N4281 X126.722 Y34.303
N4282 X126.947 Y35.398
N4283 X127.148 Y36.498
N4284 X127.326 Y37.602
N4285 X127.483 Y38.709
N4286 X127.619 Y39.819
N4287 X127.737 Y40.931
N4288 X127.836 Y42.045
N4289 X127.917 Y43.16
N4290 X127.98 Y44.277
N4291 X128.026 Y45.394
N4292 X128.055 Y46.512
N4293 X128.067 Y47.63
N4294 X128.062 Y48.748
N4295 X128.039 Y49.866
N4296 X127.998 Y50.983
N4297 X127.938 Y52.1
N4298 X127.858 Y53.215
N4299 X127.757 Y54.329
N4300 X127.632 Y55.44
N4301 X127.482 Y56.548
N4302 X127.301 Y57.652
N4303 X127.09 Y58.73
N4304 X126.878 Y59.636
N4305 X126.672 Y60.39
N4306 X126.468 Y61.04
N4307 X126.292 Y61.537
N4308 X126.118 Y61.979
N4309 X125.971 Y62.312
N4310 X125.825 Y62.614
N4311 X125.673 Y62.901
N4312 X125.538 Y63.135
N4313 X125.298 Y63.455
N4314 X125.007 Y63.73
N4315 X124.674 Y63.952
N4316 X124.308 Y64.116
N4317 X123.921 Y64.216
N4318 X123.522 Y64.25
N4319 X120.989
N4320 G3 X120.074 Y63.383 I0.033 J-0.952
N4321 G1 X116.313 Y21.636
N4322 G3 X117.228 Y20.599 I0.949 J-0.085
N4323 G1 X119.8
N4324 X119.939 Y20.606
N4325 X120.089 Y20.617
N4326 X120.238 Y20.634
N4327 X120.386 Y20.658
N4328 X120.533 Y20.688
N4329 X120.691 Y20.726
N4330 X120.85 Y20.77
N4331 X121.022 Y20.825
N4332 X121.2 Y20.889
N4333 X121.386 Y20.964
N4334 X121.583 Y21.052
N4335 X121.784 Y21.151
N4336 X122.002 Y21.268
N4337 X122.218 Y21.394
N4338 X122.454 Y21.544
N4339 X122.687 Y21.705
N4340 X122.943 Y21.895
N4341 X123.196 Y22.099
N4342 X123.47 Y22.336
N4343 X123.74 Y22.588
N4344 X124.036 Y22.885
N4345 X124.325 Y23.197
N4346 X124.642 Y23.565
N4347 X124.95 Y23.951
N4348 X125.281 Y24.399
N4349 X125.615 Y24.886
N4350 X125.957 Y25.428
N4351 X126.323 Y26.058
N4352 X126.671 Y26.71
N4353 X127.04 Y27.469
N4354 X127.418 Y28.323
N4355 X127.797 Y29.274
N4356 X128.173 Y30.327
N4357 X128.51 Y31.393
N4358 X128.813 Y32.47
N4359 X129.084 Y33.555
N4360 X129.327 Y34.646
N4361 X129.545 Y35.743
N4362 X129.738 Y36.844
N4363 X129.909 Y37.949
N4364 X130.059 Y39.057
N4365 X130.189 Y40.168
N4366 X130.301 Y41.281
N4367 X130.394 Y42.395
N4368 X130.469 Y43.511
N4369 X130.527 Y44.627
N4370 X130.568 Y45.745
N4371 X130.591 Y46.863
N4372 X130.598 Y47.981
N4373 X130.587 Y49.099
N4374 X130.558 Y50.217
N4375 X130.512 Y51.334
N4376 X130.446 Y52.451
N4377 X130.359 Y53.565
N4378 X130.251 Y54.678
N4379 X130.119 Y55.789
N4380 X129.961 Y56.896
N4381 X129.77 Y57.998
N4382 X129.553 Y59.042
N4383 X129.345 Y59.887
N4384 X129.139 Y60.606
N4385 X128.936 Y61.227
N4386 X128.768 Y61.686
N4387 X128.598 Y62.099
N4388 X128.454 Y62.416
N4389 X128.309 Y62.707
N4390 X128.158 Y62.984
N4391 X128.099 Y63.084
N4392 X127.86 Y63.418
N4393 X127.567 Y63.705
N4394 X127.23 Y63.938
N4395 X126.857 Y64.109
N4396 X126.46 Y64.214
N4397 X126.052 Y64.25
N4398 X123.522
N4399 G3 X122.606 Y63.382 I0.033 J-0.952
N4400 G1 X118.884 Y21.635
N4401 G3 X119.8 Y20.599 I0.949 J-0.085
N4402 G1 X122.284
N4403 X122.424 Y20.606
N4404 X122.574 Y20.614
N4405 X122.723 Y20.63
N4406 X122.871 Y20.652
N4407 X123.019 Y20.68
N4408 X123.168 Y20.714
N4409 X123.331 Y20.757
N4410 X123.495 Y20.807
N4411 X123.673 Y20.869
N4412 X123.856 Y20.94
N4413 X124.048 Y21.023
N4414 X124.251 Y21.119
N4415 X124.458 Y21.227
N4416 X124.681 Y21.354
N4417 X124.903 Y21.492
N4418 X125.145 Y21.655
N4419 X125.385 Y21.828
N4420 X125.647 Y22.033
N4421 X125.904 Y22.25
N4422 X126.187 Y22.508
N4423 X126.463 Y22.779
N4424 X126.765 Y23.096
N4425 X127.06 Y23.431
N4426 X127.379 Y23.821
N4427 X127.697 Y24.24
N4428 X128.032 Y24.717
N4429 X128.379 Y25.251
N4430 X128.723 Y25.828
N4431 X129.095 Y26.504
N4432 X129.453 Y27.218
N4433 X129.82 Y28.021
N4434 X130.197 Y28.932
N4435 X130.576 Y29.956
N4436 X130.926 Y31.018
N4437 X131.24 Y32.091
N4438 X131.523 Y33.173
N4439 X131.776 Y34.262
N4440 X132.002 Y35.357
N4441 X132.204 Y36.457
N4442 X132.383 Y37.561
N4443 X132.54 Y38.668
N4444 X132.678 Y39.778
N4445 X132.796 Y40.889
N4446 X132.895 Y42.003
N4447 X132.977 Y43.119
N4448 X133.04 Y44.235
N4449 X133.087 Y45.352
N4450 X133.116 Y46.47
N4451 X133.129 Y47.588
N4452 X133.124 Y48.706
N4453 X133.102 Y49.824
N4454 X133.061 Y50.942
N4455 X133.002 Y52.058
N4456 X132.923 Y53.174
N4457 X132.823 Y54.288
N4458 X132.699 Y55.399
N4459 X132.55 Y56.507
N4460 X132.371 Y57.611
N4461 X132.157 Y58.708
N4462 X131.948 Y59.607
N4463 X131.74 Y60.371
N4464 X131.536 Y61.024
N4465 X131.359 Y61.526
N4466 X131.185 Y61.967
N4467 X131.037 Y62.305
N4468 X130.893 Y62.604
N4469 X130.74 Y62.894
N4470 X130.602 Y63.132
N4471 X130.361 Y63.453
N4472 X130.07 Y63.729
N4473 X129.737 Y63.952
N4474 X129.371 Y64.116
N4475 X128.983 Y64.216
N4476 X128.584 Y64.25
N4477 X126.052
N4478 G3 X125.136 Y63.383 I0.033 J-0.952
N4479 G1 X121.369 Y21.636
N4480 G3 X122.284 Y20.599 I0.949 J-0.086
N4481 G1 X124.856
N4482 X124.995 Y20.606
N4483 X125.145 Y20.616
N4484 X125.294 Y20.634
N4485 X125.442 Y20.657
N4486 X125.589 Y20.687
N4487 X125.747 Y20.724
N4488 X125.906 Y20.769
N4489 X126.078 Y20.824
N4490 X126.255 Y20.887
N4491 X126.441 Y20.962
N4492 X126.638 Y21.049
N4493 X126.839 Y21.147
N4494 X127.055 Y21.263
N4495 X127.271 Y21.39
N4496 X127.507 Y21.539
N4497 X127.74 Y21.699
N4498 X127.996 Y21.889
N4499 X128.247 Y22.091
N4500 X128.522 Y22.328
N4501 X128.791 Y22.578
N4502 X129.088 Y22.875
N4503 X129.377 Y23.186
N4504 X129.692 Y23.551
N4505 X130 Y23.937
N4506 X130.33 Y24.381
N4507 X130.665 Y24.869
N4508 X131.006 Y25.408
N4509 X131.373 Y26.037
N4510 X131.721 Y26.687
N4511 X132.09 Y27.442
N4512 X132.467 Y28.294
N4513 X132.847 Y29.242
N4514 X133.224 Y30.294
N4515 X133.563 Y31.36
N4516 X133.867 Y32.436
N4517 X134.139 Y33.521
N4518 X134.383 Y34.612
N4519 X134.601 Y35.709
N4520 X134.795 Y36.81
N4521 X134.967 Y37.915
N4522 X135.118 Y39.023
N4523 X135.248 Y40.134
N4524 X135.36 Y41.246
N4525 X135.454 Y42.361
N4526 X135.529 Y43.476
N4527 X135.587 Y44.593
N4528 X135.628 Y45.71
N4529 X135.653 Y46.828
N4530 X135.659 Y47.946
N4531 X135.649 Y49.065
N4532 X135.621 Y50.182
N4533 X135.575 Y51.3
N4534 X135.51 Y52.416
