%
(MachineCode)
(T6  D=9.525 CR=4.762 - ZMIN=-12 - ball end mill)
N0 G90
N1 G17
(Adaptive3)
N2 T6 M6
(T6 3/8 Ballnose)
N3 S10000 M3
N5 G0 X-4.448 Y23.379
N6 Z15
N7 Z5
N8 Z2.902
N9 G1 Z2.502 F762
N10 Z-2
N11 X-4.308 F1524
N12 X-4.176 Y23.45
N13 X-4.056 Y23.54
N14 X-3.945 Y23.641
N15 X-3.841 Y23.748
N16 X-3.743 Y23.862
N17 X-3.65 Y23.98
N18 X-3.563 Y24.102
N19 X-3.475 Y24.237
N20 X-3.382 Y24.389
N21 X-3.286 Y24.562
N22 X-3.186 Y24.758
N23 X-3.082 Y24.982
N24 X-2.975 Y25.237
N25 X-2.864 Y25.529
N26 X-2.75 Y25.868
N27 X-2.633 Y26.262
N28 X-2.513 Y26.729
N29 X-2.39 Y27.291
N30 X-2.265 Y27.987
N31 X-2.138 Y28.885
N32 X-2.021 Y29.997
N33 X-1.941 Y31.113
N34 X-1.886 Y32.229
N35 X-1.849 Y33.347
N36 X-1.822 Y34.465
N37 X-1.804 Y35.583
N38 X-1.792 Y36.701
N39 X-1.783 Y37.819
N40 X-1.777 Y38.937
N41 X-1.773 Y40.056
N42 X-1.769 Y42.292
N43 X-1.766 Y45.647
N44 X-1.765 Y54.592
N45 X-1.767 Y73.602
N46 X-1.768 Y81.989
N47 X-1.732 Y82.266
N48 X-1.664 Y82.537
N49 X-1.466 Y83.06
N50 X-0.865 Y84.003
N51 X-0.774 Y84.101
N52 X-0.689 Y84.203
N53 X-0.609 Y84.311
N54 X-0.113 Y85.024
N55 X-0.039 Y85.098
N56 X-0.024 Y85.112
N57 X0.679 Y85.603
N58 X0.691 Y85.611
N59 X1.292 Y85.831
N60 X1.309 Y85.835
N61 X2.4 Y86.082
N62 X3.501 Y86.277
N63 X4.611 Y86.416
N64 X5.724 Y86.514
N65 X6.841 Y86.583
N66 X7.958 Y86.631
N67 X9.075 Y86.665
N68 X10.193 Y86.689
N69 X11.312 Y86.705
N70 X12.43 Y86.717
N71 X13.548 Y86.725
N72 X14.666 Y86.73
N73 X15.784 Y86.734
N74 X18.021 Y86.739
N75 X21.375 Y86.742
N76 X31.439 Y86.745
N77 X51.567 Y86.748
N78 X101.887 Y86.755
N79 X152.206 Y86.762
N80 X196.935 Y86.769
N81 X197.213 Y86.742
N82 X197.486 Y86.683
N83 X198.015 Y86.501
N84 X198.967 Y85.914
N85 X199.085 Y85.796
N86 X199.21 Y85.687
N87 X199.343 Y85.587
N88 X200.024 Y85.112
N89 X200.039 Y85.098
N90 X200.113 Y85.024
N91 X200.61 Y84.309
N92 X200.625 Y84.271
N93 X200.832 Y83.705
N94 X200.836 Y83.687
N95 X201.082 Y82.596
N96 X201.277 Y81.495
N97 X201.416 Y80.385
N98 X201.515 Y79.272
N99 X201.584 Y78.155
N100 X201.632 Y77.038
N101 X201.666 Y75.921
N102 X201.69 Y74.803
N103 X201.707 Y73.685
N104 X201.718 Y72.566
N105 X201.727 Y71.448
N106 X201.733 Y70.33
N107 X201.737 Y69.212
N108 X201.742 Y66.975
N109 X201.746 Y63.621
N110 X201.751 Y53.557
N111 X201.757 Y33.429
N112 X201.767 Y3.237
N113 X201.755 Y2.958
N114 X201.711 Y2.682
N115 X201.559 Y2.144
N116 X201.024 Y1.162
N117 X200.955 Y1.095
N118 X200.832 Y0.968
N119 X200.717 Y0.833
N120 X200.61 Y0.691
N121 X200.113 Y-0.024
N122 X200.039 Y-0.098
N123 X200.024 Y-0.112
N124 X199.321 Y-0.603
N125 X199.309 Y-0.611
N126 X198.708 Y-0.831
N127 X198.691 Y-0.835
N128 X197.6 Y-1.082
N129 X196.499 Y-1.277
N130 X195.389 Y-1.416
N131 X194.276 Y-1.514
N132 X193.159 Y-1.583
N133 X192.042 Y-1.631
N134 X190.925 Y-1.665
N135 X189.807 Y-1.689
N136 X188.688 Y-1.705
N137 X187.57 Y-1.717
N138 X186.452 Y-1.725
N139 X185.334 Y-1.73
N140 X184.216 Y-1.734
N141 X181.979 Y-1.739
N142 X178.625 Y-1.742
N143 X168.561 Y-1.745
N144 X148.433 Y-1.748
N145 X98.113 Y-1.755
N146 X47.794 Y-1.762
N147 X3.065 Y-1.769
N148 X2.787 Y-1.743
N149 X2.513 Y-1.685
N150 X1.984 Y-1.505
N151 X1.029 Y-0.924
N152 X0.895 Y-0.787
N153 X0.761 Y-0.668
N154 X0.618 Y-0.561
N155 X-0.024 Y-0.112
N156 X-0.039 Y-0.098
N157 X-0.113 Y-0.024
N158 X-0.61 Y0.691
N159 X-0.625 Y0.729
N160 X-0.832 Y1.295
N161 X-0.836 Y1.313
N162 X-1.082 Y2.404
N163 X-1.282 Y3.504
N164 X-1.425 Y4.613
N165 X-1.526 Y5.727
N166 X-1.597 Y6.843
N167 X-1.647 Y7.96
N168 X-1.681 Y9.078
N169 X-1.705 Y10.196
N170 X-1.722 Y11.314
N171 X-1.734 Y12.432
N172 X-1.742 Y13.55
N173 X-1.748 Y14.668
N174 X-1.752 Y15.786
N175 X-1.757 Y18.023
N176 X-1.759 Y19.141
N177 X-1.595 Y20.247
N178 X-1.335 Y21.335
N179 X-1.034 Y22.412
N180 X-0.729 Y23.488
N181 X-0.445 Y24.569
N182 X-0.192 Y25.658
N183 X0.024 Y26.756
N184 X0.203 Y27.859
N185 X0.349 Y28.968
N186 X0.464 Y30.08
N187 X0.554 Y31.195
N188 X0.623 Y32.311
N189 X0.676 Y33.428
N190 X0.716 Y34.545
N191 X0.746 Y35.663
N192 X0.768 Y36.781
N193 X0.785 Y37.899
N194 X0.797 Y39.017
N195 X0.806 Y40.136
N196 X0.813 Y41.254
N197 X0.818 Y42.372
N198 X0.824 Y44.608
N199 X0.828 Y47.963
N200 X0.829 Y51.318
N201 Y63.062
N202 X0.795 Y63.459
N203 X0.696 Y63.844
N204 X0.535 Y64.208
N205 X0.315 Y64.539
N206 X0.043 Y64.83
N207 X0.031 Y64.841
N208 X-0.117 Y65.024
N209 X-0.437 Y65.617
N210 X-0.566 Y65.91
N211 X-0.651 Y66.188
N212 X-0.727 Y66.473
N213 X-0.851 Y67.115
N214 X-0.878 Y67.329
N215 X-0.938 Y67.9
N216 X-0.951 Y68.185
N217 X-0.972 Y68.756
N218 X-0.973 Y73.037
N219 Y82.17
N220 X-0.967 Y82.455
N221 X-0.96 Y82.74
N222 X-0.95 Y83.026
N223 X-0.836 Y83.687
N224 X-0.832 Y83.705
N225 X-0.616 Y84.296
N226 X-0.609 Y84.311
N227 X-0.608 Y84.314 F762
N228 G2 X-0.487 Y84.649 I1.979 J-0.526
N229 X-0.481 Y84.662 I0.864 J-0.401
N230 X-0.215 Y84.995 I0.858 J-0.413 F1524
N231 G1 X0.556 Y85.606
N232 G2 X0.939 Y85.789 I0.592 J-0.746
N233 X0.954 Y85.793 I0.209 J-0.929 F762
N234 X1.308 Y85.835 I0.417 J-2.005
N235 G1 X1.309
N236 X1.72 Y85.906 F1524
N237 X2.006 Y85.954
N238 X2.577 Y85.968
N239 X2.863 Y85.973
N240 X197.137
N241 X197.423 Y85.968
N242 X197.994 Y85.954
N243 X198.28 Y85.906
N244 X198.691 Y85.835
N245 X198.708 Y85.831
N246 X199.309 Y85.611
N247 X199.333 Y85.594
N248 X199.343 Y85.587
N249 X199.346 Y85.586 F762
N250 G2 X199.675 Y85.467 I-0.518 J-1.94
N251 X199.694 Y85.458 I-0.402 J-0.864
N252 X200.023 Y85.191 I-0.42 J-0.855 F1524
N253 G1 X200.613 Y84.439
N254 G2 X200.793 Y84.058 I-0.749 J-0.588
N255 X200.798 Y84.036 I-0.93 J-0.207 F762
N256 X200.836 Y83.688 I-1.97 J-0.39
N257 G1 Y83.687
N258 X200.95 Y83.026 F1524
N259 X200.96 Y82.74
N260 X200.967 Y82.455
N261 X200.973 Y82.17
N262 X200.972 Y69.042
N263 Y68.756
N264 X200.951 Y68.185
N265 X200.938 Y67.9
N266 X200.878 Y67.329
N267 X200.851 Y67.115
N268 X200.727 Y66.473
N269 X200.651 Y66.188
N270 X200.563 Y65.902
N271 X200.437 Y65.617
N272 X200.381 Y65.489
N273 X200.271 Y65.203
N274 X200.158 Y64.873
N275 X200.041 Y64.489
N276 X199.922 Y64.035
N277 X199.8 Y63.49
N278 X199.675 Y62.819
N279 X199.548 Y61.961
N280 X199.426 Y60.85
N281 X199.342 Y59.735
N282 X199.284 Y58.618
N283 X199.245 Y57.5
N284 X199.217 Y56.383
N285 X199.199 Y55.265
N286 X199.186 Y54.146
N287 X199.177 Y53.028
N288 X199.171 Y51.91
N289 X199.167 Y50.792
N290 X199.162 Y48.555
N291 X199.16 Y45.201
N292 X199.161 Y37.373
N293 X199.167 Y21.632
N294 X199.202 Y21.252
N295 X199.307 Y20.886
N296 X199.479 Y20.545
N297 X199.71 Y20.241
N298 X199.994 Y19.986
N299 X200.022 Y19.954
N300 X200.196 Y19.669
N301 X200.368 Y19.383
N302 X200.511 Y19.098
N303 X200.566 Y18.96
N304 X200.616 Y18.812
N305 X200.699 Y18.527
N306 X200.82 Y17.956
N307 X200.851 Y17.797
N308 X200.931 Y17.1
N309 X200.947 Y16.815
N310 X200.971 Y16.244
N311 X200.973 Y14.817
N312 Y2.83
N313 X200.967 Y2.545
N314 X200.96 Y2.26
N315 X200.95 Y1.974
N316 X200.836 Y1.313
N317 X200.832 Y1.295
N318 X200.616 Y0.704
N319 X200.61 Y0.691
N320 Y0.689 F762
N321 G2 X200.569 Y0.527 I-1.875 J0.39
N322 X200.489 Y0.339 I-0.912 J0.275
N323 X200.249 Y0.056 I-0.832 J0.463 F1524
N324 G1 X199.39 Y-0.626
N325 G2 X199.061 Y-0.796 I-0.593 J0.746
N326 X198.859 Y-0.831 I-0.264 J0.915 F762
N327 X198.692 Y-0.835 I-0.124 J1.911
N328 G1 X198.691
N329 X198.28 Y-0.906 F1524
N330 X197.994 Y-0.954
N331 X197.423 Y-0.968
N332 X197.137 Y-0.973
N333 X2.863
N334 X2.577 Y-0.968
N335 X2.006 Y-0.954
N336 X1.72 Y-0.906
N337 X1.309 Y-0.835
N338 X1.292 Y-0.831
N339 X0.691 Y-0.611
N340 X0.667 Y-0.594
N341 X0.618 Y-0.561
N342 X0.616 Y-0.559 F762
N343 G2 X0.295 Y-0.443 I0.505 J1.89
N344 X0.269 Y-0.43 I0.402 J0.864
N345 X-0.056 Y-0.163 I0.428 J0.851 F1524
N346 G1 X-0.619 Y0.563
N347 G2 X-0.797 Y0.942 I0.753 J0.584
N348 X-0.803 Y0.973 I0.93 J0.205 F762
N349 X-0.836 Y1.312 I1.923 J0.358
N350 G1 Y1.313
N351 X-0.95 Y1.974 F1524
N352 X-0.96 Y2.26
N353 X-0.967 Y2.545
N354 X-0.973 Y2.83
N355 X-0.972 Y15.673
N356 X-0.971 Y16.244
N357 X-0.947 Y16.815
N358 X-0.931 Y17.1
N359 X-0.851 Y17.797
N360 X-0.82 Y17.956
N361 X-0.699 Y18.527
N362 X-0.616 Y18.812
N363 X-0.566 Y18.96
N364 X-0.511 Y19.098
N365 X-0.368 Y19.383
N366 X-0.196 Y19.669
N367 X-0.022 Y19.954
N368 X0.006 Y19.986
N369 X0.097 Y20.092
N370 X0.321 Y20.475
N371 X0.566 Y20.934
N372 X0.805 Y21.423
N373 X1.066 Y22.012
N374 X1.316 Y22.637
N375 X1.575 Y23.358
N376 X1.835 Y24.18
N377 X2.08 Y25.063
N378 X2.318 Y26.061
N379 X2.536 Y27.158
N380 X2.717 Y28.261
N381 X2.864 Y29.37
N382 X2.984 Y30.481
N383 X3.08 Y31.595
N384 X3.157 Y32.711
N385 X3.218 Y33.828
N386 X3.265 Y34.945
N387 X3.303 Y36.062
N388 X3.332 Y37.18
N389 X3.354 Y38.298
N390 X3.371 Y39.416
N391 X3.385 Y40.534
N392 X3.395 Y41.653
N393 X3.402 Y42.771
N394 X3.408 Y43.889
N395 X3.412 Y45.007
N396 X3.418 Y47.244
N397 X3.422 Y50.598
N398 X3.423 Y56.189
N399 Y59.544
N400 Y60.652
N401 X3.401 Y61.218
N402 X3.37 Y61.64
N403 X3.328 Y62.018
N404 X3.277 Y62.357
N405 X3.225 Y62.639
N406 X3.102 Y63.015
N407 X2.909 Y63.36
N408 X2.655 Y63.663
N409 X2.348 Y63.912
N410 X1.999 Y64.099
N411 X1.621 Y64.216
N412 X1.228 Y64.258
N413 X1.184 Y64.259
N414 X1.167 Y64.263
N415 X0.553 Y64.427
N416 X0.516 Y64.446
N417 X0.043 Y64.83
N418 G3 X-0.287 Y65 I-0.541 J-0.644 F762
N419 X-1.339 Y64.186 I-0.212 J-0.814 F1524
N420 G1 X-1.313 Y20.677
N421 G3 X-0.338 Y19.847 I0.841 J0.001
N422 X0.006 Y19.986 I-0.134 J0.83 F762
N423 G1 X0.649 Y20.457 F1524
N424 X0.667 Y20.463
N425 X0.763 Y20.487
N426 X0.897 Y20.527
N427 X1.035 Y20.587
N428 X1.168 Y20.655
N429 X1.298 Y20.73
N430 X1.425 Y20.811
N431 X1.547 Y20.897
N432 X1.667 Y20.988
N433 X1.793 Y21.091
N434 X1.929 Y21.21
N435 X2.073 Y21.348
N436 X2.215 Y21.493
N437 X2.365 Y21.658
N438 X2.526 Y21.849
N439 X2.689 Y22.057
N440 X2.854 Y22.285
N441 X3.031 Y22.549
N442 X3.213 Y22.842
N443 X3.392 Y23.158
N444 X3.586 Y23.53
N445 X3.778 Y23.933
N446 X3.975 Y24.39
N447 X4.177 Y24.911
N448 X4.379 Y25.495
N449 X4.584 Y26.164
N450 X4.794 Y26.953
N451 X5.001 Y27.866
N452 X5.206 Y28.956
N453 X5.373 Y30.061
N454 X5.507 Y31.171
N455 X5.615 Y32.285
N456 X5.701 Y33.399
N457 X5.769 Y34.516
N458 X5.824 Y35.632
N459 X5.867 Y36.75
N460 X5.901 Y37.867
N461 X5.928 Y38.985
N462 X5.949 Y40.103
N463 X5.965 Y41.222
N464 X5.978 Y42.34
N465 X5.987 Y43.458
N466 X5.995 Y44.576
N467 X6.001 Y45.694
N468 X6.005 Y46.812
N469 X6.011 Y49.049
N470 X6.016 Y52.403
N471 X6.018 Y56.876
N472 Y57.995
N473 X6.004 Y59.113
N474 X5.968 Y59.947
N475 X5.926 Y60.474
N476 X5.875 Y60.907
N477 X5.824 Y61.239
N478 X5.758 Y61.58
N479 X5.693 Y61.863
N480 X5.627 Y62.108
N481 X5.546 Y62.368
N482 X5.464 Y62.602
N483 X5.385 Y62.804
N484 X5.379 Y62.819
N485 X5.192 Y63.166
N486 X4.951 Y63.478
N487 X4.661 Y63.745
N488 X4.331 Y63.961
N489 X3.97 Y64.12
N490 X3.588 Y64.217
N491 X3.195 Y64.25
N492 X2.006
N493 X1.72 Y64.252
N494 X1.228 Y64.258
N495 G3 X0.914 Y64.083 I0.008 J-0.383 F762
N496 X0.853 Y63.881 I0.322 J-0.207 F1524
N497 G1 X0.302 Y20.866
N498 G3 X0.418 Y20.586 I0.383 J-0.005
N499 X0.763 Y20.487 I0.266 J0.275 F762
N500 G1 X1.167 Y20.587 F1524
N501 X1.184 Y20.588
N502 X1.72 Y20.596
N503 X1.916 Y20.598
N504 X2.056 Y20.606
N505 X2.204 Y20.626
N506 X2.351 Y20.655
N507 X2.497 Y20.693
N508 X2.64 Y20.738
N509 X2.78 Y20.791
N510 X2.918 Y20.849
N511 X3.054 Y20.914
N512 X3.187 Y20.984
N513 X3.324 Y21.062
N514 X3.465 Y21.15
N515 X3.615 Y21.252
N516 X3.765 Y21.361
N517 X3.926 Y21.487
N518 X4.085 Y21.623
N519 X4.253 Y21.777
N520 X4.425 Y21.946
N521 X4.601 Y22.132
N522 X4.786 Y22.343
N523 X4.967 Y22.566
N524 X5.163 Y22.826
N525 X5.351 Y23.095
N526 X5.554 Y23.409
N527 X5.753 Y23.744
N528 X5.96 Y24.124
N529 X6.169 Y24.542
N530 X6.379 Y25.007
N531 X6.596 Y25.537
N532 X6.808 Y26.113
N533 X7.023 Y26.771
N534 X7.242 Y27.536
N535 X7.452 Y28.387
N536 X7.664 Y29.404
N537 X7.852 Y30.507
N538 X8.004 Y31.615
N539 X8.126 Y32.726
N540 X8.225 Y33.84
N541 X8.305 Y34.955
N542 X8.369 Y36.072
N543 X8.42 Y37.189
N544 X8.461 Y38.306
N545 X8.494 Y39.424
N546 X8.52 Y40.542
N547 X8.541 Y41.66
N548 X8.557 Y42.778
N549 X8.57 Y43.896
N550 X8.58 Y45.014
N551 X8.587 Y46.132
N552 X8.593 Y47.251
N553 X8.598 Y48.369
N554 X8.605 Y50.605
N555 X8.609 Y53.96
N556 X8.61 Y55.078
N557 X8.608 Y56.196
N558 X8.597 Y57.314
N559 X8.563 Y58.415
N560 X8.509 Y59.219
N561 X8.441 Y59.871
N562 X8.36 Y60.436
N563 X8.282 Y60.874
N564 X8.194 Y61.28
N565 X8.109 Y61.611
N566 X8.022 Y61.903
N567 X7.923 Y62.198
N568 X7.831 Y62.443
N569 X7.733 Y62.676
N570 X7.622 Y62.914
N571 X7.604 Y62.95
N572 X7.408 Y63.268
N573 X7.166 Y63.552
N574 X6.882 Y63.795
N575 X6.563 Y63.99
N576 X6.218 Y64.133
N577 X5.855 Y64.22
N578 X5.482 Y64.25
N579 X3.195
N580 G3 X2.834 Y64.164 I0.033 J-0.952 F762
N581 X2.277 Y63.327 I0.395 J-0.867 F1524
N582 G1 X0.988 Y21.579
N583 G3 X1.554 Y20.68 I0.952 J-0.029
N584 X1.916 Y20.598 I0.387 J0.87 F762
N585 G1 X2.006 Y20.599 F1524
N586 X3.662
N587 X3.802 Y20.606
N588 X3.951 Y20.618
N589 X4.1 Y20.638
N590 X4.247 Y20.666
N591 X4.393 Y20.702
N592 X4.537 Y20.744
N593 X4.679 Y20.793
N594 X4.819 Y20.846
N595 X4.963 Y20.908
N596 X5.108 Y20.977
N597 X5.262 Y21.057
N598 X5.418 Y21.146
N599 X5.582 Y21.247
N600 X5.75 Y21.36
N601 X5.923 Y21.485
N602 X6.102 Y21.625
N603 X6.285 Y21.779
N604 X6.475 Y21.952
N605 X6.667 Y22.139
N606 X6.867 Y22.35
N607 X7.068 Y22.577
N608 X7.277 Y22.832
N609 X7.486 Y23.106
N610 X7.703 Y23.414
N611 X7.919 Y23.746
N612 X8.143 Y24.121
N613 X8.366 Y24.525
N614 X8.594 Y24.978
N615 X8.822 Y25.477
N616 X9.053 Y26.032
N617 X9.286 Y26.659
N618 X9.511 Y27.341
N619 X9.743 Y28.138
N620 X9.972 Y29.049
N621 X10.194 Y30.098
N622 X10.386 Y31.199
N623 X10.543 Y32.307
N624 X10.671 Y33.417
N625 X10.776 Y34.531
N626 X10.861 Y35.646
N627 X10.93 Y36.762
N628 X10.986 Y37.879
N629 X11.031 Y38.996
N630 X11.068 Y40.114
N631 X11.097 Y41.231
N632 X11.12 Y42.349
N633 X11.139 Y43.467
N634 X11.154 Y44.586
N635 X11.166 Y45.704
N636 X11.175 Y46.822
N637 X11.182 Y47.94
N638 X11.188 Y49.058
N639 X11.196 Y51.295
N640 X11.199 Y52.413
N641 X11.2 Y53.531
N642 X11.198 Y54.649
N643 X11.187 Y55.767
N644 X11.159 Y56.885
N645 X11.102 Y57.999
N646 X11.026 Y58.865
N647 X10.938 Y59.566
N648 X10.838 Y60.177
N649 X10.729 Y60.721
N650 X10.624 Y61.16
N651 X10.512 Y61.56
N652 X10.408 Y61.885
N653 X10.302 Y62.18
N654 X10.188 Y62.464
N655 X10.083 Y62.7
N656 X9.966 Y62.94
N657 X9.937 Y62.994
N658 X9.702 Y63.351
N659 X9.407 Y63.66
N660 X9.061 Y63.912
N661 X8.676 Y64.097
N662 X8.264 Y64.211
N663 X7.838 Y64.25
N664 X5.482
N665 G3 X5.12 Y64.164 I0.033 J-0.952 F762
N666 X4.564 Y63.339 I0.395 J-0.867 F1524
N667 G1 X2.744 Y21.592
N668 G3 X3.3 Y20.684 I0.952 J-0.041
N669 X3.662 Y20.599 I0.395 J0.867 F762
N670 G1 X5.72 F1524
N671 X5.859 Y20.606
N672 X6.009 Y20.617
N673 X6.158 Y20.636
N674 X6.305 Y20.663
N675 X6.452 Y20.697
N676 X6.596 Y20.736
N677 X6.739 Y20.782
N678 X6.88 Y20.833
N679 X7.032 Y20.894
N680 X7.185 Y20.963
N681 X7.349 Y21.043
N682 X7.513 Y21.131
N683 X7.688 Y21.234
N684 X7.864 Y21.346
N685 X8.05 Y21.475
N686 X8.238 Y21.615
N687 X8.435 Y21.773
N688 X8.633 Y21.945
N689 X8.841 Y22.139
N690 X9.049 Y22.348
N691 X9.268 Y22.585
N692 X9.484 Y22.837
N693 X9.714 Y23.125
N694 X9.937 Y23.428
N695 X10.177 Y23.778
N696 X10.405 Y24.14
N697 X10.651 Y24.564
N698 X10.887 Y25.007
N699 X11.136 Y25.519
N700 X11.379 Y26.069
N701 X11.626 Y26.691
N702 X11.876 Y27.393
N703 X12.113 Y28.145
N704 X12.355 Y29.023
N705 X12.594 Y30.035
N706 X12.811 Y31.132
N707 X12.991 Y32.236
N708 X13.139 Y33.344
N709 X13.262 Y34.455
N710 X13.363 Y35.569
N711 X13.447 Y36.684
N712 X13.515 Y37.8
N713 X13.571 Y38.917
N714 X13.616 Y40.034
N715 X13.653 Y41.152
N716 X13.683 Y42.27
N717 X13.707 Y43.388
N718 X13.727 Y44.506
N719 X13.743 Y45.624
N720 X13.755 Y46.742
N721 X13.765 Y47.86
N722 X13.773 Y48.978
N723 X13.779 Y50.096
N724 X13.784 Y51.215
N725 X13.786 Y52.333
N726 X13.783 Y53.451
N727 X13.772 Y54.569
N728 X13.747 Y55.687
N729 X13.697 Y56.804
N730 X13.616 Y57.898
N731 X13.517 Y58.788
N732 X13.407 Y59.529
N733 X13.287 Y60.176
N734 X13.16 Y60.738
N735 X13.036 Y61.212
N736 X12.916 Y61.607
N737 X12.792 Y61.966
N738 X12.684 Y62.247
N739 X12.56 Y62.537
N740 X12.437 Y62.797
N741 X12.324 Y63.014
N742 X12.309 Y63.041
N743 X12.072 Y63.386
N744 X11.778 Y63.684
N745 X11.436 Y63.925
N746 X11.058 Y64.104
N747 X10.654 Y64.213
N748 X10.237 Y64.25
N749 X7.838
N750 G3 X7.477 Y64.164 I0.033 J-0.952 F762
N751 X6.92 Y63.346 I0.395 J-0.867 F1524
N752 G1 X4.802 Y21.599
N753 G3 X5.358 Y20.684 I0.951 J-0.048
N754 X5.72 Y20.599 I0.395 J0.867 F762
N755 G1 X7.877 F1524
N756 X8.016 Y20.606
N757 X8.166 Y20.616
N758 X8.315 Y20.634
N759 X8.463 Y20.658
N760 X8.61 Y20.69
N761 X8.755 Y20.728
N762 X8.899 Y20.772
N763 X9.044 Y20.821
N764 X9.201 Y20.882
N765 X9.358 Y20.949
N766 X9.527 Y21.029
N767 X9.698 Y21.118
N768 X9.878 Y21.219
N769 X10.061 Y21.332
N770 X10.253 Y21.46
N771 X10.45 Y21.602
N772 X10.654 Y21.761
N773 X10.86 Y21.934
N774 X11.076 Y22.13
N775 X11.295 Y22.342
N776 X11.523 Y22.581
N777 X11.749 Y22.837
N778 X11.99 Y23.129
N779 X12.224 Y23.436
N780 X12.476 Y23.793
N781 X12.717 Y24.162
N782 X12.974 Y24.588
N783 X13.224 Y25.041
N784 X13.482 Y25.552
N785 X13.743 Y26.119
N786 X13.999 Y26.733
N787 X14.267 Y27.448
N788 X14.518 Y28.203
N789 X14.771 Y29.07
N790 X15.024 Y30.069
N791 X15.258 Y31.163
N792 X15.454 Y32.263
N793 X15.619 Y33.369
N794 X15.756 Y34.479
N795 X15.87 Y35.592
N796 X15.965 Y36.706
N797 X16.044 Y37.821
N798 X16.11 Y38.937
N799 X16.163 Y40.054
N800 X16.208 Y41.172
N801 X16.244 Y42.289
N802 X16.274 Y43.407
N803 X16.298 Y44.525
N804 X16.318 Y45.643
N805 X16.334 Y46.761
N806 X16.346 Y47.879
N807 X16.357 Y48.998
N808 X16.364 Y50.116
N809 X16.367 Y51.234
N810 X16.365 Y52.352
N811 X16.355 Y53.47
N812 X16.331 Y54.588
N813 X16.288 Y55.706
N814 X16.219 Y56.822
N815 X16.116 Y57.919
N816 X15.999 Y58.812
N817 X15.87 Y59.58
N818 X15.733 Y60.24
N819 X15.593 Y60.815
N820 X15.454 Y61.301
N821 X15.327 Y61.693
N822 X15.195 Y62.053
N823 X15.08 Y62.335
N824 X14.95 Y62.624
N825 X14.822 Y62.881
N826 X14.755 Y63.005
N827 X14.519 Y63.359
N828 X14.225 Y63.666
N829 X13.88 Y63.915
N830 X13.496 Y64.099
N831 X13.086 Y64.212
N832 X12.662 Y64.25
N833 X10.237
N834 G3 X9.875 Y64.164 I0.033 J-0.952 F762
N835 X9.319 Y63.351 I0.395 J-0.867 F1524
N836 G1 X6.959 Y21.604
N837 G3 X7.515 Y20.684 I0.951 J-0.054
N838 X7.877 Y20.599 I0.395 J0.867 F762
N839 G1 X10.162 F1524
N840 X10.302 Y20.606
N841 X10.452 Y20.618
N842 X10.6 Y20.637
N843 X10.748 Y20.663
N844 X10.894 Y20.696
N845 X11.039 Y20.734
N846 X11.188 Y20.78
N847 X11.339 Y20.832
N848 X11.502 Y20.895
N849 X11.664 Y20.966
N850 X11.841 Y21.05
N851 X12.017 Y21.142
N852 X12.206 Y21.25
N853 X12.394 Y21.366
N854 X12.597 Y21.502
N855 X12.798 Y21.648
N856 X13.013 Y21.817
N857 X13.226 Y21.997
N858 X13.454 Y22.205
N859 X13.678 Y22.424
N860 X13.919 Y22.679
N861 X14.154 Y22.945
N862 X14.405 Y23.252
N863 X14.651 Y23.576
N864 X14.91 Y23.946
N865 X15.169 Y24.346
N866 X15.431 Y24.784
N867 X15.704 Y25.282
N868 X15.965 Y25.802
N869 X16.244 Y26.413
N870 X16.51 Y27.058
N871 X16.781 Y27.79
N872 X17.055 Y28.622
N873 X17.322 Y29.546
N874 X17.582 Y30.591
N875 X17.813 Y31.686
N876 X18.008 Y32.787
N877 X18.172 Y33.893
N878 X18.311 Y35.002
N879 X18.428 Y36.114
N880 X18.526 Y37.228
N881 X18.607 Y38.344
N882 X18.676 Y39.46
N883 X18.733 Y40.576
N884 X18.78 Y41.694
N885 X18.819 Y42.811
N886 X18.851 Y43.929
N887 X18.878 Y45.047
N888 X18.899 Y46.165
N889 X18.917 Y47.283
N890 X18.93 Y48.401
N891 X18.94 Y49.519
N892 X18.943 Y50.637
N893 X18.94 Y51.756
N894 X18.927 Y52.874
N895 X18.899 Y53.992
N896 X18.853 Y55.109
N897 X18.784 Y56.225
N898 X18.684 Y57.339
N899 X18.562 Y58.326
N900 X18.422 Y59.193
N901 X18.277 Y59.921
N902 X18.128 Y60.549
N903 X17.975 Y61.102
N904 X17.841 Y61.526
N905 X17.697 Y61.928
N906 X17.576 Y62.23
N907 X17.444 Y62.529
N908 X17.311 Y62.802
N909 X17.19 Y63.027
N910 X17.168 Y63.066
N911 X16.929 Y63.404
N912 X16.636 Y63.696
N913 X16.297 Y63.933
N914 X15.921 Y64.107
N915 X15.522 Y64.214
N916 X15.11 Y64.25
N917 X12.662
N918 G3 X12.301 Y64.164 I0.033 J-0.952 F762
N919 X11.745 Y63.355 I0.395 J-0.867 F1524
N920 G1 X9.245 Y21.608
N921 G3 X9.801 Y20.684 I0.951 J-0.057
N922 X10.162 Y20.599 I0.395 J0.867 F762
N923 G1 X12.448 F1524
N924 X12.588 Y20.606
N925 X12.737 Y20.617
N926 X12.886 Y20.635
N927 X13.034 Y20.66
N928 X13.181 Y20.692
N929 X13.326 Y20.729
N930 X13.474 Y20.773
N931 X13.631 Y20.826
N932 X13.791 Y20.887
N933 X13.962 Y20.959
N934 X14.134 Y21.04
N935 X14.32 Y21.135
N936 X14.505 Y21.238
N937 X14.705 Y21.36
N938 X14.903 Y21.491
N939 X15.117 Y21.644
N940 X15.328 Y21.806
N941 X15.556 Y21.996
N942 X15.78 Y22.196
N943 X16.02 Y22.427
N944 X16.255 Y22.672
N945 X16.508 Y22.954
N946 X16.757 Y23.254
N947 X17.017 Y23.591
N948 X17.281 Y23.96
N949 X17.547 Y24.364
N950 X17.826 Y24.822
N951 X18.095 Y25.304
N952 X18.383 Y25.866
N953 X18.658 Y26.457
N954 X18.942 Y27.129
N955 X19.232 Y27.893
N956 X19.504 Y28.697
N957 X19.781 Y29.625
N958 X20.056 Y30.691
N959 X20.295 Y31.783
N960 X20.499 Y32.883
N961 X20.673 Y33.987
N962 X20.822 Y35.096
N963 X20.947 Y36.207
N964 X21.053 Y37.32
N965 X21.143 Y38.435
N966 X21.219 Y39.55
N967 X21.282 Y40.667
N968 X21.335 Y41.784
N969 X21.38 Y42.901
N970 X21.417 Y44.018
N971 X21.447 Y45.136
N972 X21.472 Y46.254
N973 X21.492 Y47.372
N974 X21.506 Y48.49
N975 X21.513 Y49.609
N976 Y50.727
N977 X21.503 Y51.845
N978 X21.481 Y52.963
N979 X21.442 Y54.08
N980 X21.384 Y55.197
N981 X21.301 Y56.312
N982 X21.185 Y57.424
N983 X21.043 Y58.45
N984 X20.893 Y59.298
N985 X20.736 Y60.029
N986 X20.575 Y60.666
N987 X20.415 Y61.213
N988 X20.278 Y61.624
N989 X20.13 Y62.018
N990 X20.005 Y62.318
N991 X19.871 Y62.608
N992 X19.734 Y62.879
N993 X19.655 Y63.021
N994 X19.419 Y63.371
N995 X19.124 Y63.674
N996 X18.781 Y63.92
N997 X18.4 Y64.101
N998 X17.992 Y64.212
N999 X17.572 Y64.25
N1000 X15.11
N1001 G3 X14.748 Y64.164 I0.033 J-0.952 F762
N1002 X14.192 Y63.358 I0.395 J-0.867 F1524
N1003 G1 X11.531 Y21.611
N1004 G3 X12.086 Y20.684 I0.951 J-0.061
N1005 X12.448 Y20.599 I0.395 J0.867 F762
N1006 G1 X14.734 F1524
N1007 X15.023 Y20.614
N1008 X15.172 Y20.63
N1009 X15.32 Y20.652
N1010 X15.468 Y20.681
N1011 X15.613 Y20.716
N1012 X15.759 Y20.757
N1013 X15.917 Y20.808
N1014 X16.075 Y20.865
N1015 X16.247 Y20.934
N1016 X16.419 Y21.011
N1017 X16.605 Y21.102
N1018 X16.792 Y21.203
N1019 X16.99 Y21.319
N1020 X17.192 Y21.447
N1021 X17.404 Y21.594
N1022 X17.621 Y21.755
N1023 X17.847 Y21.937
N1024 X18.076 Y22.135
N1025 X18.316 Y22.36
N1026 X18.559 Y22.603
N1027 X18.815 Y22.88
N1028 X19.066 Y23.173
N1029 X19.337 Y23.512
N1030 X19.598 Y23.866
N1031 X19.88 Y24.277
N1032 X20.155 Y24.714
N1033 X20.438 Y25.201
N1034 X20.731 Y25.751
N1035 X21.012 Y26.329
N1036 X21.313 Y27.009
N1037 X21.6 Y27.73
N1038 X21.887 Y28.536
N1039 X22.178 Y29.456
N1040 X22.465 Y30.497
N1041 X22.722 Y31.586
N1042 X22.943 Y32.682
N1043 X23.133 Y33.784
N1044 X23.296 Y34.89
N1045 X23.435 Y36
N1046 X23.554 Y37.111
N1047 X23.655 Y38.225
N1048 X23.741 Y39.34
N1049 X23.814 Y40.456
N1050 X23.876 Y41.572
N1051 X23.927 Y42.689
N1052 X23.971 Y43.807
N1053 X24.007 Y44.924
N1054 X24.035 Y46.042
N1055 X24.058 Y47.16
N1056 X24.073 Y48.278
N1057 X24.08 Y49.396
N1058 X24.078 Y50.515
N1059 X24.065 Y51.633
N1060 X24.039 Y52.751
N1061 X23.995 Y53.868
N1062 X23.931 Y54.984
N1063 X23.842 Y56.099
N1064 X23.723 Y57.211
N1065 X23.577 Y58.252
N1066 X23.416 Y59.164
N1067 X23.251 Y59.928
N1068 X23.085 Y60.578
N1069 X22.918 Y61.149
N1070 X22.772 Y61.585
N1071 X22.62 Y61.99
N1072 X22.493 Y62.292
N1073 X22.352 Y62.597
N1074 X22.216 Y62.865
N1075 X22.086 Y63.099
N1076 X21.847 Y63.428
N1077 X21.555 Y63.712
N1078 X21.218 Y63.942
N1079 X20.848 Y64.111
N1080 X20.454 Y64.215
N1081 X20.048 Y64.25
N1082 X17.572
N1083 G3 X17.21 Y64.164 I0.033 J-0.952 F762
N1084 X16.655 Y63.362 I0.395 J-0.867 F1524
N1085 G1 X13.817 Y21.615
N1086 G3 X14.372 Y20.684 I0.95 J-0.065
N1087 X14.734 Y20.599 I0.395 J0.867 F762
N1088 G1 X17.148 F1524
N1089 X17.287 Y20.606
N1090 X17.437 Y20.617
N1091 X17.586 Y20.635
N1092 X17.734 Y20.659
N1093 X17.881 Y20.69
N1094 X18.026 Y20.727
N1095 X18.181 Y20.772
N1096 X18.337 Y20.824
N1097 X18.506 Y20.887
N1098 X18.677 Y20.958
N1099 X18.859 Y21.042
N1100 X19.045 Y21.135
N1101 X19.241 Y21.243
N1102 X19.443 Y21.364
N1103 X19.652 Y21.501
N1104 X19.869 Y21.654
N1105 X20.092 Y21.824
N1106 X20.323 Y22.014
N1107 X20.561 Y22.225
N1108 X20.807 Y22.458
N1109 X21.06 Y22.718
N1110 X21.315 Y23
N1111 X21.586 Y23.321
N1112 X21.852 Y23.663
N1113 X22.138 Y24.058
N1114 X22.412 Y24.468
N1115 X22.703 Y24.941
N1116 X22.995 Y25.455
N1117 X23.288 Y26.019
N1118 X23.598 Y26.675
N1119 X23.887 Y27.349
N1120 X24.189 Y28.13
N1121 X24.493 Y29.011
N1122 X24.792 Y29.996
N1123 X25.078 Y31.077
N1124 X25.325 Y32.168
N1125 X25.538 Y33.265
N1126 X25.722 Y34.368
N1127 X25.881 Y35.475
N1128 X26.017 Y36.585
N1129 X26.134 Y37.697
N1130 X26.235 Y38.811
N1131 X26.32 Y39.926
N1132 X26.393 Y41.042
N1133 X26.455 Y42.158
N1134 X26.507 Y43.275
N1135 X26.55 Y44.392
N1136 X26.585 Y45.51
N1137 X26.612 Y46.628
N1138 X26.631 Y47.746
N1139 X26.641 Y48.864
N1140 Y49.982
N1141 X26.629 Y51.101
N1142 X26.603 Y52.219
N1143 X26.56 Y53.336
N1144 X26.498 Y54.452
N1145 X26.414 Y55.567
N1146 X26.301 Y56.68
N1147 X26.157 Y57.789
N1148 X25.997 Y58.753
N1149 X25.824 Y59.598
N1150 X25.654 Y60.301
N1151 X25.48 Y60.917
N1152 X25.315 Y61.43
N1153 X25.169 Y61.833
N1154 X25.023 Y62.194
N1155 X24.896 Y62.478
N1156 X24.751 Y62.771
N1157 X24.617 Y63.02
N1158 X24.584 Y63.076
N1159 X24.345 Y63.411
N1160 X24.052 Y63.701
N1161 X23.714 Y63.935
N1162 X23.34 Y64.108
N1163 X22.942 Y64.214
N1164 X22.531 Y64.25
N1165 X20.048
N1166 G3 X19.686 Y64.164 I0.033 J-0.952 F762
N1167 X19.131 Y63.364 I0.395 J-0.867 F1524
N1168 G1 X16.231 Y21.617
N1169 G3 X16.786 Y20.684 I0.95 J-0.066
N1170 X17.148 Y20.599 I0.395 J0.867 F762
N1171 G1 X19.52 F1524
N1172 X19.659 Y20.606
N1173 X19.809 Y20.616
N1174 X19.958 Y20.633
N1175 X20.106 Y20.657
N1176 X20.253 Y20.687
N1177 X20.401 Y20.723
N1178 X20.55 Y20.766
N1179 X20.714 Y20.819
N1180 X20.877 Y20.878
N1181 X21.054 Y20.951
N1182 X21.232 Y21.031
N1183 X21.423 Y21.126
N1184 X21.618 Y21.232
N1185 X21.823 Y21.353
N1186 X22.033 Y21.488
N1187 X22.251 Y21.64
N1188 X22.477 Y21.81
N1189 X22.711 Y21.999
N1190 X22.951 Y22.21
N1191 X23.2 Y22.444
N1192 X23.453 Y22.7
N1193 X23.718 Y22.989
N1194 X23.985 Y23.302
N1195 X24.268 Y23.66
N1196 X24.541 Y24.033
N1197 X24.836 Y24.469
N1198 X25.124 Y24.929
N1199 X25.424 Y25.451
N1200 X25.731 Y26.034
N1201 X26.031 Y26.658
N1202 X26.348 Y27.383
N1203 X26.655 Y28.163
N1204 X26.958 Y29.025
N1205 X27.264 Y30.01
N1206 X27.557 Y31.089
N1207 X27.811 Y32.178
N1208 X28.032 Y33.274
N1209 X28.224 Y34.375
N1210 X28.39 Y35.481
N1211 X28.534 Y36.59
N1212 X28.659 Y37.701
N1213 X28.766 Y38.814
N1214 X28.858 Y39.929
N1215 X28.937 Y41.044
N1216 X29.004 Y42.161
N1217 X29.06 Y43.277
N1218 X29.107 Y44.395
N1219 X29.144 Y45.512
N1220 X29.172 Y46.63
N1221 X29.191 Y47.748
N1222 X29.199 Y48.866
N1223 X29.196 Y49.984
N1224 X29.18 Y51.103
N1225 X29.149 Y52.22
N1226 X29.101 Y53.338
N1227 X29.033 Y54.454
N1228 X28.942 Y55.568
N1229 X28.823 Y56.68
N1230 X28.672 Y57.788
N1231 X28.497 Y58.803
N1232 X28.322 Y59.633
N1233 X28.142 Y60.351
N1234 X27.964 Y60.968
N1235 X27.802 Y61.461
N1236 X27.645 Y61.883
N1237 X27.503 Y62.227
N1238 X27.372 Y62.514
N1239 X27.225 Y62.808
N1240 X27.092 Y63.049
N1241 X27.068 Y63.09
N1242 X26.829 Y63.422
N1243 X26.536 Y63.708
N1244 X26.199 Y63.939
N1245 X25.827 Y64.11
N1246 X25.431 Y64.214
N1247 X25.024 Y64.25
N1248 X22.531
N1249 G3 X22.17 Y64.164 I0.033 J-0.952 F762
N1250 X21.615 Y63.366 I0.395 J-0.867 F1524
N1251 G1 X18.603 Y21.619
N1252 G3 X19.158 Y20.684 I0.95 J-0.069
N1253 X19.52 Y20.599 I0.395 J0.867 F762
N1254 G1 X21.876 F1524
N1255 X22.165 Y20.613
N1256 X22.315 Y20.628
N1257 X22.463 Y20.649
N1258 X22.611 Y20.677
N1259 X22.758 Y20.711
N1260 X22.906 Y20.751
N1261 X23.066 Y20.8
N1262 X23.229 Y20.857
N1263 X23.403 Y20.925
N1264 X23.584 Y21.004
N1265 X23.771 Y21.093
N1266 X23.967 Y21.196
N1267 X24.168 Y21.311
N1268 X24.382 Y21.444
N1269 X24.597 Y21.589
N1270 X24.826 Y21.756
N1271 X25.055 Y21.937
N1272 X25.3 Y22.145
N1273 X25.545 Y22.369
N1274 X25.805 Y22.624
N1275 X26.066 Y22.901
N1276 X26.337 Y23.21
N1277 X26.615 Y23.552
N1278 X26.899 Y23.928
N1279 X27.197 Y24.354
N1280 X27.486 Y24.803
N1281 X27.796 Y25.324
N1282 X28.098 Y25.876
N1283 X28.409 Y26.5
N1284 X28.733 Y27.215
N1285 X29.038 Y27.957
N1286 X29.353 Y28.813
N1287 X29.669 Y29.781
N1288 X29.977 Y30.856
N1289 X30.246 Y31.941
N1290 X30.482 Y33.034
N1291 X30.687 Y34.133
N1292 X30.866 Y35.237
N1293 X31.022 Y36.344
N1294 X31.157 Y37.454
N1295 X31.274 Y38.566
N1296 X31.375 Y39.68
N1297 X31.462 Y40.795
N1298 X31.537 Y41.911
N1299 X31.599 Y43.027
N1300 X31.651 Y44.144
N1301 X31.693 Y45.262
N1302 X31.724 Y46.379
N1303 X31.744 Y47.497
N1304 X31.753 Y48.616
N1305 X31.75 Y49.734
N1306 X31.734 Y50.852
N1307 X31.702 Y51.97
N1308 X31.653 Y53.087
N1309 X31.584 Y54.203
N1310 X31.492 Y55.317
N1311 X31.374 Y56.429
N1312 X31.226 Y57.538
N1313 X31.055 Y58.555
N1314 X30.871 Y59.454
N1315 X30.69 Y60.194
N1316 X30.508 Y60.835
N1317 X30.333 Y61.377
N1318 X30.182 Y61.792
N1319 X30.029 Y62.168
N1320 X29.898 Y62.459
N1321 X29.75 Y62.757
N1322 X29.613 Y63.01
N1323 X29.572 Y63.079
N1324 X29.333 Y63.414
N1325 X29.041 Y63.702
N1326 X28.702 Y63.936
N1327 X28.329 Y64.109
N1328 X27.932 Y64.214
N1329 X27.522 Y64.25
N1330 X25.024
N1331 G3 X24.662 Y64.164 I0.033 J-0.952 F762
N1332 X24.107 Y63.369 I0.395 J-0.867 F1524
N1333 G1 X20.959 Y21.622
N1334 G3 X21.514 Y20.684 I0.95 J-0.072
N1335 X21.876 Y20.599 I0.395 J0.867 F762
N1336 G1 X24.377 F1524
N1337 X24.516 Y20.606
N1338 X24.666 Y20.617
N1339 X24.815 Y20.635
N1340 X24.963 Y20.66
N1341 X25.109 Y20.691
N1342 X25.255 Y20.728
N1343 X25.415 Y20.774
N1344 X25.575 Y20.826
N1345 X25.748 Y20.89
N1346 X25.924 Y20.963
N1347 X26.111 Y21.048
N1348 X26.303 Y21.145
N1349 X26.504 Y21.255
N1350 X26.715 Y21.381
N1351 X26.93 Y21.521
N1352 X27.156 Y21.679
N1353 X27.386 Y21.854
N1354 X27.629 Y22.053
N1355 X27.875 Y22.269
N1356 X28.132 Y22.513
N1357 X28.394 Y22.781
N1358 X28.665 Y23.078
N1359 X28.945 Y23.41
N1360 X29.229 Y23.772
N1361 X29.53 Y24.186
N1362 X29.819 Y24.617
N1363 X30.131 Y25.12
N1364 X30.436 Y25.656
N1365 X30.751 Y26.259
N1366 X31.081 Y26.952
N1367 X31.391 Y27.67
N1368 X31.714 Y28.5
N1369 X32.039 Y29.437
N1370 X32.361 Y30.489
N1371 X32.649 Y31.57
N1372 X32.902 Y32.659
N1373 X33.124 Y33.755
N1374 X33.318 Y34.856
N1375 X33.488 Y35.961
N1376 X33.636 Y37.07
N1377 X33.765 Y38.181
N1378 X33.877 Y39.293
N1379 X33.974 Y40.407
N1380 X34.057 Y41.522
N1381 X34.127 Y42.638
N1382 X34.185 Y43.755
N1383 X34.232 Y44.872
N1384 X34.267 Y45.99
N1385 X34.291 Y47.108
N1386 X34.303 Y48.226
N1387 X34.302 Y49.344
N1388 X34.288 Y50.462
N1389 X34.258 Y51.58
N1390 X34.211 Y52.697
N1391 X34.144 Y53.814
N1392 X34.056 Y54.928
N1393 X33.943 Y56.041
N1394 X33.801 Y57.15
N1395 X33.626 Y58.254
N1396 X33.441 Y59.193
N1397 X33.254 Y59.985
N1398 X33.068 Y60.664
N1399 X32.886 Y61.242
N1400 X32.732 Y61.675
N1401 X32.571 Y62.08
N1402 X32.438 Y62.383
N1403 X32.292 Y62.683
N1404 X32.15 Y62.95
N1405 X32.085 Y63.062
N1406 X31.847 Y63.401
N1407 X31.553 Y63.694
N1408 X31.214 Y63.931
N1409 X30.838 Y64.106
N1410 X30.438 Y64.213
N1411 X30.025 Y64.25
N1412 X27.522
N1413 G3 X27.16 Y64.164 I0.033 J-0.952 F762
N1414 X26.605 Y63.369 I0.395 J-0.867 F1524
N1415 G1 X23.46 Y21.622
N1416 G3 X24.015 Y20.684 I0.95 J-0.072
N1417 X24.377 Y20.599 I0.395 J0.867 F762
N1418 G1 X26.733 F1524
N1419 X27.022 Y20.613
N1420 X27.172 Y20.627
N1421 X27.32 Y20.649
N1422 X27.468 Y20.676
N1423 X27.614 Y20.709
N1424 X27.767 Y20.75
N1425 X27.926 Y20.798
N1426 X28.096 Y20.858
N1427 X28.268 Y20.924
N1428 X28.454 Y21.005
N1429 X28.64 Y21.093
N1430 X28.842 Y21.198
N1431 X29.045 Y21.314
N1432 X29.261 Y21.448
N1433 X29.48 Y21.595
N1434 X29.712 Y21.763
N1435 X29.949 Y21.948
N1436 X30.196 Y22.157
N1437 X30.447 Y22.385
N1438 X30.712 Y22.644
N1439 X30.978 Y22.924
N1440 X31.261 Y23.246
N1441 X31.541 Y23.587
N1442 X31.841 Y23.983
N1443 X32.132 Y24.396
N1444 X32.441 Y24.874
N1445 X32.753 Y25.394
N1446 X33.068 Y25.967
N1447 X33.403 Y26.635
N1448 X33.717 Y27.322
N1449 X34.045 Y28.116
N1450 X34.378 Y29.012
N1451 X34.709 Y30.015
N1452 X35.02 Y31.089
N1453 X35.293 Y32.173
N1454 X35.534 Y33.265
N1455 X35.746 Y34.363
N1456 X35.932 Y35.466
N1457 X36.095 Y36.572
N1458 X36.237 Y37.681
N1459 X36.362 Y38.793
N1460 X36.47 Y39.906
N1461 X36.562 Y41.02
N1462 X36.641 Y42.135
N1463 X36.707 Y43.252
N1464 X36.761 Y44.369
N1465 X36.802 Y45.486
N1466 X36.831 Y46.604
N1467 X36.848 Y47.722
N1468 X36.851 Y48.84
N1469 X36.841 Y49.958
N1470 X36.815 Y51.076
N1471 X36.772 Y52.194
N1472 X36.711 Y53.31
N1473 X36.629 Y54.425
N1474 X36.524 Y55.539
N1475 X36.392 Y56.649
N1476 X36.229 Y57.755
N1477 X36.043 Y58.778
N1478 X35.852 Y59.644
N1479 X35.665 Y60.365
N1480 X35.476 Y60.999
N1481 X35.31 Y61.487
N1482 X35.144 Y61.923
N1483 X35.002 Y62.258
N1484 X34.864 Y62.555
N1485 X34.715 Y62.846
N1486 X34.583 Y63.081
N1487 X34.566 Y63.108
N1488 X34.326 Y63.435
N1489 X34.034 Y63.717
N1490 X33.699 Y63.945
N1491 X33.33 Y64.112
N1492 X32.937 Y64.215
N1493 X32.533 Y64.25
N1494 X30.025
N1495 G3 X29.663 Y64.164 I0.033 J-0.952 F762
N1496 X29.108 Y63.373 I0.395 J-0.867 F1524
N1497 G1 X25.817 Y21.626
N1498 G3 X26.371 Y20.684 I0.95 J-0.075
N1499 X26.733 Y20.599 I0.395 J0.867 F762
N1500 G1 X29.233 F1524
N1501 X29.373 Y20.606
N1502 X29.523 Y20.616
N1503 X29.672 Y20.633
N1504 X29.82 Y20.656
N1505 X29.967 Y20.685
N1506 X30.113 Y20.72
N1507 X30.271 Y20.765
N1508 X30.433 Y20.817
N1509 X30.604 Y20.878
N1510 X30.784 Y20.95
N1511 X30.968 Y21.033
N1512 X31.167 Y21.13
N1513 X31.365 Y21.236
N1514 X31.579 Y21.362
N1515 X31.792 Y21.497
N1516 X32.024 Y21.657
N1517 X32.253 Y21.827
N1518 X32.501 Y22.027
N1519 X32.746 Y22.238
N1520 X33.011 Y22.486
N1521 X33.271 Y22.746
N1522 X33.554 Y23.052
N1523 X33.831 Y23.373
N1524 X34.126 Y23.742
N1525 X34.421 Y24.141
N1526 X34.726 Y24.587
N1527 X35.044 Y25.09
N1528 X35.355 Y25.625
N1529 X35.69 Y26.253
N1530 X36.012 Y26.915
N1531 X36.343 Y27.663
N1532 X36.682 Y28.51
N1533 X37.02 Y29.458
N1534 X37.355 Y30.518
N1535 X37.653 Y31.596
N1536 X37.916 Y32.682
N1537 X38.148 Y33.776
N1538 X38.352 Y34.876
N1539 X38.532 Y35.979
N1540 X38.69 Y37.087
N1541 X38.828 Y38.196
N1542 X38.948 Y39.308
N1543 X39.053 Y40.421
N1544 X39.142 Y41.536
N1545 X39.217 Y42.652
N1546 X39.279 Y43.768
N1547 X39.328 Y44.885
N1548 X39.364 Y46.003
N1549 X39.387 Y47.121
N1550 X39.396 Y48.239
N1551 X39.392 Y49.357
N1552 X39.372 Y50.475
N1553 X39.336 Y51.593
N1554 X39.282 Y52.71
N1555 X39.208 Y53.826
N1556 X39.113 Y54.94
N1557 X38.993 Y56.051
N1558 X38.844 Y57.16
N1559 X38.661 Y58.263
N1560 X38.472 Y59.198
N1561 X38.276 Y60.011
N1562 X38.088 Y60.683
N1563 X37.899 Y61.273
N1564 X37.743 Y61.703
N1565 X37.58 Y62.107
N1566 X37.444 Y62.411
N1567 X37.299 Y62.707
N1568 X37.155 Y62.975
N1569 X37.097 Y63.073
N1570 X36.859 Y63.409
N1571 X36.566 Y63.699
N1572 X36.227 Y63.935
N1573 X35.853 Y64.108
N1574 X35.454 Y64.214
N1575 X35.043 Y64.25
N1576 X32.533
N1577 G3 X32.171 Y64.164 I0.033 J-0.952 F762
N1578 X31.617 Y63.373 I0.395 J-0.867 F1524
N1579 G1 X28.317 Y21.626
N1580 G3 X28.872 Y20.684 I0.95 J-0.075
N1581 X29.233 Y20.599 I0.395 J0.867 F762
N1582 G1 X31.718 F1524
N1583 X31.858 Y20.606
N1584 X32.007 Y20.617
N1585 X32.156 Y20.635
N1586 X32.304 Y20.66
N1587 X32.451 Y20.69
N1588 X32.605 Y20.728
N1589 X32.76 Y20.773
N1590 X32.929 Y20.828
N1591 X33.099 Y20.89
N1592 X33.282 Y20.966
N1593 X33.469 Y21.05
N1594 X33.667 Y21.149
N1595 X33.871 Y21.261
N1596 X34.084 Y21.387
N1597 X34.306 Y21.53
N1598 X34.534 Y21.689
N1599 X34.774 Y21.871
N1600 X35.017 Y22.069
N1601 X35.273 Y22.293
N1602 X35.534 Y22.539
N1603 X35.807 Y22.817
N1604 X36.086 Y23.122
N1605 X36.372 Y23.459
N1606 X36.672 Y23.84
N1607 X36.969 Y24.246
N1608 X37.29 Y24.722
N1609 X37.597 Y25.215
N1610 X37.927 Y25.792
N1611 X38.258 Y26.422
N1612 X38.589 Y27.113
N1613 X38.932 Y27.903
N1614 X39.276 Y28.781
N1615 X39.611 Y29.739
N1616 X39.941 Y30.807
N1617 X40.232 Y31.886
N1618 X40.491 Y32.974
N1619 X40.719 Y34.069
N1620 X40.921 Y35.169
N1621 X41.099 Y36.273
N1622 X41.255 Y37.38
N1623 X41.392 Y38.49
N1624 X41.512 Y39.602
N1625 X41.615 Y40.715
N1626 X41.703 Y41.83
N1627 X41.777 Y42.946
N1628 X41.836 Y44.062
N1629 X41.883 Y45.18
N1630 X41.915 Y46.297
N1631 X41.934 Y47.415
N1632 X41.939 Y48.534
N1633 X41.929 Y49.652
N1634 X41.903 Y50.77
N1635 X41.86 Y51.887
N1636 X41.799 Y53.004
N1637 X41.717 Y54.119
N1638 X41.613 Y55.232
N1639 X41.484 Y56.343
N1640 X41.325 Y57.45
N1641 X41.131 Y58.538
N1642 X40.935 Y59.447
N1643 X40.738 Y60.224
N1644 X40.548 Y60.871
N1645 X40.368 Y61.409
N1646 X40.204 Y61.845
N1647 X40.052 Y62.207
N1648 X39.916 Y62.502
N1649 X39.764 Y62.802
N1650 X39.628 Y63.048
N1651 X39.597 Y63.099
N1652 X39.357 Y63.428
N1653 X39.065 Y63.712
N1654 X38.728 Y63.942
N1655 X38.358 Y64.111
N1656 X37.964 Y64.215
N1657 X37.558 Y64.25
N1658 X35.043
N1659 G3 X34.682 Y64.164 I0.033 J-0.952 F762
N1660 X34.127 Y63.373 I0.395 J-0.867 F1524
N1661 G1 X30.802 Y21.626
N1662 G3 X31.357 Y20.684 I0.949 J-0.076
N1663 X31.718 Y20.599 I0.395 J0.867 F762
N1664 G1 X34.161 F1524
N1665 X34.301 Y20.606
N1666 X34.45 Y20.616
N1667 X34.599 Y20.633
N1668 X34.747 Y20.656
N1669 X34.895 Y20.686
N1670 X35.046 Y20.722
N1671 X35.203 Y20.766
N1672 X35.367 Y20.818
N1673 X35.542 Y20.881
N1674 X35.719 Y20.952
N1675 X35.912 Y21.038
N1676 X36.104 Y21.132
N1677 X36.312 Y21.244
N1678 X36.52 Y21.366
N1679 X36.745 Y21.509
N1680 X36.971 Y21.665
N1681 X37.212 Y21.844
N1682 X37.454 Y22.038
N1683 X37.712 Y22.262
N1684 X37.972 Y22.503
N1685 X38.248 Y22.781
N1686 X38.523 Y23.077
N1687 X38.82 Y23.422
N1688 X39.107 Y23.782
N1689 X39.421 Y24.205
N1690 X39.726 Y24.651
N1691 X40.05 Y25.164
N1692 X40.38 Y25.732
N1693 X40.706 Y26.342
N1694 X41.053 Y27.054
N1695 X41.391 Y27.818
N1696 X41.729 Y28.664
N1697 X42.074 Y29.63
N1698 X42.411 Y30.696
N1699 X42.71 Y31.773
N1700 X42.976 Y32.859
N1701 X43.211 Y33.953
N1702 X43.419 Y35.051
N1703 X43.604 Y36.154
N1704 X43.766 Y37.261
N1705 X43.909 Y38.37
N1706 X44.033 Y39.481
N1707 X44.141 Y40.594
N1708 X44.233 Y41.708
N1709 X44.31 Y42.824
N1710 X44.372 Y43.94
N1711 X44.421 Y45.058
N1712 X44.455 Y46.175
N1713 X44.475 Y47.293
N1714 X44.481 Y48.411
N1715 X44.471 Y49.53
N1716 X44.446 Y50.648
N1717 X44.403 Y51.765
N1718 X44.342 Y52.881
N1719 X44.26 Y53.997
N1720 X44.157 Y55.11
N1721 X44.027 Y56.221
N1722 X43.868 Y57.328
N1723 X43.679 Y58.413
N1724 X43.477 Y59.36
N1725 X43.282 Y60.137
N1726 X43.087 Y60.807
N1727 X42.9 Y61.369
N1728 X42.742 Y61.794
N1729 X42.582 Y62.18
N1730 X42.447 Y62.474
N1731 X42.295 Y62.775
N1732 X42.155 Y63.03
N1733 X42.117 Y63.093
N1734 X41.878 Y63.424
N1735 X41.585 Y63.709
N1736 X41.248 Y63.94
N1737 X40.877 Y64.11
N1738 X40.482 Y64.215
N1739 X40.075 Y64.25
N1740 X37.558
N1741 G3 X37.196 Y64.164 I0.033 J-0.952 F762
N1742 X36.642 Y63.375 I0.395 J-0.867 F1524
N1743 G1 X33.245 Y21.628
N1744 G3 X33.799 Y20.684 I0.949 J-0.077
N1745 X34.161 Y20.599 I0.395 J0.867 F762
N1746 G1 X36.575 F1524
N1747 X36.865 Y20.613
N1748 X37.014 Y20.627
N1749 X37.162 Y20.648
N1750 X37.31 Y20.675
N1751 X37.458 Y20.707
N1752 X37.613 Y20.748
N1753 X37.773 Y20.797
N1754 X37.947 Y20.856
N1755 X38.121 Y20.923
N1756 X38.311 Y21.004
N1757 X38.5 Y21.093
N1758 X38.705 Y21.199
N1759 X38.913 Y21.316
N1760 X39.133 Y21.451
N1761 X39.358 Y21.6
N1762 X39.594 Y21.77
N1763 X39.837 Y21.959
N1764 X40.09 Y22.171
N1765 X40.351 Y22.407
N1766 X40.622 Y22.67
N1767 X40.898 Y22.958
N1768 X41.189 Y23.285
N1769 X41.48 Y23.638
N1770 X41.793 Y24.048
N1771 X42.095 Y24.473
N1772 X42.42 Y24.971
N1773 X42.743 Y25.505
N1774 X43.075 Y26.103
N1775 X43.425 Y26.795
N1776 X43.756 Y27.512
N1777 X44.102 Y28.339
N1778 X44.453 Y29.274
N1779 X44.805 Y30.326
N1780 X45.12 Y31.399
N1781 X45.4 Y32.482
N1782 X45.649 Y33.572
N1783 X45.87 Y34.668
N1784 X46.066 Y35.769
N1785 X46.239 Y36.874
N1786 X46.392 Y37.981
N1787 X46.525 Y39.092
N1788 X46.641 Y40.204
N1789 X46.741 Y41.318
N1790 X46.824 Y42.433
N1791 X46.893 Y43.549
N1792 X46.947 Y44.666
N1793 X46.986 Y45.783
N1794 X47.011 Y46.901
N1795 X47.021 Y48.019
N1796 X47.016 Y49.138
N1797 X46.994 Y50.256
N1798 X46.956 Y51.373
N1799 X46.9 Y52.49
N1800 X46.823 Y53.606
N1801 X46.725 Y54.719
N1802 X46.603 Y55.831
N1803 X46.453 Y56.939
N1804 X46.271 Y58.042
N1805 X46.075 Y59.027
N1806 X45.872 Y59.875
N1807 X45.679 Y60.573
N1808 X45.484 Y61.185
N1809 X45.321 Y61.639
N1810 X45.154 Y62.059
N1811 X45.014 Y62.372
N1812 X44.868 Y62.672
N1813 X44.721 Y62.947
N1814 X44.65 Y63.068
N1815 X44.412 Y63.406
N1816 X44.119 Y63.697
N1817 X43.779 Y63.933
N1818 X43.404 Y64.107
N1819 X43.005 Y64.214
N1820 X42.593 Y64.25
N1821 X40.075
N1822 G3 X39.713 Y64.164 I0.033 J-0.952 F762
N1823 X39.159 Y63.377 I0.395 J-0.867 F1524
N1824 G1 X35.659 Y21.63
N1825 G3 X36.213 Y20.684 I0.949 J-0.08
N1826 X36.575 Y20.599 I0.395 J0.867 F762
N1827 G1 X39.146 F1524
N1828 X39.286 Y20.606
N1829 X39.436 Y20.617
N1830 X39.584 Y20.636
N1831 X39.732 Y20.66
N1832 X39.88 Y20.691
N1833 X40.03 Y20.728
N1834 X40.192 Y20.774
N1835 X40.358 Y20.828
N1836 X40.533 Y20.893
N1837 X40.718 Y20.968
N1838 X40.907 Y21.054
N1839 X41.111 Y21.156
N1840 X41.315 Y21.267
N1841 X41.536 Y21.398
N1842 X41.755 Y21.539
N1843 X41.994 Y21.706
N1844 X42.23 Y21.884
N1845 X42.487 Y22.092
N1846 X42.739 Y22.313
N1847 X43.014 Y22.573
N1848 X43.282 Y22.845
N1849 X43.577 Y23.167
N1850 X43.864 Y23.504
N1851 X44.171 Y23.894
N1852 X44.478 Y24.314
N1853 X44.796 Y24.785
N1854 X45.129 Y25.319
N1855 X45.454 Y25.885
N1856 X45.805 Y26.553
N1857 X46.144 Y27.261
N1858 X46.49 Y28.055
N1859 X46.843 Y28.957
N1860 X47.199 Y29.972
N1861 X47.53 Y31.04
N1862 X47.824 Y32.119
N1863 X48.086 Y33.206
N1864 X48.32 Y34.3
N1865 X48.527 Y35.399
N1866 X48.711 Y36.502
N1867 X48.873 Y37.608
N1868 X49.015 Y38.717
N1869 X49.139 Y39.828
N1870 X49.246 Y40.942
N1871 X49.336 Y42.056
N1872 X49.411 Y43.172
N1873 X49.47 Y44.288
N1874 X49.515 Y45.406
N1875 X49.544 Y46.524
N1876 X49.559 Y47.642
N1877 X49.558 Y48.76
N1878 X49.541 Y49.878
N1879 X49.507 Y50.996
N1880 X49.455 Y52.113
N1881 X49.384 Y53.229
N1882 X49.291 Y54.343
N1883 X49.176 Y55.455
N1884 X49.034 Y56.564
N1885 X48.862 Y57.669
N1886 X48.663 Y58.724
N1887 X48.461 Y59.616
N1888 X48.263 Y60.359
N1889 X48.066 Y61.004
N1890 X47.894 Y61.502
N1891 X47.723 Y61.943
N1892 X47.578 Y62.279
N1893 X47.435 Y62.579
N1894 X47.284 Y62.869
N1895 X47.151 Y63.103
N1896 X47.14 Y63.121
N1897 X46.9 Y63.444
N1898 X46.608 Y63.723
N1899 X46.274 Y63.948
N1900 X45.907 Y64.114
N1901 X45.517 Y64.215
N1902 X45.115 Y64.25
N1903 X42.593
N1904 G3 X42.232 Y64.164 I0.033 J-0.952 F762
N1905 X41.677 Y63.376 I0.395 J-0.867 F1524
N1906 G1 X38.23 Y21.629
N1907 G3 X38.785 Y20.684 I0.949 J-0.078
N1908 X39.146 Y20.599 I0.395 J0.867 F762
N1909 G1 X41.589 F1524
N1910 X41.729 Y20.606
N1911 X41.878 Y20.615
N1912 X42.028 Y20.631
N1913 X42.176 Y20.654
N1914 X42.323 Y20.682
N1915 X42.472 Y20.717
N1916 X42.633 Y20.761
N1917 X42.795 Y20.812
N1918 X42.972 Y20.875
N1919 X43.15 Y20.945
N1920 X43.341 Y21.029
N1921 X43.537 Y21.123
N1922 X43.743 Y21.233
N1923 X43.957 Y21.356
N1924 X44.179 Y21.495
N1925 X44.412 Y21.654
N1926 X44.649 Y21.828
N1927 X44.901 Y22.028
N1928 X45.155 Y22.246
N1929 X45.424 Y22.493
N1930 X45.696 Y22.763
N1931 X45.983 Y23.069
N1932 X46.276 Y23.405
N1933 X46.576 Y23.776
N1934 X46.892 Y24.198
N1935 X47.202 Y24.645
N1936 X47.539 Y25.171
N1937 X47.863 Y25.721
N1938 X48.207 Y26.358
N1939 X48.562 Y27.075
N1940 X48.902 Y27.833
N1941 X49.257 Y28.706
N1942 X49.616 Y29.693
N1943 X49.959 Y30.757
N1944 X50.265 Y31.832
N1945 X50.538 Y32.917
N1946 X50.782 Y34.008
N1947 X50.998 Y35.105
N1948 X51.191 Y36.207
N1949 X51.361 Y37.312
N1950 X51.51 Y38.42
N1951 X51.641 Y39.531
N1952 X51.754 Y40.643
N1953 X51.85 Y41.757
N1954 X51.93 Y42.873
N1955 X51.994 Y43.989
N1956 X52.043 Y45.106
N1957 X52.077 Y46.224
N1958 X52.095 Y47.342
N1959 X52.097 Y48.46
N1960 X52.084 Y49.578
N1961 X52.053 Y50.696
N1962 X52.005 Y51.813
N1963 X51.938 Y52.929
N1964 X51.85 Y54.044
N1965 X51.739 Y55.157
N1966 X51.603 Y56.267
N1967 X51.438 Y57.373
N1968 X51.24 Y58.473
N1969 X51.037 Y59.401
N1970 X50.836 Y60.185
N1971 X50.637 Y60.856
N1972 X50.449 Y61.414
N1973 X50.291 Y61.831
N1974 X50.13 Y62.214
N1975 X49.994 Y62.507
N1976 X49.842 Y62.804
N1977 X49.7 Y63.058
N1978 X49.672 Y63.104
N1979 X49.433 Y63.432
N1980 X49.141 Y63.715
N1981 X48.805 Y63.943
N1982 X48.435 Y64.112
N1983 X48.042 Y64.215
N1984 X47.637 Y64.25
N1985 X45.115
N1986 G3 X44.753 Y64.164 I0.033 J-0.952 F762
N1987 X44.199 Y63.378 I0.395 J-0.867 F1524
N1988 G1 X40.673 Y21.631
N1989 G3 X41.227 Y20.684 I0.949 J-0.08
N1990 X41.589 Y20.599 I0.395 J0.867 F762
N1991 G1 X44.09 F1524
N1992 X44.229 Y20.606
N1993 X44.379 Y20.615
N1994 X44.528 Y20.632
N1995 X44.676 Y20.655
N1996 X44.824 Y20.684
N1997 X44.978 Y20.72
N1998 X45.133 Y20.763
N1999 X45.302 Y20.816
N2000 X45.475 Y20.878
N2001 X45.657 Y20.95
N2002 X45.848 Y21.035
N2003 X46.045 Y21.13
N2004 X46.256 Y21.242
N2005 X46.467 Y21.365
N2006 X46.696 Y21.509
N2007 X46.922 Y21.664
N2008 X47.17 Y21.847
N2009 X47.414 Y22.041
N2010 X47.68 Y22.27
N2011 X47.94 Y22.51
N2012 X48.225 Y22.794
N2013 X48.502 Y23.091
N2014 X48.806 Y23.441
N2015 X49.103 Y23.811
N2016 X49.418 Y24.233
N2017 X49.739 Y24.698
N2018 X50.064 Y25.209
N2019 X50.414 Y25.804
N2020 X50.744 Y26.418
N2021 X51.098 Y27.137
N2022 X51.46 Y27.947
N2023 X51.811 Y28.817
N2024 X52.169 Y29.809
N2025 X52.511 Y30.874
N2026 X52.815 Y31.95
N2027 X53.087 Y33.034
N2028 X53.329 Y34.126
N2029 X53.545 Y35.223
N2030 X53.737 Y36.325
N2031 X53.907 Y37.43
N2032 X54.056 Y38.538
N2033 X54.186 Y39.649
N2034 X54.299 Y40.761
N2035 X54.394 Y41.875
N2036 X54.473 Y42.991
N2037 X54.536 Y44.107
N2038 X54.584 Y45.225
N2039 X54.616 Y46.342
N2040 X54.632 Y47.46
N2041 Y48.579
N2042 X54.616 Y49.697
N2043 X54.583 Y50.814
N2044 X54.532 Y51.931
N2045 X54.462 Y53.047
N2046 X54.372 Y54.162
N2047 X54.258 Y55.274
N2048 X54.118 Y56.384
N2049 X53.949 Y57.489
N2050 X53.749 Y58.565
N2051 X53.54 Y59.501
N2052 X53.337 Y60.274
N2053 X53.141 Y60.923
N2054 X52.956 Y61.464
N2055 X52.792 Y61.89
N2056 X52.637 Y62.252
N2057 X52.5 Y62.543
N2058 X52.346 Y62.841
N2059 X52.208 Y63.086
N2060 X52.19 Y63.114
N2061 X51.95 Y63.44
N2062 X51.659 Y63.72
N2063 X51.324 Y63.946
N2064 X50.955 Y64.113
N2065 X50.564 Y64.215
N2066 X50.161 Y64.25
N2067 X47.637
N2068 G3 X47.275 Y64.164 I0.033 J-0.952 F762
N2069 X46.721 Y63.378 I0.395 J-0.867 F1524
N2070 G1 X43.174 Y21.631
N2071 G3 X43.728 Y20.684 I0.949 J-0.081
N2072 X44.09 Y20.599 I0.395 J0.867 F762
N2073 G1 X46.575 F1524
N2074 X46.714 Y20.606
N2075 X46.864 Y20.615
N2076 X47.013 Y20.631
N2077 X47.161 Y20.653
N2078 X47.309 Y20.681
N2079 X47.461 Y20.717
N2080 X47.618 Y20.759
N2081 X47.784 Y20.811
N2082 X47.96 Y20.873
N2083 X48.139 Y20.943
N2084 X48.333 Y21.028
N2085 X48.526 Y21.121
N2086 X48.738 Y21.233
N2087 X48.948 Y21.354
N2088 X49.176 Y21.496
N2089 X49.404 Y21.651
N2090 X49.649 Y21.83
N2091 X49.895 Y22.025
N2092 X50.157 Y22.249
N2093 X50.423 Y22.493
N2094 X50.705 Y22.772
N2095 X50.985 Y23.069
N2096 X51.289 Y23.417
N2097 X51.584 Y23.781
N2098 X51.908 Y24.212
N2099 X52.222 Y24.663
N2100 X52.555 Y25.182
N2101 X52.896 Y25.758
N2102 X53.235 Y26.382
N2103 X53.594 Y27.107
N2104 X53.949 Y27.892
N2105 X54.303 Y28.76
N2106 X54.665 Y29.752
N2107 X55.011 Y30.816
N2108 X55.319 Y31.891
N2109 X55.594 Y32.975
N2110 X55.84 Y34.065
N2111 X56.059 Y35.162
N2112 X56.254 Y36.263
N2113 X56.427 Y37.368
N2114 X56.579 Y38.476
N2115 X56.712 Y39.586
N2116 X56.826 Y40.698
N2117 X56.924 Y41.812
N2118 X57.004 Y42.928
N2119 X57.069 Y44.044
N2120 X57.117 Y45.161
N2121 X57.15 Y46.279
N2122 X57.167 Y47.397
N2123 X57.169 Y48.515
N2124 X57.153 Y49.633
N2125 X57.121 Y50.751
N2126 X57.07 Y51.868
N2127 X57.001 Y52.984
N2128 X56.91 Y54.099
N2129 X56.796 Y55.211
N2130 X56.656 Y56.321
N2131 X56.488 Y57.426
N2132 X56.289 Y58.507
N2133 X56.079 Y59.455
N2134 X55.877 Y60.226
N2135 X55.678 Y60.89
N2136 X55.489 Y61.443
N2137 X55.328 Y61.864
N2138 X55.169 Y62.237
N2139 X55.033 Y62.529
N2140 X54.879 Y62.827
N2141 X54.739 Y63.076
N2142 X54.717 Y63.111
N2143 X54.477 Y63.437
N2144 X54.186 Y63.718
N2145 X53.85 Y63.946
N2146 X53.482 Y64.113
N2147 X53.09 Y64.215
N2148 X52.686 Y64.25
N2149 X50.161
N2150 G3 X49.799 Y64.164 I0.033 J-0.952 F762
N2151 X49.245 Y63.379 I0.395 J-0.867 F1524
N2152 G1 X45.659 Y21.632
N2153 G3 X46.213 Y20.684 I0.949 J-0.082
N2154 X46.575 Y20.599 I0.395 J0.867 F762
N2155 G1 X49.088 F1524
N2156 X49.228 Y20.606
N2157 X49.377 Y20.615
N2158 X49.526 Y20.632
N2159 X49.675 Y20.655
N2160 X49.822 Y20.683
N2161 X49.977 Y20.72
N2162 X50.132 Y20.763
N2163 X50.301 Y20.816
N2164 X50.475 Y20.878
N2165 X50.658 Y20.95
N2166 X50.85 Y21.035
N2167 X51.047 Y21.13
N2168 X51.26 Y21.243
N2169 X51.471 Y21.366
N2170 X51.702 Y21.511
N2171 X51.929 Y21.666
N2172 X52.178 Y21.849
N2173 X52.424 Y22.044
N2174 X52.691 Y22.274
N2175 X52.954 Y22.517
N2176 X53.241 Y22.802
N2177 X53.52 Y23.1
N2178 X53.827 Y23.453
N2179 X54.125 Y23.824
N2180 X54.446 Y24.253
N2181 X54.768 Y24.719
N2182 X55.098 Y25.236
N2183 X55.45 Y25.835
N2184 X55.785 Y26.455
N2185 X56.142 Y27.181
N2186 X56.508 Y27.998
N2187 X56.864 Y28.876
N2188 X57.227 Y29.879
N2189 X57.569 Y30.944
N2190 X57.875 Y32.019
N2191 X58.148 Y33.104
N2192 X58.393 Y34.195
N2193 X58.61 Y35.292
N2194 X58.804 Y36.393
N2195 X58.976 Y37.498
N2196 X59.127 Y38.606
N2197 X59.258 Y39.716
N2198 X59.372 Y40.829
N2199 X59.468 Y41.943
N2200 X59.547 Y43.058
N2201 X59.61 Y44.175
N2202 X59.657 Y45.292
N2203 X59.688 Y46.41
N2204 X59.703 Y47.528
N2205 X59.702 Y48.646
N2206 X59.684 Y49.764
N2207 X59.649 Y50.882
N2208 X59.596 Y51.999
N2209 X59.523 Y53.115
N2210 X59.43 Y54.229
N2211 X59.313 Y55.341
N2212 X59.169 Y56.45
N2213 X58.996 Y57.555
N2214 X58.794 Y58.625
N2215 X58.583 Y59.553
N2216 X58.378 Y60.322
N2217 X58.181 Y60.966
N2218 X57.996 Y61.498
N2219 X57.831 Y61.922
N2220 X57.678 Y62.278
N2221 X57.54 Y62.568
N2222 X57.385 Y62.864
N2223 X57.248 Y63.106
N2224 X57.238 Y63.122
N2225 X56.997 Y63.445
N2226 X56.706 Y63.723
N2227 X56.372 Y63.949
N2228 X56.005 Y64.114
N2229 X55.615 Y64.215
N2230 X55.213 Y64.25
N2231 X52.686
N2232 G3 X52.324 Y64.164 I0.033 J-0.952 F762
N2233 X51.771 Y63.379 I0.395 J-0.867 F1524
N2234 G1 X48.172 Y21.632
N2235 G3 X48.726 Y20.684 I0.949 J-0.082
N2236 X49.088 Y20.599 I0.395 J0.867 F762
N2237 G1 X51.589 F1524
N2238 X51.728 Y20.606
N2239 X51.878 Y20.615
N2240 X52.027 Y20.631
N2241 X52.175 Y20.654
N2242 X52.323 Y20.682
N2243 X52.476 Y20.718
N2244 X52.633 Y20.761
N2245 X52.8 Y20.813
N2246 X52.977 Y20.876
N2247 X53.158 Y20.947
N2248 X53.353 Y21.033
N2249 X53.547 Y21.127
N2250 X53.76 Y21.239
N2251 X53.972 Y21.362
N2252 X54.201 Y21.505
N2253 X54.431 Y21.662
N2254 X54.677 Y21.842
N2255 X54.926 Y22.039
N2256 X55.19 Y22.265
N2257 X55.458 Y22.512
N2258 X55.742 Y22.794
N2259 X56.025 Y23.095
N2260 X56.331 Y23.446
N2261 X56.629 Y23.815
N2262 X56.956 Y24.251
N2263 X57.272 Y24.707
N2264 X57.61 Y25.234
N2265 X57.954 Y25.817
N2266 X58.296 Y26.45
N2267 X58.659 Y27.183
N2268 X59.019 Y27.983
N2269 X59.377 Y28.863
N2270 X59.743 Y29.87
N2271 X60.087 Y30.934
N2272 X60.395 Y32.009
N2273 X60.67 Y33.093
N2274 X60.916 Y34.184
N2275 X61.135 Y35.28
N2276 X61.331 Y36.381
N2277 X61.504 Y37.486
N2278 X61.656 Y38.594
N2279 X61.789 Y39.704
N2280 X61.903 Y40.817
N2281 X62 Y41.931
N2282 X62.08 Y43.046
N2283 X62.144 Y44.162
N2284 X62.191 Y45.279
N2285 X62.222 Y46.397
N2286 X62.238 Y47.515
N2287 X62.237 Y48.634
N2288 X62.219 Y49.752
N2289 X62.184 Y50.869
N2290 X62.131 Y51.986
N2291 X62.057 Y53.102
N2292 X61.963 Y54.216
N2293 X61.845 Y55.328
N2294 X61.701 Y56.437
N2295 X61.528 Y57.542
N2296 X61.327 Y58.604
N2297 X61.115 Y59.54
N2298 X60.912 Y60.301
N2299 X60.712 Y60.955
N2300 X60.526 Y61.494
N2301 X60.363 Y61.913
N2302 X60.207 Y62.275
N2303 X60.069 Y62.564
N2304 X59.915 Y62.86
N2305 X59.776 Y63.104
N2306 X59.766 Y63.121
N2307 X59.525 Y63.445
N2308 X59.234 Y63.723
N2309 X58.9 Y63.948
N2310 X58.532 Y64.114
N2311 X58.142 Y64.215
N2312 X57.741 Y64.25
N2313 X55.213
N2314 G3 X54.851 Y64.164 I0.033 J-0.952 F762
N2315 X54.297 Y63.38 I0.395 J-0.867 F1524
N2316 G1 X50.673 Y21.633
N2317 G3 X51.227 Y20.684 I0.949 J-0.082
N2318 X51.589 Y20.599 I0.395 J0.867 F762
N2319 G1 X54.089 F1524
N2320 X54.229 Y20.606
N2321 X54.378 Y20.615
N2322 X54.528 Y20.63
N2323 X54.676 Y20.653
N2324 X54.823 Y20.681
N2325 X54.977 Y20.716
N2326 X55.134 Y20.759
N2327 X55.3 Y20.811
N2328 X55.477 Y20.873
N2329 X55.657 Y20.943
N2330 X55.852 Y21.028
N2331 X56.047 Y21.122
N2332 X56.259 Y21.234
N2333 X56.472 Y21.356
N2334 X56.7 Y21.498
N2335 X56.93 Y21.654
N2336 X57.176 Y21.834
N2337 X57.426 Y22.03
N2338 X57.69 Y22.255
N2339 X57.957 Y22.5
N2340 X58.241 Y22.781
N2341 X58.525 Y23.081
N2342 X58.831 Y23.431
N2343 X59.131 Y23.8
N2344 X59.458 Y24.235
N2345 X59.775 Y24.689
N2346 X60.113 Y25.214
N2347 X60.457 Y25.794
N2348 X60.801 Y26.427
N2349 X61.165 Y27.159
N2350 X61.525 Y27.955
N2351 X61.885 Y28.834
N2352 X62.253 Y29.839
N2353 X62.599 Y30.902
N2354 X62.909 Y31.976
N2355 X63.187 Y33.06
N2356 X63.435 Y34.15
N2357 X63.656 Y35.246
N2358 X63.853 Y36.347
N2359 X64.028 Y37.451
N2360 X64.182 Y38.559
N2361 X64.316 Y39.669
N2362 X64.432 Y40.781
N2363 X64.53 Y41.895
N2364 X64.611 Y43.01
N2365 X64.676 Y44.127
N2366 X64.724 Y45.244
N2367 X64.756 Y46.362
N2368 X64.772 Y47.48
N2369 X64.771 Y48.598
N2370 X64.754 Y49.716
N2371 X64.719 Y50.834
N2372 X64.666 Y51.951
N2373 X64.593 Y53.067
N2374 X64.498 Y54.181
N2375 X64.38 Y55.293
N2376 X64.236 Y56.402
N2377 X64.063 Y57.506
N2378 X63.863 Y58.574
N2379 X63.649 Y59.517
N2380 X63.446 Y60.282
N2381 X63.246 Y60.939
N2382 X63.058 Y61.483
N2383 X62.895 Y61.902
N2384 X62.738 Y62.268
N2385 X62.601 Y62.557
N2386 X62.447 Y62.854
N2387 X62.307 Y63.099
N2388 X62.294 Y63.12
N2389 X62.054 Y63.444
N2390 X61.763 Y63.722
N2391 X61.428 Y63.948
N2392 X61.061 Y64.114
N2393 X60.67 Y64.215
N2394 X60.268 Y64.25
N2395 X57.741
N2396 G3 X57.379 Y64.164 I0.033 J-0.952 F762
N2397 X56.825 Y63.381 I0.395 J-0.867 F1524
N2398 G1 X53.173 Y21.634
N2399 G3 X53.727 Y20.684 I0.949 J-0.083
N2400 X54.089 Y20.599 I0.395 J0.867 F762
N2401 G1 X56.574 F1524
N2402 X56.863 Y20.613
N2403 X57.013 Y20.628
N2404 X57.161 Y20.649
N2405 X57.309 Y20.676
N2406 X57.46 Y20.71
N2407 X57.617 Y20.751
N2408 X57.782 Y20.801
N2409 X57.958 Y20.862
N2410 X58.136 Y20.93
N2411 X58.33 Y21.013
N2412 X58.523 Y21.104
N2413 X58.734 Y21.213
N2414 X58.946 Y21.333
N2415 X59.172 Y21.472
N2416 X59.402 Y21.626
N2417 X59.646 Y21.801
N2418 X59.895 Y21.995
N2419 X60.156 Y22.214
N2420 X60.425 Y22.457
N2421 X60.705 Y22.73
N2422 X60.99 Y23.028
N2423 X61.293 Y23.368
N2424 X61.594 Y23.734
N2425 X61.921 Y24.162
N2426 X62.235 Y24.606
N2427 X62.575 Y25.127
N2428 X62.914 Y25.689
N2429 X63.262 Y26.318
N2430 X63.629 Y27.043
N2431 X63.982 Y27.809
N2432 X64.345 Y28.68
N2433 X64.715 Y29.668
N2434 X65.069 Y30.729
N2435 X65.385 Y31.802
N2436 X65.669 Y32.883
N2437 X65.923 Y33.973
N2438 X66.15 Y35.067
N2439 X66.352 Y36.167
N2440 X66.531 Y37.271
N2441 X66.689 Y38.378
N2442 X66.828 Y39.488
N2443 X66.947 Y40.599
N2444 X67.049 Y41.713
N2445 X67.133 Y42.828
N2446 X67.2 Y43.944
N2447 X67.252 Y45.061
N2448 X67.286 Y46.179
N2449 X67.305 Y47.297
N2450 X67.307 Y48.415
N2451 X67.292 Y49.533
N2452 X67.26 Y50.651
N2453 X67.209 Y51.768
N2454 X67.138 Y52.884
N2455 X67.046 Y53.999
N2456 X66.931 Y55.111
N2457 X66.792 Y56.22
N2458 X66.623 Y57.326
N2459 X66.422 Y58.426
N2460 X66.212 Y59.377
N2461 X66.006 Y60.171
N2462 X65.803 Y60.848
N2463 X65.612 Y61.413
N2464 X65.451 Y61.834
N2465 X65.288 Y62.219
N2466 X65.151 Y62.512
N2467 X64.998 Y62.811
N2468 X64.856 Y63.064
N2469 X64.829 Y63.108
N2470 X64.589 Y63.435
N2471 X64.297 Y63.717
N2472 X63.962 Y63.945
N2473 X63.592 Y64.112
N2474 X63.2 Y64.215
N2475 X62.796 Y64.25
N2476 X60.268
N2477 G3 X59.907 Y64.164 I0.033 J-0.952 F762
N2478 X59.353 Y63.382 I0.395 J-0.867 F1524
N2479 G1 X55.658 Y21.635
N2480 G3 X56.212 Y20.684 I0.949 J-0.084
N2481 X56.574 Y20.599 I0.395 J0.867 F762
N2482 G1 X59.145 F1524
N2483 X59.285 Y20.606
N2484 X59.434 Y20.616
N2485 X59.583 Y20.633
N2486 X59.732 Y20.657
N2487 X59.879 Y20.686
N2488 X60.033 Y20.723
N2489 X60.192 Y20.767
N2490 X60.364 Y20.822
N2491 X60.537 Y20.884
N2492 X60.726 Y20.96
N2493 X60.915 Y21.044
N2494 X61.118 Y21.144
N2495 X61.329 Y21.256
N2496 X61.547 Y21.384
N2497 X61.776 Y21.529
N2498 X62.011 Y21.69
N2499 X62.26 Y21.875
N2500 X62.511 Y22.077
N2501 X62.779 Y22.308
N2502 X63.049 Y22.558
N2503 X63.334 Y22.844
N2504 X63.625 Y23.157
N2505 X63.929 Y23.509
N2506 X64.242 Y23.9
N2507 X64.558 Y24.327
N2508 X64.898 Y24.822
N2509 X65.223 Y25.336
N2510 X65.577 Y25.942
N2511 X65.929 Y26.6
N2512 X66.284 Y27.327
N2513 X66.652 Y28.156
N2514 X67.025 Y29.087
N2515 X67.398 Y30.127
N2516 X67.736 Y31.193
N2517 X68.039 Y32.269
N2518 X68.311 Y33.354
N2519 X68.554 Y34.445
N2520 X68.771 Y35.542
N2521 X68.963 Y36.644
N2522 X69.134 Y37.749
N2523 X69.284 Y38.857
N2524 X69.414 Y39.968
N2525 X69.526 Y41.08
N2526 X69.62 Y42.195
N2527 X69.698 Y43.31
N2528 X69.758 Y44.427
N2529 X69.802 Y45.544
N2530 X69.83 Y46.662
N2531 X69.841 Y47.78
N2532 X69.835 Y48.898
N2533 X69.812 Y50.016
N2534 X69.771 Y51.134
N2535 X69.711 Y52.25
N2536 X69.631 Y53.366
N2537 X69.529 Y54.479
N2538 X69.404 Y55.59
N2539 X69.253 Y56.698
N2540 X69.07 Y57.802
N2541 X68.857 Y58.874
N2542 X68.651 Y59.739
N2543 X68.446 Y60.479
N2544 X68.245 Y61.115
N2545 X68.073 Y61.596
N2546 X67.902 Y62.022
N2547 X67.756 Y62.351
N2548 X67.613 Y62.645
N2549 X67.461 Y62.93
N2550 X67.381 Y63.067
N2551 X67.143 Y63.405
N2552 X66.85 Y63.696
N2553 X66.51 Y63.933
N2554 X66.135 Y64.107
N2555 X65.735 Y64.214
N2556 X65.323 Y64.25
N2557 X62.796
N2558 G3 X62.434 Y64.164 I0.033 J-0.952 F762
N2559 X61.88 Y63.381 I0.395 J-0.867 F1524
N2560 G1 X58.23 Y21.634
N2561 G3 X58.784 Y20.684 I0.949 J-0.083
N2562 X59.145 Y20.599 I0.395 J0.867 F762
N2563 G1 X61.588 F1524
N2564 X61.877 Y20.612
N2565 X62.027 Y20.626
N2566 X62.175 Y20.647
N2567 X62.323 Y20.673
N2568 X62.47 Y20.705
N2569 X62.63 Y20.747
N2570 X62.791 Y20.794
N2571 X62.966 Y20.853
N2572 X63.145 Y20.921
N2573 X63.334 Y21.001
N2574 X63.533 Y21.094
N2575 X63.737 Y21.198
N2576 X63.955 Y21.32
N2577 X64.174 Y21.453
N2578 X64.412 Y21.61
N2579 X64.648 Y21.778
N2580 X64.905 Y21.976
N2581 X65.157 Y22.185
N2582 X65.434 Y22.433
N2583 X65.704 Y22.693
N2584 X66 Y23
N2585 X66.289 Y23.323
N2586 X66.602 Y23.698
N2587 X66.913 Y24.101
N2588 X67.24 Y24.559
N2589 X67.578 Y25.071
N2590 X67.916 Y25.625
N2591 X68.281 Y26.277
N2592 X68.629 Y26.956
N2593 X68.991 Y27.732
N2594 X69.363 Y28.611
N2595 X69.738 Y29.596
N2596 X70.096 Y30.655
N2597 X70.418 Y31.726
N2598 X70.706 Y32.806
N2599 X70.964 Y33.894
N2600 X71.194 Y34.988
N2601 X71.4 Y36.088
N2602 X71.582 Y37.191
N2603 X71.743 Y38.297
N2604 X71.884 Y39.407
N2605 X72.005 Y40.518
N2606 X72.108 Y41.632
N2607 X72.194 Y42.747
N2608 X72.263 Y43.863
N2609 X72.315 Y44.98
N2610 X72.351 Y46.097
N2611 X72.37 Y47.215
N2612 X72.373 Y48.334
N2613 X72.358 Y49.452
N2614 X72.325 Y50.57
N2615 X72.275 Y51.687
N2616 X72.204 Y52.803
N2617 X72.114 Y53.917
N2618 X72 Y55.03
N2619 X71.862 Y56.139
N2620 X71.696 Y57.245
N2621 X71.496 Y58.345
N2622 X71.287 Y59.307
N2623 X71.077 Y60.125
N2624 X70.878 Y60.796
N2625 X70.686 Y61.364
N2626 X70.516 Y61.814
N2627 X70.358 Y62.189
N2628 X70.219 Y62.489
N2629 X70.063 Y62.794
N2630 X69.925 Y63.043
N2631 X69.888 Y63.103
N2632 X69.648 Y63.432
N2633 X69.356 Y63.714
N2634 X69.02 Y63.943
N2635 X68.65 Y64.112
N2636 X68.257 Y64.215
N2637 X67.852 Y64.25
N2638 X65.323
N2639 G3 X64.962 Y64.164 I0.033 J-0.952 F762
N2640 X64.408 Y63.383 I0.395 J-0.867 F1524
N2641 G1 X60.673 Y21.636
N2642 G3 X61.226 Y20.684 I0.949 J-0.085
N2643 X61.588 Y20.599 I0.395 J0.867 F762
N2644 G1 X64.159 F1524
N2645 X64.299 Y20.606
N2646 X64.449 Y20.615
N2647 X64.598 Y20.631
N2648 X64.746 Y20.654
N2649 X64.893 Y20.683
N2650 X65.046 Y20.718
N2651 X65.205 Y20.762
N2652 X65.376 Y20.815
N2653 X65.548 Y20.876
N2654 X65.736 Y20.95
N2655 X65.924 Y21.032
N2656 X66.128 Y21.13
N2657 X66.335 Y21.24
N2658 X66.554 Y21.366
N2659 X66.78 Y21.508
N2660 X67.015 Y21.668
N2661 X67.262 Y21.849
N2662 X67.515 Y22.049
N2663 X67.78 Y22.275
N2664 X68.051 Y22.524
N2665 X68.337 Y22.808
N2666 X68.628 Y23.118
N2667 X68.929 Y23.463
N2668 X69.244 Y23.851
N2669 X69.559 Y24.271
N2670 X69.9 Y24.763
N2671 X70.227 Y25.272
N2672 X70.582 Y25.874
N2673 X70.936 Y26.527
N2674 X71.293 Y27.248
N2675 X71.663 Y28.07
N2676 X72.038 Y28.991
N2677 X72.413 Y30.02
N2678 X72.758 Y31.083
N2679 X73.066 Y32.158
N2680 X73.343 Y33.242
N2681 X73.59 Y34.332
N2682 X73.81 Y35.429
N2683 X74.007 Y36.529
N2684 X74.181 Y37.634
N2685 X74.334 Y38.742
N2686 X74.467 Y39.852
N2687 X74.581 Y40.964
N2688 X74.677 Y42.078
N2689 X74.757 Y43.194
N2690 X74.819 Y44.31
N2691 X74.864 Y45.428
N2692 X74.893 Y46.545
N2693 X74.905 Y47.664
N2694 X74.9 Y48.782
N2695 X74.878 Y49.9
N2696 X74.838 Y51.017
N2697 X74.78 Y52.134
N2698 X74.701 Y53.249
N2699 X74.602 Y54.363
N2700 X74.479 Y55.475
N2701 X74.33 Y56.583
N2702 X74.15 Y57.687
N2703 X73.938 Y58.773
N2704 X73.73 Y59.657
N2705 X73.524 Y60.412
N2706 X73.323 Y61.055
N2707 X73.146 Y61.554
N2708 X72.976 Y61.984
N2709 X72.827 Y62.322
N2710 X72.685 Y62.616
N2711 X72.532 Y62.905
N2712 X72.442 Y63.06
N2713 X72.204 Y63.4
N2714 X71.911 Y63.693
N2715 X71.571 Y63.931
N2716 X71.195 Y64.106
N2717 X70.794 Y64.213
N2718 X70.381 Y64.25
N2719 X67.852
N2720 G3 X67.49 Y64.164 I0.033 J-0.952 F762
N2721 X66.936 Y63.382 I0.395 J-0.867 F1524
N2722 G1 X63.244 Y21.635
N2723 G3 X63.797 Y20.684 I0.949 J-0.084
N2724 X64.159 Y20.599 I0.395 J0.867 F762
N2725 G1 X66.731 F1524
N2726 X66.87 Y20.606
N2727 X67.02 Y20.618
N2728 X67.168 Y20.636
N2729 X67.316 Y20.661
N2730 X67.463 Y20.692
N2731 X67.622 Y20.731
N2732 X67.782 Y20.777
N2733 X67.955 Y20.833
N2734 X68.132 Y20.899
N2735 X68.319 Y20.975
N2736 X68.517 Y21.065
N2737 X68.719 Y21.165
N2738 X68.935 Y21.284
N2739 X69.152 Y21.412
N2740 X69.389 Y21.565
N2741 X69.623 Y21.729
N2742 X69.878 Y21.921
N2743 X70.129 Y22.125
N2744 X70.404 Y22.366
N2745 X70.673 Y22.621
N2746 X70.969 Y22.921
N2747 X71.256 Y23.235
N2748 X71.569 Y23.603
N2749 X71.877 Y23.995
N2750 X72.206 Y24.445
N2751 X72.541 Y24.941
N2752 X72.88 Y25.486
N2753 X73.246 Y26.125
N2754 X73.592 Y26.783
N2755 X73.957 Y27.546
N2756 X74.332 Y28.407
N2757 X74.707 Y29.367
N2758 X75.077 Y30.422
N2759 X75.408 Y31.49
N2760 X75.704 Y32.569
N2761 X75.969 Y33.655
N2762 X76.207 Y34.748
N2763 X76.418 Y35.846
N2764 X76.606 Y36.948
N2765 X76.772 Y38.054
N2766 X76.918 Y39.162
N2767 X77.044 Y40.273
N2768 X77.152 Y41.386
N2769 X77.242 Y42.501
N2770 X77.314 Y43.617
N2771 X77.37 Y44.734
N2772 X77.409 Y45.851
N2773 X77.431 Y46.969
N2774 X77.437 Y48.087
N2775 X77.426 Y49.206
N2776 X77.397 Y50.323
N2777 X77.349 Y51.441
N2778 X77.283 Y52.557
N2779 X77.197 Y53.672
N2780 X77.088 Y54.785
N2781 X76.956 Y55.895
N2782 X76.796 Y57.002
N2783 X76.604 Y58.103
N2784 X76.389 Y59.123
N2785 X76.182 Y59.958
N2786 X75.979 Y60.66
N2787 X75.781 Y61.262
N2788 X75.613 Y61.718
N2789 X75.446 Y62.121
N2790 X75.307 Y62.426
N2791 X75.152 Y62.737
N2792 X75.01 Y62.995
N2793 X74.954 Y63.088
N2794 X74.715 Y63.421
N2795 X74.422 Y63.707
N2796 X74.085 Y63.939
N2797 X73.713 Y64.11
N2798 X73.317 Y64.214
N2799 X72.909 Y64.25
N2800 X70.381
N2801 G3 X70.019 Y64.164 I0.033 J-0.952 F762
N2802 X69.465 Y63.381 I0.395 J-0.867 F1524
N2803 G1 X65.815 Y21.634
N2804 G3 X66.369 Y20.684 I0.949 J-0.083
N2805 X66.731 Y20.599 I0.395 J0.867 F762
N2806 G1 X69.231 F1524
N2807 X69.371 Y20.606
N2808 X69.52 Y20.617
N2809 X69.669 Y20.634
N2810 X69.817 Y20.658
N2811 X69.966 Y20.688
N2812 X70.117 Y20.725
N2813 X70.283 Y20.771
N2814 X70.449 Y20.824
N2815 X70.629 Y20.889
N2816 X70.813 Y20.964
N2817 X71.008 Y21.051
N2818 X71.212 Y21.151
N2819 X71.421 Y21.263
N2820 X71.645 Y21.395
N2821 X71.87 Y21.538
N2822 X72.114 Y21.706
N2823 X72.356 Y21.886
N2824 X72.619 Y22.098
N2825 X72.878 Y22.322
N2826 X73.163 Y22.588
N2827 X73.441 Y22.867
N2828 X73.742 Y23.193
N2829 X74.041 Y23.54
N2830 X74.359 Y23.939
N2831 X74.681 Y24.376
N2832 X75.013 Y24.861
N2833 X75.366 Y25.42
N2834 X75.706 Y26.005
N2835 X76.072 Y26.694
N2836 X76.439 Y27.446
N2837 X76.8 Y28.264
N2838 X77.172 Y29.198
N2839 X77.547 Y30.251
N2840 X77.884 Y31.318
N2841 X78.186 Y32.394
N2842 X78.456 Y33.479
N2843 X78.699 Y34.571
N2844 X78.915 Y35.668
N2845 X79.107 Y36.77
N2846 X79.277 Y37.875
N2847 X79.427 Y38.983
N2848 X79.556 Y40.094
N2849 X79.667 Y41.207
N2850 X79.76 Y42.321
N2851 X79.836 Y43.437
N2852 X79.895 Y44.553
N2853 X79.937 Y45.671
N2854 X79.962 Y46.789
N2855 X79.97 Y47.907
N2856 X79.962 Y49.025
N2857 X79.936 Y50.143
N2858 X79.891 Y51.26
N2859 X79.828 Y52.377
N2860 X79.744 Y53.492
N2861 X79.639 Y54.605
N2862 X79.51 Y55.716
N2863 X79.354 Y56.823
N2864 X79.166 Y57.925
N2865 X78.961 Y58.937
N2866 X78.748 Y59.817
N2867 X78.546 Y60.535
N2868 X78.346 Y61.161
N2869 X78.176 Y61.629
N2870 X78.003 Y62.056
N2871 X77.862 Y62.373
N2872 X77.712 Y62.677
N2873 X77.563 Y62.952
N2874 X77.492 Y63.074
N2875 X77.253 Y63.41
N2876 X76.96 Y63.7
N2877 X76.621 Y63.935
N2878 X76.247 Y64.108
N2879 X75.849 Y64.214
N2880 X75.438 Y64.25
N2881 X72.909
N2882 G3 X72.548 Y64.164 I0.033 J-0.952 F762
N2883 X71.994 Y63.381 I0.395 J-0.867 F1524
N2884 G1 X68.316 Y21.634
N2885 G3 X68.869 Y20.684 I0.949 J-0.084
N2886 X69.231 Y20.599 I0.395 J0.867 F762
N2887 G1 X71.716 F1524
N2888 X71.856 Y20.606
N2889 X72.005 Y20.615
N2890 X72.154 Y20.631
N2891 X72.303 Y20.653
N2892 X72.45 Y20.681
N2893 X72.6 Y20.716
N2894 X72.764 Y20.76
N2895 X72.928 Y20.811
N2896 X73.106 Y20.873
N2897 X73.288 Y20.944
N2898 X73.481 Y21.028
N2899 X73.682 Y21.124
N2900 X73.89 Y21.234
N2901 X74.111 Y21.36
N2902 X74.334 Y21.499
N2903 X74.575 Y21.662
N2904 X74.815 Y21.837
N2905 X75.077 Y22.043
N2906 X75.334 Y22.262
N2907 X75.614 Y22.518
N2908 X75.89 Y22.79
N2909 X76.19 Y23.108
N2910 X76.487 Y23.446
N2911 X76.804 Y23.836
N2912 X77.125 Y24.261
N2913 X77.453 Y24.732
N2914 X77.803 Y25.274
N2915 X78.139 Y25.841
N2916 X78.505 Y26.51
N2917 X78.867 Y27.236
N2918 X79.228 Y28.032
N2919 X79.6 Y28.941
N2920 X79.977 Y29.965
N2921 X80.324 Y31.028
N2922 X80.635 Y32.102
N2923 X80.914 Y33.185
N2924 X81.164 Y34.275
N2925 X81.388 Y35.371
N2926 X81.587 Y36.471
N2927 X81.764 Y37.575
N2928 X81.919 Y38.682
N2929 X82.055 Y39.792
N2930 X82.171 Y40.905
N2931 X82.27 Y42.018
N2932 X82.35 Y43.134
N2933 X82.414 Y44.25
N2934 X82.46 Y45.367
N2935 X82.49 Y46.485
N2936 X82.503 Y47.603
N2937 X82.498 Y48.722
N2938 X82.477 Y49.84
N2939 X82.437 Y50.957
N2940 X82.379 Y52.074
N2941 X82.3 Y53.189
N2942 X82.201 Y54.303
N2943 X82.078 Y55.414
N2944 X81.929 Y56.523
N2945 X81.75 Y57.627
N2946 X81.541 Y58.704
N2947 X81.331 Y59.611
N2948 X81.126 Y60.366
N2949 X80.923 Y61.019
N2950 X80.746 Y61.52
N2951 X80.572 Y61.964
N2952 X80.425 Y62.299
N2953 X80.28 Y62.601
N2954 X80.127 Y62.89
N2955 X79.988 Y63.131
N2956 X79.748 Y63.452
N2957 X79.457 Y63.728
N2958 X79.124 Y63.951
N2959 X78.758 Y64.115
N2960 X78.369 Y64.216
N2961 X77.97 Y64.25
N2962 X75.438
N2963 G3 X75.077 Y64.164 I0.033 J-0.952 F762
N2964 X74.523 Y63.382 I0.395 J-0.867 F1524
N2965 G1 X70.8 Y21.635
N2966 G3 X71.354 Y20.684 I0.949 J-0.085
N2967 X71.716 Y20.599 I0.395 J0.867 F762
N2968 G1 X74.287 F1524
N2969 X74.427 Y20.606
N2970 X74.576 Y20.617
N2971 X74.725 Y20.635
N2972 X74.873 Y20.659
N2973 X75.02 Y20.689
N2974 X75.179 Y20.728
N2975 X75.338 Y20.773
N2976 X75.511 Y20.829
N2977 X75.688 Y20.893
N2978 X75.875 Y20.969
N2979 X76.072 Y21.058
N2980 X76.273 Y21.157
N2981 X76.49 Y21.275
N2982 X76.707 Y21.402
N2983 X76.943 Y21.553
N2984 X77.176 Y21.715
N2985 X77.432 Y21.906
N2986 X77.683 Y22.11
N2987 X77.958 Y22.349
N2988 X78.227 Y22.601
N2989 X78.523 Y22.899
N2990 X78.81 Y23.212
N2991 X79.125 Y23.579
N2992 X79.433 Y23.968
N2993 X79.761 Y24.414
N2994 X80.096 Y24.906
N2995 X80.434 Y25.446
N2996 X80.8 Y26.078
N2997 X81.145 Y26.731
N2998 X81.511 Y27.488
N2999 X81.886 Y28.342
N3000 X82.264 Y29.296
N3001 X82.637 Y30.35
N3002 X82.971 Y31.418
N3003 X83.271 Y32.495
N3004 X83.54 Y33.58
N3005 X83.78 Y34.672
N3006 X83.995 Y35.77
N3007 X84.186 Y36.872
N3008 X84.354 Y37.977
N3009 X84.502 Y39.085
N3010 X84.631 Y40.196
N3011 X84.741 Y41.309
N3012 X84.833 Y42.423
N3013 X84.907 Y43.539
N3014 X84.964 Y44.656
N3015 X85.004 Y45.773
N3016 X85.028 Y46.891
N3017 X85.034 Y48.01
N3018 X85.023 Y49.128
N3019 X84.995 Y50.246
N3020 X84.949 Y51.363
N3021 X84.883 Y52.479
N3022 X84.797 Y53.594
N3023 X84.689 Y54.707
N3024 X84.558 Y55.817
N3025 X84.399 Y56.924
N3026 X84.209 Y58.026
N3027 X83.993 Y59.062
N3028 X83.785 Y59.904
N3029 X83.581 Y60.617
N3030 X83.379 Y61.237
N3031 X83.212 Y61.69
N3032 X83.043 Y62.103
N3033 X82.9 Y62.418
N3034 X82.754 Y62.711
N3035 X82.604 Y62.986
N3036 X82.546 Y63.084
N3037 X82.307 Y63.418
N3038 X82.014 Y63.705
N3039 X81.676 Y63.938
N3040 X81.304 Y64.109
N3041 X80.907 Y64.214
N3042 X80.498 Y64.25
N3043 X77.97
N3044 G3 X77.608 Y64.164 I0.033 J-0.952 F762
N3045 X77.054 Y63.381 I0.395 J-0.867 F1524
N3046 G1 X73.372 Y21.634
N3047 G3 X73.925 Y20.684 I0.949 J-0.084
N3048 X74.287 Y20.599 I0.395 J0.867 F762
N3049 G1 X76.73 F1524
N3050 X77.019 Y20.613
N3051 X77.169 Y20.627
N3052 X77.317 Y20.648
N3053 X77.465 Y20.675
N3054 X77.612 Y20.707
N3055 X77.772 Y20.748
N3056 X77.936 Y20.798
N3057 X78.109 Y20.856
N3058 X78.294 Y20.927
N3059 X78.481 Y21.006
N3060 X78.684 Y21.101
N3061 X78.887 Y21.205
N3062 X79.108 Y21.328
N3063 X79.328 Y21.462
N3064 X79.565 Y21.62
N3065 X79.805 Y21.791
N3066 X80.061 Y21.989
N3067 X80.318 Y22.203
N3068 X80.594 Y22.45
N3069 X80.872 Y22.719
N3070 X81.169 Y23.027
N3071 X81.461 Y23.355
N3072 X81.781 Y23.74
N3073 X82.09 Y24.141
N3074 X82.427 Y24.615
N3075 X82.76 Y25.12
N3076 X83.109 Y25.694
N3077 X83.474 Y26.349
N3078 X83.826 Y27.038
N3079 X84.195 Y27.833
N3080 X84.572 Y28.727
N3081 X84.949 Y29.723
N3082 X85.306 Y30.783
N3083 X85.627 Y31.854
N3084 X85.914 Y32.935
N3085 X86.171 Y34.023
N3086 X86.401 Y35.117
N3087 X86.606 Y36.217
N3088 X86.788 Y37.32
N3089 X86.949 Y38.427
N3090 X87.089 Y39.536
N3091 X87.21 Y40.648
N3092 X87.312 Y41.761
N3093 X87.396 Y42.876
N3094 X87.464 Y43.992
N3095 X87.514 Y45.109
N3096 X87.547 Y46.227
N3097 X87.563 Y47.345
N3098 Y48.463
N3099 X87.545 Y49.582
N3100 X87.509 Y50.699
N3101 X87.455 Y51.816
N3102 X87.381 Y52.932
N3103 X87.287 Y54.046
N3104 X87.17 Y55.158
N3105 X87.027 Y56.267
N3106 X86.856 Y57.372
N3107 X86.651 Y58.472
N3108 X86.439 Y59.42
N3109 X86.228 Y60.221
N3110 X86.028 Y60.881
N3111 X85.84 Y61.431
N3112 X85.67 Y61.872
N3113 X85.514 Y62.236
N3114 X85.374 Y62.533
N3115 X85.219 Y62.833
N3116 X85.081 Y63.078
N3117 X85.058 Y63.115
N3118 X84.818 Y63.44
N3119 X84.526 Y63.72
N3120 X84.191 Y63.947
N3121 X83.823 Y64.113
N3122 X83.432 Y64.215
N3123 X83.029 Y64.25
N3124 X80.498
N3125 G3 X80.137 Y64.164 I0.033 J-0.952 F762
N3126 X79.583 Y63.383 I0.395 J-0.867 F1524
N3127 G1 X75.815 Y21.636
N3128 G3 X76.368 Y20.684 I0.949 J-0.086
N3129 X76.73 Y20.599 I0.395 J0.867 F762
N3130 G1 X79.301 F1524
N3131 X79.441 Y20.606
N3132 X79.591 Y20.615
N3133 X79.74 Y20.632
N3134 X79.888 Y20.654
N3135 X80.035 Y20.683
N3136 X80.19 Y20.719
N3137 X80.348 Y20.762
N3138 X80.52 Y20.816
N3139 X80.693 Y20.876
N3140 X80.88 Y20.95
N3141 X81.072 Y21.034
N3142 X81.274 Y21.132
N3143 X81.484 Y21.243
N3144 X81.702 Y21.368
N3145 X81.933 Y21.513
N3146 X82.167 Y21.672
N3147 X82.418 Y21.856
N3148 X82.668 Y22.054
N3149 X82.939 Y22.285
N3150 X83.208 Y22.533
N3151 X83.499 Y22.821
N3152 X83.789 Y23.129
N3153 X84.095 Y23.48
N3154 X84.407 Y23.866
N3155 X84.729 Y24.295
N3156 X85.069 Y24.784
N3157 X85.402 Y25.304
N3158 X85.764 Y25.917
N3159 X86.115 Y26.564
N3160 X86.479 Y27.297
N3161 X86.853 Y28.129
N3162 X87.231 Y29.058
N3163 X87.608 Y30.09
N3164 X87.952 Y31.154
N3165 X88.261 Y32.228
N3166 X88.538 Y33.312
N3167 X88.785 Y34.402
N3168 X89.006 Y35.498
N3169 X89.203 Y36.599
N3170 X89.378 Y37.704
N3171 X89.531 Y38.811
N3172 X89.664 Y39.921
N3173 X89.778 Y41.034
N3174 X89.875 Y42.148
N3175 X89.953 Y43.263
N3176 X90.014 Y44.38
N3177 X90.058 Y45.497
N3178 X90.086 Y46.615
N3179 X90.096 Y47.733
N3180 X90.09 Y48.852
N3181 X90.066 Y49.969
N3182 X90.023 Y51.087
N3183 X89.963 Y52.203
N3184 X89.882 Y53.319
N3185 X89.78 Y54.432
N3186 X89.654 Y55.543
N3187 X89.503 Y56.651
N3188 X89.321 Y57.755
N3189 X89.106 Y58.83
N3190 X88.897 Y59.71
N3191 X88.69 Y60.46
N3192 X88.488 Y61.095
N3193 X88.312 Y61.588
N3194 X88.142 Y62.013
N3195 X87.994 Y62.347
N3196 X87.852 Y62.639
N3197 X87.698 Y62.926
N3198 X87.616 Y63.067
N3199 X87.378 Y63.405
N3200 X87.085 Y63.696
N3201 X86.745 Y63.933
N3202 X86.37 Y64.107
N3203 X85.971 Y64.214
N3204 X85.559 Y64.25
N3205 X83.029
N3206 G3 X82.667 Y64.164 I0.033 J-0.952 F762
N3207 X82.113 Y63.382 I0.395 J-0.867 F1524
N3208 G1 X78.386 Y21.635
N3209 G3 X78.939 Y20.684 I0.949 J-0.085
N3210 X79.301 Y20.599 I0.395 J0.867 F762
N3211 G1 X81.872 F1524
N3212 X82.012 Y20.606
N3213 X82.162 Y20.617
N3214 X82.311 Y20.636
N3215 X82.458 Y20.66
N3216 X82.605 Y20.691
N3217 X82.764 Y20.729
N3218 X82.924 Y20.775
N3219 X83.096 Y20.831
N3220 X83.276 Y20.896
N3221 X83.462 Y20.972
N3222 X83.661 Y21.062
N3223 X83.861 Y21.162
N3224 X84.08 Y21.28
N3225 X84.296 Y21.408
N3226 X84.533 Y21.56
N3227 X84.768 Y21.723
N3228 X85.023 Y21.915
N3229 X85.275 Y22.12
N3230 X85.55 Y22.359
N3231 X85.823 Y22.616
N3232 X86.118 Y22.915
N3233 X86.407 Y23.23
N3234 X86.724 Y23.601
N3235 X87.031 Y23.989
N3236 X87.364 Y24.444
N3237 X87.696 Y24.934
N3238 X88.042 Y25.486
N3239 X88.407 Y26.12
N3240 X88.756 Y26.782
N3241 X89.125 Y27.549
N3242 X89.502 Y28.411
N3243 X89.879 Y29.367
N3244 X90.25 Y30.422
N3245 X90.583 Y31.489
N3246 X90.881 Y32.567
N3247 X91.149 Y33.653
N3248 X91.388 Y34.745
N3249 X91.601 Y35.843
N3250 X91.791 Y36.945
N3251 X91.959 Y38.05
N3252 X92.106 Y39.159
N3253 X92.233 Y40.27
N3254 X92.342 Y41.383
N3255 X92.432 Y42.497
N3256 X92.505 Y43.613
N3257 X92.561 Y44.73
N3258 X92.6 Y45.847
N3259 X92.622 Y46.965
N3260 X92.627 Y48.083
N3261 X92.615 Y49.202
N3262 X92.585 Y50.319
N3263 X92.537 Y51.437
N3264 X92.471 Y52.553
N3265 X92.383 Y53.668
N3266 X92.274 Y54.781
N3267 X92.141 Y55.891
N3268 X91.981 Y56.997
N3269 X91.788 Y58.099
N3270 X91.571 Y59.126
N3271 X91.363 Y59.958
N3272 X91.159 Y60.664
N3273 X90.96 Y61.267
N3274 X90.792 Y61.72
N3275 X90.624 Y62.125
N3276 X90.485 Y62.43
N3277 X90.329 Y62.74
N3278 X90.187 Y63
N3279 X90.133 Y63.09
N3280 X89.894 Y63.422
N3281 X89.601 Y63.708
N3282 X89.264 Y63.94
N3283 X88.892 Y64.11
N3284 X88.496 Y64.214
N3285 X88.089 Y64.25
N3286 X85.559
N3287 G3 X85.197 Y64.164 I0.033 J-0.952 F762
N3288 X84.643 Y63.381 I0.395 J-0.867 F1524
N3289 G1 X80.957 Y21.634
N3290 G3 X81.511 Y20.684 I0.949 J-0.084
N3291 X81.872 Y20.599 I0.395 J0.867 F762
N3292 G1 X84.373 F1524
N3293 X84.513 Y20.606
N3294 X84.662 Y20.616
N3295 X84.811 Y20.633
N3296 X84.959 Y20.657
N3297 X85.108 Y20.686
N3298 X85.259 Y20.722
N3299 X85.424 Y20.767
N3300 X85.59 Y20.82
N3301 X85.769 Y20.884
N3302 X85.954 Y20.958
N3303 X86.148 Y21.044
N3304 X86.352 Y21.143
N3305 X86.561 Y21.254
N3306 X86.786 Y21.385
N3307 X87.01 Y21.527
N3308 X87.255 Y21.694
N3309 X87.496 Y21.873
N3310 X87.76 Y22.084
N3311 X88.019 Y22.306
N3312 X88.304 Y22.571
N3313 X88.583 Y22.848
N3314 X88.886 Y23.174
N3315 X89.183 Y23.518
N3316 X89.504 Y23.916
N3317 X89.826 Y24.349
N3318 X90.16 Y24.835
N3319 X90.512 Y25.388
N3320 X90.855 Y25.974
N3321 X91.224 Y26.661
N3322 X91.588 Y27.404
N3323 X91.952 Y28.22
N3324 X92.326 Y29.149
N3325 X92.704 Y30.197
N3326 X93.044 Y31.263
N3327 X93.349 Y32.338
N3328 X93.623 Y33.422
N3329 X93.869 Y34.513
N3330 X94.088 Y35.61
N3331 X94.283 Y36.711
N3332 X94.455 Y37.816
N3333 X94.607 Y38.924
N3334 X94.739 Y40.034
N3335 X94.851 Y41.147
N3336 X94.946 Y42.261
N3337 X95.023 Y43.376
N3338 X95.083 Y44.493
N3339 X95.125 Y45.61
N3340 X95.151 Y46.728
N3341 X95.16 Y47.847
N3342 X95.151 Y48.965
N3343 X95.126 Y50.083
N3344 X95.081 Y51.2
N3345 X95.019 Y52.316
N3346 X94.936 Y53.432
N3347 X94.831 Y54.545
N3348 X94.702 Y55.656
N3349 X94.547 Y56.763
N3350 X94.361 Y57.866
N3351 X94.152 Y58.897
N3352 X93.939 Y59.782
N3353 X93.737 Y60.505
N3354 X93.535 Y61.138
N3355 X93.364 Y61.612
N3356 X93.19 Y62.042
N3357 X93.047 Y62.363
N3358 X92.899 Y62.665
N3359 X92.749 Y62.944
N3360 X92.674 Y63.072
N3361 X92.435 Y63.409
N3362 X92.142 Y63.699
N3363 X91.803 Y63.934
N3364 X91.429 Y64.108
N3365 X91.03 Y64.214
N3366 X90.619 Y64.25
N3367 X88.089
N3368 G3 X87.727 Y64.164 I0.033 J-0.952 F762
N3369 X87.173 Y63.382 I0.395 J-0.867 F1524
N3370 G1 X83.458 Y21.635
N3371 G3 X84.011 Y20.684 I0.949 J-0.084
N3372 X84.373 Y20.599 I0.395 J0.867 F762
N3373 G1 X86.858 F1524
N3374 X87.147 Y20.614
N3375 X87.297 Y20.629
N3376 X87.445 Y20.651
N3377 X87.592 Y20.678
N3378 X87.742 Y20.712
N3379 X87.905 Y20.755
N3380 X88.069 Y20.805
N3381 X88.247 Y20.866
N3382 X88.427 Y20.936
N3383 X88.62 Y21.019
N3384 X88.82 Y21.114
N3385 X89.028 Y21.222
N3386 X89.248 Y21.346
N3387 X89.472 Y21.484
N3388 X89.712 Y21.645
N3389 X89.952 Y21.818
N3390 X90.213 Y22.022
N3391 X90.47 Y22.239
N3392 X90.75 Y22.493
N3393 X91.026 Y22.762
N3394 X91.327 Y23.077
N3395 X91.623 Y23.413
N3396 X91.94 Y23.798
N3397 X92.261 Y24.22
N3398 X92.59 Y24.686
N3399 X92.94 Y25.224
N3400 X93.277 Y25.786
N3401 X93.643 Y26.45
N3402 X94.006 Y27.169
N3403 X94.369 Y27.959
N3404 X94.743 Y28.86
N3405 X95.121 Y29.875
N3406 X95.473 Y30.936
N3407 X95.789 Y32.009
N3408 X96.072 Y33.091
N3409 X96.326 Y34.18
N3410 X96.554 Y35.274
N3411 X96.756 Y36.374
N3412 X96.936 Y37.478
N3413 X97.094 Y38.585
N3414 X97.232 Y39.694
N3415 X97.351 Y40.806
N3416 X97.451 Y41.92
N3417 X97.534 Y43.035
N3418 X97.599 Y44.152
N3419 X97.647 Y45.269
N3420 X97.677 Y46.387
N3421 X97.691 Y47.505
N3422 X97.688 Y48.623
N3423 X97.667 Y49.741
N3424 X97.629 Y50.858
N3425 X97.571 Y51.975
N3426 X97.494 Y53.091
N3427 X97.396 Y54.205
N3428 X97.274 Y55.316
N3429 X97.127 Y56.425
N3430 X96.951 Y57.529
N3431 X96.741 Y58.627
N3432 X96.531 Y59.539
N3433 X96.324 Y60.311
N3434 X96.12 Y60.973
N3435 X95.941 Y61.487
N3436 X95.766 Y61.934
N3437 X95.617 Y62.277
N3438 X95.473 Y62.578
N3439 X95.319 Y62.871
N3440 X95.184 Y63.107
N3441 X95.173 Y63.126
N3442 X94.932 Y63.448
N3443 X94.641 Y63.725
N3444 X94.307 Y63.95
N3445 X93.94 Y64.115
N3446 X93.551 Y64.216
N3447 X93.15 Y64.25
N3448 X90.619
N3449 G3 X90.257 Y64.164 I0.033 J-0.952 F762
N3450 X89.704 Y63.383 I0.395 J-0.867 F1524
N3451 G1 X85.942 Y21.636
N3452 G3 X86.496 Y20.684 I0.949 J-0.085
N3453 X86.858 Y20.599 I0.395 J0.867 F762
N3454 G1 X89.429 F1524
N3455 X89.569 Y20.606
N3456 X89.718 Y20.616
N3457 X89.867 Y20.633
N3458 X90.016 Y20.656
N3459 X90.163 Y20.686
N3460 X90.32 Y20.723
N3461 X90.478 Y20.767
N3462 X90.651 Y20.821
N3463 X90.826 Y20.884
N3464 X91.013 Y20.959
N3465 X91.208 Y21.045
N3466 X91.41 Y21.143
N3467 X91.625 Y21.258
N3468 X91.841 Y21.384
N3469 X92.076 Y21.532
N3470 X92.309 Y21.692
N3471 X92.564 Y21.881
N3472 X92.815 Y22.081
N3473 X93.089 Y22.317
N3474 X93.357 Y22.565
N3475 X93.652 Y22.859
N3476 X93.939 Y23.168
N3477 X94.252 Y23.53
N3478 X94.561 Y23.915
N3479 X94.888 Y24.354
N3480 X95.224 Y24.842
N3481 X95.562 Y25.374
N3482 X95.927 Y25.998
N3483 X96.274 Y26.644
N3484 X96.64 Y27.392
N3485 X97.017 Y28.236
N3486 X97.396 Y29.178
N3487 X97.773 Y30.224
N3488 X98.113 Y31.29
N3489 X98.418 Y32.365
N3490 X98.691 Y33.45
N3491 X98.936 Y34.541
N3492 X99.155 Y35.637
N3493 X99.349 Y36.739
N3494 X99.522 Y37.843
N3495 X99.673 Y38.951
N3496 X99.805 Y40.062
N3497 X99.917 Y41.174
N3498 X100.011 Y42.289
N3499 X100.088 Y43.404
N3500 X100.147 Y44.521
N3501 X100.189 Y45.638
N3502 X100.214 Y46.756
N3503 X100.223 Y47.874
N3504 X100.214 Y48.992
N3505 X100.187 Y50.11
N3506 X100.142 Y51.228
N3507 X100.079 Y52.344
N3508 X99.995 Y53.459
N3509 X99.889 Y54.572
N3510 X99.76 Y55.683
N3511 X99.605 Y56.79
N3512 X99.418 Y57.893
N3513 X99.201 Y58.953
N3514 X98.993 Y59.811
N3515 X98.787 Y60.543
N3516 X98.584 Y61.171
N3517 X98.413 Y61.643
N3518 X98.243 Y62.061
N3519 X98.097 Y62.386
N3520 X97.954 Y62.677
N3521 X97.802 Y62.959
N3522 X97.732 Y63.076
N3523 X97.494 Y63.412
N3524 X97.201 Y63.701
N3525 X96.862 Y63.936
N3526 X96.488 Y64.108
N3527 X96.09 Y64.214
N3528 X95.68 Y64.25
N3529 X93.15
N3530 G3 X92.789 Y64.164 I0.033 J-0.952 F762
N3531 X92.235 Y63.382 I0.395 J-0.867 F1524
N3532 G1 X88.514 Y21.635
N3533 G3 X89.067 Y20.684 I0.949 J-0.085
N3534 X89.429 Y20.599 I0.395 J0.867 F762
N3535 G1 X91.943 F1524
N3536 X92.082 Y20.606
N3537 X92.232 Y20.615
N3538 X92.381 Y20.632
N3539 X92.529 Y20.654
N3540 X92.677 Y20.683
N3541 X92.829 Y20.718
N3542 X92.992 Y20.762
N3543 X93.157 Y20.814
N3544 X93.338 Y20.878
N3545 X93.519 Y20.949
N3546 X93.715 Y21.035
N3547 X93.915 Y21.131
N3548 X94.126 Y21.243
N3549 X94.346 Y21.369
N3550 X94.573 Y21.511
N3551 X94.813 Y21.674
N3552 X95.057 Y21.853
N3553 X95.316 Y22.058
N3554 X95.578 Y22.281
N3555 X95.858 Y22.539
N3556 X96.14 Y22.817
N3557 X96.436 Y23.133
N3558 X96.739 Y23.48
N3559 X97.052 Y23.866
N3560 X97.381 Y24.304
N3561 X97.708 Y24.775
N3562 X98.063 Y25.329
N3563 X98.403 Y25.903
N3564 X98.767 Y26.575
N3565 X99.141 Y27.329
N3566 X99.501 Y28.127
N3567 X99.874 Y29.042
N3568 X100.252 Y30.078
N3569 X100.597 Y31.142
N3570 X100.907 Y32.217
N3571 X101.184 Y33.3
N3572 X101.433 Y34.39
N3573 X101.656 Y35.486
N3574 X101.854 Y36.586
N3575 X102.03 Y37.691
N3576 X102.184 Y38.798
N3577 X102.318 Y39.908
N3578 X102.434 Y41.021
N3579 X102.53 Y42.135
N3580 X102.61 Y43.25
N3581 X102.671 Y44.367
N3582 X102.716 Y45.484
N3583 X102.744 Y46.602
N3584 X102.755 Y47.72
N3585 X102.748 Y48.838
N3586 X102.724 Y49.956
N3587 X102.682 Y51.073
N3588 X102.621 Y52.19
N3589 X102.54 Y53.305
N3590 X102.437 Y54.419
N3591 X102.311 Y55.53
N3592 X102.158 Y56.638
N3593 X101.976 Y57.741
N3594 X101.768 Y58.789
N3595 X101.554 Y59.695
N3596 X101.35 Y60.435
N3597 X101.147 Y61.076
N3598 X100.973 Y61.565
N3599 X100.798 Y62.003
N3600 X100.654 Y62.33
N3601 X100.506 Y62.635
N3602 X100.355 Y62.917
N3603 X100.27 Y63.064
N3604 X100.031 Y63.403
N3605 X99.738 Y63.695
N3606 X99.399 Y63.932
N3607 X99.023 Y64.107
N3608 X98.623 Y64.214
N3609 X98.211 Y64.25
N3610 X95.68
N3611 G3 X95.319 Y64.164 I0.033 J-0.952 F762
N3612 X94.765 Y63.383 I0.395 J-0.867 F1524
N3613 G1 X91.027 Y21.636
N3614 G3 X91.581 Y20.684 I0.949 J-0.085
N3615 X91.943 Y20.599 I0.395 J0.867 F762
N3616 G1 X94.443 F1524
N3617 X94.733 Y20.614
N3618 X94.882 Y20.629
N3619 X95.03 Y20.65
N3620 X95.178 Y20.678
N3621 X95.329 Y20.712
N3622 X95.49 Y20.754
N3623 X95.655 Y20.804
N3624 X95.834 Y20.866
N3625 X96.013 Y20.935
N3626 X96.208 Y21.019
N3627 X96.405 Y21.112
N3628 X96.616 Y21.222
N3629 X96.833 Y21.345
N3630 X97.059 Y21.484
N3631 X97.296 Y21.642
N3632 X97.539 Y21.818
N3633 X97.797 Y22.02
N3634 X98.058 Y22.239
N3635 X98.334 Y22.489
N3636 X98.614 Y22.763
N3637 X98.91 Y23.073
N3638 X99.212 Y23.414
N3639 X99.525 Y23.795
N3640 X99.853 Y24.225
N3641 X100.176 Y24.684
N3642 X100.528 Y25.224
N3643 X100.866 Y25.787
N3644 X101.228 Y26.442
N3645 X101.6 Y27.181
N3646 X101.959 Y27.961
N3647 X102.332 Y28.858
N3648 X102.71 Y29.873
N3649 X103.062 Y30.935
N3650 X103.378 Y32.007
N3651 X103.662 Y33.089
N3652 X103.917 Y34.178
N3653 X104.144 Y35.273
N3654 X104.347 Y36.372
N3655 X104.528 Y37.476
N3656 X104.686 Y38.583
N3657 X104.825 Y39.692
N3658 X104.944 Y40.804
N3659 X105.044 Y41.918
N3660 X105.127 Y43.033
N3661 X105.192 Y44.149
N3662 X105.241 Y45.267
N3663 X105.272 Y46.384
N3664 X105.286 Y47.502
N3665 X105.283 Y48.621
N3666 X105.262 Y49.739
N3667 X105.224 Y50.856
N3668 X105.166 Y51.973
N3669 X105.089 Y53.088
N3670 X104.99 Y54.202
N3671 X104.868 Y55.314
N3672 X104.721 Y56.422
N3673 X104.544 Y57.527
N3674 X104.335 Y58.618
N3675 X104.123 Y59.542
N3676 X103.917 Y60.31
N3677 X103.712 Y60.972
N3678 X103.533 Y61.486
N3679 X103.357 Y61.935
N3680 X103.209 Y62.276
N3681 X103.064 Y62.58
N3682 X102.911 Y62.872
N3683 X102.776 Y63.107
N3684 X102.764 Y63.126
N3685 X102.524 Y63.448
N3686 X102.232 Y63.726
N3687 X101.899 Y63.95
N3688 X101.532 Y64.115
N3689 X101.143 Y64.216
N3690 X100.742 Y64.25
N3691 X98.211
N3692 G3 X97.849 Y64.164 I0.033 J-0.952 F762
N3693 X97.295 Y63.383 I0.395 J-0.867 F1524
N3694 G1 X93.528 Y21.636
N3695 G3 X94.081 Y20.684 I0.949 J-0.086
N3696 X94.443 Y20.599 I0.395 J0.867 F762
N3697 G1 X97.014 F1524
N3698 X97.154 Y20.606
N3699 X97.304 Y20.616
N3700 X97.453 Y20.633
N3701 X97.601 Y20.656
N3702 X97.748 Y20.685
N3703 X97.905 Y20.722
N3704 X98.063 Y20.766
N3705 X98.236 Y20.821
N3706 X98.411 Y20.883
N3707 X98.598 Y20.958
N3708 X98.793 Y21.044
N3709 X98.994 Y21.142
N3710 X99.21 Y21.257
N3711 X99.426 Y21.382
N3712 X99.661 Y21.531
N3713 X99.893 Y21.69
N3714 X100.148 Y21.878
N3715 X100.399 Y22.079
N3716 X100.673 Y22.314
N3717 X100.942 Y22.562
N3718 X101.236 Y22.856
N3719 X101.523 Y23.164
N3720 X101.838 Y23.527
N3721 X102.147 Y23.912
N3722 X102.474 Y24.351
N3723 X102.809 Y24.838
N3724 X103.147 Y25.369
N3725 X103.513 Y25.993
N3726 X103.859 Y26.637
N3727 X104.226 Y27.384
N3728 X104.603 Y28.228
N3729 X104.982 Y29.17
N3730 X105.359 Y30.215
N3731 X105.7 Y31.28
N3732 X106.005 Y32.355
N3733 X106.279 Y33.44
N3734 X106.525 Y34.53
N3735 X106.744 Y35.627
N3736 X106.94 Y36.728
N3737 X107.112 Y37.833
N3738 X107.264 Y38.941
N3739 X107.396 Y40.051
N3740 X107.509 Y41.164
N3741 X107.604 Y42.278
N3742 X107.681 Y43.393
N3743 X107.741 Y44.51
N3744 X107.783 Y45.627
N3745 X107.809 Y46.745
N3746 X107.817 Y47.863
N3747 X107.809 Y48.982
N3748 X107.782 Y50.099
N3749 X107.738 Y51.217
N3750 X107.674 Y52.333
N3751 X107.59 Y53.448
N3752 X107.484 Y54.561
N3753 X107.355 Y55.672
N3754 X107.2 Y56.78
N3755 X107.013 Y57.882
N3756 X106.796 Y58.943
N3757 X106.587 Y59.804
N3758 X106.381 Y60.538
N3759 X106.178 Y61.166
N3760 X106.006 Y61.64
N3761 X105.836 Y62.059
N3762 X105.69 Y62.384
N3763 X105.547 Y62.675
N3764 X105.394 Y62.957
N3765 X105.325 Y63.076
N3766 X105.086 Y63.412
N3767 X104.793 Y63.701
N3768 X104.454 Y63.936
N3769 X104.081 Y64.108
N3770 X103.683 Y64.214
N3771 X103.272 Y64.25
N3772 X100.742
N3773 G3 X100.38 Y64.164 I0.033 J-0.952 F762
N3774 X99.827 Y63.382 I0.395 J-0.867 F1524
N3775 G1 X96.099 Y21.635
N3776 G3 X96.653 Y20.684 I0.949 J-0.085
N3777 X97.014 Y20.599 I0.395 J0.867 F762
N3778 G1 X99.515 F1524
N3779 X99.655 Y20.606
N3780 X99.804 Y20.614
N3781 X99.954 Y20.63
N3782 X100.102 Y20.652
N3783 X100.249 Y20.68
N3784 X100.4 Y20.715
N3785 X100.563 Y20.758
N3786 X100.727 Y20.808
N3787 X100.907 Y20.871
N3788 X101.088 Y20.942
N3789 X101.282 Y21.026
N3790 X101.482 Y21.121
N3791 X101.691 Y21.23
N3792 X101.912 Y21.356
N3793 X102.137 Y21.496
N3794 X102.377 Y21.657
N3795 X102.619 Y21.833
N3796 X102.878 Y22.037
N3797 X103.138 Y22.256
N3798 X103.419 Y22.513
N3799 X103.697 Y22.786
N3800 X103.995 Y23.1
N3801 X104.295 Y23.441
N3802 X104.609 Y23.826
N3803 X104.933 Y24.254
N3804 X105.262 Y24.724
N3805 X105.617 Y25.271
N3806 X105.955 Y25.838
N3807 X106.321 Y26.507
N3808 X106.69 Y27.242
N3809 X107.051 Y28.036
N3810 X107.426 Y28.945
N3811 X107.805 Y29.97
N3812 X108.154 Y31.032
N3813 X108.467 Y32.106
N3814 X108.748 Y33.188
N3815 X109 Y34.277
N3816 X109.226 Y35.373
N3817 X109.427 Y36.473
N3818 X109.605 Y37.576
N3819 X109.762 Y38.684
N3820 X109.899 Y39.793
N3821 X110.016 Y40.905
N3822 X110.115 Y42.019
N3823 X110.197 Y43.135
N3824 X110.26 Y44.251
N3825 X110.307 Y45.368
N3826 X110.337 Y46.486
N3827 X110.349 Y47.604
N3828 X110.344 Y48.722
N3829 X110.322 Y49.84
N3830 X110.281 Y50.958
N3831 X110.222 Y52.074
N3832 X110.142 Y53.19
N3833 X110.042 Y54.303
N3834 X109.918 Y55.415
N3835 X109.768 Y56.523
N3836 X109.589 Y57.627
N3837 X109.378 Y58.708
N3838 X109.166 Y59.618
N3839 X108.96 Y60.374
N3840 X108.756 Y61.027
N3841 X108.579 Y61.527
N3842 X108.405 Y61.97
N3843 X108.258 Y62.305
N3844 X108.112 Y62.607
N3845 X107.96 Y62.895
N3846 X107.822 Y63.133
N3847 X107.582 Y63.453
N3848 X107.291 Y63.729
N3849 X106.958 Y63.952
N3850 X106.592 Y64.116
N3851 X106.204 Y64.216
N3852 X105.805 Y64.25
N3853 X103.272
N3854 G3 X102.911 Y64.164 I0.033 J-0.952 F762
N3855 X102.357 Y63.383 I0.395 J-0.867 F1524
N3856 G1 X98.6 Y21.636
N3857 G3 X99.153 Y20.684 I0.949 J-0.085
N3858 X99.515 Y20.599 I0.395 J0.867 F762
N3859 G1 X102.086 F1524
N3860 X102.226 Y20.606
N3861 X102.376 Y20.617
N3862 X102.524 Y20.634
N3863 X102.673 Y20.658
N3864 X102.82 Y20.687
N3865 X102.978 Y20.725
N3866 X103.137 Y20.77
N3867 X103.309 Y20.825
N3868 X103.486 Y20.888
N3869 X103.672 Y20.963
N3870 X103.869 Y21.051
N3871 X104.07 Y21.15
N3872 X104.287 Y21.266
N3873 X104.503 Y21.393
N3874 X104.739 Y21.543
N3875 X104.972 Y21.703
N3876 X105.228 Y21.893
N3877 X105.48 Y22.096
N3878 X105.755 Y22.333
N3879 X106.024 Y22.584
N3880 X106.32 Y22.881
N3881 X106.608 Y23.192
N3882 X106.925 Y23.56
N3883 X107.233 Y23.946
N3884 X107.563 Y24.391
N3885 X107.897 Y24.88
N3886 X108.238 Y25.419
N3887 X108.604 Y26.049
N3888 X108.951 Y26.699
N3889 X109.32 Y27.455
N3890 X109.697 Y28.308
N3891 X110.076 Y29.257
N3892 X110.452 Y30.31
N3893 X110.79 Y31.376
N3894 X111.093 Y32.453
N3895 X111.364 Y33.537
N3896 X111.607 Y34.629
N3897 X111.825 Y35.726
N3898 X112.018 Y36.827
N3899 X112.189 Y37.932
N3900 X112.339 Y39.04
N3901 X112.47 Y40.151
N3902 X112.581 Y41.264
N3903 X112.674 Y42.378
N3904 X112.75 Y43.493
N3905 X112.808 Y44.61
N3906 X112.849 Y45.728
N3907 X112.873 Y46.846
N3908 X112.88 Y47.964
N3909 X112.869 Y49.082
N3910 X112.841 Y50.2
N3911 X112.795 Y51.317
N3912 X112.729 Y52.433
N3913 X112.643 Y53.548
N3914 X112.536 Y54.661
N3915 X112.404 Y55.772
N3916 X112.246 Y56.879
N3917 X112.056 Y57.981
N3918 X111.839 Y59.028
N3919 X111.631 Y59.874
N3920 X111.425 Y60.596
N3921 X111.222 Y61.218
N3922 X111.053 Y61.678
N3923 X110.884 Y62.092
N3924 X110.74 Y62.411
N3925 X110.595 Y62.702
N3926 X110.444 Y62.98
N3927 X110.383 Y63.083
N3928 X110.144 Y63.417
N3929 X109.851 Y63.704
N3930 X109.513 Y63.937
N3931 X109.14 Y64.109
N3932 X108.743 Y64.214
N3933 X108.335 Y64.25
N3934 X105.805
N3935 G3 X105.443 Y64.164 I0.033 J-0.952 F762
N3936 X104.889 Y63.382 I0.395 J-0.867 F1524
N3937 G1 X101.171 Y21.635
N3938 G3 X101.725 Y20.684 I0.949 J-0.085
N3939 X102.086 Y20.599 I0.395 J0.867 F762
N3940 G1 X104.571 F1524
N3941 X104.711 Y20.606
N3942 X104.861 Y20.614
N3943 X105.01 Y20.63
N3944 X105.158 Y20.652
N3945 X105.306 Y20.679
N3946 X105.455 Y20.713
N3947 X105.618 Y20.757
N3948 X105.782 Y20.807
N3949 X105.959 Y20.869
N3950 X106.143 Y20.94
N3951 X106.335 Y21.023
N3952 X106.537 Y21.119
N3953 X106.744 Y21.227
N3954 X106.966 Y21.353
N3955 X107.189 Y21.491
N3956 X107.431 Y21.654
N3957 X107.67 Y21.827
N3958 X107.932 Y22.032
N3959 X108.189 Y22.249
N3960 X108.472 Y22.506
N3961 X108.748 Y22.777
N3962 X109.049 Y23.094
N3963 X109.344 Y23.428
N3964 X109.663 Y23.817
N3965 X109.981 Y24.237
N3966 X110.315 Y24.712
N3967 X110.662 Y25.247
N3968 X111.006 Y25.822
N3969 X111.377 Y26.497
N3970 X111.735 Y27.212
N3971 X112.102 Y28.013
N3972 X112.478 Y28.922
N3973 X112.857 Y29.944
N3974 X113.207 Y31.006
N3975 X113.521 Y32.08
N3976 X113.804 Y33.162
N3977 X114.057 Y34.251
N3978 X114.283 Y35.346
N3979 X114.485 Y36.446
N3980 X114.664 Y37.549
N3981 X114.821 Y38.657
N3982 X114.959 Y39.766
N3983 X115.077 Y40.878
N3984 X115.176 Y41.992
N3985 X115.258 Y43.107
N3986 X115.322 Y44.224
N3987 X115.368 Y45.341
N3988 X115.398 Y46.459
N3989 X115.411 Y47.577
N3990 X115.406 Y48.695
N3991 X115.384 Y49.813
N3992 X115.344 Y50.931
N3993 X115.285 Y52.047
N3994 X115.206 Y53.163
N3995 X115.106 Y54.276
N3996 X114.983 Y55.388
N3997 X114.834 Y56.496
N3998 X114.655 Y57.6
N3999 X114.442 Y58.698
N4000 X114.233 Y59.598
N4001 X114.025 Y60.363
N4002 X113.821 Y61.017
N4003 X113.644 Y61.521
N4004 X113.47 Y61.962
N4005 X113.322 Y62.301
N4006 X113.178 Y62.6
N4007 X113.024 Y62.891
N4008 X112.885 Y63.132
N4009 X112.645 Y63.452
N4010 X112.354 Y63.728
N4011 X112.02 Y63.951
N4012 X111.655 Y64.115
N4013 X111.266 Y64.216
N4014 X110.867 Y64.25
N4015 X108.335
N4016 G3 X107.973 Y64.164 I0.033 J-0.952 F762
N4017 X107.419 Y63.383 I0.395 J-0.867 F1524
N4018 G1 X103.656 Y21.636
N4019 G3 X104.209 Y20.684 I0.949 J-0.086
N4020 X104.571 Y20.599 I0.395 J0.867 F762
N4021 G1 X107.142 F1524
N4022 X107.282 Y20.606
N4023 X107.432 Y20.616
N4024 X107.581 Y20.634
N4025 X107.729 Y20.657
N4026 X107.876 Y20.687
N4027 X108.034 Y20.724
N4028 X108.193 Y20.769
N4029 X108.365 Y20.824
N4030 X108.541 Y20.887
N4031 X108.728 Y20.962
N4032 X108.924 Y21.049
N4033 X109.125 Y21.147
N4034 X109.341 Y21.263
N4035 X109.558 Y21.389
N4036 X109.793 Y21.539
N4037 X110.026 Y21.699
N4038 X110.282 Y21.889
N4039 X110.533 Y22.09
N4040 X110.808 Y22.327
N4041 X111.077 Y22.577
N4042 X111.373 Y22.874
N4043 X111.662 Y23.185
N4044 X111.977 Y23.55
N4045 X112.285 Y23.935
N4046 X112.614 Y24.379
N4047 X112.949 Y24.868
N4048 X113.29 Y25.406
N4049 X113.657 Y26.035
N4050 X114.004 Y26.683
N4051 X114.372 Y27.438
N4052 X114.75 Y28.289
N4053 X115.13 Y29.236
N4054 X115.507 Y30.289
N4055 X115.845 Y31.355
N4056 X116.149 Y32.431
N4057 X116.421 Y33.515
N4058 X116.665 Y34.607
N4059 X116.883 Y35.703
N4060 X117.077 Y36.805
N4061 X117.249 Y37.91
N4062 X117.399 Y39.018
N4063 X117.53 Y40.128
N4064 X117.642 Y41.241
N4065 X117.735 Y42.355
N4066 X117.811 Y43.471
N4067 X117.869 Y44.587
N4068 X117.91 Y45.705
N4069 X117.934 Y46.823
N4070 X117.942 Y47.941
N4071 X117.931 Y49.059
N4072 X117.903 Y50.177
N4073 X117.857 Y51.294
N4074 X117.792 Y52.411
N4075 X117.707 Y53.526
N4076 X117.6 Y54.639
N4077 X117.469 Y55.749
N4078 X117.312 Y56.856
N4079 X117.122 Y57.958
N4080 X116.905 Y59.009
N4081 X116.697 Y59.859
N4082 X116.491 Y60.583
N4083 X116.288 Y61.206
N4084 X116.119 Y61.67
N4085 X115.949 Y62.085
N4086 X115.805 Y62.405
N4087 X115.66 Y62.696
N4088 X115.509 Y62.975
N4089 X115.446 Y63.081
N4090 X115.207 Y63.415
N4091 X114.914 Y63.704
N4092 X114.576 Y63.937
N4093 X114.203 Y64.109
N4094 X113.806 Y64.214
N4095 X113.397 Y64.25
N4096 X110.867
N4097 G3 X110.505 Y64.164 I0.033 J-0.952 F762
N4098 X109.951 Y63.382 I0.395 J-0.867 F1524
N4099 G1 X106.227 Y21.635
N4100 G3 X106.781 Y20.684 I0.949 J-0.085
N4101 X107.142 Y20.599 I0.395 J0.867 F762
N4102 G1 X109.656 F1524
N4103 X109.795 Y20.606
N4104 X109.945 Y20.616
N4105 X110.094 Y20.632
N4106 X110.242 Y20.655
N4107 X110.39 Y20.684
N4108 X110.542 Y20.719
N4109 X110.706 Y20.764
N4110 X110.871 Y20.816
N4111 X111.052 Y20.88
N4112 X111.234 Y20.952
N4113 X111.43 Y21.038
N4114 X111.631 Y21.135
N4115 X111.842 Y21.247
N4116 X112.063 Y21.375
N4117 X112.29 Y21.517
N4118 X112.531 Y21.681
N4119 X112.775 Y21.86
N4120 X113.036 Y22.067
N4121 X113.297 Y22.291
N4122 X113.58 Y22.551
N4123 X113.86 Y22.829
N4124 X114.159 Y23.148
N4125 X114.461 Y23.495
N4126 X114.776 Y23.886
N4127 X115.104 Y24.323
N4128 X115.434 Y24.798
N4129 X115.79 Y25.356
N4130 X116.13 Y25.932
N4131 X116.497 Y26.61
N4132 X116.869 Y27.364
N4133 X117.231 Y28.169
N4134 X117.605 Y29.091
N4135 X117.984 Y30.134
N4136 X118.328 Y31.198
N4137 X118.636 Y32.273
N4138 X118.913 Y33.356
N4139 X119.161 Y34.447
N4140 X119.383 Y35.543
N4141 X119.58 Y36.643
N4142 X119.755 Y37.748
N4143 X119.909 Y38.855
N4144 X120.043 Y39.966
N4145 X120.157 Y41.078
N4146 X120.254 Y42.192
N4147 X120.332 Y43.307
N4148 X120.393 Y44.424
N4149 X120.437 Y45.541
N4150 X120.464 Y46.659
N4151 X120.474 Y47.777
N4152 X120.466 Y48.896
N4153 X120.441 Y50.013
N4154 X120.398 Y51.131
N4155 X120.335 Y52.247
N4156 X120.253 Y53.362
N4157 X120.149 Y54.476
N4158 X120.021 Y55.587
N4159 X119.867 Y56.694
N4160 X119.682 Y57.797
N4161 X119.474 Y58.837
N4162 X119.26 Y59.736
N4163 X119.056 Y60.47
N4164 X118.854 Y61.106
N4165 X118.681 Y61.588
N4166 X118.507 Y62.022
N4167 X118.363 Y62.345
N4168 X118.214 Y62.65
N4169 X118.064 Y62.93
N4170 X117.984 Y63.068
N4171 X117.745 Y63.406
N4172 X117.452 Y63.697
N4173 X117.113 Y63.933
N4174 X116.738 Y64.107
N4175 X116.339 Y64.214
N4176 X115.927 Y64.25
N4177 X113.397
N4178 G3 X113.035 Y64.164 I0.033 J-0.952 F762
N4179 X112.481 Y63.383 I0.395 J-0.867 F1524
N4180 G1 X108.74 Y21.636
N4181 G3 X109.294 Y20.684 I0.949 J-0.085
N4182 X109.656 Y20.599 I0.395 J0.867 F762
N4183 G1 X112.156 F1524
N4184 X112.446 Y20.614
N4185 X112.595 Y20.629
N4186 X112.743 Y20.651
N4187 X112.891 Y20.679
N4188 X113.042 Y20.713
N4189 X113.204 Y20.756
N4190 X113.369 Y20.806
N4191 X113.548 Y20.868
N4192 X113.728 Y20.938
N4193 X113.922 Y21.021
N4194 X114.121 Y21.116
N4195 X114.331 Y21.225
N4196 X114.549 Y21.349
N4197 X114.775 Y21.489
N4198 X115.013 Y21.648
N4199 X115.256 Y21.824
N4200 X115.516 Y22.027
N4201 X115.776 Y22.247
N4202 X116.054 Y22.499
N4203 X116.334 Y22.772
N4204 X116.631 Y23.085
N4205 X116.932 Y23.426
N4206 X117.248 Y23.81
N4207 X117.574 Y24.24
N4208 X117.9 Y24.703
N4209 X118.253 Y25.246
N4210 X118.591 Y25.81
N4211 X118.954 Y26.47
N4212 X119.326 Y27.208
N4213 X119.686 Y27.994
N4214 X120.06 Y28.897
N4215 X120.439 Y29.917
N4216 X120.79 Y30.979
N4217 X121.105 Y32.052
N4218 X121.388 Y33.134
N4219 X121.642 Y34.223
N4220 X121.87 Y35.318
N4221 X122.072 Y36.417
N4222 X122.252 Y37.521
N4223 X122.41 Y38.628
N4224 X122.548 Y39.738
N4225 X122.666 Y40.85
N4226 X122.767 Y41.963
N4227 X122.849 Y43.079
N4228 X122.914 Y44.195
N4229 X122.961 Y45.312
N4230 X122.992 Y46.43
N4231 X123.005 Y47.548
N4232 X123.001 Y48.666
N4233 X122.98 Y49.784
N4234 X122.94 Y50.902
N4235 X122.881 Y52.018
N4236 X122.803 Y53.134
N4237 X122.703 Y54.248
N4238 X122.58 Y55.359
N4239 X122.431 Y56.467
N4240 X122.253 Y57.571
N4241 X122.044 Y58.657
N4242 X121.831 Y59.575
N4243 X121.625 Y60.337
N4244 X121.421 Y60.995
N4245 X121.243 Y61.503
N4246 X121.067 Y61.951
N4247 X120.92 Y62.288
N4248 X120.774 Y62.592
N4249 X120.622 Y62.882
N4250 X120.487 Y63.116
N4251 X120.479 Y63.129
N4252 X120.238 Y63.451
N4253 X119.947 Y63.727
N4254 X119.614 Y63.951
N4255 X119.248 Y64.115
N4256 X118.859 Y64.216
N4257 X118.459 Y64.25
N4258 X115.927
N4259 G3 X115.565 Y64.164 I0.033 J-0.952 F762
N4260 X115.012 Y63.383 I0.395 J-0.867 F1524
N4261 G1 X111.241 Y21.636
N4262 G3 X111.795 Y20.684 I0.949 J-0.086
N4263 X112.156 Y20.599 I0.395 J0.867 F762
N4264 G1 X114.728 F1524
N4265 X114.867 Y20.606
N4266 X115.017 Y20.616
N4267 X115.166 Y20.633
N4268 X115.314 Y20.657
N4269 X115.461 Y20.686
N4270 X115.619 Y20.723
N4271 X115.777 Y20.767
N4272 X115.95 Y20.822
N4273 X116.126 Y20.885
N4274 X116.312 Y20.959
N4275 X116.508 Y21.046
N4276 X116.709 Y21.144
N4277 X116.926 Y21.26
N4278 X117.142 Y21.386
N4279 X117.377 Y21.535
N4280 X117.61 Y21.694
N4281 X117.865 Y21.883
N4282 X118.117 Y22.084
N4283 X118.391 Y22.321
N4284 X118.66 Y22.57
N4285 X118.955 Y22.864
N4286 X119.243 Y23.173
N4287 X119.559 Y23.538
N4288 X119.867 Y23.923
N4289 X120.196 Y24.365
N4290 X120.53 Y24.851
N4291 X120.87 Y25.386
N4292 X121.236 Y26.013
N4293 X121.583 Y26.659
N4294 X121.951 Y27.41
N4295 X122.329 Y28.258
N4296 X122.708 Y29.202
N4297 X123.086 Y30.251
N4298 X123.426 Y31.316
N4299 X123.73 Y32.392
N4300 X124.004 Y33.476
N4301 X124.249 Y34.568
N4302 X124.468 Y35.664
N4303 X124.663 Y36.765
N4304 X124.835 Y37.87
N4305 X124.987 Y38.978
N4306 X125.118 Y40.088
N4307 X125.231 Y41.201
N4308 X125.325 Y42.315
N4309 X125.402 Y43.431
N4310 X125.461 Y44.547
N4311 X125.503 Y45.665
N4312 X125.528 Y46.783
N4313 X125.536 Y47.901
N4314 X125.526 Y49.019
N4315 X125.499 Y50.137
N4316 X125.454 Y51.254
N4317 X125.389 Y52.371
N4318 X125.304 Y53.486
N4319 X125.198 Y54.599
N4320 X125.068 Y55.709
N4321 X124.911 Y56.817
N4322 X124.723 Y57.919
N4323 X124.506 Y58.975
N4324 X124.297 Y59.831
N4325 X124.091 Y60.56
N4326 X123.888 Y61.186
N4327 X123.717 Y61.655
N4328 X123.548 Y62.072
N4329 X123.402 Y62.395
N4330 X123.258 Y62.686
N4331 X123.106 Y62.966
N4332 X123.04 Y63.079
N4333 X122.801 Y63.414
N4334 X122.508 Y63.702
N4335 X122.17 Y63.936
N4336 X121.796 Y64.109
N4337 X121.399 Y64.214
N4338 X120.989 Y64.25
N4339 X118.459
N4340 G3 X118.097 Y64.164 I0.033 J-0.952 F762
N4341 X117.543 Y63.382 I0.395 J-0.867 F1524
N4342 G1 X113.812 Y21.635
N4343 G3 X114.366 Y20.684 I0.949 J-0.085
N4344 X114.728 Y20.599 I0.395 J0.867 F762
N4345 G1 X117.228 F1524
N4346 X117.368 Y20.606
N4347 X117.518 Y20.615
N4348 X117.667 Y20.63
N4349 X117.815 Y20.652
N4350 X117.963 Y20.68
N4351 X118.113 Y20.715
N4352 X118.276 Y20.759
N4353 X118.441 Y20.809
N4354 X118.62 Y20.872
N4355 X118.802 Y20.943
N4356 X118.996 Y21.027
N4357 X119.197 Y21.123
N4358 X119.406 Y21.232
N4359 X119.627 Y21.358
N4360 X119.852 Y21.498
N4361 X120.093 Y21.66
N4362 X120.334 Y21.836
N4363 X120.595 Y22.041
N4364 X120.854 Y22.26
N4365 X121.136 Y22.518
N4366 X121.414 Y22.791
N4367 X121.713 Y23.107
N4368 X122.012 Y23.447
N4369 X122.328 Y23.834
N4370 X122.652 Y24.262
N4371 X122.982 Y24.734
N4372 X123.336 Y25.281
N4373 X123.675 Y25.851
N4374 X124.043 Y26.523
N4375 X124.41 Y27.257
N4376 X124.773 Y28.055
N4377 X125.148 Y28.967
N4378 X125.528 Y29.995
N4379 X125.876 Y31.057
N4380 X126.189 Y32.131
N4381 X126.47 Y33.213
N4382 X126.722 Y34.303
N4383 X126.947 Y35.398
N4384 X127.148 Y36.498
N4385 X127.326 Y37.602
N4386 X127.483 Y38.709
N4387 X127.619 Y39.819
N4388 X127.737 Y40.931
N4389 X127.836 Y42.045
N4390 X127.917 Y43.16
N4391 X127.98 Y44.277
N4392 X128.026 Y45.394
N4393 X128.055 Y46.512
N4394 X128.067 Y47.63
N4395 X128.062 Y48.748
N4396 X128.039 Y49.866
N4397 X127.998 Y50.983
N4398 X127.938 Y52.1
N4399 X127.858 Y53.215
N4400 X127.757 Y54.329
N4401 X127.632 Y55.44
N4402 X127.482 Y56.548
N4403 X127.301 Y57.652
N4404 X127.09 Y58.73
N4405 X126.878 Y59.636
N4406 X126.672 Y60.39
N4407 X126.468 Y61.04
N4408 X126.292 Y61.537
N4409 X126.118 Y61.979
N4410 X125.971 Y62.312
N4411 X125.825 Y62.614
N4412 X125.673 Y62.901
N4413 X125.538 Y63.135
N4414 X125.298 Y63.455
N4415 X125.007 Y63.73
N4416 X124.674 Y63.952
N4417 X124.308 Y64.116
N4418 X123.921 Y64.216
N4419 X123.522 Y64.25
N4420 X120.989
N4421 G3 X120.627 Y64.164 I0.033 J-0.952 F762
N4422 X120.074 Y63.383 I0.395 J-0.867 F1524
N4423 G1 X116.313 Y21.636
