%
(MachineCode)
(T3  D=6.35 CR=0 - ZMIN=-11.7 - ball end mill)
N0 G90
N1 G17
(Adaptive3)
N2 T3 M6
N3 S10000 M3
N5 G0 X100.491 Y42.822
N6 Z15
N7 Z5
N8 Z2.903
N9 G1 Z2.503 F1524
N10 G3 X101.881 Y42.056 Z2.416 I0.695 J-0.383
N11 X100.491 Y42.822 Z2.329 I-0.695 J0.383
N12 X101.881 Y42.056 Z2.242 I0.695 J-0.383
N13 X100.491 Y42.822 Z2.155 I-0.695 J0.383
N14 X101.881 Y42.056 Z2.068 I0.695 J-0.383
N15 X100.491 Y42.822 Z1.981 I-0.695 J0.383
N16 X101.881 Y42.056 Z1.893 I0.695 J-0.383
N17 X100.491 Y42.822 Z1.806 I-0.695 J0.383
N18 X101.881 Y42.056 Z1.719 I0.695 J-0.383
N19 X100.491 Y42.822 Z1.632 I-0.695 J0.383
N20 X101.881 Y42.056 Z1.545 I0.695 J-0.383
N21 X100.491 Y42.822 Z1.458 I-0.695 J0.383
N22 X101.881 Y42.056 Z1.371 I0.695 J-0.383
N23 X100.491 Y42.822 Z1.284 I-0.695 J0.383
N24 X101.881 Y42.056 Z1.197 I0.695 J-0.383
N25 X100.491 Y42.822 Z1.11 I-0.695 J0.383
N26 X101.881 Y42.056 Z1.023 I0.695 J-0.383
N27 X100.491 Y42.822 Z0.936 I-0.695 J0.383
N28 X101.881 Y42.056 Z0.848 I0.695 J-0.383
N29 X100.491 Y42.822 Z0.761 I-0.695 J0.383
N30 X101.881 Y42.056 Z0.674 I0.695 J-0.383
N31 X100.491 Y42.822 Z0.587 I-0.695 J0.383
N32 X101.881 Y42.056 Z0.5 I0.695 J-0.383
N33 X100.491 Y42.822 Z0.413 I-0.695 J0.383
N34 X101.881 Y42.056 Z0.326 I0.695 J-0.383
N35 X100.491 Y42.822 Z0.239 I-0.695 J0.383
N36 X101.881 Y42.056 Z0.152 I0.695 J-0.383
N37 X100.491 Y42.822 Z0.065 I-0.695 J0.383
N38 X101.881 Y42.056 Z-0.022 I0.695 J-0.383
N39 X100.491 Y42.822 Z-0.109 I-0.695 J0.383
N40 X101.881 Y42.056 Z-0.196 I0.695 J-0.383
N41 X100.491 Y42.822 Z-0.284 I-0.695 J0.383
N42 X101.881 Y42.056 Z-0.371 I0.695 J-0.383
N43 X100.491 Y42.822 Z-0.458 I-0.695 J0.383
N44 X101.881 Y42.056 Z-0.545 I0.695 J-0.383
N45 X100.491 Y42.822 Z-0.632 I-0.695 J0.383
N46 X101.881 Y42.056 Z-0.719 I0.695 J-0.383
N47 X100.491 Y42.822 Z-0.806 I-0.695 J0.383
N48 X101.881 Y42.056 Z-0.893 I0.695 J-0.383
N49 X100.491 Y42.822 Z-0.98 I-0.695 J0.383
N50 X101.881 Y42.056 Z-1.067 I0.695 J-0.383
N51 X100.491 Y42.822 Z-1.154 I-0.695 J0.383
N52 X101.881 Y42.056 Z-1.241 I0.695 J-0.383
N53 X100.491 Y42.822 Z-1.329 I-0.695 J0.383
N54 X101.881 Y42.056 Z-1.416 I0.695 J-0.383
N55 X100.491 Y42.822 Z-1.503 I-0.695 J0.383
N56 X101.881 Y42.056 Z-1.59 I0.695 J-0.383
N57 X100.491 Y42.822 Z-1.677 I-0.695 J0.383
N58 X101.881 Y42.056 Z-1.764 I0.695 J-0.383
N59 X100.491 Y42.822 Z-1.851 I-0.695 J0.383
N60 X101.881 Y42.056 Z-1.938 I0.695 J-0.383
N61 X100.491 Y42.822 Z-2.025 I-0.695 J0.383
N62 X101.881 Y42.056 Z-2.112 I0.695 J-0.383
N63 X100.491 Y42.822 Z-2.199 I-0.695 J0.383
N64 X101.881 Y42.056 Z-2.286 I0.695 J-0.383
N65 X100.491 Y42.822 Z-2.373 I-0.695 J0.383
N66 X101.881 Y42.056 Z-2.461 I0.695 J-0.383
N67 X100.491 Y42.822 Z-2.548 I-0.695 J0.383
N68 X101.881 Y42.056 Z-2.635 I0.695 J-0.383
N69 X100.491 Y42.822 Z-2.722 I-0.695 J0.383
N70 X101.881 Y42.056 Z-2.809 I0.695 J-0.383
N71 X100.491 Y42.822 Z-2.896 I-0.695 J0.383
N72 X101.881 Y42.056 Z-2.983 I0.695 J-0.383
N73 X101.979 Y42.439 Z-2.997 I-0.695 J0.383
N74 X100.392 I-0.794 J0
N75 X101.97 Y42.317 I0.794 J0
N76 X101.979 Y42.439 I-0.784 J0.122
N77 G1 X102.014 Y42.894
N78 X102.047 Y43.04
N79 X102.039 Y43.19
N80 X101.999 Y43.334
N81 X101.933 Y43.469
N82 X101.846 Y43.591
N83 X101.742 Y43.699
N84 X101.623 Y43.791
N85 X101.494 Y43.867
N86 X101.356 Y43.926
N87 X101.212 Y43.968
N88 X101.064 Y43.993
N89 X100.914 Y44.001
N90 X100.764 Y43.993
N91 X100.616 Y43.969
N92 X100.471 Y43.93
N93 X100.331 Y43.877
N94 X100.197 Y43.81
N95 X100.07 Y43.73
N96 X99.951 Y43.639
N97 X99.841 Y43.537
N98 X99.741 Y43.425
N99 X99.652 Y43.304
N100 X99.574 Y43.176
N101 X99.508 Y43.041
N102 X99.455 Y42.901
N103 X99.413 Y42.757
N104 X99.385 Y42.609
N105 X99.369 Y42.46
N106 X99.367 Y42.31
N107 X99.377 Y42.161
N108 X99.399 Y42.012
N109 X99.435 Y41.867
N110 X99.482 Y41.724
N111 X99.541 Y41.586
N112 X99.611 Y41.454
N113 X99.692 Y41.328
N114 X99.783 Y41.208
N115 X99.884 Y41.097
N116 X99.993 Y40.994
N117 X100.11 Y40.901
N118 X100.235 Y40.817
N119 X100.366 Y40.744
N120 X100.502 Y40.682
N121 X100.643 Y40.631
N122 X100.788 Y40.591
N123 X100.935 Y40.563
N124 X101.085 Y40.547
N125 X101.235 Y40.543
N126 X101.384 Y40.551
N127 X101.533 Y40.571
N128 X101.68 Y40.603
N129 X101.823 Y40.646
N130 X101.963 Y40.7
N131 X102.098 Y40.766
N132 X102.227 Y40.842
N133 X102.35 Y40.928
N134 X102.467 Y41.023
N135 X102.578 Y41.123
N136 X102.683 Y41.23
N137 X102.783 Y41.342
N138 X102.876 Y41.46
N139 X102.962 Y41.582
N140 X103.041 Y41.71
N141 X103.111 Y41.842
N142 X103.174 Y41.979
N143 X103.228 Y42.119
N144 X103.274 Y42.262
N145 X103.31 Y42.407
N146 X103.337 Y42.555
N147 X103.354 Y42.704
N148 X103.362 Y42.853
N149 X103.36 Y43.003
N150 X103.349 Y43.153
N151 X103.328 Y43.302
N152 X103.298 Y43.448
N153 X103.258 Y43.593
N154 X103.209 Y43.735
N155 X103.151 Y43.873
N156 X103.085 Y44.008
N157 X103.01 Y44.138
N158 X102.928 Y44.263
N159 X102.837 Y44.383
N160 X102.74 Y44.497
N161 X102.636 Y44.605
N162 X102.525 Y44.706
N163 X102.409 Y44.801
N164 X102.287 Y44.888
N165 X102.16 Y44.968
N166 X102.028 Y45.04
N167 X101.893 Y45.105
N168 X101.754 Y45.161
N169 X101.612 Y45.21
N170 X101.467 Y45.25
N171 X101.321 Y45.282
N172 X101.173 Y45.306
N173 X101.024 Y45.321
N174 X100.874 Y45.328
N175 X100.724 Y45.327
N176 X100.574 Y45.318
N177 X100.425 Y45.3
N178 X100.277 Y45.274
N179 X100.131 Y45.241
N180 X99.987 Y45.2
N181 X99.845 Y45.151
N182 X99.706 Y45.095
N183 X99.57 Y45.032
N184 X99.437 Y44.961
N185 X99.309 Y44.884
N186 X99.184 Y44.8
N187 X99.064 Y44.711
N188 X98.949 Y44.615
N189 X98.838 Y44.513
N190 X98.733 Y44.406
N191 X98.634 Y44.294
N192 X98.54 Y44.177
N193 X98.451 Y44.055
N194 X98.369 Y43.929
N195 X98.293 Y43.798
N196 X98.224 Y43.665
N197 X98.161 Y43.527
N198 X98.104 Y43.385
N199 X98.055 Y43.243
N200 X98.012 Y43.094
N201 X97.977 Y42.947
N202 X97.949 Y42.794
N203 X97.928 Y42.642
N204 X97.915 Y42.487
N205 X97.909 Y42.331
N206 X97.911 Y42.177
N207 X97.921 Y42.019
N208 X97.938 Y41.865
N209 X97.963 Y41.708
N210 X97.996 Y41.554
N211 X98.035 Y41.402
N212 X98.084 Y41.249
N213 X98.138 Y41.102
N214 X98.202 Y40.954
N215 X98.272 Y40.811
N216 X98.348 Y40.671
N217 X98.433 Y40.533
N218 X98.523 Y40.402
N219 X98.621 Y40.273
N220 X98.725 Y40.149
N221 X98.834 Y40.032
N222 X98.951 Y39.917
N223 X99.071 Y39.811
N224 X99.2 Y39.708
N225 X99.331 Y39.613
N226 X99.467 Y39.524
N227 X99.61 Y39.441
N228 X99.753 Y39.366
N229 X99.903 Y39.297
N230 X100.056 Y39.236
N231 X100.209 Y39.183
N232 X100.369 Y39.136
N233 X100.528 Y39.098
N234 X100.691 Y39.068
N235 X100.855 Y39.045
N236 X101.018 Y39.031
N237 X101.186 Y39.024
N238 X101.351 Y39.026
N239 X101.519 Y39.036
N240 X101.691 Y39.055
N241 X101.865 Y39.082
N242 X102.039 Y39.119
N243 X102.211 Y39.164
N244 X102.384 Y39.218
N245 X102.557 Y39.282
N246 X102.727 Y39.355
N247 X102.894 Y39.436
N248 X103.057 Y39.525
N249 X103.218 Y39.624
N250 X103.375 Y39.731
N251 X103.525 Y39.845
N252 X103.67 Y39.966
N253 X103.81 Y40.095
N254 X103.944 Y40.233
N255 X104.072 Y40.376
N256 X104.191 Y40.524
N257 X104.303 Y40.679
N258 X104.409 Y40.84
N259 X104.507 Y41.007
N260 X104.595 Y41.176
N261 X104.675 Y41.35
N262 X104.748 Y41.531
N263 X104.812 Y41.713
N264 X104.866 Y41.898
N265 X104.911 Y42.085
N266 X104.947 Y42.276
N267 X104.974 Y42.47
N268 X104.991 Y42.662
N269 X104.999 Y42.856
N270 X104.997 Y43.051
N271 X104.986 Y43.247
N272 X104.965 Y43.442
N273 X104.934 Y43.635
N274 X104.894 Y43.827
N275 X104.845 Y44.018
N276 X104.785 Y44.208
N277 X104.717 Y44.394
N278 X104.64 Y44.576
N279 X104.553 Y44.754
N280 X104.457 Y44.93
N281 X104.352 Y45.103
N282 X104.239 Y45.269
N283 X104.117 Y45.43
N284 X103.988 Y45.584
N285 X103.851 Y45.734
N286 X103.705 Y45.877
N287 X103.551 Y46.014
N288 X103.391 Y46.143
N289 X103.225 Y46.265
N290 X103.052 Y46.378
N291 X102.873 Y46.483
N292 X102.689 Y46.58
N293 X102.498 Y46.668
N294 X102.302 Y46.748
N295 X102.102 Y46.817
N296 X101.899 Y46.877
N297 X101.692 Y46.928
N298 X101.482 Y46.968
N299 X101.27 Y46.997
N300 X101.056 Y47.017
N301 X100.84 Y47.026
N302 X100.622 Y47.024
N303 X100.404 Y47.012
N304 X100.186 Y46.989
N305 X99.968 Y46.955
N306 X99.751 Y46.91
N307 X99.536 Y46.855
N308 X99.323 Y46.788
N309 X99.113 Y46.711
N310 X98.907 Y46.624
N311 X98.704 Y46.526
N312 X98.505 Y46.418
N313 X98.311 Y46.3
N314 X98.123 Y46.173
N315 X97.94 Y46.035
N316 X97.764 Y45.888
N317 X97.594 Y45.733
N318 X97.432 Y45.568
N319 X97.278 Y45.396
N320 X97.131 Y45.215
N321 X96.994 Y45.026
N322 X96.865 Y44.831
N323 X96.745 Y44.629
N324 X96.636 Y44.42
N325 X96.536 Y44.206
N326 X96.446 Y43.986
N327 X96.368 Y43.762
N328 X96.3 Y43.533
N329 X96.243 Y43.301
N330 X96.198 Y43.066
N331 X96.164 Y42.828
N332 X96.142 Y42.588
N333 X96.132 Y42.346
N334 X96.133 Y42.104
N335 X96.146 Y41.862
N336 X96.172 Y41.62
N337 X96.209 Y41.379
N338 X96.258 Y41.139
N339 X96.319 Y40.902
N340 X96.391 Y40.668
N341 X96.475 Y40.437
N342 X96.571 Y40.209
N343 X96.678 Y39.987
N344 X96.795 Y39.77
N345 X96.924 Y39.558
N346 X97.063 Y39.352
N347 X97.212 Y39.153
N348 X97.371 Y38.962
N349 X97.539 Y38.778
N350 X97.717 Y38.602
N351 X97.903 Y38.435
N352 X98.097 Y38.278
N353 X98.299 Y38.129
N354 X98.509 Y37.991
N355 X98.725 Y37.863
N356 X98.927 Y37.756
N357 X99.154 Y37.648
N358 X99.388 Y37.552
N359 X99.627 Y37.466
N360 X99.87 Y37.392
N361 X100.119 Y37.33
N362 X100.371 Y37.28
N363 X100.626 Y37.242
N364 X100.885 Y37.216
N365 X101.146 Y37.203
N366 X101.409
N367 X101.673 Y37.216
N368 X101.937 Y37.242
N369 X102.202 Y37.281
N370 X102.465 Y37.333
N371 X102.727 Y37.398
N372 X102.986 Y37.477
N373 X103.243 Y37.568
N374 X103.495 Y37.673
N375 X103.743 Y37.79
N376 X103.986 Y37.919
N377 X104.223 Y38.061
N378 X104.453 Y38.214
N379 X104.676 Y38.379
N380 X104.891 Y38.556
N381 X105.098 Y38.743
N382 X105.296 Y38.94
N383 X105.485 Y39.147
N384 X105.663 Y39.364
N385 X105.831 Y39.59
N386 X105.988 Y39.824
N387 X106.133 Y40.066
N388 X106.267 Y40.315
N389 X106.388 Y40.571
N390 X106.497 Y40.833
N391 X106.594 Y41.1
N392 X106.677 Y41.372
N393 X106.746 Y41.649
N394 X106.803 Y41.929
N395 X106.845 Y42.212
N396 X106.874 Y42.497
N397 X106.888 Y42.784
N398 X106.889 Y43.071
N399 X106.875 Y43.359
N400 X106.848 Y43.646
N401 X106.806 Y43.932
N402 X106.75 Y44.217
N403 X106.68 Y44.499
N404 X106.596 Y44.777
N405 X106.499 Y45.052
N406 X106.388 Y45.322
N407 X106.263 Y45.587
N408 X106.125 Y45.847
N409 X105.975 Y46.099
N410 X105.811 Y46.345
N411 X105.636 Y46.583
N412 X105.449 Y46.812
N413 X105.25 Y47.033
N414 X105.039 Y47.245
N415 X104.819 Y47.446
N416 X104.587 Y47.637
N417 X104.346 Y47.817
N418 X104.096 Y47.985
N419 X103.838 Y48.141
N420 X103.571 Y48.285
N421 X103.296 Y48.415
N422 X103.015 Y48.533
N423 X102.728 Y48.637
N424 X102.435 Y48.727
N425 X102.136 Y48.803
N426 X101.834 Y48.864
N427 X101.528 Y48.91
N428 X101.219 Y48.942
N429 X100.908 Y48.958
N430 X100.595 Y48.959
N431 X100.283 Y48.945
N432 X99.97 Y48.915
N433 X99.658 Y48.87
N434 X99.348 Y48.81
N435 X99.04 Y48.734
N436 X98.735 Y48.643
N437 X98.435 Y48.537
N438 X98.139 Y48.416
N439 X97.849 Y48.28
N440 X97.565 Y48.129
N441 X97.287 Y47.965
N442 X97.018 Y47.786
N443 X96.757 Y47.594
N444 X96.505 Y47.389
N445 X96.262 Y47.171
N446 X96.03 Y46.941
N447 X95.809 Y46.7
N448 X95.6 Y46.447
N449 X95.403 Y46.184
N450 X95.218 Y45.91
N451 X95.047 Y45.627
N452 X94.889 Y45.336
N453 X94.746 Y45.036
N454 X94.617 Y44.729
N455 X94.503 Y44.415
N456 X94.404 Y44.095
N457 X94.321 Y43.771
N458 X94.254 Y43.441
N459 X94.203 Y43.109
N460 X94.168 Y42.773
N461 X94.15 Y42.436
N462 X94.148 Y42.097
N463 X94.163 Y41.758
N464 X94.195 Y41.42
N465 X94.243 Y41.083
N466 X94.308 Y40.748
N467 X94.389 Y40.416
N468 X94.486 Y40.088
N469 X94.6 Y39.764
N470 X94.73 Y39.447
N471 X94.875 Y39.135
N472 X95.036 Y38.83
N473 X95.211 Y38.533
N474 X95.401 Y38.245
N475 X95.606 Y37.966
N476 X95.824 Y37.697
N477 X96.055 Y37.439
N478 X96.299 Y37.192
N479 X96.556 Y36.957
N480 X96.823 Y36.734
N481 X97.102 Y36.525
N482 X97.392 Y36.329
N483 X97.691 Y36.147
N484 X98 Y35.98
N485 X98.317 Y35.827
N486 X98.642 Y35.69
N487 X98.975 Y35.569
N488 X99.314 Y35.463
N489 X99.659 Y35.375
N490 X100.01 Y35.302
N491 X100.364 Y35.248
N492 X100.722 Y35.21
N493 X101.083 Y35.19
N494 X101.446 Y35.187
N495 X101.809 Y35.203
N496 X102.173 Y35.236
N497 X102.535 Y35.287
N498 X102.896 Y35.356
N499 X103.254 Y35.444
N500 X103.609 Y35.548
N501 X103.959 Y35.671
N502 X104.303 Y35.811
N503 X104.641 Y35.968
N504 X104.972 Y36.141
N505 X105.294 Y36.332
N506 X105.608 Y36.538
N507 X105.912 Y36.76
N508 X106.205 Y36.997
N509 X106.487 Y37.248
N510 X106.756 Y37.514
N511 X107.013 Y37.793
N512 X107.256 Y38.085
N513 X107.485 Y38.389
N514 X107.7 Y38.704
N515 X107.818 Y38.899
N516 X108.007 Y39.229
N517 X108.18 Y39.57
N518 X108.336 Y39.919
N519 X108.476 Y40.276
N520 X108.597 Y40.64
N521 X108.701 Y41.01
N522 X108.787 Y41.386
N523 X108.855 Y41.765
N524 X108.904 Y42.149
N525 X108.934 Y42.535
N526 X108.945 Y42.922
N527 X108.937 Y43.311
N528 X108.91 Y43.699
N529 X108.864 Y44.086
N530 X108.799 Y44.471
N531 X108.715 Y44.853
N532 X108.612 Y45.23
N533 X108.491 Y45.604
N534 X108.351 Y45.971
N535 X108.193 Y46.332
N536 X108.017 Y46.685
N537 X107.824 Y47.03
N538 X107.613 Y47.365
N539 X107.386 Y47.691
N540 X107.143 Y48.006
N541 X106.884 Y48.309
N542 X106.61 Y48.599
N543 X106.322 Y48.877
N544 X106.02 Y49.14
N545 X105.704 Y49.389
N546 X105.376 Y49.623
N547 X105.036 Y49.84
N548 X104.685 Y50.041
N549 X104.324 Y50.226
N550 X103.953 Y50.392
N551 X103.574 Y50.541
N552 X103.187 Y50.671
N553 X102.793 Y50.782
N554 X102.393 Y50.875
N555 X101.988 Y50.947
N556 X101.579 Y51
N557 X101.168 Y51.033
N558 X100.754 Y51.045
N559 X100.339 Y51.037
N560 X99.924 Y51.009
N561 X99.509 Y50.96
N562 X99.097 Y50.891
N563 X98.688 Y50.802
N564 X98.283 Y50.692
N565 X97.882 Y50.563
N566 X97.488 Y50.413
N567 X97.1 Y50.244
N568 X96.721 Y50.056
N569 X96.35 Y49.849
N570 X95.99 Y49.624
N571 X95.639 Y49.381
N572 X95.301 Y49.12
N573 X94.975 Y48.843
N574 X94.663 Y48.549
N575 X94.364 Y48.24
N576 X94.081 Y47.915
N577 X93.813 Y47.577
N578 X93.562 Y47.225
N579 X93.328 Y46.861
N580 X93.111 Y46.484
N581 X92.913 Y46.097
N582 X92.734 Y45.7
N583 X92.574 Y45.294
N584 X92.434 Y44.88
N585 X92.314 Y44.459
N586 X92.215 Y44.031
N587 X92.137 Y43.599
N588 X92.08 Y43.162
N589 X92.044 Y42.723
N590 X92.03 Y42.281
N591 X92.038 Y41.839
N592 X92.067 Y41.397
N593 X92.118 Y40.957
N594 X92.191 Y40.518
N595 X92.285 Y40.083
N596 X92.401 Y39.653
N597 X92.537 Y39.228
N598 X92.695 Y38.81
N599 X92.873 Y38.4
N600 X93.071 Y37.999
N601 X93.289 Y37.607
N602 X93.527 Y37.226
N603 X93.783 Y36.856
N604 X94.057 Y36.499
N605 X94.348 Y36.155
N606 X94.657 Y35.826
N607 X94.982 Y35.512
N608 X95.322 Y35.214
N609 X95.677 Y34.932
N610 X96.046 Y34.667
N611 X96.429 Y34.421
N612 X96.824 Y34.193
N613 X97.23 Y33.984
N614 X97.647 Y33.795
N615 X98.074 Y33.626
N616 X98.509 Y33.478
N617 X98.953 Y33.351
N618 X99.403 Y33.246
N619 X99.859 Y33.163
N620 X100.32 Y33.102
N621 X100.784 Y33.064
N622 X101.251 Y33.048
N623 X101.719 Y33.055
N624 X102.187 Y33.086
N625 X102.655 Y33.139
N626 X103.12 Y33.216
N627 X103.583 Y33.315
N628 X104.04 Y33.437
N629 X104.493 Y33.582
N630 X104.938 Y33.749
N631 X105.376 Y33.939
N632 X105.805 Y34.15
N633 X106.204 Y34.371
N634 X106.612 Y34.622
N635 X107.008 Y34.894
N636 X107.391 Y35.186
N637 X107.76 Y35.496
N638 X108.11 Y35.821
N639 X108.448 Y36.169
N640 X108.77 Y36.532
N641 X109.074 Y36.911
N642 X109.358 Y37.306
N643 X109.624 Y37.714
N644 X109.87 Y38.135
N645 X110.094 Y38.568
N646 X110.298 Y39.012
N647 X110.48 Y39.467
N648 X110.639 Y39.93
N649 X110.776 Y40.401
N650 X110.89 Y40.879
N651 X110.98 Y41.362
N652 X111.047 Y41.85
N653 X111.089 Y42.342
N654 X111.108 Y42.835
N655 X111.102 Y43.33
N656 X111.072 Y43.824
N657 X111.018 Y44.317
N658 X110.939 Y44.807
N659 X110.837 Y45.293
N660 X110.71 Y45.775
N661 X110.56 Y46.251
N662 X110.387 Y46.719
N663 X110.19 Y47.179
N664 X109.971 Y47.629
N665 X109.729 Y48.069
N666 X109.466 Y48.497
N667 X109.182 Y48.913
N668 X108.877 Y49.315
N669 X108.552 Y49.701
N670 X108.209 Y50.073
N671 X107.846 Y50.427
N672 X107.467 Y50.764
N673 X107.07 Y51.082
N674 X106.658 Y51.381
N675 X106.23 Y51.66
N676 X105.789 Y51.919
N677 X105.335 Y52.155
N678 X104.868 Y52.37
N679 X104.391 Y52.562
N680 X103.904 Y52.73
N681 X103.409 Y52.875
N682 X102.906 Y52.995
N683 X102.397 Y53.091
N684 X101.883 Y53.162
N685 X101.365 Y53.208
N686 X100.844 Y53.228
N687 X100.322 Y53.223
N688 X99.8 Y53.192
N689 X99.279 Y53.136
N690 X98.76 Y53.053
N691 X98.245 Y52.946
N692 X97.736 Y52.813
N693 X97.232 Y52.655
N694 X96.736 Y52.472
N695 X96.248 Y52.264
N696 X95.771 Y52.033
N697 X95.304 Y51.777
N698 X94.85 Y51.499
N699 X94.409 Y51.199
N700 X93.983 Y50.876
N701 X93.572 Y50.533
N702 X93.178 Y50.169
N703 X92.802 Y49.785
N704 X92.444 Y49.383
N705 X92.106 Y48.964
N706 X91.788 Y48.527
N707 X91.492 Y48.075
N708 X91.218 Y47.608
N709 X90.966 Y47.127
N710 X90.738 Y46.634
N711 X90.535 Y46.129
N712 X90.356 Y45.615
N713 X90.202 Y45.091
N714 X90.074 Y44.56
N715 X89.971 Y44.022
N716 X89.896 Y43.479
N717 X89.847 Y42.933
N718 X89.824 Y42.384
N719 X89.829 Y41.834
N720 X89.861 Y41.284
N721 X89.919 Y40.735
N722 X90.005 Y40.19
N723 X90.117 Y39.649
N724 X90.256 Y39.113
N725 X90.421 Y38.584
N726 X90.613 Y38.063
N727 X90.829 Y37.552
N728 X91.071 Y37.051
N729 X91.337 Y36.562
N730 X91.575 Y36.173
N731 X91.883 Y35.71
N732 X92.215 Y35.262
N733 X92.568 Y34.83
N734 X92.943 Y34.415
N735 X93.338 Y34.018
N736 X93.753 Y33.641
N737 X94.187 Y33.284
N738 X94.638 Y32.948
N739 X95.106 Y32.634
N740 X95.59 Y32.343
N741 X96.088 Y32.076
N742 X96.6 Y31.832
N743 X97.124 Y31.614
N744 X97.659 Y31.421
N745 X98.204 Y31.255
N746 X98.757 Y31.115
N747 X99.318 Y31.002
N748 X99.885 Y30.916
N749 X100.457 Y30.859
N750 X101.032 Y30.829
N751 X101.609 Y30.828
N752 X102.186 Y30.855
N753 X102.763 Y30.91
N754 X103.337 Y30.994
N755 X103.907 Y31.106
N756 X104.473 Y31.246
N757 X105.031 Y31.413
N758 X105.582 Y31.609
N759 X106.124 Y31.832
N760 X106.655 Y32.081
N761 X107.174 Y32.357
N762 X107.679 Y32.657
N763 X108.17 Y32.983
N764 X108.645 Y33.333
N765 X109.103 Y33.707
N766 X109.543 Y34.103
N767 X109.963 Y34.521
N768 X110.363 Y34.959
N769 X110.742 Y35.417
N770 X111.098 Y35.894
N771 X111.431 Y36.389
N772 X111.739 Y36.899
N773 X112.022 Y37.425
N774 X112.28 Y37.965
N775 X112.511 Y38.517
N776 X112.715 Y39.08
N777 X112.891 Y39.654
N778 X113.039 Y40.236
N779 X113.159 Y40.825
N780 X113.249 Y41.42
N781 X113.311 Y42.02
N782 X113.343 Y42.623
N783 X113.345 Y43.227
N784 X113.318 Y43.831
N785 X113.261 Y44.434
N786 X113.174 Y45.034
N787 X113.059 Y45.63
N788 X112.913 Y46.22
N789 X112.739 Y46.803
N790 X112.536 Y47.377
N791 X112.305 Y47.942
N792 X112.047 Y48.495
N793 X111.761 Y49.036
N794 X111.448 Y49.563
N795 X111.11 Y50.074
N796 X110.746 Y50.569
N797 X110.358 Y51.046
N798 X109.947 Y51.505
N799 X109.513 Y51.943
N800 X109.057 Y52.36
N801 X108.581 Y52.754
N802 X108.085 Y53.126
N803 X107.571 Y53.473
N804 X107.039 Y53.795
N805 X106.492 Y54.091
N806 X105.93 Y54.361
N807 X105.354 Y54.603
N808 X104.766 Y54.816
N809 X104.168 Y55.001
N810 X103.56 Y55.157
N811 X102.945 Y55.283
N812 X102.323 Y55.378
N813 X101.696 Y55.444
N814 X101.065 Y55.478
N815 X100.61 Y55.481
N816 X99.982 Y55.463
N817 X99.353 Y55.415
N818 X98.727 Y55.335
N819 X98.103 Y55.225
N820 X97.484 Y55.084
N821 X96.871 Y54.912
N822 X96.267 Y54.71
N823 X95.671 Y54.479
N824 X95.087 Y54.218
N825 X94.515 Y53.928
N826 X93.958 Y53.61
N827 X93.415 Y53.264
N828 X92.889 Y52.891
N829 X92.382 Y52.493
N830 X91.894 Y52.069
N831 X91.426 Y51.622
N832 X90.98 Y51.151
N833 X90.557 Y50.658
N834 X90.159 Y50.145
N835 X89.785 Y49.612
N836 X89.438 Y49.06
N837 X89.117 Y48.491
N838 X88.824 Y47.907
N839 X88.561 Y47.307
N840 X88.326 Y46.695
N841 X88.121 Y46.072
N842 X87.948 Y45.438
N843 X87.805 Y44.796
N844 X87.693 Y44.147
N845 X87.614 Y43.492
N846 X87.567 Y42.833
N847 X87.552 Y42.173
N848 X87.569 Y41.511
N849 X87.619 Y40.851
N850 X87.701 Y40.193
N851 X87.816 Y39.539
N852 X87.963 Y38.891
N853 X88.141 Y38.25
N854 X88.351 Y37.619
N855 X88.592 Y36.997
N856 X88.863 Y36.387
N857 X89.164 Y35.79
N858 X89.495 Y35.209
N859 X89.853 Y34.644
N860 X90.24 Y34.097
N861 X90.653 Y33.57
N862 X91.091 Y33.062
N863 X91.555 Y32.576
N864 X92.043 Y32.113
N865 X92.553 Y31.673
N866 X93.085 Y31.259
N867 X93.637 Y30.871
N868 X94.209 Y30.51
N869 X94.798 Y30.176
N870 X95.404 Y29.872
N871 X96.025 Y29.597
N872 X96.66 Y29.353
N873 X97.307 Y29.14
N874 X97.965 Y28.958
N875 X98.632 Y28.808
N876 X99.307 Y28.692
N877 X99.988 Y28.608
N878 X100.673 Y28.558
N879 X101.361 Y28.541
N880 X102.051 Y28.558
N881 X102.739 Y28.609
N882 X103.426 Y28.694
N883 X104.108 Y28.812
N884 X104.786 Y28.965
N885 X105.456 Y29.15
N886 X106.117 Y29.368
N887 X106.767 Y29.619
N888 X107.405 Y29.902
N889 X108.029 Y30.216
N890 X108.638 Y30.561
N891 X109.024 Y30.805
N892 X109.602 Y31.197
N893 X110.163 Y31.618
N894 X110.702 Y32.066
N895 X111.22 Y32.541
N896 X111.715 Y33.042
N897 X112.185 Y33.567
N898 X112.63 Y34.116
N899 X113.048 Y34.686
N900 X113.437 Y35.277
N901 X113.798 Y35.887
N902 X114.129 Y36.514
N903 X114.429 Y37.158
N904 X114.697 Y37.816
N905 X114.933 Y38.487
N906 X115.136 Y39.17
N907 X115.306 Y39.863
N908 X115.441 Y40.564
N909 X115.542 Y41.271
N910 X115.608 Y41.983
N911 X115.64 Y42.699
N912 X115.636 Y43.416
N913 X115.597 Y44.132
N914 X115.523 Y44.846
N915 X115.414 Y45.557
N916 X115.27 Y46.262
N917 X115.091 Y46.96
N918 X114.878 Y47.649
N919 X114.631 Y48.328
N920 X114.352 Y48.995
N921 X114.039 Y49.647
N922 X113.694 Y50.285
N923 X113.318 Y50.905
N924 X112.912 Y51.507
N925 X112.476 Y52.089
N926 X112.012 Y52.65
N927 X111.52 Y53.188
N928 X111.001 Y53.702
N929 X110.458 Y54.19
N930 X109.89 Y54.652
N931 X109.3 Y55.086
N932 X108.688 Y55.49
N933 X108.056 Y55.865
N934 X107.406 Y56.209
N935 X106.739 Y56.522
N936 X106.056 Y56.801
N937 X105.36 Y57.047
N938 X104.651 Y57.259
N939 X103.932 Y57.436
N940 X103.224 Y57.574
N941 X102.48 Y57.681
N942 X101.734 Y57.752
N943 X100.987 Y57.786
N944 X100.239 Y57.783
N945 X99.492 Y57.744
N946 X98.747 Y57.667
N947 X98.007 Y57.555
N948 X97.272 Y57.406
N949 X96.545 Y57.221
N950 X95.827 Y57.001
N951 X95.12 Y56.745
N952 X94.425 Y56.454
N953 X93.744 Y56.13
N954 X93.08 Y55.772
N955 X92.432 Y55.381
N956 X91.804 Y54.958
N957 X91.197 Y54.505
N958 X90.611 Y54.021
N959 X90.05 Y53.509
N960 X89.728 Y53.186
N961 X89.213 Y52.639
N962 X88.722 Y52.065
N963 X88.259 Y51.465
N964 X87.825 Y50.842
N965 X87.421 Y50.197
N966 X87.048 Y49.531
N967 X86.707 Y48.846
N968 X86.4 Y48.144
N969 X86.127 Y47.426
N970 X85.889 Y46.695
N971 X85.687 Y45.952
N972 X85.521 Y45.2
N973 X85.393 Y44.439
N974 X85.301 Y43.671
N975 X85.248 Y42.9
N976 X85.232 Y42.125
N977 X85.255 Y41.35
N978 X85.315 Y40.577
N979 X85.413 Y39.806
N980 X85.549 Y39.041
N981 X85.723 Y38.282
N982 X85.933 Y37.532
N983 X86.181 Y36.793
N984 X86.465 Y36.066
N985 X86.784 Y35.353
N986 X87.138 Y34.656
N987 X87.526 Y33.977
N988 X87.948 Y33.317
N989 X88.401 Y32.678
N990 X88.886 Y32.061
N991 X89.401 Y31.469
N992 X89.945 Y30.901
N993 X90.516 Y30.361
N994 X91.114 Y29.849
N995 X91.738 Y29.366
N996 X92.384 Y28.913
N997 X93.053 Y28.493
N998 X93.743 Y28.105
N999 X94.452 Y27.751
N1000 X95.178 Y27.432
N1001 X95.921 Y27.148
N1002 X96.677 Y26.901
N1003 X97.445 Y26.69
N1004 X98.224 Y26.518
N1005 X99.012 Y26.383
N1006 X99.806 Y26.288
N1007 X100.606 Y26.231
N1008 X101.408 Y26.214
N1009 X102.211 Y26.235
N1010 X103.014 Y26.297
N1011 X103.814 Y26.397
N1012 X104.608 Y26.537
N1013 X105.396 Y26.716
N1014 X106.176 Y26.934
N1015 X106.944 Y27.19
N1016 X107.695 Y27.482
N1017 X108.441 Y27.814
N1018 X109.169 Y28.183
N1019 X109.878 Y28.586
N1020 X110.566 Y29.025
N1021 X111.233 Y29.496
N1022 X111.876 Y30
N1023 X112.495 Y30.536
N1024 X112.824 Y30.851
N1025 X113.4 Y31.431
N1026 X113.946 Y32.04
N1027 X114.463 Y32.675
N1028 X114.949 Y33.336
N1029 X115.403 Y34.021
N1030 X115.823 Y34.728
N1031 X116.208 Y35.456
N1032 X116.558 Y36.202
N1033 X116.87 Y36.966
N1034 X117.146 Y37.744
N1035 X117.383 Y38.536
N1036 X117.581 Y39.34
N1037 X117.739 Y40.152
N1038 X117.858 Y40.973
N1039 X117.936 Y41.799
N1040 X117.974 Y42.628
N1041 X117.971 Y43.46
N1042 X117.927 Y44.29
N1043 X117.843 Y45.119
N1044 X117.718 Y45.943
N1045 X117.552 Y46.761
N1046 X117.347 Y47.57
N1047 X117.102 Y48.369
N1048 X116.817 Y49.156
N1049 X116.494 Y49.929
N1050 X116.133 Y50.686
N1051 X115.736 Y51.425
N1052 X115.301 Y52.144
N1053 X114.832 Y52.842
N1054 X114.329 Y53.517
N1055 X113.792 Y54.167
N1056 X113.224 Y54.79
N1057 X112.625 Y55.386
N1058 X111.997 Y55.952
N1059 X111.341 Y56.487
N1060 X110.659 Y56.99
N1061 X109.953 Y57.46
N1062 X109.223 Y57.895
N1063 X108.472 Y58.294
N1064 X107.702 Y58.656
N1065 X106.913 Y58.98
N1066 X106.114 Y59.264
N1067 X105.297 Y59.51
N1068 X104.467 Y59.716
N1069 X103.625 Y59.882
N1070 X102.775 Y60.006
N1071 X101.919 Y60.089
N1072 X101.06 Y60.129
N1073 X100.198 Y60.127
N1074 X99.337 Y60.083
N1075 X98.478 Y59.997
N1076 X97.624 Y59.869
N1077 X96.776 Y59.699
N1078 X95.937 Y59.487
N1079 X95.109 Y59.234
N1080 X94.292 Y58.941
N1081 X93.491 Y58.607
N1082 X92.705 Y58.234
N1083 X91.939 Y57.823
N1084 X91.548 Y57.588
N1085 X90.824 Y57.13
N1086 X90.146 Y56.653
N1087 X89.449 Y56.11
N1088 X88.783 Y55.536
N1089 X88.147 Y54.931
N1090 X87.541 Y54.296
N1091 X86.968 Y53.632
N1092 X86.427 Y52.941
N1093 X85.921 Y52.223
N1094 X85.45 Y51.481
N1095 X85.015 Y50.716
N1096 X84.619 Y49.93
N1097 X84.26 Y49.124
N1098 X83.941 Y48.3
N1099 X83.663 Y47.461
N1100 X83.426 Y46.608
N1101 X83.231 Y45.744
N1102 X83.078 Y44.871
N1103 X82.968 Y43.99
N1104 X82.902 Y43.103
N1105 X82.878 Y42.214
N1106 X82.899 Y41.324
N1107 X82.963 Y40.435
N1108 X83.071 Y39.55
N1109 X83.222 Y38.67
N1110 X83.416 Y37.798
N1111 X83.653 Y36.935
N1112 X83.932 Y36.085
N1113 X84.253 Y35.249
N1114 X84.615 Y34.429
N1115 X85.017 Y33.627
N1116 X85.458 Y32.845
N1117 X85.937 Y32.085
N1118 X86.453 Y31.348
N1119 X87.005 Y30.638
N1120 X87.592 Y29.954
N1121 X88.212 Y29.3
N1122 X88.864 Y28.676
N1123 X89.547 Y28.085
N1124 X90.258 Y27.527
N1125 X90.997 Y27.004
N1126 X91.761 Y26.517
N1127 X92.549 Y26.068
N1128 X93.359 Y25.658
N1129 X94.19 Y25.287
N1130 X95.038 Y24.957
N1131 X95.903 Y24.669
N1132 X96.781 Y24.423
N1133 X97.67 Y24.221
N1134 X98.568 Y24.062
N1135 X99.472 Y23.948
N1136 X100.381 Y23.877
N1137 X101.293 Y23.851
N1138 X102.204 Y23.87
N1139 X103.114 Y23.932
N1140 X104.02 Y24.039
N1141 X104.919 Y24.189
N1142 X105.81 Y24.383
N1143 X106.69 Y24.62
N1144 X107.559 Y24.899
N1145 X108.412 Y25.219
N1146 X109.249 Y25.58
N1147 X110.068 Y25.982
N1148 X110.867 Y26.422
N1149 X111.643 Y26.9
N1150 X112.375 Y27.4
N1151 X113.102 Y27.951
N1152 X113.801 Y28.536
N1153 X114.473 Y29.153
N1154 X115.114 Y29.801
N1155 X115.724 Y30.479
N1156 X116.301 Y31.185
N1157 X116.844 Y31.917
N1158 X117.351 Y32.675
N1159 X117.822 Y33.456
N1160 X118.255 Y34.258
N1161 X118.65 Y35.08
N1162 X119.005 Y35.92
N1163 X119.319 Y36.776
N1164 X119.593 Y37.646
N1165 X119.824 Y38.528
N1166 X120.014 Y39.42
N1167 X120.161 Y40.32
N1168 X120.265 Y41.226
N1169 X120.326 Y42.135
N1170 X120.344 Y43.047
N1171 X120.32 Y43.958
N1172 X120.252 Y44.868
N1173 X120.141 Y45.773
N1174 X119.989 Y46.672
N1175 X119.794 Y47.562
N1176 X119.557 Y48.443
N1177 X119.28 Y49.312
N1178 X118.962 Y50.166
N1179 X118.605 Y51.005
N1180 X118.208 Y51.826
N1181 X117.774 Y52.628
N1182 X117.303 Y53.409
N1183 X116.796 Y54.167
N1184 X116.254 Y54.9
N1185 X115.679 Y55.608
N1186 X115.071 Y56.287
N1187 X114.432 Y56.938
N1188 X113.764 Y57.557
N1189 X113.067 Y58.145
N1190 X112.343 Y58.7
N1191 X111.594 Y59.221
N1192 X110.822 Y59.706
N1193 X110.029 Y60.155
N1194 X109.215 Y60.567
N1195 X108.384 Y60.941
N1196 X107.536 Y61.277
N1197 X106.674 Y61.573
N1198 X105.798 Y61.829
N1199 X104.913 Y62.044
N1200 X104.018 Y62.219
N1201 X103.116 Y62.353
N1202 X102.209 Y62.446
N1203 X101.298 Y62.497
N1204 X100.386 Y62.505
N1205 X99.475 Y62.471
N1206 X98.567 Y62.396
N1207 X97.662 Y62.279
N1208 X96.764 Y62.121
N1209 X95.874 Y61.922
N1210 X94.994 Y61.683
N1211 X94.126 Y61.405
N1212 X93.271 Y61.087
N1213 X92.432 Y60.732
N1214 X91.61 Y60.337
N1215 X90.806 Y59.906
N1216 X90.023 Y59.439
N1217 X89.262 Y58.937
N1218 X88.524 Y58.402
N1219 X87.81 Y57.834
N1220 X87.123 Y57.235
N1221 X86.463 Y56.605
N1222 X85.832 Y55.947
N1223 X85.232 Y55.261
N1224 X84.663 Y54.548
N1225 X84.128 Y53.81
N1226 X83.626 Y53.049
N1227 X83.159 Y52.266
N1228 X82.727 Y51.462
N1229 X82.332 Y50.641
N1230 X81.974 Y49.802
N1231 X81.653 Y48.949
N1232 X81.37 Y48.082
N1233 X81.126 Y47.203
N1234 X80.922 Y46.315
N1235 X80.757 Y45.418
N1236 X80.634 Y44.514
N1237 X80.551 Y43.606
N1238 X80.509 Y42.696
N1239 X80.507 Y41.784
N1240 X80.545 Y40.873
N1241 X80.624 Y39.964
N1242 X80.742 Y39.06
N1243 X80.9 Y38.162
N1244 X81.097 Y37.272
N1245 X81.334 Y36.391
N1246 X81.61 Y35.522
N1247 X81.925 Y34.667
N1248 X82.277 Y33.826
N1249 X82.666 Y33.001
N1250 X83.091 Y32.194
N1251 X83.551 Y31.407
N1252 X84.044 Y30.64
N1253 X84.571 Y29.895
N1254 X85.129 Y29.175
N1255 X85.719 Y28.48
N1256 X86.34 Y27.812
N1257 X86.989 Y27.172
N1258 X87.666 Y26.561
N1259 X88.369 Y25.98
N1260 X89.097 Y25.431
N1261 X89.848 Y24.913
N1262 X90.62 Y24.429
N1263 X91.413 Y23.978
N1264 X92.224 Y23.562
N1265 X93.054 Y23.184
N1266 X93.899 Y22.842
N1267 X94.758 Y22.537
N1268 X95.63 Y22.27
N1269 X96.206 Y22.12
N1270 X96.338 Y22.092
N1271 X96.471 Y22.074
N1272 X96.606 Y22.069
N1273 X104.141
N1274 X105.052 Y22.114
N1275 X105.506 Y22.157
N1276 X106.124 Y22.236
N1277 X106.808 Y22.359
N1278 X107.555 Y22.531
N1279 X108.337 Y22.752
N1280 X109.125 Y23.017
N1281 X109.952 Y23.341
N1282 X110.784 Y23.714
N1283 X111.597 Y24.128
N1284 X112.389 Y24.578
N1285 X113.161 Y25.065
N1286 X113.91 Y25.584
N1287 X114.636 Y26.136
N1288 X115.337 Y26.718
N1289 X116.013 Y27.331
N1290 X116.661 Y27.972
N1291 X117.281 Y28.64
N1292 X117.873 Y29.335
N1293 X118.434 Y30.053
N1294 X118.964 Y30.795
N1295 X119.463 Y31.558
N1296 X119.93 Y32.341
N1297 X120.363 Y33.143
N1298 X120.762 Y33.964
N1299 X121.124 Y34.8
N1300 X121.451 Y35.652
N1301 X121.741 Y36.516
N1302 X121.995 Y37.392
N1303 X122.211 Y38.278
N1304 X122.391 Y39.172
N1305 X122.533 Y40.072
N1306 X122.637 Y40.978
N1307 X122.703 Y41.887
N1308 X122.729 Y42.799
N1309 X122.717 Y43.711
N1310 X122.667 Y44.621
N1311 X122.578 Y45.529
N1312 X122.452 Y46.432
N1313 X122.289 Y47.329
N1314 X122.088 Y48.218
N1315 X121.852 Y49.099
N1316 X121.578 Y49.968
N1317 X121.267 Y50.826
N1318 X120.921 Y51.669
N1319 X120.539 Y52.497
N1320 X120.124 Y53.309
N1321 X119.675 Y54.103
N1322 X119.194 Y54.878
N1323 X118.682 Y55.632
N1324 X118.139 Y56.364
N1325 X117.566 Y57.074
N1326 X116.963 Y57.758
N1327 X116.332 Y58.416
N1328 X115.674 Y59.047
N1329 X114.99 Y59.65
N1330 X114.282 Y60.225
N1331 X113.551 Y60.77
N1332 X112.799 Y61.284
N1333 X112.025 Y61.768
N1334 X111.233 Y62.219
N1335 X110.423 Y62.637
N1336 X110.365 Y62.663
N1337 X110.151 Y62.744
N1338 X109.927 Y62.794
N1339 X109.698 Y62.81
N1340 X93.788 Y62.809
N1341 X93.333 Y62.786
N1342 X93.009 Y62.761
N1343 X92.638 Y62.713
N1344 X92.233 Y62.64
N1345 X91.796 Y62.54
N1346 X91.309 Y62.402
N1347 X90.786 Y62.226
N1348 X90.222 Y62.005
N1349 X89.593 Y61.723
N1350 X88.947 Y61.394
N1351 X88.264 Y61.002
N1352 X87.541 Y60.539
N1353 X86.798 Y60.01
N1354 X86.082 Y59.446
N1355 X85.392 Y58.85
N1356 X84.73 Y58.223
N1357 X84.095 Y57.569
N1358 X83.488 Y56.888
N1359 X82.912 Y56.181
N1360 X82.365 Y55.451
N1361 X81.849 Y54.7
N1362 X81.364 Y53.928
N1363 X80.91 Y53.137
N1364 X80.488 Y52.328
N1365 X80.099 Y51.504
N1366 X79.743 Y50.665
N1367 X79.42 Y49.812
N1368 X79.132 Y48.947
N1369 X78.879 Y48.071
N1370 X78.663 Y47.185
N1371 X78.481 Y46.291
N1372 X78.336 Y45.391
N1373 X78.227 Y44.486
N1374 X78.153 Y43.577
N1375 X78.116 Y42.666
N1376 X78.114 Y41.754
N1377 X78.149 Y40.843
N1378 X78.22 Y39.934
N1379 X78.327 Y39.029
N1380 X78.471 Y38.128
N1381 X78.65 Y37.234
N1382 X78.864 Y36.348
N1383 X79.114 Y35.471
N1384 X79.397 Y34.604
N1385 X79.715 Y33.749
N1386 X80.065 Y32.908
N1387 X80.45 Y32.081
N1388 X80.867 Y31.27
N1389 X81.316 Y30.476
N1390 X81.795 Y29.701
N1391 X82.305 Y28.945
N1392 X82.844 Y28.209
N1393 X83.412 Y27.496
N1394 X84.007 Y26.805
N1395 X84.628 Y26.138
N1396 X85.276 Y25.496
N1397 X85.949 Y24.881
N1398 X86.645 Y24.292
N1399 X87.364 Y23.732
N1400 X88.105 Y23.2
N1401 X88.866 Y22.697
N1402 X89.522 Y22.299
N1403 X89.781 Y22.172
N1404 X90.058 Y22.095
N1405 X90.345 Y22.069
N1406 X96.606
N1407 G3 X96.847 Y22.126 I-0.022 J0.635
N1408 G1 X96.918 Y22.158 Z-2.989
N1409 X96.986 Y22.189 Z-2.967
N1410 X97.049 Y22.218 Z-2.93
N1411 X97.104 Y22.243 Z-2.88
N1412 X97.15 Y22.263 Z-2.819
N1413 X97.183 Y22.279 Z-2.75
N1414 X97.204 Y22.288 Z-2.675
N1415 X97.211 Y22.291 Z-2.597
N1416 G0 Z5
N1417 X94.047 Y62.252
N1418 Z-2.197
N1419 G1 Z-2.597 F1524
N1420 X94.046 Y62.26 Z-2.675
N1421 X94.042 Y62.282 Z-2.75
N1422 X94.035 Y62.318 Z-2.819
N1423 X94.026 Y62.367 Z-2.88
N1424 X94.016 Y62.427 Z-2.93
N1425 X94.003 Y62.495 Z-2.967
N1426 X93.99 Y62.569 Z-2.989
N1427 X93.976 Y62.646 Z-2.997
N1428 G3 X93.788 Y62.809 I-0.195 J-0.035
N1429 G1 X89.233
N1430 X89.005 Y62.797
N1431 X88.775 Y62.783
N1432 X88.528 Y62.755
N1433 X88.247 Y62.709
N1434 X87.946 Y62.645
N1435 X87.63 Y62.561
N1436 X87.267 Y62.445
N1437 X86.895 Y62.307
N1438 X86.476 Y62.126
N1439 X86.034 Y61.91
N1440 X85.539 Y61.636
N1441 X85.032 Y61.323
N1442 X84.468 Y60.935
N1443 X83.865 Y60.475
N1444 X83.258 Y59.963
N1445 X82.618 Y59.367
N1446 X81.982 Y58.714
N1447 X81.377 Y58.031
N1448 X80.803 Y57.323
N1449 X80.259 Y56.591
N1450 X79.744 Y55.839
N1451 X79.259 Y55.067
N1452 X78.803 Y54.277
N1453 X78.376 Y53.471
N1454 X77.98 Y52.65
N1455 X77.615 Y51.814
N1456 X77.282 Y50.966
N1457 X76.98 Y50.105
N1458 X76.709 Y49.235
N1459 X76.471 Y48.355
N1460 X76.264 Y47.467
N1461 X76.089 Y46.572
N1462 X75.947 Y45.671
N1463 X75.837 Y44.766
N1464 X75.759 Y43.857
N1465 X75.715 Y42.947
N1466 X75.704 Y42.035
N1467 X75.726 Y41.123
N1468 X75.78 Y40.213
N1469 X75.868 Y39.306
N1470 X75.988 Y38.402
N1471 X76.14 Y37.503
N1472 X76.324 Y36.61
N1473 X76.54 Y35.724
N1474 X76.787 Y34.846
N1475 X77.066 Y33.978
N1476 X77.376 Y33.12
N1477 X77.717 Y32.275
N1478 X78.088 Y31.442
N1479 X78.489 Y30.623
N1480 X78.919 Y29.819
N1481 X79.377 Y29.03
N1482 X79.863 Y28.259
N1483 X80.375 Y27.505
N1484 X80.914 Y26.769
N1485 X81.479 Y26.053
N1486 X82.07 Y25.359
N1487 X82.685 Y24.686
N1488 X83.324 Y24.035
N1489 X83.986 Y23.408
N1490 X84.67 Y22.805
N1491 X85.128 Y22.429
N1492 X85.353 Y22.275
N1493 X85.6 Y22.162
N1494 X85.864 Y22.092
N1495 X86.135 Y22.069
N1496 X90.345
N1497 G3 X90.586 Y22.126 I-0.022 J0.635
N1498 G1 X90.657 Y22.158 Z-2.989
N1499 X90.726 Y22.189 Z-2.967
N1500 X90.789 Y22.218 Z-2.93
N1501 X90.844 Y22.243 Z-2.88
N1502 X90.889 Y22.263 Z-2.819
N1503 X90.923 Y22.279 Z-2.75
N1504 X90.943 Y22.288 Z-2.675
N1505 X90.95 Y22.291 Z-2.597
N1506 G0 Z5
N1507 X89.492 Y62.252
N1508 Z-2.197
N1509 G1 Z-2.597 F1524
N1510 X89.49 Y62.259 Z-2.675
N1511 X89.486 Y62.282 Z-2.75
N1512 X89.48 Y62.318 Z-2.819
N1513 X89.471 Y62.367 Z-2.88
N1514 X89.46 Y62.427 Z-2.93
N1515 X89.448 Y62.495 Z-2.967
N1516 X89.435 Y62.569 Z-2.989
N1517 X89.421 Y62.645 Z-2.997
N1518 G3 X89.233 Y62.809 I-0.195 J-0.035
N1519 G1 X85.505
N1520 X85.278 Y62.797
N1521 X85.062 Y62.777
N1522 X84.843 Y62.746
N1523 X84.601 Y62.699
N1524 X84.329 Y62.632
N1525 X84.056 Y62.551
N1526 X83.751 Y62.443
N1527 X83.414 Y62.306
N1528 X83.073 Y62.147
N1529 X82.68 Y61.94
N1530 X82.288 Y61.708
N1531 X81.838 Y61.41
N1532 X81.387 Y61.08
N1533 X80.884 Y60.672
N1534 X80.344 Y60.188
N1535 X79.797 Y59.647
N1536 X79.213 Y59.011
N1537 X78.631 Y58.309
N1538 X78.082 Y57.581
N1539 X77.564 Y56.83
N1540 X77.077 Y56.06
N1541 X76.62 Y55.271
N1542 X76.192 Y54.465
N1543 X75.793 Y53.646
N1544 X75.423 Y52.812
N1545 X75.083 Y51.966
N1546 X74.772 Y51.109
N1547 X74.491 Y50.242
N1548 X74.239 Y49.365
N1549 X74.016 Y48.481
N1550 X73.823 Y47.59
N1551 X73.659 Y46.693
N1552 X73.525 Y45.791
N1553 X73.42 Y44.885
N1554 X73.345 Y43.977
N1555 X73.3 Y43.066
N1556 X73.286 Y42.154
N1557 X73.301 Y41.243
N1558 X73.347 Y40.332
N1559 X73.424 Y39.423
N1560 X73.53 Y38.518
N1561 X73.665 Y37.616
N1562 X73.83 Y36.719
N1563 X74.023 Y35.828
N1564 X74.246 Y34.944
N1565 X74.497 Y34.067
N1566 X74.777 Y33.2
N1567 X75.085 Y32.341
N1568 X75.422 Y31.494
N1569 X75.786 Y30.658
N1570 X76.178 Y29.835
N1571 X76.596 Y29.025
N1572 X77.041 Y28.229
N1573 X77.511 Y27.448
N1574 X78.007 Y26.682
N1575 X78.526 Y25.933
N1576 X79.07 Y25.201
N1577 X79.637 Y24.487
N1578 X80.227 Y23.792
N1579 X80.84 Y23.117
N1580 X81.388 Y22.551
N1581 X81.631 Y22.347
N1582 X81.909 Y22.195
N1583 X82.212 Y22.101
N1584 X82.528 Y22.069
N1585 X86.135
N1586 X86.384
N1587 X103.892
N1588 X104.141
N1589 X110.353
N1590 X110.581 Y22.08
N1591 X110.875 Y22.103
N1592 X111.175 Y22.141
N1593 X111.518 Y22.202
N1594 X111.894 Y22.288
N1595 X112.294 Y22.4
N1596 X112.748 Y22.552
N1597 X113.222 Y22.737
N1598 X113.752 Y22.974
N1599 X114.33 Y23.267
N1600 X114.924 Y23.607
N1601 X115.574 Y24.021
N1602 X116.262 Y24.509
N1603 X116.974 Y25.068
N1604 X117.662 Y25.666
N1605 X118.323 Y26.295
N1606 X118.954 Y26.952
N1607 X119.557 Y27.636
N1608 X120.132 Y28.344
N1609 X120.678 Y29.075
N1610 X121.195 Y29.826
N1611 X121.682 Y30.596
N1612 X122.139 Y31.385
N1613 X122.566 Y32.191
N1614 X122.961 Y33.013
N1615 X123.325 Y33.849
N1616 X123.657 Y34.698
N1617 X123.954 Y35.56
N1618 X124.219 Y36.433
N1619 X124.45 Y37.315
N1620 X124.648 Y38.205
N1621 X124.812 Y39.102
N1622 X124.943 Y40.004
N1623 X125.039 Y40.911
N1624 X125.1 Y41.821
N1625 X125.128 Y42.732
N1626 X125.12 Y43.644
N1627 X125.078 Y44.555
N1628 X125.001 Y45.463
N1629 X124.889 Y46.368
N1630 X124.744 Y47.268
N1631 X124.566 Y48.162
N1632 X124.354 Y49.049
N1633 X124.108 Y49.928
N1634 X123.83 Y50.796
N1635 X123.52 Y51.653
N1636 X123.178 Y52.498
N1637 X122.803 Y53.33
N1638 X122.398 Y54.146
N1639 X121.962 Y54.947
N1640 X121.496 Y55.731
N1641 X121.002 Y56.497
N1642 X120.479 Y57.245
N1643 X119.929 Y57.972
N1644 X119.352 Y58.678
N1645 X118.749 Y59.362
N1646 X118.121 Y60.022
N1647 X117.468 Y60.659
N1648 X116.791 Y61.27
N1649 X116.092 Y61.855
N1650 X115.371 Y62.414
N1651 X115.235 Y62.512
N1652 X114.949 Y62.675
N1653 X114.636 Y62.776
N1654 X114.308 Y62.81
N1655 X109.698
N1656 G3 X109.457 Y62.753 I0.022 J-0.635
N1657 G1 X109.386 Y62.721 Z-2.989
N1658 X109.318 Y62.69 Z-2.967
N1659 X109.255 Y62.661 Z-2.93
N1660 X109.2 Y62.636 Z-2.88
N1661 X109.154 Y62.615 Z-2.819
N1662 X109.121 Y62.6 Z-2.75
N1663 X109.1 Y62.591 Z-2.675
N1664 X109.093 Y62.587 Z-2.597
N1665 G0 Z5
N1666 X110.094 Y22.626
N1667 Z-2.197
N1668 G1 Z-2.597 F1524
N1669 X110.096 Y22.618 Z-2.675
N1670 X110.1 Y22.596 Z-2.75
N1671 X110.106 Y22.559 Z-2.819
N1672 X110.115 Y22.51 Z-2.88
N1673 X110.126 Y22.451 Z-2.93
N1674 X110.138 Y22.383 Z-2.967
N1675 X110.151 Y22.309 Z-2.989
N1676 X110.165 Y22.232 Z-2.997
N1677 G3 X110.353 Y22.069 I0.195 J0.035
N1678 G1 X114.495
N1679 X114.608 Y22.074
N1680 X114.835 Y22.092
N1681 X115.08 Y22.122
N1682 X115.334 Y22.167
N1683 X115.622 Y22.232
N1684 X115.936 Y22.32
N1685 X116.259 Y22.427
N1686 X116.631 Y22.571
N1687 X117.01 Y22.74
N1688 X117.439 Y22.957
N1689 X117.884 Y23.21
N1690 X118.388 Y23.53
N1691 X118.895 Y23.888
N1692 X119.454 Y24.326
N1693 X120.055 Y24.846
N1694 X120.685 Y25.447
N1695 X121.313 Y26.108
N1696 X121.908 Y26.798
N1697 X122.473 Y27.514
N1698 X123.007 Y28.253
N1699 X123.512 Y29.012
N1700 X123.988 Y29.79
N1701 X124.435 Y30.584
N1702 X124.853 Y31.395
N1703 X125.242 Y32.22
N1704 X125.601 Y33.058
N1705 X125.931 Y33.908
N1706 X126.23 Y34.769
N1707 X126.5 Y35.64
N1708 X126.738 Y36.52
N1709 X126.946 Y37.408
N1710 X127.122 Y38.303
N1711 X127.268 Y39.203
N1712 X127.382 Y40.107
N1713 X127.466 Y41.015
N1714 X127.518 Y41.926
N1715 X127.539 Y42.837
N1716 X127.529 Y43.749
N1717 X127.488 Y44.66
N1718 X127.415 Y45.569
N1719 X127.311 Y46.475
N1720 X127.175 Y47.376
N1721 X127.009 Y48.273
N1722 X126.811 Y49.163
N1723 X126.584 Y50.046
N1724 X126.327 Y50.921
N1725 X126.04 Y51.786
N1726 X125.724 Y52.642
N1727 X125.379 Y53.486
N1728 X125.005 Y54.317
N1729 X124.603 Y55.136
N1730 X124.173 Y55.94
N1731 X123.716 Y56.729
N1732 X123.231 Y57.501
N1733 X122.721 Y58.257
N1734 X122.186 Y58.995
N1735 X121.625 Y59.714
N1736 X121.041 Y60.414
N1737 X120.433 Y61.094
N1738 X119.802 Y61.752
N1739 X119.141 Y62.397
N1740 X118.907 Y62.573
N1741 X118.645 Y62.704
N1742 X118.363 Y62.784
N1743 X118.072 Y62.811
N1744 X114.308 Y62.81
N1745 G3 X114.067 Y62.754 I0.022 J-0.635
N1746 G1 X113.996 Y62.721 Z-2.989
N1747 X113.928 Y62.69 Z-2.967
N1748 X113.865 Y62.661 Z-2.93
N1749 X113.81 Y62.636 Z-2.88
N1750 X113.765 Y62.616 Z-2.819
N1751 X113.731 Y62.6 Z-2.75
N1752 X113.71 Y62.591 Z-2.675
N1753 X113.703 Y62.588 Z-2.597
N1754 G0 Z5
N1755 X114.236 Y22.626
N1756 Z-2.197
N1757 G1 Z-2.597 F1524
N1758 X114.237 Y22.618 Z-2.675
N1759 X114.241 Y22.596 Z-2.75
N1760 X114.247 Y22.559 Z-2.819
N1761 X114.256 Y22.51 Z-2.88
N1762 X114.267 Y22.451 Z-2.93
N1763 X114.279 Y22.383 Z-2.967
N1764 X114.292 Y22.309 Z-2.989
N1765 X114.306 Y22.232 Z-2.997
N1766 G3 X114.495 Y22.069 I0.195 J0.035
N1767 G1 X117.808
N1768 X118.035 Y22.08
N1769 X118.231 Y22.093
N1770 X118.435 Y22.116
N1771 X118.653 Y22.151
N1772 X118.899 Y22.204
N1773 X119.158 Y22.272
N1774 X119.431 Y22.359
N1775 X119.74 Y22.475
N1776 X120.057 Y22.611
N1777 X120.403 Y22.78
N1778 X120.783 Y22.99
N1779 X121.173 Y23.231
N1780 X121.607 Y23.53
N1781 X122.06 Y23.875
N1782 X122.544 Y24.284
N1783 X123.071 Y24.775
N1784 X123.622 Y25.341
N1785 X124.19 Y25.984
N1786 X124.759 Y26.697
N1787 X125.294 Y27.435
N1788 X125.797 Y28.195
N1789 X126.27 Y28.975
N1790 X126.714 Y29.771
N1791 X127.129 Y30.583
N1792 X127.515 Y31.409
N1793 X127.874 Y32.248
N1794 X128.204 Y33.097
N1795 X128.507 Y33.958
N1796 X128.781 Y34.827
N1797 X129.027 Y35.705
N1798 X129.243 Y36.591
N1799 X129.432 Y37.483
N1800 X129.591 Y38.381
N1801 X129.722 Y39.283
N1802 X129.825 Y40.189
N1803 X129.899 Y41.098
N1804 X129.945 Y42.009
N1805 X129.962 Y42.92
N1806 X129.95 Y43.832
N1807 X129.91 Y44.743
N1808 X129.841 Y45.652
N1809 X129.743 Y46.559
N1810 X129.616 Y47.462
N1811 X129.461 Y48.36
N1812 X129.277 Y49.253
N1813 X129.065 Y50.14
N1814 X128.826 Y51.02
N1815 X128.56 Y51.892
N1816 X128.267 Y52.756
N1817 X127.947 Y53.609
N1818 X127.6 Y54.453
N1819 X127.228 Y55.285
N1820 X126.829 Y56.105
N1821 X126.405 Y56.912
N1822 X125.955 Y57.705
N1823 X125.48 Y58.484
N1824 X124.981 Y59.247
N1825 X124.459 Y59.994
N1826 X123.913 Y60.725
N1827 X123.346 Y61.438
N1828 X122.756 Y62.134
N1829 X122.615 Y62.289
N1830 X122.369 Y62.51
N1831 X122.082 Y62.675
N1832 X121.767 Y62.776
N1833 X121.439 Y62.811
N1834 X118.072
N1835 G3 X117.831 Y62.754 I0.022 J-0.635
N1836 G1 X117.76 Y62.721 Z-2.989
N1837 X117.691 Y62.69 Z-2.967
N1838 X117.628 Y62.662 Z-2.93
N1839 X117.573 Y62.637 Z-2.88
N1840 X117.528 Y62.616 Z-2.819
N1841 X117.494 Y62.601 Z-2.75
N1842 X117.474 Y62.591 Z-2.675
N1843 X117.467 Y62.588 Z-2.597
N1844 G0 Z5
N1845 X117.549 Y22.626
N1846 Z-2.197
N1847 G1 Z-2.597 F1524
N1848 X117.55 Y22.618 Z-2.675
N1849 X117.554 Y22.596 Z-2.75
N1850 X117.561 Y22.559 Z-2.819
N1851 X117.569 Y22.51 Z-2.88
N1852 X117.58 Y22.451 Z-2.93
N1853 X117.592 Y22.383 Z-2.967
N1854 X117.605 Y22.309 Z-2.989
N1855 X117.619 Y22.232 Z-2.997
N1856 G3 X117.808 Y22.069 I0.195 J0.035
N1857 G1 X121.121
N1858 X121.235 Y22.074
N1859 X121.42 Y22.089
N1860 X121.611 Y22.113
N1861 X121.817 Y22.15
N1862 X122.048 Y22.202
N1863 X122.286 Y22.269
N1864 X122.542 Y22.354
N1865 X122.829 Y22.466
N1866 X123.116 Y22.594
N1867 X123.435 Y22.756
N1868 X123.776 Y22.951
N1869 X124.131 Y23.177
N1870 X124.525 Y23.457
N1871 X124.925 Y23.771
N1872 X125.364 Y24.152
N1873 X125.834 Y24.602
N1874 X126.313 Y25.109
N1875 X126.831 Y25.712
N1876 X127.376 Y26.414
N1877 X127.899 Y27.161
N1878 X128.388 Y27.931
N1879 X128.845 Y28.72
N1880 X129.271 Y29.525
N1881 X129.67 Y30.346
N1882 X130.039 Y31.179
N1883 X130.381 Y32.024
N1884 X130.696 Y32.88
N1885 X130.983 Y33.746
N1886 X131.243 Y34.62
N1887 X131.477 Y35.501
N1888 X131.683 Y36.389
N1889 X131.864 Y37.283
N1890 X132.018 Y38.182
N1891 X132.145 Y39.084
N1892 X132.247 Y39.991
N1893 X132.322 Y40.899
N1894 X132.371 Y41.81
N1895 X132.393 Y42.721
N1896 X132.388 Y43.633
N1897 X132.356 Y44.544
N1898 X132.298 Y45.454
N1899 X132.213 Y46.362
N1900 X132.101 Y47.267
N1901 X131.963 Y48.168
N1902 X131.8 Y49.065
N1903 X131.61 Y49.957
N1904 X131.395 Y50.843
N1905 X131.154 Y51.723
N1906 X130.889 Y52.595
N1907 X130.599 Y53.46
N1908 X130.283 Y54.315
N1909 X129.943 Y55.161
N1910 X129.578 Y55.997
N1911 X129.189 Y56.821
N1912 X128.776 Y57.634
N1913 X128.34 Y58.435
N1914 X127.88 Y59.223
N1915 X127.399 Y59.997
N1916 X126.895 Y60.757
N1917 X126.369 Y61.502
N1918 X125.864 Y62.176
N1919 X125.814 Y62.236
N1920 X125.618 Y62.434
N1921 X125.391 Y62.595
N1922 X125.139 Y62.714
N1923 X124.87 Y62.786
N1924 X124.592 Y62.811
N1925 X121.439
N1926 G3 X121.197 Y62.754 I0.022 J-0.635
N1927 G1 X121.126 Y62.722 Z-2.989
N1928 X121.058 Y62.691 Z-2.967
N1929 X120.995 Y62.662 Z-2.93
N1930 X120.94 Y62.637 Z-2.88
N1931 X120.895 Y62.616 Z-2.819
N1932 X120.861 Y62.601 Z-2.75
N1933 X120.84 Y62.591 Z-2.675
N1934 X120.833 Y62.588 Z-2.597
N1935 G0 Z5
N1936 X120.862 Y22.626
N1937 Z-2.197
N1938 G1 Z-2.597 F1524
N1939 X120.863 Y22.618 Z-2.675
N1940 X120.867 Y22.596 Z-2.75
N1941 X120.874 Y22.559 Z-2.819
N1942 X120.882 Y22.51 Z-2.88
N1943 X120.893 Y22.451 Z-2.93
N1944 X120.905 Y22.383 Z-2.967
N1945 X120.919 Y22.309 Z-2.989
N1946 X120.932 Y22.232 Z-2.997
N1947 G3 X121.121 Y22.069 I0.195 J0.035
N1948 G1 X124.02
N1949 X124.247 Y22.08
N1950 X124.42 Y22.095
N1951 X124.602 Y22.12
N1952 X124.805 Y22.157
N1953 X125.019 Y22.208
N1954 X125.243 Y22.273
N1955 X125.494 Y22.359
N1956 X125.749 Y22.461
N1957 X126.026 Y22.588
N1958 X126.33 Y22.745
N1959 X126.634 Y22.922
N1960 X126.98 Y23.147
N1961 X127.327 Y23.398
N1962 X127.713 Y23.706
N1963 X128.105 Y24.053
N1964 X128.543 Y24.479
N1965 X128.981 Y24.95
N1966 X129.454 Y25.511
N1967 X129.957 Y26.171
N1968 X130.474 Y26.922
N1969 X130.953 Y27.697
N1970 X131.399 Y28.493
N1971 X131.814 Y29.305
N1972 X132.198 Y30.132
N1973 X132.554 Y30.971
N1974 X132.882 Y31.822
N1975 X133.183 Y32.683
N1976 X133.458 Y33.552
N1977 X133.707 Y34.429
N1978 X133.931 Y35.313
N1979 X134.13 Y36.203
N1980 X134.304 Y37.098
N1981 X134.453 Y37.997
N1982 X134.577 Y38.901
N1983 X134.677 Y39.807
N1984 X134.753 Y40.716
N1985 X134.804 Y41.626
N1986 X134.83 Y42.538
N1987 Y43.449
N1988 X134.806 Y44.361
N1989 X134.757 Y45.271
N1990 X134.682 Y46.18
N1991 X134.584 Y47.087
N1992 X134.461 Y47.99
N1993 X134.313 Y48.89
N1994 X134.142 Y49.786
N1995 X133.947 Y50.676
N1996 X133.728 Y51.561
N1997 X133.486 Y52.441
N1998 X133.221 Y53.313
N1999 X132.932 Y54.178
N2000 X132.621 Y55.035
N2001 X132.286 Y55.883
N2002 X131.927 Y56.721
N2003 X131.547 Y57.55
N2004 X131.143 Y58.368
N2005 X130.718 Y59.174
N2006 X130.272 Y59.969
N2007 X129.804 Y60.752
N2008 X129.316 Y61.522
N2009 X128.942 Y62.072
N2010 X128.86 Y62.18
N2011 X128.663 Y62.397
N2012 X128.429 Y62.573
N2013 X128.167 Y62.704
N2014 X127.885 Y62.784
N2015 X127.593 Y62.811
N2016 X124.592
N2017 G3 X124.351 Y62.754 I0.022 J-0.635
N2018 G1 X124.28 Y62.722 Z-2.989
N2019 X124.211 Y62.691 Z-2.967
N2020 X124.148 Y62.662 Z-2.93
N2021 X124.093 Y62.637 Z-2.88
N2022 X124.048 Y62.616 Z-2.819
N2023 X124.014 Y62.601 Z-2.75
N2024 X123.994 Y62.591 Z-2.675
N2025 X123.987 Y62.588 Z-2.597
N2026 G0 Z5
N2027 X85.764 Y62.251
N2028 Z-2.197
N2029 G1 Z-2.597 F1524
N2030 X85.763 Y62.259 Z-2.675
N2031 X85.759 Y62.281 Z-2.75
N2032 X85.753 Y62.318 Z-2.819
N2033 X85.744 Y62.367 Z-2.88
N2034 X85.733 Y62.426 Z-2.93
N2035 X85.721 Y62.495 Z-2.967
N2036 X85.708 Y62.568 Z-2.989
N2037 X85.694 Y62.645 Z-2.997
N2038 G3 X85.505 Y62.809 I-0.195 J-0.035
N2039 G1 X82.286 Y62.808
N2040 X82.058 Y62.797
N2041 X81.873 Y62.78
N2042 X81.675 Y62.753
N2043 X81.453 Y62.711
N2044 X81.219 Y62.655
N2045 X80.973 Y62.583
N2046 X80.697 Y62.487
N2047 X80.415 Y62.374
N2048 X80.108 Y62.233
N2049 X79.769 Y62.056
N2050 X79.429 Y61.857
N2051 X79.038 Y61.601
N2052 X78.651 Y61.321
N2053 X78.211 Y60.967
N2054 X77.766 Y60.573
N2055 X77.283 Y60.099
N2056 X76.764 Y59.538
N2057 X76.22 Y58.89
N2058 X75.669 Y58.164
N2059 X75.154 Y57.411
N2060 X74.673 Y56.637
N2061 X74.223 Y55.844
N2062 X73.803 Y55.034
N2063 X73.412 Y54.21
N2064 X73.051 Y53.373
N2065 X72.717 Y52.525
N2066 X72.411 Y51.666
N2067 X72.133 Y50.798
N2068 X71.882 Y49.921
N2069 X71.659 Y49.037
N2070 X71.462 Y48.147
N2071 X71.293 Y47.251
N2072 X71.152 Y46.35
N2073 X71.038 Y45.445
N2074 X70.953 Y44.537
N2075 X70.895 Y43.627
N2076 X70.865 Y42.716
N2077 X70.862 Y41.804
N2078 X70.888 Y40.893
N2079 X70.94 Y39.982
N2080 X71.021 Y39.074
N2081 X71.128 Y38.169
N2082 X71.262 Y37.267
N2083 X71.423 Y36.369
N2084 X71.612 Y35.477
N2085 X71.827 Y34.591
N2086 X72.069 Y33.712
N2087 X72.338 Y32.841
N2088 X72.633 Y31.978
N2089 X72.954 Y31.125
N2090 X73.3 Y30.281
N2091 X73.672 Y29.449
N2092 X74.069 Y28.627
N2093 X74.489 Y27.819
N2094 X74.934 Y27.023
N2095 X75.402 Y26.24
N2096 X75.894 Y25.472
N2097 X76.408 Y24.719
N2098 X76.945 Y23.982
N2099 X77.504 Y23.262
N2100 X78.012 Y22.646
N2101 X78.208 Y22.447
N2102 X78.436 Y22.286
N2103 X78.689 Y22.167
N2104 X78.958 Y22.094
N2105 X79.236 Y22.069
N2106 X82.528
N2107 G3 X82.769 Y22.126 I-0.022 J0.635
N2108 G1 X82.84 Y22.158 Z-2.989
N2109 X82.908 Y22.189 Z-2.967
N2110 X82.971 Y22.218 Z-2.93
N2111 X83.026 Y22.243 Z-2.88
N2112 X83.072 Y22.264 Z-2.819
N2113 X83.105 Y22.279 Z-2.75
N2114 X83.126 Y22.288 Z-2.675
N2115 X83.133 Y22.292 Z-2.597
N2116 G0 Z5
N2117 X82.545 Y62.251
N2118 Z-2.197
N2119 G1 Z-2.597 F1524
N2120 X82.543 Y62.259 Z-2.675
N2121 X82.539 Y62.281 Z-2.75
N2122 X82.533 Y62.318 Z-2.819
N2123 X82.524 Y62.367 Z-2.88
N2124 X82.513 Y62.426 Z-2.93
N2125 X82.501 Y62.494 Z-2.967
N2126 X82.488 Y62.568 Z-2.989
N2127 X82.474 Y62.645 Z-2.997
N2128 G3 X82.286 Y62.808 I-0.195 J-0.035
N2129 G1 X79.293
N2130 X79.066 Y62.797
N2131 X78.89 Y62.782
N2132 X78.701 Y62.757
N2133 X78.505 Y62.722
N2134 X78.286 Y62.671
N2135 X78.055 Y62.605
N2136 X77.814 Y62.523
N2137 X77.543 Y62.416
N2138 X77.267 Y62.291
N2139 X76.968 Y62.137
N2140 X76.639 Y61.948
N2141 X76.309 Y61.735
N2142 X75.931 Y61.465
N2143 X75.562 Y61.172
N2144 X75.141 Y60.803
N2145 X74.722 Y60.398
N2146 X74.265 Y59.911
N2147 X73.777 Y59.337
N2148 X73.272 Y58.679
N2149 X72.754 Y57.931
N2150 X72.271 Y57.158
N2151 X71.824 Y56.363
N2152 X71.408 Y55.552
N2153 X71.022 Y54.726
N2154 X70.665 Y53.887
N2155 X70.336 Y53.036
N2156 X70.034 Y52.176
N2157 X69.758 Y51.307
N2158 X69.508 Y50.43
N2159 X69.284 Y49.546
N2160 X69.086 Y48.656
N2161 X68.914 Y47.761
N2162 X68.768 Y46.861
N2163 X68.647 Y45.957
N2164 X68.553 Y45.05
N2165 X68.485 Y44.141
N2166 X68.443 Y43.23
N2167 X68.426 Y42.318
N2168 X68.435 Y41.406
N2169 X68.47 Y40.495
N2170 X68.529 Y39.585
N2171 X68.614 Y38.677
N2172 X68.724 Y37.772
N2173 X68.859 Y36.87
N2174 X69.019 Y35.973
N2175 X69.204 Y35.08
N2176 X69.414 Y34.193
N2177 X69.649 Y33.312
N2178 X69.91 Y32.438
N2179 X70.194 Y31.572
N2180 X70.503 Y30.714
N2181 X70.835 Y29.865
N2182 X71.191 Y29.025
N2183 X71.57 Y28.196
N2184 X71.972 Y27.377
N2185 X72.396 Y26.57
N2186 X72.842 Y25.775
N2187 X73.31 Y24.992
N2188 X73.799 Y24.223
N2189 X74.31 Y23.467
N2190 X74.801 Y22.784
N2191 X74.893 Y22.668
N2192 X75.089 Y22.462
N2193 X75.32 Y22.295
N2194 X75.576 Y22.171
N2195 X75.851 Y22.095
N2196 X76.135 Y22.069
N2197 X79.236
N2198 G3 X79.478 Y22.126 I-0.022 J0.635
N2199 G1 X79.549 Y22.158 Z-2.989
N2200 X79.617 Y22.189 Z-2.967
N2201 X79.68 Y22.218 Z-2.93
N2202 X79.735 Y22.243 Z-2.88
N2203 X79.78 Y22.264 Z-2.819
N2204 X79.814 Y22.279 Z-2.75
N2205 X79.835 Y22.289 Z-2.675
N2206 X79.842 Y22.292 Z-2.597
N2207 G0 Z5
N2208 X79.552 Y62.251
N2209 Z-2.197
N2210 G1 Z-2.597 F1524
N2211 X79.551 Y62.259 Z-2.675
N2212 X79.547 Y62.281 Z-2.75
N2213 X79.541 Y62.317 Z-2.819
N2214 X79.532 Y62.366 Z-2.88
N2215 X79.521 Y62.426 Z-2.93
N2216 X79.509 Y62.494 Z-2.967
N2217 X79.496 Y62.568 Z-2.989
N2218 X79.482 Y62.645 Z-2.997
N2219 G3 X79.293 Y62.808 I-0.195 J-0.035
N2220 G1 X76.394
N2221 X76.167 Y62.797
N2222 X76.003 Y62.782
N2223 X75.824 Y62.758
N2224 X75.625 Y62.721
N2225 X75.425 Y62.673
N2226 X75.203 Y62.609
N2227 X74.963 Y62.526
N2228 X74.719 Y62.429
N2229 X74.446 Y62.304
N2230 X74.166 Y62.158
N2231 X73.866 Y61.983
N2232 X73.538 Y61.77
N2233 X73.208 Y61.532
N2234 X72.833 Y61.232
N2235 X72.468 Y60.91
N2236 X72.058 Y60.51
N2237 X71.643 Y60.063
N2238 X71.202 Y59.54
N2239 X70.733 Y58.924
N2240 X70.243 Y58.211
N2241 X69.765 Y57.435
N2242 X69.322 Y56.638
N2243 X68.913 Y55.823
N2244 X68.536 Y54.993
N2245 X68.187 Y54.15
N2246 X67.867 Y53.297
N2247 X67.574 Y52.433
N2248 X67.306 Y51.562
N2249 X67.064 Y50.683
N2250 X66.846 Y49.797
N2251 X66.654 Y48.906
N2252 X66.486 Y48.01
N2253 X66.342 Y47.109
N2254 X66.222 Y46.205
N2255 X66.127 Y45.299
N2256 X66.056 Y44.39
N2257 X66.009 Y43.479
N2258 X65.986 Y42.567
N2259 X65.987 Y41.656
N2260 X66.013 Y40.744
N2261 X66.062 Y39.834
N2262 X66.134 Y38.925
N2263 X66.23 Y38.018
N2264 X66.35 Y37.114
N2265 X66.493 Y36.214
N2266 X66.659 Y35.317
N2267 X66.849 Y34.425
N2268 X67.061 Y33.538
N2269 X67.297 Y32.658
N2270 X67.556 Y31.783
N2271 X67.837 Y30.916
N2272 X68.14 Y30.056
N2273 X68.466 Y29.205
N2274 X68.815 Y28.362
N2275 X69.185 Y27.528
N2276 X69.576 Y26.705
N2277 X69.988 Y25.892
N2278 X70.421 Y25.089
N2279 X70.875 Y24.298
N2280 X71.349 Y23.519
N2281 X71.733 Y22.929
N2282 X71.879 Y22.727
N2283 X72.077 Y22.502
N2284 X72.313 Y22.318
N2285 X72.58 Y22.182
N2286 X72.867 Y22.098
N2287 X73.165 Y22.069
N2288 X76.135
N2289 G3 X76.376 Y22.126 I-0.022 J0.635
N2290 G1 X76.447 Y22.158 Z-2.989
N2291 X76.515 Y22.19 Z-2.967
N2292 X76.578 Y22.218 Z-2.93
N2293 X76.633 Y22.243 Z-2.88
N2294 X76.679 Y22.264 Z-2.819
N2295 X76.712 Y22.279 Z-2.75
N2296 X76.733 Y22.289 Z-2.675
N2297 X76.74 Y22.292 Z-2.597
N2298 G0 Z5
N2299 X76.654 Y62.251
N2300 Z-2.197
N2301 G1 Z-2.597 F1524
N2302 X76.652 Y62.258 Z-2.675
N2303 X76.648 Y62.281 Z-2.75
N2304 X76.642 Y62.317 Z-2.819
N2305 X76.633 Y62.366 Z-2.88
N2306 X76.622 Y62.426 Z-2.93
N2307 X76.61 Y62.494 Z-2.967
N2308 X76.597 Y62.568 Z-2.989
N2309 X76.583 Y62.645 Z-2.997
N2310 G3 X76.394 Y62.808 I-0.195 J-0.035
N2311 G1 X73.589
N2312 X73.361 Y62.796
N2313 X73.2 Y62.781
N2314 X73.019 Y62.755
N2315 X72.833 Y62.719
N2316 X72.633 Y62.67
N2317 X72.412 Y62.605
N2318 X72.19 Y62.527
N2319 X71.946 Y62.427
N2320 X71.686 Y62.306
N2321 X71.418 Y62.164
N2322 X71.118 Y61.987
N2323 X70.822 Y61.791
N2324 X70.491 Y61.549
N2325 X70.153 Y61.274
N2326 X69.787 Y60.947
N2327 X69.41 Y60.574
N2328 X68.999 Y60.125
N2329 X68.591 Y59.634
N2330 X68.15 Y59.047
N2331 X67.688 Y58.363
N2332 X67.214 Y57.584
N2333 X66.779 Y56.783
N2334 X66.379 Y55.963
N2335 X66.01 Y55.129
N2336 X65.672 Y54.283
N2337 X65.361 Y53.425
N2338 X65.078 Y52.559
N2339 X64.82 Y51.684
N2340 X64.587 Y50.803
N2341 X64.378 Y49.915
N2342 X64.193 Y49.022
N2343 X64.031 Y48.125
N2344 X63.892 Y47.224
N2345 X63.777 Y46.319
N2346 X63.684 Y45.412
N2347 X63.613 Y44.503
N2348 X63.566 Y43.593
N2349 X63.541 Y42.681
N2350 X63.538 Y41.769
N2351 X63.558 Y40.858
N2352 X63.601 Y39.947
N2353 X63.666 Y39.038
N2354 X63.753 Y38.13
N2355 X63.862 Y37.225
N2356 X63.993 Y36.322
N2357 X64.146 Y35.423
N2358 X64.321 Y34.529
N2359 X64.518 Y33.638
N2360 X64.736 Y32.753
N2361 X64.975 Y31.873
N2362 X65.236 Y30.999
N2363 X65.517 Y30.132
N2364 X65.82 Y29.272
N2365 X66.143 Y28.419
N2366 X66.487 Y27.575
N2367 X66.852 Y26.739
N2368 X67.237 Y25.913
N2369 X67.642 Y25.096
N2370 X68.066 Y24.289
N2371 X68.511 Y23.493
N2372 X68.833 Y22.968
N2373 X68.976 Y22.76
N2374 X69.173 Y22.525
N2375 X69.413 Y22.331
N2376 X69.685 Y22.188
N2377 X69.979 Y22.099
N2378 X70.286 Y22.07
N2379 X73.165 Y22.069
N2380 G3 X73.407 Y22.126 I-0.022 J0.635
N2381 G1 X73.478 Y22.159 Z-2.989
N2382 X73.546 Y22.19 Z-2.967
N2383 X73.609 Y22.218 Z-2.93
N2384 X73.664 Y22.244 Z-2.88
N2385 X73.709 Y22.264 Z-2.819
N2386 X73.743 Y22.28 Z-2.75
N2387 X73.764 Y22.289 Z-2.675
N2388 X73.771 Y22.292 Z-2.597
N2389 G0 Z5
N2390 X73.848 Y62.251
N2391 Z-2.197
N2392 G1 Z-2.597 F1524
N2393 X73.846 Y62.258 Z-2.675
N2394 X73.842 Y62.281 Z-2.75
N2395 X73.836 Y62.317 Z-2.819
N2396 X73.827 Y62.366 Z-2.88
N2397 X73.816 Y62.426 Z-2.93
N2398 X73.804 Y62.494 Z-2.967
N2399 X73.791 Y62.568 Z-2.989
N2400 X73.777 Y62.644 Z-2.997
N2401 G3 X73.589 Y62.808 I-0.195 J-0.035
N2402 G1 X70.804
N2403 X70.69 Y62.802
N2404 X70.536 Y62.79
N2405 X70.364 Y62.768
N2406 X70.186 Y62.736
N2407 X69.996 Y62.692
N2408 X69.784 Y62.632
N2409 X69.571 Y62.561
N2410 X69.338 Y62.47
N2411 X69.09 Y62.358
N2412 X68.836 Y62.229
N2413 X68.551 Y62.066
N2414 X68.27 Y61.886
N2415 X67.959 Y61.665
N2416 X67.637 Y61.411
N2417 X67.295 Y61.114
N2418 X66.934 Y60.767
N2419 X66.557 Y60.367
N2420 X66.167 Y59.911
N2421 X65.746 Y59.367
N2422 X65.314 Y58.748
N2423 X64.87 Y58.041
N2424 X64.424 Y57.246
N2425 X64.016 Y56.431
N2426 X63.642 Y55.599
N2427 X63.299 Y54.754
N2428 X62.985 Y53.898
N2429 X62.699 Y53.033
N2430 X62.438 Y52.159
N2431 X62.202 Y51.278
N2432 X61.99 Y50.391
N2433 X61.801 Y49.499
N2434 X61.634 Y48.603
N2435 X61.49 Y47.702
N2436 X61.368 Y46.799
N2437 X61.268 Y45.892
N2438 X61.19 Y44.984
N2439 X61.134 Y44.074
N2440 X61.099 Y43.163
N2441 X61.085 Y42.251
N2442 X61.092 Y41.339
N2443 X61.121 Y40.428
N2444 X61.171 Y39.518
N2445 X61.241 Y38.608
N2446 X61.332 Y37.701
N2447 X61.444 Y36.796
N2448 X61.577 Y35.894
N2449 X61.73 Y34.995
N2450 X61.904 Y34.1
N2451 X62.097 Y33.209
N2452 X62.311 Y32.323
N2453 X62.545 Y31.442
N2454 X62.8 Y30.566
N2455 X63.074 Y29.696
N2456 X63.369 Y28.833
N2457 X63.683 Y27.977
N2458 X64.016 Y27.129
N2459 X64.369 Y26.288
N2460 X64.741 Y25.455
N2461 X65.131 Y24.631
N2462 X65.542 Y23.818
N2463 X65.868 Y23.227
N2464 X66.103 Y22.846
N2465 X66.163 Y22.758
N2466 X66.36 Y22.523
N2467 X66.6 Y22.331
N2468 X66.871 Y22.188
N2469 X67.166 Y22.1
N2470 X67.471 Y22.07
N2471 X70.286
N2472 G3 X70.527 Y22.126 I-0.022 J0.635
N2473 G1 X70.598 Y22.159 Z-2.989
N2474 X70.666 Y22.19 Z-2.967
N2475 X70.729 Y22.219 Z-2.93
N2476 X70.784 Y22.244 Z-2.88
N2477 X70.829 Y22.264 Z-2.819
N2478 X70.863 Y22.28 Z-2.75
N2479 X70.884 Y22.289 Z-2.675
N2480 X70.891 Y22.292 Z-2.597
N2481 G0 Z5
N2482 X71.063 Y62.251
N2483 Z-2.197
N2484 G1 Z-2.597 F1524
N2485 X71.061 Y62.258 Z-2.675
N2486 X71.057 Y62.28 Z-2.75
N2487 X71.051 Y62.317 Z-2.819
N2488 X71.042 Y62.366 Z-2.88
N2489 X71.031 Y62.426 Z-2.93
N2490 X71.019 Y62.494 Z-2.967
N2491 X71.006 Y62.567 Z-2.989
N2492 X70.992 Y62.644 Z-2.997
N2493 G3 X70.804 Y62.808 I-0.195 J-0.035
N2494 G1 X68.112 Y62.807
N2495 X67.998 Y62.802
N2496 X67.838 Y62.788
N2497 X67.675 Y62.765
N2498 X67.495 Y62.732
N2499 X67.302 Y62.686
N2500 X67.104 Y62.628
N2501 X66.883 Y62.552
N2502 X66.658 Y62.462
N2503 X66.417 Y62.351
N2504 X66.154 Y62.214
N2505 X65.892 Y62.061
N2506 X65.597 Y61.869
N2507 X65.304 Y61.657
N2508 X64.982 Y61.399
N2509 X64.653 Y61.108
N2510 X64.3 Y60.763
N2511 X63.938 Y60.372
N2512 X63.544 Y59.904
N2513 X63.157 Y59.395
N2514 X62.74 Y58.787
N2515 X62.304 Y58.079
N2516 X61.865 Y57.28
N2517 X61.464 Y56.461
N2518 X61.098 Y55.626
N2519 X60.764 Y54.777
N2520 X60.458 Y53.918
N2521 X60.181 Y53.05
N2522 X59.929 Y52.173
N2523 X59.701 Y51.29
N2524 X59.497 Y50.402
N2525 X59.316 Y49.508
N2526 X59.157 Y48.61
N2527 X59.019 Y47.709
N2528 X58.902 Y46.805
N2529 X58.807 Y45.898
N2530 X58.732 Y44.989
N2531 X58.677 Y44.079
N2532 X58.643 Y43.168
N2533 X58.629 Y42.256
N2534 X58.635 Y41.344
N2535 X58.661 Y40.433
N2536 X58.707 Y39.522
N2537 X58.773 Y38.613
N2538 X58.858 Y37.705
N2539 X58.963 Y36.799
N2540 X59.088 Y35.896
N2541 X59.232 Y34.996
N2542 X59.396 Y34.099
N2543 X59.579 Y33.205
N2544 X59.781 Y32.316
N2545 X60.002 Y31.432
N2546 X60.242 Y30.552
N2547 X60.501 Y29.678
N2548 X60.779 Y28.809
N2549 X61.075 Y27.947
N2550 X61.389 Y27.091
N2551 X61.722 Y26.242
N2552 X62.073 Y25.401
N2553 X62.443 Y24.567
N2554 X62.836 Y23.744
N2555 X63.12 Y23.213
N2556 X63.336 Y22.853
N2557 X63.388 Y22.775
N2558 X63.585 Y22.535
N2559 X63.826 Y22.337
N2560 X64.1 Y22.191
N2561 X64.398 Y22.1
N2562 X64.708 Y22.07
N2563 X67.471
N2564 G3 X67.713 Y22.127 I-0.022 J0.635
N2565 G1 X67.784 Y22.159 Z-2.989
N2566 X67.852 Y22.19 Z-2.967
N2567 X67.915 Y22.219 Z-2.93
N2568 X67.97 Y22.244 Z-2.88
N2569 X68.015 Y22.264 Z-2.819
N2570 X68.049 Y22.28 Z-2.75
N2571 X68.07 Y22.289 Z-2.675
N2572 X68.077 Y22.292 Z-2.597
N2573 G0 Z5
N2574 X68.371 Y62.25
N2575 Z-2.197
N2576 G1 Z-2.597 F1524
N2577 X68.37 Y62.258 Z-2.675
N2578 X68.366 Y62.28 Z-2.75
N2579 X68.359 Y62.317 Z-2.819
N2580 X68.35 Y62.366 Z-2.88
N2581 X68.34 Y62.425 Z-2.93
N2582 X68.327 Y62.493 Z-2.967
N2583 X68.314 Y62.567 Z-2.989
N2584 X68.3 Y62.644 Z-2.997
N2585 G3 X68.112 Y62.807 I-0.195 J-0.035
N2586 G1 X65.513
N2587 X65.399 Y62.802
N2588 X65.245 Y62.79
N2589 X65.085 Y62.77
N2590 X64.913 Y62.74
N2591 X64.723 Y62.697
N2592 X64.532 Y62.644
N2593 X64.321 Y62.574
N2594 X64.097 Y62.487
N2595 X63.867 Y62.384
N2596 X63.612 Y62.255
N2597 X63.359 Y62.111
N2598 X63.079 Y61.934
N2599 X62.792 Y61.731
N2600 X62.488 Y61.493
N2601 X62.163 Y61.212
N2602 X61.832 Y60.896
N2603 X61.473 Y60.518
N2604 X61.109 Y60.095
N2605 X60.727 Y59.605
N2606 X60.32 Y59.026
N2607 X59.905 Y58.369
N2608 X59.479 Y57.615
N2609 X59.07 Y56.8
N2610 X58.698 Y55.968
N2611 X58.359 Y55.121
N2612 X58.051 Y54.263
N2613 X57.771 Y53.395
N2614 X57.517 Y52.52
N2615 X57.288 Y51.637
N2616 X57.081 Y50.749
N2617 X56.898 Y49.856
N2618 X56.736 Y48.959
N2619 X56.595 Y48.058
N2620 X56.475 Y47.154
N2621 X56.374 Y46.248
N2622 X56.294 Y45.339
N2623 X56.234 Y44.43
N2624 X56.193 Y43.519
N2625 X56.171 Y42.607
N2626 X56.169 Y41.695
N2627 X56.186 Y40.784
N2628 X56.222 Y39.873
N2629 X56.277 Y38.962
N2630 X56.35 Y38.054
N2631 X56.442 Y37.146
N2632 X56.553 Y36.241
N2633 X56.682 Y35.339
N2634 X56.83 Y34.439
N2635 X56.995 Y33.542
N2636 X57.179 Y32.649
N2637 X57.381 Y31.76
N2638 X57.601 Y30.875
N2639 X57.839 Y29.995
N2640 X58.095 Y29.12
N2641 X58.368 Y28.25
N2642 X58.659 Y27.386
N2643 X58.968 Y26.528
N2644 X59.295 Y25.676
N2645 X59.64 Y24.832
N2646 X60.007 Y23.998
N2647 X60.287 Y23.427
N2648 X60.504 Y23.034
N2649 X60.635 Y22.822
N2650 X60.832 Y22.567
N2651 X61.076 Y22.357
N2652 X61.357 Y22.2
N2653 X61.665 Y22.103
N2654 X61.985 Y22.07
N2655 X64.708
N2656 G3 X64.949 Y22.127 I-0.022 J0.635
N2657 G1 X65.02 Y22.159 Z-2.989
N2658 X65.088 Y22.19 Z-2.967
N2659 X65.151 Y22.219 Z-2.93
N2660 X65.206 Y22.244 Z-2.88
N2661 X65.251 Y22.265 Z-2.819
N2662 X65.285 Y22.28 Z-2.75
N2663 X65.306 Y22.289 Z-2.675
N2664 X65.313 Y22.293 Z-2.597
N2665 G0 Z5
N2666 X65.772 Y62.25
N2667 Z-2.197
N2668 G1 Z-2.597 F1524
N2669 X65.771 Y62.258 Z-2.675
N2670 X65.767 Y62.28 Z-2.75
N2671 X65.76 Y62.317 Z-2.819
N2672 X65.752 Y62.366 Z-2.88
N2673 X65.741 Y62.425 Z-2.93
N2674 X65.729 Y62.493 Z-2.967
N2675 X65.715 Y62.567 Z-2.989
N2676 X65.702 Y62.644 Z-2.997
N2677 G3 X65.513 Y62.807 I-0.195 J-0.035
N2678 G1 X62.935
N2679 X62.821 Y62.802
N2680 X62.672 Y62.792
N2681 X62.516 Y62.774
N2682 X62.343 Y62.745
N2683 X62.165 Y62.706
N2684 X61.974 Y62.654
N2685 X61.764 Y62.587
N2686 X61.555 Y62.508
N2687 X61.322 Y62.406
N2688 X61.083 Y62.288
N2689 X60.829 Y62.147
N2690 X60.554 Y61.975
N2691 X60.279 Y61.785
N2692 X59.972 Y61.548
N2693 X59.671 Y61.292
N2694 X59.333 Y60.976
N2695 X59.002 Y60.633
N2696 X58.633 Y60.211
N2697 X58.275 Y59.759
N2698 X57.885 Y59.215
N2699 X57.477 Y58.581
N2700 X57.066 Y57.868
N2701 X56.65 Y57.057
N2702 X56.273 Y56.226
N2703 X55.932 Y55.381
N2704 X55.621 Y54.524
N2705 X55.34 Y53.656
N2706 X55.085 Y52.781
N2707 X54.854 Y51.899
N2708 X54.648 Y51.011
N2709 X54.463 Y50.118
N2710 X54.3 Y49.221
N2711 X54.158 Y48.32
N2712 X54.035 Y47.417
N2713 X53.932 Y46.51
N2714 X53.849 Y45.603
N2715 X53.785 Y44.693
N2716 X53.739 Y43.782
N2717 X53.712 Y42.871
N2718 X53.704 Y41.959
N2719 X53.714 Y41.047
N2720 X53.742 Y40.136
N2721 X53.788 Y39.225
N2722 X53.853 Y38.316
N2723 X53.935 Y37.408
N2724 X54.034 Y36.501
N2725 X54.152 Y35.597
N2726 X54.286 Y34.695
N2727 X54.439 Y33.796
N2728 X54.608 Y32.9
N2729 X54.795 Y32.008
N2730 X54.998 Y31.119
N2731 X55.219 Y30.234
N2732 X55.457 Y29.354
N2733 X55.711 Y28.478
N2734 X55.983 Y27.608
N2735 X56.271 Y26.743
N2736 X56.576 Y25.884
N2737 X56.9 Y25.031
N2738 X57.247 Y24.188
N2739 X57.53 Y23.573
N2740 X57.745 Y23.159
N2741 X57.952 Y22.806
N2742 X57.962 Y22.79
N2743 X58.159 Y22.545
N2744 X58.401 Y22.344
N2745 X58.678 Y22.194
N2746 X58.978 Y22.101
N2747 X59.291 Y22.07
N2748 X61.985
N2749 G3 X62.227 Y22.127 I-0.022 J0.635
N2750 G1 X62.298 Y22.159 Z-2.989
N2751 X62.366 Y22.19 Z-2.967
N2752 X62.429 Y22.219 Z-2.93
N2753 X62.484 Y22.244 Z-2.88
N2754 X62.529 Y22.265 Z-2.819
N2755 X62.563 Y22.28 Z-2.75
N2756 X62.584 Y22.29 Z-2.675
N2757 X62.591 Y22.293 Z-2.597
N2758 G0 Z5
N2759 X63.194 Y62.25
N2760 Z-2.197
N2761 G1 Z-2.597 F1524
N2762 X63.193 Y62.258 Z-2.675
N2763 X63.189 Y62.28 Z-2.75
N2764 X63.182 Y62.317 Z-2.819
N2765 X63.174 Y62.366 Z-2.88
N2766 X63.163 Y62.425 Z-2.93
N2767 X63.151 Y62.493 Z-2.967
N2768 X63.137 Y62.567 Z-2.989
N2769 X63.124 Y62.644 Z-2.997
N2770 G3 X62.935 Y62.807 I-0.195 J-0.035
N2771 G1 X60.337
N2772 X60.223 Y62.802
N2773 X60.073 Y62.791
N2774 X59.912 Y62.771
N2775 X59.743 Y62.741
N2776 X59.565 Y62.701
N2777 X59.367 Y62.646
N2778 X59.168 Y62.58
N2779 X58.95 Y62.496
N2780 X58.721 Y62.394
N2781 X58.485 Y62.275
N2782 X58.223 Y62.126
N2783 X57.965 Y61.962
N2784 X57.678 Y61.76
N2785 X57.387 Y61.533
N2786 X57.076 Y61.264
N2787 X56.754 Y60.957
N2788 X56.414 Y60.6
N2789 X56.064 Y60.193
N2790 X55.689 Y59.713
N2791 X55.32 Y59.188
N2792 X54.925 Y58.564
N2793 X54.515 Y57.839
N2794 X54.105 Y57.025
N2795 X53.734 Y56.191
N2796 X53.399 Y55.344
N2797 X53.095 Y54.484
N2798 X52.819 Y53.615
N2799 X52.571 Y52.737
N2800 X52.347 Y51.853
N2801 X52.147 Y50.964
N2802 X51.968 Y50.07
N2803 X51.811 Y49.172
N2804 X51.673 Y48.27
N2805 X51.556 Y47.366
N2806 X51.457 Y46.46
N2807 X51.377 Y45.551
N2808 X51.315 Y44.642
N2809 X51.272 Y43.731
N2810 X51.246 Y42.819
N2811 X51.238 Y41.908
N2812 X51.248 Y40.996
N2813 X51.275 Y40.084
N2814 X51.319 Y39.174
N2815 X51.38 Y38.264
N2816 X51.458 Y37.355
N2817 X51.553 Y36.449
N2818 X51.665 Y35.544
N2819 X51.794 Y34.641
N2820 X51.94 Y33.741
N2821 X52.102 Y32.844
N2822 X52.28 Y31.949
N2823 X52.475 Y31.059
N2824 X52.686 Y30.172
N2825 X52.913 Y29.289
N2826 X53.156 Y28.41
N2827 X53.416 Y27.536
N2828 X53.692 Y26.667
N2829 X53.984 Y25.803
N2830 X54.297 Y24.946
N2831 X54.635 Y24.1
N2832 X54.883 Y23.551
N2833 X55.09 Y23.147
N2834 X55.282 Y22.813
N2835 X55.291 Y22.799
N2836 X55.488 Y22.551
N2837 X55.73 Y22.347
N2838 X56.008 Y22.196
N2839 X56.311 Y22.102
N2840 X56.626 Y22.07
N2841 X59.291
N2842 G3 X59.533 Y22.127 I-0.022 J0.635
N2843 G1 X59.604 Y22.159 Z-2.989
N2844 X59.672 Y22.19 Z-2.967
N2845 X59.735 Y22.219 Z-2.93
N2846 X59.79 Y22.244 Z-2.88
N2847 X59.835 Y22.265 Z-2.819
N2848 X59.869 Y22.28 Z-2.75
N2849 X59.89 Y22.29 Z-2.675
N2850 X59.897 Y22.293 Z-2.597
N2851 G0 Z5
N2852 X60.596 Y62.25
N2853 Z-2.197
N2854 G1 Z-2.597 F1524
N2855 X60.594 Y62.258 Z-2.675
N2856 X60.59 Y62.28 Z-2.75
N2857 X60.584 Y62.317 Z-2.819
N2858 X60.575 Y62.366 Z-2.88
N2859 X60.564 Y62.425 Z-2.93
N2860 X60.552 Y62.493 Z-2.967
N2861 X60.539 Y62.567 Z-2.989
N2862 X60.525 Y62.644 Z-2.997
N2863 G3 X60.337 Y62.807 I-0.195 J-0.035
N2864 G1 X57.759
N2865 X57.645 Y62.802
N2866 X57.495 Y62.79
N2867 X57.335 Y62.769
N2868 X57.164 Y62.738
N2869 X56.986 Y62.697
N2870 X56.789 Y62.64
N2871 X56.59 Y62.573
N2872 X56.374 Y62.488
N2873 X56.142 Y62.383
N2874 X55.908 Y62.263
N2875 X55.647 Y62.113
N2876 X55.39 Y61.948
N2877 X55.106 Y61.745
N2878 X54.818 Y61.517
N2879 X54.51 Y61.247
N2880 X54.189 Y60.938
N2881 X53.854 Y60.581
N2882 X53.506 Y60.172
N2883 X53.137 Y59.692
N2884 X52.77 Y59.165
N2885 X52.379 Y58.538
N2886 X51.974 Y57.812
N2887 X51.569 Y56.995
N2888 X51.204 Y56.159
N2889 X50.874 Y55.31
N2890 X50.575 Y54.448
N2891 X50.306 Y53.577
N2892 X50.063 Y52.698
N2893 X49.845 Y51.813
N2894 X49.65 Y50.922
N2895 X49.476 Y50.027
N2896 X49.324 Y49.128
N2897 X49.191 Y48.226
N2898 X49.077 Y47.321
N2899 X48.981 Y46.414
N2900 X48.904 Y45.506
N2901 X48.845 Y44.596
N2902 X48.803 Y43.685
N2903 X48.778 Y42.774
N2904 X48.77 Y41.862
N2905 X48.779 Y40.95
N2906 X48.804 Y40.039
N2907 X48.846 Y39.128
N2908 X48.905 Y38.218
N2909 X48.979 Y37.309
N2910 X49.07 Y36.402
N2911 X49.177 Y35.496
N2912 X49.3 Y34.593
N2913 X49.439 Y33.692
N2914 X49.594 Y32.793
N2915 X49.765 Y31.897
N2916 X49.952 Y31.005
N2917 X50.154 Y30.116
N2918 X50.371 Y29.23
N2919 X50.604 Y28.349
N2920 X50.853 Y27.472
N2921 X51.118 Y26.599
N2922 X51.4 Y25.732
N2923 X51.703 Y24.872
N2924 X52.031 Y24.032
N2925 X52.262 Y23.514
N2926 X52.455 Y23.135
N2927 X52.605 Y22.871
N2928 X52.8 Y22.6
N2929 X53.047 Y22.376
N2930 X53.336 Y22.209
N2931 X53.652 Y22.106
N2932 X53.984 Y22.071
N2933 X56.626 Y22.07
N2934 G3 X56.867 Y22.127 I-0.022 J0.635
N2935 G1 X56.938 Y22.16 Z-2.989
N2936 X57.007 Y22.191 Z-2.967
N2937 X57.069 Y22.219 Z-2.93
N2938 X57.125 Y22.244 Z-2.88
N2939 X57.17 Y22.265 Z-2.819
N2940 X57.204 Y22.28 Z-2.75
N2941 X57.224 Y22.29 Z-2.675
N2942 X57.231 Y22.293 Z-2.597
N2943 G0 Z5
N2944 X58.018 Y62.25
N2945 Z-2.197
N2946 G1 Z-2.597 F1524
N2947 X58.016 Y62.258 Z-2.675
N2948 X58.012 Y62.28 Z-2.75
N2949 X58.006 Y62.317 Z-2.819
N2950 X57.997 Y62.366 Z-2.88
N2951 X57.986 Y62.425 Z-2.93
N2952 X57.974 Y62.493 Z-2.967
N2953 X57.961 Y62.567 Z-2.989
N2954 X57.947 Y62.644 Z-2.997
N2955 G3 X57.759 Y62.807 I-0.195 J-0.035
N2956 G1 X55.274
N2957 X55.046 Y62.796
N2958 X54.897 Y62.781
N2959 X54.733 Y62.757
N2960 X54.562 Y62.723
N2961 X54.381 Y62.678
N2962 X54.181 Y62.618
N2963 X53.981 Y62.546
N2964 X53.76 Y62.456
N2965 X53.53 Y62.347
N2966 X53.291 Y62.219
N2967 X53.029 Y62.063
N2968 X52.77 Y61.89
N2969 X52.48 Y61.676
N2970 X52.196 Y61.443
N2971 X51.881 Y61.159
N2972 X51.566 Y60.844
N2973 X51.223 Y60.467
N2974 X50.881 Y60.052
N2975 X50.508 Y59.551
N2976 X50.142 Y59.006
N2977 X49.757 Y58.365
N2978 X49.356 Y57.617
N2979 X48.964 Y56.794
N2980 X48.612 Y55.953
N2981 X48.293 Y55.099
N2982 X48.006 Y54.233
N2983 X47.747 Y53.359
N2984 X47.514 Y52.477
N2985 X47.305 Y51.59
N2986 X47.119 Y50.697
N2987 X46.954 Y49.801
N2988 X46.809 Y48.9
N2989 X46.683 Y47.997
N2990 X46.576 Y47.092
N2991 X46.487 Y46.184
N2992 X46.416 Y45.275
N2993 X46.362 Y44.365
N2994 X46.325 Y43.454
N2995 X46.304 Y42.542
N2996 X46.299 Y41.631
N2997 X46.311 Y40.719
N2998 X46.339 Y39.807
N2999 X46.382 Y38.897
N3000 X46.441 Y37.987
N3001 X46.516 Y37.078
N3002 X46.606 Y36.171
N3003 X46.711 Y35.265
N3004 X46.832 Y34.361
N3005 X46.969 Y33.46
N3006 X47.12 Y32.56
N3007 X47.286 Y31.664
N3008 X47.468 Y30.77
N3009 X47.665 Y29.88
N3010 X47.877 Y28.993
N3011 X48.103 Y28.11
N3012 X48.346 Y27.231
N3013 X48.605 Y26.357
N3014 X48.882 Y25.488
N3015 X49.183 Y24.627
N3016 X49.457 Y23.932
N3017 X49.681 Y23.434
N3018 X49.861 Y23.084
N3019 X49.986 Y22.866
N3020 X50.181 Y22.597
N3021 X50.427 Y22.375
N3022 X50.715 Y22.208
N3023 X51.031 Y22.105
N3024 X51.362 Y22.071
N3025 X53.984
N3026 G3 X54.225 Y22.127 I-0.022 J0.635
N3027 G1 X54.296 Y22.16 Z-2.989
N3028 X54.364 Y22.191 Z-2.967
N3029 X54.427 Y22.219 Z-2.93
N3030 X54.483 Y22.245 Z-2.88
N3031 X54.528 Y22.265 Z-2.819
N3032 X54.561 Y22.281 Z-2.75
N3033 X54.582 Y22.29 Z-2.675
N3034 X54.589 Y22.293 Z-2.597
N3035 G0 Z5
N3036 X55.533 Y62.25
N3037 Z-2.197
N3038 G1 Z-2.597 F1524
N3039 X55.531 Y62.258 Z-2.675
N3040 X55.527 Y62.28 Z-2.75
N3041 X55.521 Y62.317 Z-2.819
N3042 X55.512 Y62.366 Z-2.88
N3043 X55.501 Y62.425 Z-2.93
N3044 X55.489 Y62.493 Z-2.967
N3045 X55.476 Y62.567 Z-2.989
N3046 X55.462 Y62.644 Z-2.997
N3047 G3 X55.274 Y62.807 I-0.195 J-0.035
N3048 G1 X52.675
N3049 X52.561 Y62.802
N3050 X52.411 Y62.789
N3051 X52.258 Y62.769
N3052 X52.088 Y62.738
N3053 X51.908 Y62.696
N3054 X51.721 Y62.643
N3055 X51.514 Y62.572
N3056 X51.307 Y62.491
N3057 X51.08 Y62.388
N3058 X50.842 Y62.265
N3059 X50.596 Y62.123
N3060 X50.327 Y61.95
N3061 X50.061 Y61.76
N3062 X49.763 Y61.524
N3063 X49.473 Y61.269
N3064 X49.149 Y60.956
N3065 X48.831 Y60.617
N3066 X48.477 Y60.2
N3067 X48.136 Y59.756
N3068 X47.764 Y59.22
N3069 X47.381 Y58.604
N3070 X46.997 Y57.915
N3071 X46.597 Y57.104
N3072 X46.233 Y56.267
N3073 X45.906 Y55.416
N3074 X45.611 Y54.553
N3075 X45.346 Y53.681
N3076 X45.106 Y52.801
N3077 X44.892 Y51.915
N3078 X44.701 Y51.023
N3079 X44.53 Y50.128
N3080 X44.381 Y49.228
N3081 X44.25 Y48.326
N3082 X44.138 Y47.421
N3083 X44.044 Y46.514
N3084 X43.967 Y45.605
N3085 X43.907 Y44.696
N3086 X43.864 Y43.785
N3087 X43.836 Y42.873
N3088 X43.825 Y41.962
N3089 X43.83 Y41.05
N3090 X43.85 Y40.138
N3091 X43.885 Y39.227
N3092 X43.935 Y38.317
N3093 X44.001 Y37.407
N3094 X44.082 Y36.499
N3095 X44.177 Y35.592
N3096 X44.287 Y34.687
N3097 X44.412 Y33.784
N3098 X44.551 Y32.883
N3099 X44.705 Y31.984
N3100 X44.874 Y31.088
N3101 X45.057 Y30.195
N3102 X45.254 Y29.304
N3103 X45.466 Y28.418
N3104 X45.693 Y27.535
N3105 X45.936 Y26.656
N3106 X46.197 Y25.782
N3107 X46.481 Y24.915
N3108 X46.774 Y24.122
N3109 X47.003 Y23.583
N3110 X47.182 Y23.214
N3111 X47.37 Y22.87
N3112 X47.396 Y22.829
N3113 X47.592 Y22.572
N3114 X47.836 Y22.36
N3115 X48.119 Y22.201
N3116 X48.427 Y22.104
N3117 X48.749 Y22.071
N3118 X51.362
N3119 G3 X51.603 Y22.127 I-0.022 J0.635
N3120 G1 X51.674 Y22.16 Z-2.989
N3121 X51.742 Y22.191 Z-2.967
N3122 X51.805 Y22.22 Z-2.93
N3123 X51.86 Y22.245 Z-2.88
N3124 X51.905 Y22.265 Z-2.819
N3125 X51.939 Y22.281 Z-2.75
N3126 X51.96 Y22.29 Z-2.675
N3127 X51.967 Y22.293 Z-2.597
N3128 G0 Z5
N3129 X52.934 Y62.25
N3130 Z-2.197
N3131 G1 Z-2.597 F1524
N3132 X52.933 Y62.258 Z-2.675
N3133 X52.929 Y62.28 Z-2.75
N3134 X52.922 Y62.317 Z-2.819
N3135 X52.913 Y62.366 Z-2.88
N3136 X52.903 Y62.425 Z-2.93
N3137 X52.891 Y62.493 Z-2.967
N3138 X52.877 Y62.567 Z-2.989
N3139 X52.864 Y62.644 Z-2.997
N3140 G3 X52.675 Y62.807 I-0.195 J-0.035
N3141 G1 X50.19
N3142 X50.076 Y62.802
N3143 X49.927 Y62.792
N3144 X49.773 Y62.773
N3145 X49.605 Y62.745
N3146 X49.435 Y62.708
N3147 X49.246 Y62.656
N3148 X49.049 Y62.592
N3149 X48.842 Y62.513
N3150 X48.616 Y62.414
N3151 X48.391 Y62.302
N3152 X48.141 Y62.162
N3153 X47.888 Y62.004
N3154 X47.618 Y61.816
N3155 X47.334 Y61.596
N3156 X47.041 Y61.346
N3157 X46.728 Y61.051
N3158 X46.412 Y60.723
N3159 X46.071 Y60.331
N3160 X45.728 Y59.897
N3161 X45.37 Y59.394
N3162 X44.992 Y58.803
N3163 X44.612 Y58.141
N3164 X44.221 Y57.375
N3165 X43.847 Y56.543
N3166 X43.511 Y55.696
N3167 X43.209 Y54.835
N3168 X42.937 Y53.965
N3169 X42.692 Y53.087
N3170 X42.473 Y52.202
N3171 X42.276 Y51.311
N3172 X42.102 Y50.416
N3173 X41.947 Y49.518
N3174 X41.813 Y48.616
N3175 X41.696 Y47.712
N3176 X41.597 Y46.805
N3177 X41.516 Y45.897
N3178 X41.451 Y44.987
N3179 X41.402 Y44.077
N3180 X41.369 Y43.166
N3181 X41.352 Y42.254
N3182 X41.35 Y41.342
N3183 X41.363 Y40.431
N3184 X41.392 Y39.519
N3185 X41.435 Y38.608
N3186 X41.492 Y37.698
N3187 X41.565 Y36.789
N3188 X41.651 Y35.882
N3189 X41.752 Y34.976
N3190 X41.867 Y34.071
N3191 X41.996 Y33.168
N3192 X42.139 Y32.268
N3193 X42.296 Y31.37
N3194 X42.466 Y30.474
N3195 X42.651 Y29.581
N3196 X42.85 Y28.691
N3197 X43.064 Y27.805
N3198 X43.293 Y26.922
N3199 X43.54 Y26.045
N3200 X43.809 Y25.173
N3201 X44.108 Y24.312
N3202 X44.33 Y23.758
N3203 X44.528 Y23.326
N3204 X44.699 Y22.998
N3205 X44.781 Y22.858
N3206 X44.976 Y22.591
N3207 X45.222 Y22.371
N3208 X45.509 Y22.207
N3209 X45.823 Y22.105
N3210 X46.151 Y22.071
N3211 X48.749
N3212 G3 X48.99 Y22.128 I-0.022 J0.635
N3213 G1 X49.061 Y22.16 Z-2.989
N3214 X49.129 Y22.191 Z-2.967
N3215 X49.192 Y22.22 Z-2.93
N3216 X49.248 Y22.245 Z-2.88
N3217 X49.293 Y22.265 Z-2.819
N3218 X49.326 Y22.281 Z-2.75
N3219 X49.347 Y22.29 Z-2.675
N3220 X49.354 Y22.293 Z-2.597
N3221 G0 Z5
N3222 X50.449 Y62.25
N3223 Z-2.197
N3224 G1 Z-2.597 F1524
N3225 X50.448 Y62.258 Z-2.675
N3226 X50.444 Y62.28 Z-2.75
N3227 X50.437 Y62.317 Z-2.819
N3228 X50.429 Y62.366 Z-2.88
N3229 X50.418 Y62.425 Z-2.93
N3230 X50.406 Y62.493 Z-2.967
N3231 X50.392 Y62.567 Z-2.989
N3232 X50.379 Y62.644 Z-2.997
N3233 G3 X50.19 Y62.807 I-0.195 J-0.035
N3234 G1 X47.612
N3235 X47.498 Y62.802
N3236 X47.349 Y62.788
N3237 X47.189 Y62.766
N3238 X47.024 Y62.734
N3239 X46.841 Y62.69
N3240 X46.653 Y62.634
N3241 X46.452 Y62.564
N3242 X46.235 Y62.476
N3243 X46.016 Y62.375
N3244 X45.773 Y62.247
N3245 X45.53 Y62.105
N3246 X45.267 Y61.932
N3247 X44.993 Y61.732
N3248 X44.708 Y61.502
N3249 X44.405 Y61.232
N3250 X44.097 Y60.93
N3251 X43.767 Y60.571
N3252 X43.434 Y60.172
N3253 X43.083 Y59.707
N3254 X42.714 Y59.165
N3255 X42.35 Y58.57
N3256 X41.967 Y57.867
N3257 X41.571 Y57.049
N3258 X41.215 Y56.21
N3259 X40.895 Y55.356
N3260 X40.607 Y54.491
N3261 X40.348 Y53.617
N3262 X40.115 Y52.735
N3263 X39.907 Y51.848
N3264 X39.721 Y50.955
N3265 X39.557 Y50.058
N3266 X39.411 Y49.158
N3267 X39.285 Y48.255
N3268 X39.177 Y47.349
N3269 X39.086 Y46.442
N3270 X39.012 Y45.533
N3271 X38.954 Y44.623
N3272 X38.911 Y43.713
N3273 X38.885 Y42.801
N3274 X38.873 Y41.889
N3275 X38.876 Y40.978
N3276 X38.893 Y40.066
N3277 X38.925 Y39.155
N3278 X38.972 Y38.244
N3279 X39.032 Y37.334
N3280 X39.106 Y36.426
N3281 X39.194 Y35.518
N3282 X39.296 Y34.612
N3283 X39.411 Y33.707
N3284 X39.54 Y32.805
N3285 X39.682 Y31.904
N3286 X39.838 Y31.006
N3287 X40.007 Y30.11
N3288 X40.19 Y29.216
N3289 X40.387 Y28.326
N3290 X40.599 Y27.439
N3291 X40.828 Y26.557
N3292 X41.077 Y25.679
N3293 X41.351 Y24.81
N3294 X41.612 Y24.086
N3295 X41.826 Y23.574
N3296 X41.997 Y23.215
N3297 X42.178 Y22.88
N3298 X42.203 Y22.838
N3299 X42.399 Y22.578
N3300 X42.644 Y22.364
N3301 X42.928 Y22.203
N3302 X43.238 Y22.105
N3303 X43.562 Y22.071
N3304 X46.151
N3305 G3 X46.392 Y22.128 I-0.022 J0.635
N3306 G1 X46.464 Y22.16 Z-2.989
N3307 X46.532 Y22.191 Z-2.967
N3308 X46.595 Y22.22 Z-2.93
N3309 X46.65 Y22.245 Z-2.88
N3310 X46.695 Y22.266 Z-2.819
N3311 X46.729 Y22.281 Z-2.75
N3312 X46.749 Y22.29 Z-2.675
N3313 X46.756 Y22.294 Z-2.597
N3314 G0 Z5
N3315 X47.871 Y62.25
N3316 Z-2.197
N3317 G1 Z-2.597 F1524
N3318 X47.87 Y62.258 Z-2.675
N3319 X47.866 Y62.28 Z-2.75
N3320 X47.859 Y62.317 Z-2.819
N3321 X47.851 Y62.366 Z-2.88
N3322 X47.84 Y62.425 Z-2.93
N3323 X47.828 Y62.493 Z-2.967
N3324 X47.815 Y62.567 Z-2.989
N3325 X47.801 Y62.644 Z-2.997
N3326 G3 X47.612 Y62.807 I-0.195 J-0.035
N3327 G1 X45.128
N3328 X45.014 Y62.802
N3329 X44.864 Y62.79
N3330 X44.709 Y62.769
N3331 X44.538 Y62.738
N3332 X44.366 Y62.698
N3333 X44.176 Y62.643
N3334 X43.978 Y62.576
N3335 X43.77 Y62.494
N3336 X43.542 Y62.391
N3337 X43.315 Y62.274
N3338 X43.064 Y62.129
N3339 X42.81 Y61.966
N3340 X42.538 Y61.771
N3341 X42.256 Y61.547
N3342 X41.963 Y61.29
N3343 X41.651 Y60.989
N3344 X41.335 Y60.651
N3345 X40.996 Y60.252
N3346 X40.653 Y59.805
N3347 X40.298 Y59.294
N3348 X39.924 Y58.692
N3349 X39.543 Y58.007
N3350 X39.157 Y57.226
N3351 X38.793 Y56.389
N3352 X38.467 Y55.538
N3353 X38.175 Y54.674
N3354 X37.912 Y53.801
N3355 X37.676 Y52.92
N3356 X37.465 Y52.033
N3357 X37.276 Y51.141
N3358 X37.109 Y50.245
N3359 X36.961 Y49.345
N3360 X36.832 Y48.442
N3361 X36.721 Y47.537
N3362 X36.628 Y46.63
N3363 X36.55 Y45.722
N3364 X36.489 Y44.812
N3365 X36.443 Y43.902
N3366 X36.412 Y42.99
N3367 X36.396 Y42.079
N3368 X36.394 Y41.167
N3369 X36.407 Y40.255
N3370 X36.434 Y39.344
N3371 X36.474 Y38.433
N3372 X36.529 Y37.523
N3373 X36.597 Y36.613
N3374 X36.678 Y35.705
N3375 X36.773 Y34.798
N3376 X36.881 Y33.893
N3377 X37.002 Y32.989
N3378 X37.136 Y32.087
N3379 X37.283 Y31.187
N3380 X37.443 Y30.29
N3381 X37.617 Y29.395
N3382 X37.804 Y28.502
N3383 X38.007 Y27.613
N3384 X38.226 Y26.728
N3385 X38.464 Y25.848
N3386 X38.728 Y24.975
N3387 X38.996 Y24.196
N3388 X39.202 Y23.684
N3389 X39.382 Y23.291
N3390 X39.551 Y22.965
N3391 X39.613 Y22.859
N3392 X39.808 Y22.592
N3393 X40.055 Y22.372
N3394 X40.341 Y22.207
N3395 X40.655 Y22.106
N3396 X40.984 Y22.071
N3397 X43.562
N3398 G3 X43.803 Y22.128 I-0.022 J0.635
N3399 G1 X43.874 Y22.16 Z-2.989
N3400 X43.943 Y22.191 Z-2.967
N3401 X44.005 Y22.22 Z-2.93
N3402 X44.061 Y22.245 Z-2.88
N3403 X44.106 Y22.266 Z-2.819
N3404 X44.14 Y22.281 Z-2.75
N3405 X44.16 Y22.291 Z-2.675
N3406 X44.167 Y22.294 Z-2.597
N3407 G0 Z5
N3408 X45.387 Y62.25
N3409 Z-2.197
N3410 G1 Z-2.597 F1524
N3411 X45.385 Y62.258 Z-2.675
N3412 X45.381 Y62.28 Z-2.75
N3413 X45.375 Y62.317 Z-2.819
N3414 X45.366 Y62.366 Z-2.88
N3415 X45.355 Y62.425 Z-2.93
N3416 X45.343 Y62.493 Z-2.967
N3417 X45.33 Y62.567 Z-2.989
N3418 X45.316 Y62.644 Z-2.997
N3419 G3 X45.128 Y62.807 I-0.195 J-0.035
N3420 G1 X42.643
N3421 X42.529 Y62.802
N3422 X42.379 Y62.791
N3423 X42.223 Y62.771
N3424 X42.059 Y62.742
N3425 X41.886 Y62.703
N3426 X41.695 Y62.65
N3427 X41.503 Y62.586
N3428 X41.293 Y62.504
N3429 X41.073 Y62.406
N3430 X40.845 Y62.291
N3431 X40.595 Y62.148
N3432 X40.348 Y61.991
N3433 X40.073 Y61.797
N3434 X39.799 Y61.583
N3435 X39.502 Y61.326
N3436 X39.2 Y61.037
N3437 X38.878 Y60.698
N3438 X38.551 Y60.317
N3439 X38.201 Y59.868
N3440 X37.857 Y59.376
N3441 X37.487 Y58.791
N3442 X37.106 Y58.116
N3443 X36.724 Y57.354
N3444 X36.355 Y56.52
N3445 X36.026 Y55.67
N3446 X35.73 Y54.808
N3447 X35.464 Y53.936
N3448 X35.226 Y53.055
N3449 X35.012 Y52.169
N3450 X34.822 Y51.277
N3451 X34.653 Y50.381
N3452 X34.503 Y49.482
N3453 X34.373 Y48.579
N3454 X34.26 Y47.675
N3455 X34.164 Y46.768
N3456 X34.084 Y45.859
N3457 X34.021 Y44.95
N3458 X33.972 Y44.039
N3459 X33.938 Y43.128
N3460 X33.919 Y42.217
N3461 X33.913 Y41.305
N3462 X33.922 Y40.393
N3463 X33.945 Y39.482
N3464 X33.98 Y38.57
N3465 X34.03 Y37.66
N3466 X34.092 Y36.75
N3467 X34.168 Y35.842
N3468 X34.257 Y34.934
N3469 X34.359 Y34.028
N3470 X34.473 Y33.123
N3471 X34.6 Y32.22
N3472 X34.74 Y31.319
N3473 X34.892 Y30.42
N3474 X35.058 Y29.524
N3475 X35.238 Y28.63
N3476 X35.432 Y27.739
N3477 X35.643 Y26.852
N3478 X35.874 Y25.97
N3479 X36.128 Y25.094
N3480 X36.394 Y24.295
N3481 X36.601 Y23.763
N3482 X36.783 Y23.354
N3483 X36.949 Y23.025
N3484 X37.035 Y22.874
N3485 X37.229 Y22.603
N3486 X37.476 Y22.378
N3487 X37.765 Y22.21
N3488 X38.082 Y22.107
N3489 X38.414 Y22.071
N3490 X40.984
N3491 G3 X41.225 Y22.128 I-0.022 J0.635
N3492 G1 X41.296 Y22.16 Z-2.989
N3493 X41.365 Y22.191 Z-2.967
N3494 X41.428 Y22.22 Z-2.93
N3495 X41.483 Y22.245 Z-2.88
N3496 X41.528 Y22.266 Z-2.819
N3497 X41.562 Y22.281 Z-2.75
N3498 X41.582 Y22.291 Z-2.675
N3499 X41.589 Y22.294 Z-2.597
N3500 G0 Z5
N3501 X42.902 Y62.25
N3502 Z-2.197
N3503 G1 Z-2.597 F1524
N3504 X42.9 Y62.258 Z-2.675
N3505 X42.896 Y62.28 Z-2.75
N3506 X42.89 Y62.317 Z-2.819
N3507 X42.881 Y62.366 Z-2.88
N3508 X42.87 Y62.425 Z-2.93
N3509 X42.858 Y62.493 Z-2.967
N3510 X42.845 Y62.567 Z-2.989
N3511 X42.831 Y62.644 Z-2.997
N3512 G3 X42.643 Y62.807 I-0.195 J-0.035
N3513 G1 X40.158
N3514 X40.044 Y62.802
N3515 X39.894 Y62.791
N3516 X39.738 Y62.773
N3517 X39.577 Y62.745
N3518 X39.404 Y62.707
N3519 X39.216 Y62.655
N3520 X39.025 Y62.593
N3521 X38.815 Y62.512
N3522 X38.599 Y62.417
N3523 X38.369 Y62.302
N3524 X38.125 Y62.165
N3525 X37.877 Y62.009
N3526 X37.603 Y61.817
N3527 X37.334 Y61.608
N3528 X37.034 Y61.351
N3529 X36.74 Y61.072
N3530 X36.415 Y60.733
N3531 X36.096 Y60.366
N3532 X35.744 Y59.917
N3533 X35.405 Y59.439
N3534 X35.04 Y58.867
N3535 X34.661 Y58.204
N3536 X34.28 Y57.452
N3537 X33.907 Y56.62
N3538 X33.574 Y55.771
N3539 X33.276 Y54.909
N3540 X33.008 Y54.038
N3541 X32.768 Y53.158
N3542 X32.553 Y52.272
N3543 X32.361 Y51.381
N3544 X32.191 Y50.485
N3545 X32.04 Y49.586
N3546 X31.908 Y48.683
N3547 X31.794 Y47.779
N3548 X31.697 Y46.872
N3549 X31.615 Y45.964
N3550 X31.55 Y45.054
N3551 X31.499 Y44.144
N3552 X31.462 Y43.233
N3553 X31.44 Y42.321
N3554 X31.432 Y41.41
N3555 X31.437 Y40.498
N3556 X31.456 Y39.586
N3557 X31.488 Y38.675
N3558 X31.533 Y37.764
N3559 X31.591 Y36.854
N3560 X31.662 Y35.945
N3561 X31.746 Y35.037
N3562 X31.842 Y34.131
N3563 X31.95 Y33.225
N3564 X32.071 Y32.321
N3565 X32.205 Y31.419
N3566 X32.351 Y30.519
N3567 X32.51 Y29.622
N3568 X32.683 Y28.726
N3569 X32.87 Y27.834
N3570 X33.074 Y26.945
N3571 X33.298 Y26.061
N3572 X33.545 Y25.184
N3573 X33.808 Y24.371
N3574 X34.015 Y23.823
N3575 X34.198 Y23.402
N3576 X34.362 Y23.071
N3577 X34.465 Y22.886
N3578 X34.659 Y22.611
N3579 X34.907 Y22.383
N3580 X35.197 Y22.213
N3581 X35.517 Y22.107
N3582 X35.852 Y22.071
N3583 X38.414
N3584 G3 X38.656 Y22.128 I-0.022 J0.635
N3585 G1 X38.727 Y22.161 Z-2.989
N3586 X38.795 Y22.192 Z-2.967
N3587 X38.858 Y22.22 Z-2.93
N3588 X38.913 Y22.245 Z-2.88
N3589 X38.958 Y22.266 Z-2.819
N3590 X38.992 Y22.281 Z-2.75
N3591 X39.013 Y22.291 Z-2.675
N3592 X39.02 Y22.294 Z-2.597
N3593 G0 Z5
N3594 X40.417 Y62.25
N3595 Z-2.197
N3596 G1 Z-2.597 F1524
N3597 X40.416 Y62.258 Z-2.675
N3598 X40.412 Y62.28 Z-2.75
N3599 X40.405 Y62.317 Z-2.819
N3600 X40.396 Y62.366 Z-2.88
N3601 X40.386 Y62.425 Z-2.93
N3602 X40.373 Y62.493 Z-2.967
N3603 X40.36 Y62.567 Z-2.989
N3604 X40.346 Y62.644 Z-2.997
N3605 G3 X40.158 Y62.807 I-0.195 J-0.035
N3606 G1 X37.673
N3607 X37.559 Y62.802
N3608 X37.41 Y62.792
N3609 X37.253 Y62.774
N3610 X37.095 Y62.747
N3611 X36.921 Y62.709
N3612 X36.737 Y62.66
N3613 X36.546 Y62.598
N3614 X36.335 Y62.518
N3615 X36.123 Y62.426
N3616 X35.892 Y62.312
N3617 X35.653 Y62.178
N3618 X35.404 Y62.023
N3619 X35.133 Y61.835
N3620 X34.865 Y61.628
N3621 X34.566 Y61.374
N3622 X34.275 Y61.101
N3623 X33.949 Y60.763
N3624 X33.635 Y60.404
N3625 X33.285 Y59.961
N3626 X32.947 Y59.489
N3627 X32.586 Y58.928
N3628 X32.21 Y58.275
N3629 X31.829 Y57.531
N3630 X31.453 Y56.7
N3631 X31.117 Y55.852
N3632 X30.817 Y54.991
N3633 X30.547 Y54.12
N3634 X30.306 Y53.241
N3635 X30.09 Y52.355
N3636 X29.897 Y51.464
N3637 X29.726 Y50.568
N3638 X29.574 Y49.669
N3639 X29.441 Y48.767
N3640 X29.325 Y47.863
N3641 X29.227 Y46.956
N3642 X29.144 Y46.048
N3643 X29.076 Y45.139
N3644 X29.024 Y44.229
N3645 X28.985 Y43.318
N3646 X28.961 Y42.406
N3647 X28.95 Y41.494
N3648 X28.953 Y40.583
N3649 X28.968 Y39.671
N3650 X28.997 Y38.76
N3651 X29.038 Y37.849
N3652 X29.092 Y36.939
N3653 X29.158 Y36.029
N3654 X29.237 Y35.121
N3655 X29.328 Y34.213
N3656 X29.431 Y33.308
N3657 X29.547 Y32.403
N3658 X29.675 Y31.5
N3659 X29.815 Y30.599
N3660 X29.968 Y29.7
N3661 X30.135 Y28.804
N3662 X30.316 Y27.91
N3663 X30.515 Y27.02
N3664 X30.732 Y26.135
N3665 X30.974 Y25.256
N3666 X31.233 Y24.434
N3667 X31.44 Y23.873
N3668 X31.624 Y23.441
N3669 X31.786 Y23.109
N3670 X31.903 Y22.896
N3671 X32.096 Y22.618
N3672 X32.345 Y22.387
N3673 X32.636 Y22.214
N3674 X32.958 Y22.108
N3675 X33.295 Y22.071
N3676 X35.852
N3677 G3 X36.093 Y22.128 I-0.022 J0.635
N3678 G1 X36.164 Y22.161 Z-2.989
N3679 X36.232 Y22.192 Z-2.967
N3680 X36.295 Y22.22 Z-2.93
N3681 X36.35 Y22.246 Z-2.88
N3682 X36.396 Y22.266 Z-2.819
N3683 X36.429 Y22.281 Z-2.75
N3684 X36.45 Y22.291 Z-2.675
N3685 X36.457 Y22.294 Z-2.597
N3686 G0 Z5
N3687 X37.932 Y62.25
N3688 Z-2.197
N3689 G1 Z-2.597 F1524
N3690 X37.931 Y62.258 Z-2.675
N3691 X37.927 Y62.28 Z-2.75
N3692 X37.92 Y62.317 Z-2.819
N3693 X37.911 Y62.366 Z-2.88
N3694 X37.901 Y62.425 Z-2.93
N3695 X37.889 Y62.493 Z-2.967
N3696 X37.875 Y62.567 Z-2.989
N3697 X37.862 Y62.644 Z-2.997
N3698 G3 X37.673 Y62.807 I-0.195 J-0.035
N3699 G1 X35.188
N3700 X35.075 Y62.802
N3701 X34.925 Y62.792
N3702 X34.77 Y62.775
N3703 X34.612 Y62.749
N3704 X34.438 Y62.712
N3705 X34.257 Y62.663
N3706 X34.066 Y62.602
N3707 X33.855 Y62.523
N3708 X33.645 Y62.432
N3709 X33.414 Y62.319
N3710 X33.178 Y62.188
N3711 X32.928 Y62.033
N3712 X32.662 Y61.85
N3713 X32.392 Y61.643
N3714 X32.096 Y61.393
N3715 X31.806 Y61.122
N3716 X31.482 Y60.788
N3717 X31.169 Y60.433
N3718 X30.822 Y59.997
N3719 X30.483 Y59.526
N3720 X30.125 Y58.973
N3721 X29.751 Y58.329
N3722 X29.371 Y57.592
N3723 X28.993 Y56.762
N3724 X28.655 Y55.915
N3725 X28.353 Y55.055
N3726 X28.082 Y54.184
N3727 X27.84 Y53.305
N3728 X27.623 Y52.42
N3729 X27.429 Y51.529
N3730 X27.257 Y50.633
N3731 X27.104 Y49.734
N3732 X26.971 Y48.832
N3733 X26.854 Y47.928
N3734 X26.754 Y47.022
N3735 X26.67 Y46.114
N3736 X26.601 Y45.204
N3737 X26.547 Y44.294
N3738 X26.507 Y43.383
N3739 X26.481 Y42.472
N3740 X26.467 Y41.56
N3741 Y40.648
N3742 X26.48 Y39.737
N3743 X26.506 Y38.825
N3744 X26.544 Y37.914
N3745 X26.594 Y37.004
N3746 X26.656 Y36.094
N3747 X26.731 Y35.185
N3748 X26.817 Y34.278
N3749 X26.916 Y33.371
N3750 X27.026 Y32.466
N3751 X27.149 Y31.563
N3752 X27.284 Y30.661
N3753 X27.432 Y29.761
N3754 X27.594 Y28.864
N3755 X27.77 Y27.969
N3756 X27.963 Y27.078
N3757 X28.175 Y26.191
N3758 X28.412 Y25.311
N3759 X28.667 Y24.483
N3760 X28.875 Y23.912
N3761 X29.059 Y23.472
N3762 X29.219 Y23.138
N3763 X29.346 Y22.904
N3764 X29.539 Y22.623
N3765 X29.788 Y22.39
N3766 X30.081 Y22.216
N3767 X30.404 Y22.108
N3768 X30.743 Y22.071
N3769 X33.295
N3770 G3 X33.536 Y22.128 I-0.022 J0.635
N3771 G1 X33.607 Y22.161 Z-2.989
N3772 X33.675 Y22.192 Z-2.967
N3773 X33.738 Y22.22 Z-2.93
N3774 X33.793 Y22.246 Z-2.88
N3775 X33.838 Y22.266 Z-2.819
N3776 X33.872 Y22.281 Z-2.75
N3777 X33.893 Y22.291 Z-2.675
N3778 X33.9 Y22.294 Z-2.597
N3779 G0 Z5
N3780 X35.447 Y62.25
N3781 Z-2.197
N3782 G1 Z-2.597 F1524
N3783 X35.446 Y62.258 Z-2.675
N3784 X35.442 Y62.28 Z-2.75
N3785 X35.435 Y62.317 Z-2.819
N3786 X35.427 Y62.366 Z-2.88
N3787 X35.416 Y62.425 Z-2.93
N3788 X35.404 Y62.493 Z-2.967
N3789 X35.391 Y62.567 Z-2.989
N3790 X35.377 Y62.644 Z-2.997
N3791 G3 X35.188 Y62.807 I-0.195 J-0.035
N3792 G1 X32.704
N3793 X32.476 Y62.796
N3794 X32.324 Y62.781
N3795 X32.169 Y62.758
N3796 X31.999 Y62.724
N3797 X31.82 Y62.678
N3798 X31.633 Y62.621
N3799 X31.426 Y62.547
N3800 X31.219 Y62.461
N3801 X30.993 Y62.354
N3802 X30.758 Y62.228
N3803 X30.513 Y62.081
N3804 X30.249 Y61.905
N3805 X29.985 Y61.709
N3806 X29.692 Y61.468
N3807 X29.407 Y61.209
N3808 X29.087 Y60.889
N3809 X28.778 Y60.548
N3810 X28.432 Y60.125
N3811 X28.101 Y59.679
N3812 X27.743 Y59.142
N3813 X27.373 Y58.525
N3814 X27.006 Y57.838
N3815 X26.624 Y57.028
N3816 X26.275 Y56.186
N3817 X25.963 Y55.329
N3818 X25.683 Y54.461
N3819 X25.433 Y53.584
N3820 X25.208 Y52.7
N3821 X25.008 Y51.811
N3822 X24.829 Y50.917
N3823 X24.671 Y50.019
N3824 X24.531 Y49.118
N3825 X24.41 Y48.214
N3826 X24.304 Y47.308
N3827 X24.215 Y46.401
N3828 X24.141 Y45.492
N3829 X24.082 Y44.582
N3830 X24.036 Y43.672
N3831 X24.004 Y42.76
N3832 X23.986 Y41.849
N3833 X23.98 Y40.937
N3834 X23.987 Y40.025
N3835 X24.007 Y39.113
N3836 X24.039 Y38.202
N3837 X24.083 Y37.291
N3838 X24.139 Y36.381
N3839 X24.207 Y35.472
N3840 X24.286 Y34.564
N3841 X24.378 Y33.657
N3842 X24.481 Y32.751
N3843 X24.596 Y31.846
N3844 X24.723 Y30.943
N3845 X24.863 Y30.042
N3846 X25.016 Y29.143
N3847 X25.184 Y28.247
N3848 X25.367 Y27.354
N3849 X25.569 Y26.465
N3850 X25.794 Y25.581
N3851 X26.05 Y24.706
N3852 X26.268 Y24.075
N3853 X26.464 Y23.586
N3854 X26.621 Y23.243
N3855 X26.794 Y22.91
N3856 X26.824 Y22.859
N3857 X27.019 Y22.592
N3858 X27.265 Y22.372
N3859 X27.552 Y22.208
N3860 X27.866 Y22.106
N3861 X28.195 Y22.071
N3862 X30.743
N3863 G3 X30.984 Y22.128 I-0.022 J0.635
N3864 G1 X31.055 Y22.161 Z-2.989
N3865 X31.123 Y22.192 Z-2.967
N3866 X31.186 Y22.22 Z-2.93
N3867 X31.241 Y22.246 Z-2.88
N3868 X31.286 Y22.266 Z-2.819
N3869 X31.32 Y22.281 Z-2.75
N3870 X31.341 Y22.291 Z-2.675
N3871 X31.348 Y22.294 Z-2.597
N3872 G0 Z5
N3873 X32.963 Y62.25
N3874 Z-2.197
N3875 G1 Z-2.597 F1524
N3876 X32.961 Y62.258 Z-2.675
N3877 X32.957 Y62.28 Z-2.75
N3878 X32.951 Y62.317 Z-2.819
N3879 X32.942 Y62.366 Z-2.88
N3880 X32.931 Y62.425 Z-2.93
N3881 X32.919 Y62.493 Z-2.967
N3882 X32.906 Y62.567 Z-2.989
N3883 X32.892 Y62.644 Z-2.997
N3884 G3 X32.704 Y62.807 I-0.195 J-0.035
N3885 G1 X30.219
N3886 X29.991 Y62.796
N3887 X29.842 Y62.781
N3888 X29.684 Y62.758
N3889 X29.513 Y62.724
N3890 X29.339 Y62.68
N3891 X29.146 Y62.622
N3892 X28.946 Y62.551
N3893 X28.736 Y62.463
N3894 X28.508 Y62.356
N3895 X28.28 Y62.234
N3896 X28.027 Y62.082
N3897 X27.775 Y61.915
N3898 X27.501 Y61.711
N3899 X27.221 Y61.481
N3900 X26.925 Y61.214
N3901 X26.619 Y60.908
N3902 X26.299 Y60.556
N3903 X25.968 Y60.153
N3904 X25.622 Y59.687
N3905 X25.276 Y59.171
N3906 X24.91 Y58.561
N3907 X24.532 Y57.855
N3908 X24.149 Y57.048
N3909 X23.799 Y56.206
N3910 X23.486 Y55.349
N3911 X23.206 Y54.481
N3912 X22.956 Y53.605
N3913 X22.731 Y52.721
N3914 X22.531 Y51.831
N3915 X22.352 Y50.937
N3916 X22.194 Y50.039
N3917 X22.054 Y49.138
N3918 X21.932 Y48.235
N3919 X21.826 Y47.329
N3920 X21.737 Y46.422
N3921 X21.662 Y45.513
N3922 X21.601 Y44.603
N3923 X21.555 Y43.692
N3924 X21.522 Y42.781
N3925 X21.502 Y41.87
N3926 X21.495 Y40.958
N3927 X21.5 Y40.046
N3928 X21.517 Y39.134
N3929 X21.547 Y38.223
N3930 X21.588 Y37.312
N3931 X21.641 Y36.402
N3932 X21.705 Y35.492
N3933 X21.782 Y34.584
N3934 X21.869 Y33.676
N3935 X21.968 Y32.77
N3936 X22.08 Y31.865
N3937 X22.203 Y30.961
N3938 X22.339 Y30.06
N3939 X22.488 Y29.16
N3940 X22.652 Y28.263
N3941 X22.832 Y27.369
N3942 X23.031 Y26.48
N3943 X23.253 Y25.595
N3944 X23.506 Y24.719
N3945 X23.726 Y24.075
N3946 X23.917 Y23.595
N3947 X24.075 Y23.248
N3948 X24.243 Y22.923
N3949 X24.278 Y22.863
N3950 X24.473 Y22.595
N3951 X24.72 Y22.374
N3952 X25.007 Y22.208
N3953 X25.322 Y22.106
N3954 X25.651 Y22.071
N3955 X28.195
N3956 G3 X28.436 Y22.128 I-0.022 J0.635
N3957 G1 X28.507 Y22.161 Z-2.989
N3958 X28.575 Y22.192 Z-2.967
N3959 X28.638 Y22.22 Z-2.93
N3960 X28.694 Y22.246 Z-2.88
N3961 X28.739 Y22.266 Z-2.819
N3962 X28.772 Y22.281 Z-2.75
N3963 X28.793 Y22.291 Z-2.675
N3964 X28.8 Y22.294 Z-2.597
N3965 G0 Z5
N3966 X30.478 Y62.25
N3967 Z-2.197
N3968 G1 Z-2.597 F1524
N3969 X30.476 Y62.258 Z-2.675
N3970 X30.472 Y62.28 Z-2.75
N3971 X30.466 Y62.317 Z-2.819
N3972 X30.457 Y62.366 Z-2.88
N3973 X30.446 Y62.425 Z-2.93
N3974 X30.434 Y62.493 Z-2.967
N3975 X30.421 Y62.567 Z-2.989
N3976 X30.407 Y62.644 Z-2.997
N3977 G3 X30.219 Y62.807 I-0.195 J-0.035
N3978 G1 X27.734
N3979 X27.506 Y62.796
N3980 X27.357 Y62.782
N3981 X27.199 Y62.758
N3982 X27.028 Y62.724
N3983 X26.854 Y62.681
N3984 X26.661 Y62.622
N3985 X26.464 Y62.552
N3986 X26.253 Y62.465
N3987 X26.026 Y62.358
N3988 X25.797 Y62.236
N3989 X25.544 Y62.084
N3990 X25.294 Y61.918
N3991 X25.019 Y61.714
N3992 X24.742 Y61.487
N3993 X24.445 Y61.219
N3994 X24.14 Y60.914
N3995 X23.819 Y60.561
N3996 X23.489 Y60.16
N3997 X23.141 Y59.692
N3998 X22.797 Y59.179
N3999 X22.431 Y58.57
N4000 X22.054 Y57.866
N4001 X21.671 Y57.061
N4002 X21.321 Y56.22
N4003 X21.008 Y55.363
N4004 X20.728 Y54.495
N4005 X20.477 Y53.619
N4006 X20.253 Y52.735
N4007 X20.053 Y51.845
N4008 X19.874 Y50.951
N4009 X19.715 Y50.053
N4010 X19.576 Y49.152
N4011 X19.453 Y48.249
N4012 X19.347 Y47.343
N4013 X19.257 Y46.436
N4014 X19.181 Y45.527
N4015 X19.12 Y44.617
N4016 X19.073 Y43.707
N4017 X19.038 Y42.796
N4018 X19.017 Y41.884
N4019 X19.008 Y40.972
N4020 X19.012 Y40.06
N4021 X19.027 Y39.149
N4022 X19.054 Y38.237
N4023 X19.093 Y37.326
N4024 X19.143 Y36.416
N4025 X19.205 Y35.506
N4026 X19.278 Y34.597
N4027 X19.362 Y33.689
N4028 X19.458 Y32.783
N4029 X19.565 Y31.877
N4030 X19.685 Y30.973
N4031 X19.817 Y30.071
N4032 X19.963 Y29.171
N4033 X20.123 Y28.273
N4034 X20.3 Y27.379
N4035 X20.497 Y26.489
N4036 X20.716 Y25.604
N4037 X20.967 Y24.727
N4038 X21.184 Y24.086
N4039 X21.374 Y23.606
N4040 X21.531 Y23.258
N4041 X21.698 Y22.933
N4042 X21.736 Y22.866
N4043 X21.931 Y22.597
N4044 X22.178 Y22.375
N4045 X22.466 Y22.209
N4046 X22.781 Y22.106
N4047 X23.112 Y22.071
N4048 X25.651
N4049 G3 X25.893 Y22.128 I-0.022 J0.635
N4050 G1 X25.964 Y22.161 Z-2.989
N4051 X26.032 Y22.192 Z-2.967
N4052 X26.095 Y22.22 Z-2.93
N4053 X26.15 Y22.246 Z-2.88
N4054 X26.195 Y22.266 Z-2.819
N4055 X26.229 Y22.281 Z-2.75
N4056 X26.25 Y22.291 Z-2.675
N4057 X26.257 Y22.294 Z-2.597
N4058 G0 Z5
N4059 X27.993 Y62.25
N4060 Z-2.197
N4061 G1 Z-2.597 F1524
N4062 X27.992 Y62.258 Z-2.675
N4063 X27.988 Y62.28 Z-2.75
N4064 X27.981 Y62.317 Z-2.819
N4065 X27.972 Y62.366 Z-2.88
N4066 X27.962 Y62.425 Z-2.93
N4067 X27.949 Y62.493 Z-2.967
N4068 X27.936 Y62.567 Z-2.989
N4069 X27.922 Y62.644 Z-2.997
N4070 G3 X27.734 Y62.807 I-0.195 J-0.035
N4071 G1 X25.249
N4072 X25.022 Y62.796
N4073 X24.872 Y62.782
N4074 X24.714 Y62.758
N4075 X24.544 Y62.724
N4076 X24.37 Y62.681
N4077 X24.176 Y62.622
N4078 X23.979 Y62.552
N4079 X23.768 Y62.465
N4080 X23.541 Y62.358
N4081 X23.312 Y62.235
N4082 X23.059 Y62.084
N4083 X22.81 Y61.918
N4084 X22.534 Y61.714
N4085 X22.258 Y61.487
N4086 X21.96 Y61.218
N4087 X21.656 Y60.915
N4088 X21.335 Y60.561
N4089 X21.006 Y60.161
N4090 X20.657 Y59.692
N4091 X20.314 Y59.18
N4092 X19.949 Y58.572
N4093 X19.572 Y57.87
N4094 X19.19 Y57.065
N4095 X18.84 Y56.223
N4096 X18.527 Y55.366
N4097 X18.247 Y54.498
N4098 X17.997 Y53.622
N4099 X17.772 Y52.738
N4100 X17.572 Y51.848
N4101 X17.393 Y50.954
N4102 X17.235 Y50.056
N4103 X17.095 Y49.155
N4104 X16.972 Y48.252
N4105 X16.866 Y47.346
N4106 X16.776 Y46.439
N4107 X16.7 Y45.53
N4108 X16.638 Y44.62
N4109 X16.589 Y43.71
N4110 X16.554 Y42.799
N4111 X16.531 Y41.887
N4112 X16.521 Y40.975
N4113 X16.523 Y40.064
N4114 X16.536 Y39.152
N4115 X16.561 Y38.24
N4116 X16.598 Y37.329
N4117 X16.646 Y36.419
N4118 X16.704 Y35.509
N4119 X16.775 Y34.6
N4120 X16.856 Y33.692
N4121 X16.949 Y32.785
N4122 X17.053 Y31.879
N4123 X17.17 Y30.974
N4124 X17.299 Y30.072
N4125 X17.442 Y29.171
N4126 X17.599 Y28.273
N4127 X17.773 Y27.378
N4128 X17.967 Y26.487
N4129 X18.185 Y25.602
N4130 X18.432 Y24.728
N4131 X18.647 Y24.092
N4132 X18.835 Y23.612
N4133 X18.991 Y23.265
N4134 X19.158 Y22.94
N4135 X19.198 Y22.868
N4136 X19.393 Y22.599
N4137 X19.64 Y22.376
N4138 X19.928 Y22.209
N4139 X20.244 Y22.106
N4140 X20.575 Y22.071
N4141 X23.112
N4142 G3 X23.353 Y22.128 I-0.022 J0.635
N4143 G1 X23.424 Y22.161 Z-2.989
N4144 X23.492 Y22.192 Z-2.967
N4145 X23.555 Y22.22 Z-2.93
N4146 X23.61 Y22.246 Z-2.88
N4147 X23.656 Y22.266 Z-2.819
N4148 X23.689 Y22.281 Z-2.75
N4149 X23.71 Y22.291 Z-2.675
N4150 X23.717 Y22.294 Z-2.597
N4151 G0 Z5
N4152 X25.508 Y62.25
N4153 Z-2.197
N4154 G1 Z-2.597 F1524
N4155 X25.507 Y62.258 Z-2.675
N4156 X25.503 Y62.28 Z-2.75
N4157 X25.496 Y62.317 Z-2.819
N4158 X25.488 Y62.366 Z-2.88
N4159 X25.477 Y62.425 Z-2.93
N4160 X25.465 Y62.493 Z-2.967
N4161 X25.451 Y62.567 Z-2.989
N4162 X25.438 Y62.644 Z-2.997
N4163 G3 X25.249 Y62.807 I-0.195 J-0.035
N4164 G1 X22.764
N4165 X22.537 Y62.796
N4166 X22.387 Y62.782
N4167 X22.229 Y62.758
N4168 X22.059 Y62.724
N4169 X21.885 Y62.681
N4170 X21.691 Y62.622
N4171 X21.495 Y62.552
N4172 X21.283 Y62.464
N4173 X21.057 Y62.357
N4174 X20.827 Y62.235
N4175 X20.574 Y62.083
N4176 X20.325 Y61.917
N4177 X20.049 Y61.713
N4178 X19.773 Y61.487
N4179 X19.476 Y61.217
N4180 X19.172 Y60.914
N4181 X18.85 Y60.56
N4182 X18.522 Y60.16
N4183 X18.173 Y59.691
N4184 X17.831 Y59.179
N4185 X17.465 Y58.572
N4186 X17.089 Y57.869
N4187 X16.707 Y57.064
N4188 X16.357 Y56.222
N4189 X16.045 Y55.366
N4190 X15.765 Y54.498
N4191 X15.515 Y53.621
N4192 X15.291 Y52.737
N4193 X15.091 Y51.848
N4194 X14.912 Y50.953
N4195 X14.754 Y50.056
N4196 X14.614 Y49.155
N4197 X14.491 Y48.251
N4198 X14.384 Y47.345
N4199 X14.293 Y46.438
N4200 X14.217 Y45.53
N4201 X14.154 Y44.62
N4202 X14.105 Y43.709
N4203 X14.069 Y42.798
N4204 X14.045 Y41.887
N4205 X14.033 Y40.975
N4206 Y40.063
N4207 X14.045 Y39.152
N4208 X14.068 Y38.24
N4209 X14.103 Y37.329
N4210 X14.148 Y36.418
N4211 X14.204 Y35.508
N4212 X14.272 Y34.599
N4213 X14.351 Y33.69
N4214 X14.441 Y32.783
N4215 X14.542 Y31.877
N4216 X14.656 Y30.972
N4217 X14.782 Y30.069
N4218 X14.922 Y29.168
N4219 X15.077 Y28.27
N4220 X15.249 Y27.374
N4221 X15.44 Y26.483
N4222 X15.656 Y25.597
N4223 X15.9 Y24.731
N4224 X16.112 Y24.098
N4225 X16.3 Y23.618
N4226 X16.455 Y23.271
N4227 X16.62 Y22.946
N4228 X16.663 Y22.871
N4229 X16.858 Y22.6
N4230 X17.105 Y22.377
N4231 X17.393 Y22.21
N4232 X17.71 Y22.106
N4233 X18.041 Y22.071
N4234 X20.575
N4235 G3 X20.816 Y22.128 I-0.022 J0.635
N4236 G1 X20.887 Y22.161 Z-2.989
N4237 X20.956 Y22.192 Z-2.967
N4238 X21.018 Y22.22 Z-2.93
N4239 X21.074 Y22.246 Z-2.88
N4240 X21.119 Y22.266 Z-2.819
N4241 X21.153 Y22.281 Z-2.75
N4242 X21.173 Y22.291 Z-2.675
N4243 X21.18 Y22.294 Z-2.597
N4244 G0 Z5
N4245 X23.023 Y62.25
N4246 Z-2.197
N4247 G1 Z-2.597 F1524
N4248 X23.022 Y62.258 Z-2.675
N4249 X23.018 Y62.28 Z-2.75
N4250 X23.012 Y62.317 Z-2.819
N4251 X23.003 Y62.366 Z-2.88
N4252 X22.992 Y62.425 Z-2.93
N4253 X22.98 Y62.493 Z-2.967
N4254 X22.967 Y62.567 Z-2.989
N4255 X22.953 Y62.644 Z-2.997
N4256 G3 X22.764 Y62.807 I-0.195 J-0.035
N4257 G1 X20.28
N4258 X20.052 Y62.796
N4259 X19.903 Y62.781
N4260 X19.745 Y62.758
N4261 X19.574 Y62.724
N4262 X19.4 Y62.68
N4263 X19.206 Y62.622
N4264 X19.01 Y62.551
N4265 X18.798 Y62.464
N4266 X18.571 Y62.356
N4267 X18.342 Y62.234
N4268 X18.089 Y62.082
N4269 X17.84 Y61.916
N4270 X17.564 Y61.711
N4271 X17.288 Y61.485
N4272 X16.991 Y61.216
N4273 X16.687 Y60.912
N4274 X16.366 Y60.558
N4275 X16.037 Y60.158
N4276 X15.688 Y59.688
N4277 X15.346 Y59.176
N4278 X14.981 Y58.568
N4279 X14.605 Y57.866
N4280 X14.223 Y57.06
N4281 X13.874 Y56.218
N4282 X13.561 Y55.361
N4283 X13.282 Y54.493
N4284 X13.032 Y53.617
N4285 X12.808 Y52.733
N4286 X12.608 Y51.843
N4287 X12.43 Y50.949
N4288 X12.271 Y50.051
N4289 X12.131 Y49.15
N4290 X12.008 Y48.246
N4291 X11.902 Y47.341
N4292 X11.81 Y46.434
N4293 X11.733 Y45.525
N4294 X11.67 Y44.615
N4295 X11.62 Y43.705
N4296 X11.582 Y42.794
N4297 X11.557 Y41.882
N4298 X11.544 Y40.971
N4299 X11.543 Y40.059
N4300 X11.553 Y39.147
N4301 X11.575 Y38.236
N4302 X11.607 Y37.324
N4303 X11.65 Y36.414
N4304 X11.705 Y35.503
N4305 X11.77 Y34.594
N4306 X11.846 Y33.685
N4307 X11.933 Y32.778
N4308 X12.032 Y31.871
N4309 X12.143 Y30.966
N4310 X12.267 Y30.063
N4311 X12.404 Y29.161
N4312 X12.557 Y28.263
N4313 X12.727 Y27.367
N4314 X12.916 Y26.475
N4315 X13.131 Y25.588
N4316 X13.371 Y24.73
N4317 X13.581 Y24.101
N4318 X13.768 Y23.621
N4319 X13.922 Y23.275
N4320 X14.087 Y22.95
N4321 X14.131 Y22.873
N4322 X14.326 Y22.602
N4323 X14.573 Y22.378
N4324 X14.862 Y22.21
N4325 X15.179 Y22.106
N4326 X15.51 Y22.071
N4327 X18.041
N4328 G3 X18.283 Y22.128 I-0.022 J0.635
N4329 G1 X18.354 Y22.161 Z-2.989
N4330 X18.422 Y22.192 Z-2.967
