%
(MachineCode)
(T6  D=0.375 CR=0.1875 - ZMIN=-0.4724 - ball end mill)
N0 G90
N1 G17
(Adaptive3)
N2 T6 M6
(T6 3/8 Ballnose)
N3 S3000 M3
N5 G0 X-0.1751 Y0.9204
N6 Z0.5906
N7 Z0.1969
N8 Z0.1143
N9 G1 Z0.0985 F18
N10 Z-0.0787
N11 X-0.1696
N12 X-0.1644 Y0.9232
N13 X-0.1597 Y0.9268
N14 X-0.1553 Y0.9307
N15 X-0.1512 Y0.935
N16 X-0.1474 Y0.9394
N17 X-0.1437 Y0.9441
N18 X-0.1403 Y0.9489
N19 X-0.1368 Y0.9542
N20 X-0.1332 Y0.9602
N21 X-0.1294 Y0.967
N22 X-0.1254 Y0.9747
N23 X-0.1213 Y0.9835
N24 X-0.1171 Y0.9936
N25 X-0.1128 Y1.0051
N26 X-0.1083 Y1.0184
N27 X-0.1037 Y1.0339
N28 X-0.0989 Y1.0523
N29 X-0.0941 Y1.0745
N30 X-0.0892 Y1.1019
N31 X-0.0842 Y1.1372
N32 X-0.0796 Y1.181
N33 X-0.0764 Y1.2249
N34 X-0.0743 Y1.2689
N35 X-0.0728 Y1.3129
N36 X-0.0717 Y1.3569
N37 X-0.071 Y1.4009
N38 X-0.0705 Y1.4449
N39 X-0.0702 Y1.4889
N40 X-0.07 Y1.533
N41 X-0.0698 Y1.577
N42 X-0.0696 Y1.665
N43 X-0.0695 Y1.7971
N44 Y2.1493
N45 X-0.0696 Y2.8977
N46 Y3.2279
N47 X-0.0682 Y3.2388
N48 X-0.0655 Y3.2495
N49 X-0.0577 Y3.2701
N50 X-0.0341 Y3.3072
N51 X-0.0305 Y3.3111
N52 X-0.0271 Y3.3151
N53 X-0.024 Y3.3193
N54 X-0.0044 Y3.3474
N55 X-0.0015 Y3.3503
N56 X-0.0009 Y3.3509
N57 X0.0267 Y3.3702
N58 X0.0272 Y3.3705
N59 X0.0508 Y3.3792
N60 X0.0515 Y3.3793
N61 X0.0945 Y3.389
N62 X0.1378 Y3.3967
N63 X0.1815 Y3.4022
N64 X0.2254 Y3.4061
N65 X0.2693 Y3.4088
N66 X0.3133 Y3.4107
N67 X0.3573 Y3.412
N68 X0.4013 Y3.4129
N69 X0.4453 Y3.4136
N70 X0.4894 Y3.414
N71 X0.5334 Y3.4144
N72 X0.5774 Y3.4146
N73 X0.6214 Y3.4147
N74 X0.7095 Y3.4149
N75 X0.8415 Y3.4151
N76 X1.2378 Y3.4152
N77 X2.0302 Y3.4153
N78 X4.0113 Y3.4156
N79 X5.9924 Y3.4158
N80 X7.7533 Y3.4161
N81 X7.7643 Y3.415
N82 X7.7751 Y3.4127
N83 X7.7959 Y3.4056
N84 X7.8333 Y3.3824
N85 X7.838 Y3.3778
N86 X7.8429 Y3.3735
N87 X7.8482 Y3.3696
N88 X7.8749 Y3.3509
N89 X7.8755 Y3.3503
N90 X7.8784 Y3.3474
N91 X7.898 Y3.3193
N92 X7.8986 Y3.3177
N93 X7.9068 Y3.2955
N94 X7.9069 Y3.2948
N95 X7.9166 Y3.2518
N96 X7.9243 Y3.2085
N97 X7.9298 Y3.1648
N98 X7.9336 Y3.1209
N99 X7.9364 Y3.077
N100 X7.9383 Y3.033
N101 X7.9396 Y2.989
N102 X7.9406 Y2.945
N103 X7.9412 Y2.901
N104 X7.9417 Y2.8569
N105 X7.942 Y2.8129
N106 X7.9422 Y2.7689
N107 X7.9424 Y2.7249
N108 X7.9426 Y2.6368
N109 X7.9428 Y2.5048
N110 X7.9429 Y2.1085
N111 X7.9432 Y1.3161
N112 X7.9436 Y0.1274
N113 X7.9431 Y0.1165
N114 X7.9414 Y0.1056
N115 X7.9354 Y0.0844
N116 X7.9143 Y0.0457
N117 X7.9116 Y0.0431
N118 X7.9068 Y0.0381
N119 X7.9022 Y0.0328
N120 X7.898 Y0.0272
N121 X7.8784 Y-0.0009
N122 X7.8755 Y-0.0039
N123 X7.8749 Y-0.0044
N124 X7.8473 Y-0.0237
N125 X7.8468 Y-0.024
N126 X7.8232 Y-0.0327
N127 X7.8225 Y-0.0329
N128 X7.7795 Y-0.0426
N129 X7.7362 Y-0.0503
N130 X7.6925 Y-0.0557
N131 X7.6486 Y-0.0596
N132 X7.6047 Y-0.0623
N133 X7.5607 Y-0.0642
N134 X7.5167 Y-0.0655
N135 X7.4727 Y-0.0665
N136 X7.4287 Y-0.0671
N137 X7.3847 Y-0.0676
N138 X7.3406 Y-0.0679
N139 X7.2966 Y-0.0681
N140 X7.2526 Y-0.0683
N141 X7.1645 Y-0.0685
N142 X7.0325 Y-0.0686
N143 X6.6362 Y-0.0687
N144 X5.8438 Y-0.0688
N145 X3.8627 Y-0.0691
N146 X1.8816 Y-0.0694
N147 X0.1207 Y-0.0696
N148 X0.1097 Y-0.0686
N149 X0.0989 Y-0.0663
N150 X0.0781 Y-0.0593
N151 X0.0405 Y-0.0364
N152 X0.0352 Y-0.031
N153 X0.03 Y-0.0263
N154 X0.0243 Y-0.0221
N155 X-0.0009 Y-0.0044
N156 X-0.0015 Y-0.0039
N157 X-0.0044 Y-0.0009
N158 X-0.024 Y0.0272
N159 X-0.0246 Y0.0287
N160 X-0.0328 Y0.051
N161 X-0.0329 Y0.0517
N162 X-0.0426 Y0.0947
N163 X-0.0505 Y0.138
N164 X-0.0561 Y0.1816
N165 X-0.0601 Y0.2255
N166 X-0.0629 Y0.2694
N167 X-0.0648 Y0.3134
N168 X-0.0662 Y0.3574
N169 X-0.0671 Y0.4014
N170 X-0.0678 Y0.4454
N171 X-0.0683 Y0.4894
N172 X-0.0686 Y0.5335
N173 X-0.0688 Y0.5775
N174 X-0.069 Y0.6215
N175 X-0.0692 Y0.7096
N176 Y0.7536
N177 X-0.0628 Y0.7971
N178 X-0.0525 Y0.8399
N179 X-0.0407 Y0.8823
N180 X-0.0287 Y0.9247
N181 X-0.0175 Y0.9673
N182 X-0.0076 Y1.0102
N183 X0.0009 Y1.0534
N184 X0.008 Y1.0968
N185 X0.0137 Y1.1405
N186 X0.0183 Y1.1843
N187 X0.0218 Y1.2281
N188 X0.0245 Y1.2721
N189 X0.0266 Y1.3161
N190 X0.0282 Y1.3601
N191 X0.0294 Y1.4041
N192 X0.0302 Y1.4481
N193 X0.0309 Y1.4921
N194 X0.0314 Y1.5361
N195 X0.0317 Y1.5801
N196 X0.032 Y1.6242
N197 X0.0322 Y1.6682
N198 X0.0324 Y1.7562
N199 X0.0326 Y1.8883
N200 Y2.0204
N201 Y2.4828
N202 X0.0313 Y2.4984
N203 X0.0274 Y2.5135
N204 X0.0211 Y2.5279
N205 X0.0124 Y2.5409
N206 X0.0017 Y2.5523
N207 X0.0012 Y2.5528
N208 X-0.0046 Y2.56
N209 X-0.0172 Y2.5833
N210 X-0.0223 Y2.5949
N211 X-0.0256 Y2.6058
N212 X-0.0286 Y2.617
N213 X-0.0335 Y2.6423
N214 X-0.0346 Y2.6508
N215 X-0.0369 Y2.6732
N216 X-0.0375 Y2.6845
N217 X-0.0383 Y2.7069
N218 Y2.8755
N219 Y3.235
N220 X-0.0381 Y3.2463
N221 X-0.0378 Y3.2575
N222 X-0.0374 Y3.2687
N223 X-0.0329 Y3.2948
N224 X-0.0328 Y3.2955
N225 X-0.0242 Y3.3188
N226 X-0.024 Y3.3193
N227 X-0.0239 Y3.3194
N228 G2 X-0.0192 Y3.3326 I0.0779 J-0.0207
N229 X-0.0189 Y3.3331 I0.034 J-0.0158
N230 X-0.0085 Y3.3462 I0.0338 J-0.0163
N231 G1 X0.0219 Y3.3703
N232 G2 X0.037 Y3.3775 I0.0233 J-0.0294
N233 X0.0376 Y3.3777 I0.0082 J-0.0366
N234 X0.0515 Y3.3793 I0.0164 J-0.0789
N235 G1 X0.0677 Y3.3821
N236 X0.079 Y3.384
N237 X0.1015 Y3.3846
N238 X0.1127 Y3.3848
N239 X7.7613
N240 X7.7726 Y3.3846
N241 X7.795 Y3.384
N242 X7.8063 Y3.3821
N243 X7.8225 Y3.3793
N244 X7.8232 Y3.3792
N245 X7.8468 Y3.3705
N246 X7.8478 Y3.3699
N247 X7.8482 Y3.3696
N248 X7.8483 Y3.3695
N249 G2 X7.8612 Y3.3648 I-0.0204 J-0.0764
N250 X7.862 Y3.3645 I-0.0158 J-0.034
N251 X7.8749 Y3.354 I-0.0165 J-0.0337
N252 G1 X7.8981 Y3.3244
N253 G2 X7.9053 Y3.3094 I-0.0295 J-0.0232
N254 X7.9054 Y3.3085 I-0.0366 J-0.0081
N255 X7.9069 Y3.2948 I-0.0776 J-0.0154
N256 G1 X7.9114 Y3.2687
N257 X7.9118 Y3.2575
N258 X7.9121 Y3.2463
N259 X7.9123 Y3.235
N260 Y2.7182
N261 Y2.7069
N262 X7.9115 Y2.6845
N263 X7.9109 Y2.6732
N264 X7.9086 Y2.6508
N265 X7.9075 Y2.6423
N266 X7.9027 Y2.617
N267 X7.8996 Y2.6058
N268 X7.8962 Y2.5946
N269 X7.8912 Y2.5833
N270 X7.889 Y2.5783
N271 X7.8847 Y2.567
N272 X7.8802 Y2.5541
N273 X7.8756 Y2.5389
N274 X7.8709 Y2.5211
N275 X7.8661 Y2.4996
N276 X7.8612 Y2.4732
N277 X7.8562 Y2.4394
N278 X7.8514 Y2.3957
N279 X7.8481 Y2.3518
N280 X7.8458 Y2.3078
N281 X7.8443 Y2.2638
N282 X7.8432 Y2.2198
N283 X7.8425 Y2.1758
N284 X7.842 Y2.1317
N285 X7.8416 Y2.0877
N286 X7.8414 Y2.0437
N287 X7.8412 Y1.9997
N288 X7.841 Y1.9116
N289 Y1.7796
N290 Y1.4714
N291 X7.8412 Y0.8517
N292 X7.8426 Y0.8367
N293 X7.8467 Y0.8223
N294 X7.8535 Y0.8088
N295 X7.8626 Y0.7969
N296 X7.8738 Y0.7868
N297 X7.8749 Y0.7856
N298 X7.8817 Y0.7744
N299 X7.8885 Y0.7631
N300 X7.8941 Y0.7519
N301 X7.8963 Y0.7464
N302 X7.8983 Y0.7406
N303 X7.9015 Y0.7294
N304 X7.9063 Y0.7069
N305 X7.9075 Y0.7007
N306 X7.9107 Y0.6732
N307 X7.9113 Y0.662
N308 X7.9123 Y0.6395
N309 Y0.5833
N310 Y0.1114
N311 X7.9121 Y0.1002
N312 X7.9118 Y0.089
N313 X7.9114 Y0.0777
N314 X7.9069 Y0.0517
N315 X7.9068 Y0.051
N316 X7.8983 Y0.0277
N317 X7.898 Y0.0272
N318 Y0.0271
N319 G2 X7.8964 Y0.0208 I-0.0738 J0.0154
N320 X7.8933 Y0.0133 I-0.0359 J0.0108
N321 X7.8838 Y0.0022 I-0.0328 J0.0182
N322 G1 X7.85 Y-0.0247
N323 G2 X7.8291 Y-0.0327 I-0.0233 J0.0294
N324 X7.8225 Y-0.0329 I-0.0049 J0.0752
N325 G1 X7.8063 Y-0.0357
N326 X7.795 Y-0.0375
N327 X7.7726 Y-0.0381
N328 X7.7613 Y-0.0383
N329 X0.1127
N330 X0.1015 Y-0.0381
N331 X0.079 Y-0.0375
N332 X0.0677 Y-0.0357
N333 X0.0515 Y-0.0329
N334 X0.0508 Y-0.0327
N335 X0.0272 Y-0.024
N336 X0.0263 Y-0.0234
N337 X0.0243 Y-0.0221
N338 X0.0242 Y-0.022
N339 G2 X0.0116 Y-0.0174 I0.0199 J0.0744
N340 X-0.0022 Y-0.0064 I0.0158 J0.034
N341 G1 X-0.0244 Y0.0222
N342 G2 X-0.0316 Y0.0383 I0.0296 J0.023
N343 X-0.0329 Y0.0517 I0.0757 J0.0141
N344 G1 X-0.0374 Y0.0777
N345 X-0.0378 Y0.089
N346 X-0.0381 Y0.1002
N347 X-0.0383 Y0.1114
N348 Y0.617
N349 X-0.0382 Y0.6395
N350 X-0.0373 Y0.662
N351 X-0.0367 Y0.6732
N352 X-0.0335 Y0.7007
N353 X-0.0323 Y0.7069
N354 X-0.0275 Y0.7294
N355 X-0.0243 Y0.7406
N356 X-0.0223 Y0.7464
N357 X-0.0201 Y0.7519
N358 X-0.0145 Y0.7631
N359 X-0.0077 Y0.7744
N360 X-0.0009 Y0.7856
N361 X0.0002 Y0.7868
N362 X0.0038 Y0.791
N363 X0.0126 Y0.8061
N364 X0.0223 Y0.8242
N365 X0.0317 Y0.8434
N366 X0.042 Y0.8666
N367 X0.0518 Y0.8912
N368 X0.062 Y0.9196
N369 X0.0723 Y0.952
N370 X0.0819 Y0.9867
N371 X0.0912 Y1.026
N372 X0.0999 Y1.0692
N373 X0.107 Y1.1126
N374 X0.1128 Y1.1563
N375 X0.1175 Y1.2001
N376 X0.1213 Y1.2439
N377 X0.1243 Y1.2878
N378 X0.1267 Y1.3318
N379 X0.1286 Y1.3758
N380 X0.13 Y1.4198
N381 X0.1312 Y1.4638
N382 X0.1321 Y1.5078
N383 X0.1327 Y1.5518
N384 X0.1333 Y1.5958
N385 X0.1336 Y1.6399
N386 X0.1339 Y1.6839
N387 X0.1342 Y1.7279
N388 X0.1343 Y1.7719
N389 X0.1346 Y1.86
N390 X0.1347 Y1.9921
N391 X0.1348 Y2.2122
N392 Y2.3443
N393 X0.1347 Y2.3879
N394 X0.1339 Y2.4101
N395 X0.1327 Y2.4268
N396 X0.131 Y2.4417
N397 X0.129 Y2.455
N398 X0.127 Y2.4661
N399 X0.1221 Y2.4809
N400 X0.1145 Y2.4945
N401 X0.1045 Y2.5064
N402 X0.0924 Y2.5162
N403 X0.0787 Y2.5236
N404 X0.0638 Y2.5282
N405 X0.0483 Y2.5299
N406 X0.0466
N407 X0.0459 Y2.53
N408 X0.0218 Y2.5365
N409 X0.0203 Y2.5372
N410 X0.0017 Y2.5523
N411 G3 X-0.0527 Y2.527 I-0.0213 J-0.0253
N412 G1 X-0.0517 Y0.8141
N413 G3 X0.0002 Y0.7868 I0.0331 J0
N414 G1 X0.0255 Y0.8054
N415 X0.0262 Y0.8056
N416 X0.0301 Y0.8066
N417 X0.0353 Y0.8082
N418 X0.0407 Y0.8105
N419 X0.046 Y0.8132
N420 X0.0511 Y0.8161
N421 X0.0561 Y0.8193
N422 X0.0609 Y0.8227
N423 X0.0656 Y0.8263
N424 X0.0706 Y0.8304
N425 X0.0759 Y0.8351
N426 X0.0816 Y0.8405
N427 X0.0872 Y0.8462
N428 X0.0931 Y0.8527
N429 X0.0995 Y0.8602
N430 X0.1059 Y0.8684
N431 X0.1124 Y0.8774
N432 X0.1194 Y0.8878
N433 X0.1265 Y0.8993
N434 X0.1336 Y0.9117
N435 X0.1412 Y0.9264
N436 X0.1487 Y0.9423
N437 X0.1565 Y0.9602
N438 X0.1644 Y0.9807
N439 X0.1724 Y1.0038
N440 X0.1805 Y1.0301
N441 X0.1887 Y1.0611
N442 X0.1969 Y1.0971
N443 X0.205 Y1.14
N444 X0.2115 Y1.1835
N445 X0.2168 Y1.2272
N446 X0.221 Y1.271
N447 X0.2244 Y1.3149
N448 X0.2271 Y1.3589
N449 X0.2293 Y1.4029
N450 X0.231 Y1.4468
N451 X0.2323 Y1.4908
N452 X0.2334 Y1.5349
N453 X0.2342 Y1.5789
N454 X0.2348 Y1.6229
N455 X0.2353 Y1.6669
N456 X0.2357 Y1.7109
N457 X0.236 Y1.755
N458 X0.2363 Y1.799
N459 X0.2364 Y1.843
N460 X0.2367 Y1.9311
N461 X0.2368 Y2.0631
N462 X0.2369 Y2.2392
N463 Y2.2832
N464 X0.2364 Y2.3273
N465 X0.235 Y2.3601
N466 X0.2333 Y2.3809
N467 X0.2313 Y2.3979
N468 X0.2293 Y2.411
N469 X0.2267 Y2.4244
N470 X0.2241 Y2.4355
N471 X0.2215 Y2.4452
N472 X0.2184 Y2.4554
N473 X0.2151 Y2.4646
N474 X0.212 Y2.4726
N475 X0.2118 Y2.4732
N476 X0.2044 Y2.4868
N477 X0.1949 Y2.4991
N478 X0.1835 Y2.5096
N479 X0.1705 Y2.5182
N480 X0.1563 Y2.5244
N481 X0.1413 Y2.5282
N482 X0.1258 Y2.5295
N483 X0.079
N484 X0.0677 Y2.5296
N485 X0.0483 Y2.5299
N486 G3 X0.0336 Y2.515 I0.0003 J-0.0151
N487 G1 X0.0119 Y0.8215
N488 G3 X0.0301 Y0.8066 I0.0151 J-0.0002
N489 G1 X0.0459 Y0.8105
N490 X0.0466 Y0.8106
N491 X0.0677 Y0.8109
N492 X0.0754
N493 X0.0809 Y0.8113
N494 X0.0868 Y0.812
N495 X0.0926 Y0.8132
N496 X0.0983 Y0.8147
N497 X0.1039 Y0.8165
N498 X0.1095 Y0.8185
N499 X0.1149 Y0.8208
N500 X0.1202 Y0.8234
N501 X0.1255 Y0.8261
N502 X0.1309 Y0.8292
N503 X0.1364 Y0.8327
N504 X0.1423 Y0.8367
N505 X0.1482 Y0.841
N506 X0.1546 Y0.846
N507 X0.1608 Y0.8513
N508 X0.1675 Y0.8574
N509 X0.1742 Y0.864
N510 X0.1811 Y0.8713
N511 X0.1884 Y0.8796
N512 X0.1956 Y0.8884
N513 X0.2033 Y0.8986
N514 X0.2107 Y0.9093
N515 X0.2187 Y0.9216
N516 X0.2265 Y0.9348
N517 X0.2346 Y0.9498
N518 X0.2429 Y0.9662
N519 X0.2511 Y0.9845
N520 X0.2597 Y1.0054
N521 X0.268 Y1.0281
N522 X0.2765 Y1.054
N523 X0.2851 Y1.0841
N524 X0.2934 Y1.1176
N525 X0.3017 Y1.1576
N526 X0.3091 Y1.201
N527 X0.3151 Y1.2447
N528 X0.3199 Y1.2884
N529 X0.3238 Y1.3323
N530 X0.327 Y1.3762
N531 X0.3295 Y1.4201
N532 X0.3315 Y1.4641
N533 X0.3331 Y1.5081
N534 X0.3344 Y1.5521
N535 X0.3354 Y1.5961
N536 X0.3362 Y1.6401
N537 X0.3369 Y1.6842
N538 X0.3374 Y1.7282
N539 X0.3378 Y1.7722
N540 X0.3381 Y1.8162
N541 X0.3383 Y1.8603
N542 X0.3385 Y1.9043
N543 X0.3388 Y1.9923
N544 X0.339 Y2.1244
N545 Y2.1684
N546 X0.3389 Y2.2124
N547 X0.3384 Y2.2565
N548 X0.3371 Y2.2998
N549 X0.335 Y2.3314
N550 X0.3323 Y2.3571
N551 X0.3292 Y2.3794
N552 X0.3261 Y2.3966
N553 X0.3226 Y2.4126
N554 X0.3192 Y2.4256
N555 X0.3158 Y2.4371
N556 X0.3119 Y2.4487
N557 X0.3083 Y2.4584
N558 X0.3044 Y2.4675
N559 X0.3001 Y2.4769
N560 X0.2994 Y2.4783
N561 X0.2917 Y2.4909
N562 X0.2821 Y2.5021
N563 X0.2709 Y2.5116
N564 X0.2584 Y2.5193
N565 X0.2448 Y2.5249
N566 X0.2305 Y2.5284
N567 X0.2158 Y2.5295
N568 X0.1258
N569 G3 X0.0896 Y2.4932 I0.0013 J-0.0375
N570 G1 X0.0389 Y0.8496
N571 G3 X0.0754 Y0.8109 I0.0375 J-0.0012
N572 G1 X0.079 Y0.811
N573 X0.1442
N574 X0.1497 Y0.8112
N575 X0.1556 Y0.8117
N576 X0.1614 Y0.8125
N577 X0.1672 Y0.8136
N578 X0.1729 Y0.815
N579 X0.1786 Y0.8167
N580 X0.1842 Y0.8186
N581 X0.1897 Y0.8207
N582 X0.1954 Y0.8232
N583 X0.2011 Y0.8259
N584 X0.2072 Y0.829
N585 X0.2133 Y0.8325
N586 X0.2198 Y0.8365
N587 X0.2264 Y0.8409
N588 X0.2332 Y0.8459
N589 X0.2402 Y0.8514
N590 X0.2475 Y0.8575
N591 X0.2549 Y0.8642
N592 X0.2625 Y0.8716
N593 X0.2704 Y0.8799
N594 X0.2783 Y0.8888
N595 X0.2865 Y0.8989
N596 X0.2947 Y0.9097
N597 X0.3032 Y0.9218
N598 X0.3118 Y0.9349
N599 X0.3206 Y0.9496
N600 X0.3294 Y0.9656
N601 X0.3383 Y0.9834
N602 X0.3473 Y1.003
N603 X0.3564 Y1.0249
N604 X0.3656 Y1.0496
N605 X0.3745 Y1.0764
N606 X0.3836 Y1.1078
N607 X0.3926 Y1.1437
N608 X0.4014 Y1.185
N609 X0.4089 Y1.2283
N610 X0.4151 Y1.2719
N611 X0.4201 Y1.3156
N612 X0.4243 Y1.3595
N613 X0.4276 Y1.4034
N614 X0.4303 Y1.4473
N615 X0.4325 Y1.4913
N616 X0.4343 Y1.5353
N617 X0.4357 Y1.5793
N618 X0.4369 Y1.6233
N619 X0.4378 Y1.6673
N620 X0.4385 Y1.7113
N621 X0.4391 Y1.7553
N622 X0.4396 Y1.7994
N623 X0.44 Y1.8434
N624 X0.4402 Y1.8874
N625 X0.4405 Y1.9314
N626 X0.4408 Y2.0195
N627 X0.4409 Y2.0635
N628 X0.441 Y2.1075
N629 X0.4409 Y2.1515
N630 X0.4404 Y2.1956
N631 X0.4393 Y2.2396
N632 X0.4371 Y2.2834
N633 X0.4341 Y2.3175
N634 X0.4306 Y2.3451
N635 X0.4267 Y2.3692
N636 X0.4224 Y2.3906
N637 X0.4183 Y2.4079
N638 X0.4139 Y2.4236
N639 X0.4098 Y2.4364
N640 X0.4056 Y2.448
N641 X0.4011 Y2.4592
N642 X0.397 Y2.4685
N643 X0.3923 Y2.478
N644 X0.3912 Y2.4801
N645 X0.382 Y2.4941
N646 X0.3703 Y2.5063
N647 X0.3567 Y2.5162
N648 X0.3416 Y2.5235
N649 X0.3254 Y2.528
N650 X0.3086 Y2.5295
N651 X0.2158
N652 G3 X0.1797 Y2.4937 I0.0013 J-0.0375
N653 G1 X0.108 Y0.8501
N654 G3 X0.1442 Y0.811 I0.0375 J-0.0016
N655 G1 X0.2252
N656 X0.2307 Y0.8112
N657 X0.2366 Y0.8117
N658 X0.2424 Y0.8125
N659 X0.2482 Y0.8135
N660 X0.254 Y0.8148
N661 X0.2597 Y0.8164
N662 X0.2653 Y0.8182
N663 X0.2709 Y0.8202
N664 X0.2769 Y0.8226
N665 X0.2829 Y0.8253
N666 X0.2893 Y0.8285
N667 X0.2958 Y0.8319
N668 X0.3027 Y0.836
N669 X0.3096 Y0.8404
N670 X0.3169 Y0.8455
N671 X0.3243 Y0.851
N672 X0.3321 Y0.8572
N673 X0.3399 Y0.864
N674 X0.3481 Y0.8716
N675 X0.3563 Y0.8798
N676 X0.3649 Y0.8892
N677 X0.3734 Y0.8991
N678 X0.3824 Y0.9104
N679 X0.3912 Y0.9224
N680 X0.4007 Y0.9361
N681 X0.4097 Y0.9504
N682 X0.4193 Y0.9671
N683 X0.4286 Y0.9845
N684 X0.4384 Y1.0047
N685 X0.448 Y1.0264
N686 X0.4577 Y1.0508
N687 X0.4676 Y1.0785
N688 X0.4769 Y1.1081
N689 X0.4864 Y1.1426
N690 X0.4958 Y1.1825
N691 X0.5044 Y1.2257
N692 X0.5114 Y1.2691
N693 X0.5173 Y1.3127
N694 X0.5221 Y1.3565
N695 X0.5261 Y1.4004
N696 X0.5294 Y1.4443
N697 X0.5321 Y1.4882
N698 X0.5343 Y1.5322
N699 X0.5361 Y1.5762
N700 X0.5375 Y1.6202
N701 X0.5387 Y1.6642
N702 X0.5397 Y1.7082
N703 X0.5404 Y1.7522
N704 X0.541 Y1.7962
N705 X0.5415 Y1.8402
N706 X0.5419 Y1.8843
N707 X0.5423 Y1.9283
N708 X0.5425 Y1.9723
N709 X0.5427 Y2.0163
N710 X0.5428 Y2.0604
N711 X0.5427 Y2.1044
N712 X0.5422 Y2.1484
N713 X0.5412 Y2.1924
N714 X0.5393 Y2.2364
N715 X0.5361 Y2.2795
N716 X0.5322 Y2.3145
N717 X0.5278 Y2.3437
N718 X0.5231 Y2.3691
N719 X0.5181 Y2.3913
N720 X0.5132 Y2.4099
N721 X0.5085 Y2.4255
N722 X0.5036 Y2.4396
N723 X0.4994 Y2.4507
N724 X0.4945 Y2.4621
N725 X0.4896 Y2.4723
N726 X0.4852 Y2.4809
N727 X0.4846 Y2.4819
N728 X0.4753 Y2.4955
N729 X0.4637 Y2.5072
N730 X0.4502 Y2.5167
N731 X0.4353 Y2.5238
N732 X0.4194 Y2.5281
N733 X0.403 Y2.5295
N734 X0.3086
N735 G3 X0.2725 Y2.4939 I0.0013 J-0.0375
N736 G1 X0.189 Y0.8504
N737 G3 X0.2252 Y0.811 I0.0375 J-0.0019
N738 G1 X0.3101
N739 X0.3156 Y0.8112
N740 X0.3215 Y0.8116
N741 X0.3274 Y0.8123
N742 X0.3332 Y0.8133
N743 X0.339 Y0.8146
N744 X0.3447 Y0.8161
N745 X0.3504 Y0.8178
N746 X0.3561 Y0.8197
N747 X0.3622 Y0.8221
N748 X0.3684 Y0.8248
N749 X0.3751 Y0.8279
N750 X0.3818 Y0.8314
N751 X0.3889 Y0.8354
N752 X0.3961 Y0.8398
N753 X0.4037 Y0.8449
N754 X0.4114 Y0.8505
N755 X0.4194 Y0.8567
N756 X0.4276 Y0.8636
N757 X0.4361 Y0.8712
N758 X0.4447 Y0.8796
N759 X0.4536 Y0.889
N760 X0.4626 Y0.8991
N761 X0.472 Y0.9106
N762 X0.4813 Y0.9227
N763 X0.4912 Y0.9367
N764 X0.5007 Y0.9513
N765 X0.5108 Y0.968
N766 X0.5206 Y0.9859
N767 X0.5308 Y1.006
N768 X0.5411 Y1.0283
N769 X0.5511 Y1.0525
N770 X0.5617 Y1.0806
N771 X0.5716 Y1.1104
N772 X0.5815 Y1.1445
N773 X0.5915 Y1.1838
N774 X0.6007 Y1.2269
N775 X0.6084 Y1.2702
N776 X0.6149 Y1.3138
N777 X0.6203 Y1.3574
N778 X0.6248 Y1.4012
N779 X0.6286 Y1.4451
N780 X0.6317 Y1.489
N781 X0.6342 Y1.533
N782 X0.6364 Y1.5769
N783 X0.6381 Y1.6209
N784 X0.6395 Y1.6649
N785 X0.6407 Y1.7089
N786 X0.6417 Y1.753
N787 X0.6424 Y1.797
N788 X0.6431 Y1.841
N789 X0.6436 Y1.885
N790 X0.644 Y1.929
N791 X0.6442 Y1.9731
N792 X0.6444 Y2.0171
N793 X0.6443 Y2.0611
N794 X0.6439 Y2.1051
N795 X0.6429 Y2.1491
N796 X0.6413 Y2.1931
N797 X0.6385 Y2.2371
N798 X0.6345 Y2.2803
N799 X0.6299 Y2.3154
N800 X0.6248 Y2.3457
N801 X0.6194 Y2.3717
N802 X0.6139 Y2.3943
N803 X0.6084 Y2.4134
N804 X0.6034 Y2.4289
N805 X0.5982 Y2.443
N806 X0.5937 Y2.4541
N807 X0.5886 Y2.4655
N808 X0.5836 Y2.4756
N809 X0.5809 Y2.4805
N810 X0.5716 Y2.4944
N811 X0.56 Y2.5065
N812 X0.5465 Y2.5163
N813 X0.5314 Y2.5236
N814 X0.5152 Y2.528
N815 X0.4985 Y2.5295
N816 X0.403
N817 G3 X0.3669 Y2.4941 I0.0013 J-0.0375
N818 G1 X0.274 Y0.8506
N819 G3 X0.3101 Y0.811 I0.0374 J-0.0021
N820 G1 X0.4001
N821 X0.4056 Y0.8112
N822 X0.4115 Y0.8117
N823 X0.4173 Y0.8125
N824 X0.4231 Y0.8135
N825 X0.4289 Y0.8148
N826 X0.4346 Y0.8163
N827 X0.4405 Y0.8181
N828 X0.4464 Y0.8202
N829 X0.4528 Y0.8227
N830 X0.4592 Y0.8254
N831 X0.4662 Y0.8287
N832 X0.4731 Y0.8323
N833 X0.4806 Y0.8366
N834 X0.488 Y0.8412
N835 X0.4959 Y0.8465
N836 X0.5038 Y0.8523
N837 X0.5123 Y0.859
N838 X0.5207 Y0.866
N839 X0.5297 Y0.8742
N840 X0.5385 Y0.8828
N841 X0.548 Y0.8929
N842 X0.5572 Y0.9033
N843 X0.5671 Y0.9154
N844 X0.5768 Y0.9282
N845 X0.587 Y0.9428
N846 X0.5972 Y0.9585
N847 X0.6075 Y0.9757
N848 X0.6183 Y0.9954
N849 X0.6285 Y1.0158
N850 X0.6395 Y1.0399
N851 X0.65 Y1.0653
N852 X0.6607 Y1.0941
N853 X0.6714 Y1.1268
N854 X0.682 Y1.1632
N855 X0.6922 Y1.2044
N856 X0.7013 Y1.2475
N857 X0.709 Y1.2908
N858 X0.7155 Y1.3344
N859 X0.7209 Y1.378
N860 X0.7255 Y1.4218
N861 X0.7294 Y1.4657
N862 X0.7326 Y1.5096
N863 X0.7353 Y1.5535
N864 X0.7375 Y1.5975
N865 X0.7394 Y1.6415
N866 X0.7409 Y1.6855
N867 X0.7422 Y1.7295
N868 X0.7432 Y1.7735
N869 X0.7441 Y1.8175
N870 X0.7448 Y1.8615
N871 X0.7453 Y1.9056
N872 X0.7457 Y1.9496
N873 X0.7458 Y1.9936
N874 X0.7457 Y2.0376
N875 X0.7451 Y2.0816
N876 X0.7441 Y2.1257
N877 X0.7423 Y2.1696
N878 X0.7395 Y2.2136
N879 X0.7356 Y2.2574
N880 X0.7308 Y2.2963
N881 X0.7253 Y2.3304
N882 X0.7196 Y2.3591
N883 X0.7137 Y2.3838
N884 X0.7077 Y2.4056
N885 X0.7024 Y2.4223
N886 X0.6967 Y2.4381
N887 X0.692 Y2.45
N888 X0.6868 Y2.4618
N889 X0.6815 Y2.4725
N890 X0.6768 Y2.4814
N891 X0.6759 Y2.4829
N892 X0.6665 Y2.4962
N893 X0.655 Y2.5077
N894 X0.6416 Y2.517
N895 X0.6268 Y2.5239
N896 X0.6111 Y2.5281
N897 X0.5949 Y2.5295
N898 X0.4985
N899 G3 X0.4624 Y2.4943 I0.0013 J-0.0375
N900 G1 X0.364 Y0.8507
N901 G3 X0.4001 Y0.811 I0.0374 J-0.0022
N902 G1 X0.4901
N903 X0.4956 Y0.8112
N904 X0.5015 Y0.8117
N905 X0.5073 Y0.8124
N906 X0.5131 Y0.8134
N907 X0.5189 Y0.8146
N908 X0.5246 Y0.8161
N909 X0.5305 Y0.8179
N910 X0.5366 Y0.8199
N911 X0.5429 Y0.8223
N912 X0.5497 Y0.8252
N913 X0.5565 Y0.8283
N914 X0.5638 Y0.8321
N915 X0.5711 Y0.8362
N916 X0.5789 Y0.841
N917 X0.5867 Y0.8461
N918 X0.5952 Y0.8521
N919 X0.6035 Y0.8585
N920 X0.6124 Y0.866
N921 X0.6212 Y0.8739
N922 X0.6307 Y0.883
N923 X0.64 Y0.8926
N924 X0.6499 Y0.9037
N925 X0.6597 Y0.9155
N926 X0.67 Y0.9288
N927 X0.6803 Y0.9433
N928 X0.6908 Y0.9592
N929 X0.7018 Y0.9773
N930 X0.7124 Y0.9962
N931 X0.7237 Y1.0183
N932 X0.7346 Y1.0416
N933 X0.7458 Y1.0681
N934 X0.7572 Y1.0981
N935 X0.7679 Y1.1298
N936 X0.7788 Y1.1664
N937 X0.7896 Y1.2083
N938 X0.799 Y1.2513
N939 X0.8071 Y1.2946
N940 X0.8139 Y1.3381
N941 X0.8197 Y1.3817
N942 X0.8247 Y1.4255
N943 X0.8289 Y1.4693
N944 X0.8324 Y1.5132
N945 X0.8354 Y1.5571
N946 X0.8379 Y1.601
N947 X0.84 Y1.645
N948 X0.8417 Y1.689
N949 X0.8432 Y1.733
N950 X0.8444 Y1.777
N951 X0.8454 Y1.821
N952 X0.8461 Y1.865
N953 X0.8467 Y1.9091
N954 X0.847 Y1.9531
N955 Y1.9971
N956 X0.8466 Y2.0411
N957 X0.8457 Y2.0852
N958 X0.8442 Y2.1292
N959 X0.8419 Y2.1731
N960 X0.8386 Y2.217
N961 X0.8341 Y2.2608
N962 X0.8284 Y2.3012
N963 X0.8226 Y2.3346
N964 X0.8164 Y2.3634
N965 X0.81 Y2.3884
N966 X0.8037 Y2.41
N967 X0.7983 Y2.4261
N968 X0.7925 Y2.4417
N969 X0.7876 Y2.4535
N970 X0.7823 Y2.4649
N971 X0.7769 Y2.4755
N972 X0.7738 Y2.4811
N973 X0.7645 Y2.4949
N974 X0.7529 Y2.5068
N975 X0.7394 Y2.5165
N976 X0.7244 Y2.5237
N977 X0.7084 Y2.528
N978 X0.6918 Y2.5295
N979 X0.5949
N980 G3 X0.5587 Y2.4944 I0.0013 J-0.0375
N981 G1 X0.454 Y0.8508
N982 G3 X0.4901 Y0.811 I0.0374 J-0.0024
N983 G1 X0.5801
N984 X0.5915 Y0.8116
N985 X0.5973 Y0.8122
N986 X0.6032 Y0.8131
N987 X0.609 Y0.8142
N988 X0.6147 Y0.8156
N989 X0.6204 Y0.8172
N990 X0.6267 Y0.8192
N991 X0.6329 Y0.8215
N992 X0.6397 Y0.8242
N993 X0.6464 Y0.8272
N994 X0.6537 Y0.8308
N995 X0.6611 Y0.8348
N996 X0.6689 Y0.8393
N997 X0.6768 Y0.8444
N998 X0.6852 Y0.8501
N999 X0.6937 Y0.8565
N1000 X0.7026 Y0.8637
N1001 X0.7116 Y0.8715
N1002 X0.7211 Y0.8803
N1003 X0.7307 Y0.8899
N1004 X0.7407 Y0.9008
N1005 X0.7506 Y0.9123
N1006 X0.7613 Y0.9257
N1007 X0.7716 Y0.9396
N1008 X0.7827 Y0.9558
N1009 X0.7935 Y0.973
N1010 X0.8047 Y0.9922
N1011 X0.8162 Y1.0138
N1012 X0.8273 Y1.0366
N1013 X0.8391 Y1.0633
N1014 X0.8504 Y1.0917
N1015 X0.8617 Y1.1235
N1016 X0.8731 Y1.1597
N1017 X0.8844 Y1.2007
N1018 X0.8946 Y1.2435
N1019 X0.9033 Y1.2867
N1020 X0.9108 Y1.3301
N1021 X0.9172 Y1.3736
N1022 X0.9227 Y1.4173
N1023 X0.9273 Y1.4611
N1024 X0.9313 Y1.5049
N1025 X0.9347 Y1.5488
N1026 X0.9376 Y1.5927
N1027 X0.94 Y1.6367
N1028 X0.942 Y1.6807
N1029 X0.9437 Y1.7247
N1030 X0.9451 Y1.7687
N1031 X0.9463 Y1.8127
N1032 X0.9472 Y1.8567
N1033 X0.9478 Y1.9007
N1034 X0.948 Y1.9447
N1035 Y1.9888
N1036 X0.9475 Y2.0328
N1037 X0.9464 Y2.0768
N1038 X0.9447 Y2.1208
N1039 X0.9422 Y2.1647
N1040 X0.9387 Y2.2086
N1041 X0.934 Y2.2524
N1042 X0.9282 Y2.2934
N1043 X0.9219 Y2.3293
N1044 X0.9154 Y2.3594
N1045 X0.9089 Y2.385
N1046 X0.9023 Y2.4074
N1047 X0.8965 Y2.4246
N1048 X0.8905 Y2.4405
N1049 X0.8856 Y2.4524
N1050 X0.88 Y2.4644
N1051 X0.8747 Y2.475
N1052 X0.8695 Y2.4842
N1053 X0.8601 Y2.4972
N1054 X0.8486 Y2.5084
N1055 X0.8354 Y2.5174
N1056 X0.8208 Y2.5241
N1057 X0.8053 Y2.5281
N1058 X0.7893 Y2.5295
N1059 X0.6918
N1060 G3 X0.6557 Y2.4946 I0.0013 J-0.0375
N1061 G1 X0.544 Y0.851
N1062 G3 X0.5801 Y0.811 I0.0374 J-0.0025
N1063 G1 X0.6751
N1064 X0.6806 Y0.8112
N1065 X0.6865 Y0.8117
N1066 X0.6924 Y0.8124
N1067 X0.6982 Y0.8134
N1068 X0.704 Y0.8146
N1069 X0.7097 Y0.816
N1070 X0.7158 Y0.8178
N1071 X0.7219 Y0.8198
N1072 X0.7286 Y0.8223
N1073 X0.7353 Y0.8251
N1074 X0.7425 Y0.8284
N1075 X0.7498 Y0.8321
N1076 X0.7575 Y0.8363
N1077 X0.7655 Y0.8411
N1078 X0.7737 Y0.8465
N1079 X0.7822 Y0.8525
N1080 X0.791 Y0.8592
N1081 X0.8001 Y0.8667
N1082 X0.8095 Y0.875
N1083 X0.8192 Y0.8842
N1084 X0.8291 Y0.8944
N1085 X0.8392 Y0.9055
N1086 X0.8498 Y0.9182
N1087 X0.8603 Y0.9316
N1088 X0.8716 Y0.9472
N1089 X0.8824 Y0.9633
N1090 X0.8938 Y0.9819
N1091 X0.9053 Y1.0022
N1092 X0.9168 Y1.0244
N1093 X0.9291 Y1.0502
N1094 X0.9404 Y1.0767
N1095 X0.9523 Y1.1075
N1096 X0.9643 Y1.1422
N1097 X0.9761 Y1.1809
N1098 X0.9873 Y1.2235
N1099 X0.997 Y1.2664
N1100 X1.0054 Y1.3097
N1101 X1.0127 Y1.3531
N1102 X1.0189 Y1.3967
N1103 X1.0243 Y1.4404
N1104 X1.0289 Y1.4841
N1105 X1.0329 Y1.528
N1106 X1.0362 Y1.5719
N1107 X1.0391 Y1.6158
N1108 X1.0415 Y1.6598
N1109 X1.0436 Y1.7037
N1110 X1.0453 Y1.7477
N1111 X1.0467 Y1.7917
N1112 X1.0477 Y1.8357
N1113 X1.0485 Y1.8798
N1114 X1.0489 Y1.9238
N1115 X1.0488 Y1.9678
N1116 X1.0484 Y2.0118
N1117 X1.0473 Y2.0558
N1118 X1.0457 Y2.0998
N1119 X1.0432 Y2.1438
N1120 X1.0399 Y2.1877
N1121 X1.0355 Y2.2315
N1122 X1.0298 Y2.2751
N1123 X1.0235 Y2.3131
N1124 X1.0167 Y2.3464
N1125 X1.01 Y2.374
N1126 X1.0032 Y2.3983
N1127 X0.9967 Y2.4185
N1128 X0.9909 Y2.4344
N1129 X0.9852 Y2.4486
N1130 X0.9801 Y2.4598
N1131 X0.9745 Y2.4713
N1132 X0.9692 Y2.4811
N1133 X0.9679 Y2.4833
N1134 X0.9585 Y2.4965
N1135 X0.9469 Y2.5079
N1136 X0.9336 Y2.5171
N1137 X0.9189 Y2.5239
N1138 X0.9032 Y2.5281
N1139 X0.8871 Y2.5295
N1140 X0.7893
N1141 G3 X0.7532 Y2.4946 I0.0013 J-0.0375
N1142 G1 X0.639 Y0.8511
N1143 G3 X0.6751 Y0.811 I0.0374 J-0.0026
N1144 G1 X0.7685
N1145 X0.774 Y0.8112
N1146 X0.7799 Y0.8116
N1147 X0.7857 Y0.8123
N1148 X0.7916 Y0.8133
N1149 X0.7974 Y0.8144
N1150 X0.8032 Y0.8159
N1151 X0.8091 Y0.8175
N1152 X0.8155 Y0.8196
N1153 X0.8219 Y0.822
N1154 X0.8289 Y0.8248
N1155 X0.8359 Y0.828
N1156 X0.8434 Y0.8317
N1157 X0.8511 Y0.8359
N1158 X0.8592 Y0.8407
N1159 X0.8674 Y0.846
N1160 X0.876 Y0.852
N1161 X0.8849 Y0.8587
N1162 X0.8941 Y0.8661
N1163 X0.9036 Y0.8744
N1164 X0.9134 Y0.8836
N1165 X0.9234 Y0.8937
N1166 X0.9338 Y0.9051
N1167 X0.9443 Y0.9174
N1168 X0.9554 Y0.9315
N1169 X0.9662 Y0.9462
N1170 X0.9778 Y0.9633
N1171 X0.9891 Y0.9814
N1172 X1.0009 Y1.002
N1173 X1.0131 Y1.025
N1174 X1.0249 Y1.0495
N1175 X1.0373 Y1.0781
N1176 X1.0494 Y1.1088
N1177 X1.0613 Y1.1427
N1178 X1.0734 Y1.1815
N1179 X1.0849 Y1.224
N1180 X1.0949 Y1.2668
N1181 X1.1036 Y1.31
N1182 X1.1112 Y1.3534
N1183 X1.1177 Y1.3969
N1184 X1.1234 Y1.4406
N1185 X1.1283 Y1.4843
N1186 X1.1325 Y1.5281
N1187 X1.1361 Y1.572
N1188 X1.1393 Y1.6159
N1189 X1.1419 Y1.6599
N1190 X1.1441 Y1.7038
N1191 X1.1459 Y1.7478
N1192 X1.1474 Y1.7918
N1193 X1.1485 Y1.8358
N1194 X1.1492 Y1.8798
N1195 X1.1496 Y1.9239
N1196 X1.1494 Y1.9679
N1197 X1.1488 Y2.0119
N1198 X1.1476 Y2.0559
N1199 X1.1457 Y2.0999
N1200 X1.143 Y2.1438
N1201 X1.1394 Y2.1877
N1202 X1.1348 Y2.2315
N1203 X1.1288 Y2.2751
N1204 X1.1219 Y2.3151
N1205 X1.115 Y2.3478
N1206 X1.108 Y2.376
N1207 X1.1009 Y2.4003
N1208 X1.0946 Y2.4197
N1209 X1.0884 Y2.4363
N1210 X1.0828 Y2.4499
N1211 X1.0776 Y2.4612
N1212 X1.0718 Y2.4728
N1213 X1.0666 Y2.4822
N1214 X1.0657 Y2.4839
N1215 X1.0562 Y2.4969
N1216 X1.0447 Y2.5082
N1217 X1.0315 Y2.5173
N1218 X1.0168 Y2.524
N1219 X1.0012 Y2.5281
N1220 X0.9852 Y2.5295
N1221 X0.8871
N1222 G3 X0.851 Y2.4947 I0.0013 J-0.0375
N1223 G1 X0.7324 Y0.8511
N1224 G3 X0.7685 Y0.811 I0.0374 J-0.0027
N1225 G1 X0.8613
N1226 X0.8727 Y0.8115
N1227 X0.8785 Y0.8121
N1228 X0.8844 Y0.813
N1229 X0.8902 Y0.8141
N1230 X0.896 Y0.8154
N1231 X0.9018 Y0.817
N1232 X0.9081 Y0.8189
N1233 X0.9145 Y0.8211
N1234 X0.9214 Y0.8238
N1235 X0.9285 Y0.8269
N1236 X0.9359 Y0.8304
N1237 X0.9436 Y0.8345
N1238 X0.9515 Y0.839
N1239 X0.9599 Y0.8443
N1240 X0.9684 Y0.85
N1241 X0.9774 Y0.8565
N1242 X0.9864 Y0.8637
N1243 X0.9961 Y0.8718
N1244 X1.0057 Y0.8807
N1245 X1.0159 Y0.8907
N1246 X1.0262 Y0.9016
N1247 X1.0369 Y0.9138
N1248 X1.0479 Y0.9272
N1249 X1.059 Y0.942
N1250 X1.0708 Y0.9588
N1251 X1.0821 Y0.9765
N1252 X1.0943 Y0.997
N1253 X1.1062 Y1.0187
N1254 X1.1185 Y1.0433
N1255 X1.1312 Y1.0714
N1256 X1.1432 Y1.1007
N1257 X1.1556 Y1.1344
N1258 X1.1681 Y1.1725
N1259 X1.1802 Y1.2148
N1260 X1.1908 Y1.2575
N1261 X1.2001 Y1.3006
N1262 X1.2081 Y1.3438
N1263 X1.2152 Y1.3873
N1264 X1.2213 Y1.4309
N1265 X1.2266 Y1.4746
N1266 X1.2313 Y1.5184
N1267 X1.2353 Y1.5622
N1268 X1.2387 Y1.6061
N1269 X1.2416 Y1.65
N1270 X1.2441 Y1.694
N1271 X1.2461 Y1.738
N1272 X1.2477 Y1.782
N1273 X1.249 Y1.826
N1274 X1.2498 Y1.87
N1275 X1.2501 Y1.914
N1276 X1.25 Y1.958
N1277 X1.2494 Y2.002
N1278 X1.2481 Y2.046
N1279 X1.2462 Y2.09
N1280 X1.2435 Y2.134
N1281 X1.2399 Y2.1778
N1282 X1.2352 Y2.2216
N1283 X1.2294 Y2.2653
N1284 X1.2227 Y2.3053
N1285 X1.2154 Y2.3407
N1286 X1.2083 Y2.3698
N1287 X1.2011 Y2.3951
N1288 X1.1942 Y2.4164
N1289 X1.1883 Y2.4328
N1290 X1.1822 Y2.4476
N1291 X1.1771 Y2.459
N1292 X1.1713 Y2.4707
N1293 X1.1659 Y2.4807
N1294 X1.1643 Y2.4834
N1295 X1.1549 Y2.4966
N1296 X1.1433 Y2.508
N1297 X1.13 Y2.5172
N1298 X1.1153 Y2.524
N1299 X1.0997 Y2.5281
N1300 X1.0835 Y2.5295
N1301 X0.9852
N1302 G3 X0.9491 Y2.4949 I0.0013 J-0.0375
N1303 G1 X0.8252 Y0.8513
N1304 G3 X0.8613 Y0.811 I0.0374 J-0.0028
N1305 G1 X0.9597
N1306 X0.9652 Y0.8112
N1307 X0.9711 Y0.8117
N1308 X0.977 Y0.8124
N1309 X0.9828 Y0.8134
N1310 X0.9886 Y0.8146
N1311 X0.9943 Y0.816
N1312 X1.0006 Y0.8179
N1313 X1.0069 Y0.8199
N1314 X1.0137 Y0.8225
N1315 X1.0206 Y0.8253
N1316 X1.028 Y0.8287
N1317 X1.0356 Y0.8325
N1318 X1.0435 Y0.8368
N1319 X1.0518 Y0.8418
N1320 X1.0602 Y0.8473
N1321 X1.0691 Y0.8535
N1322 X1.0782 Y0.8604
N1323 X1.0878 Y0.8682
N1324 X1.0974 Y0.8767
N1325 X1.1076 Y0.8863
N1326 X1.1179 Y0.8969
N1327 X1.1286 Y0.9086
N1328 X1.1396 Y0.9217
N1329 X1.1508 Y0.9359
N1330 X1.1626 Y0.9522
N1331 X1.174 Y0.9692
N1332 X1.1863 Y0.989
N1333 X1.1983 Y1.0101
N1334 X1.2107 Y1.0338
N1335 X1.2236 Y1.0611
N1336 X1.2359 Y1.0894
N1337 X1.2486 Y1.1221
N1338 X1.2614 Y1.1589
N1339 X1.2741 Y1.2004
N1340 X1.2854 Y1.2429
N1341 X1.2954 Y1.2858
N1342 X1.3041 Y1.3289
N1343 X1.3117 Y1.3723
N1344 X1.3184 Y1.4158
N1345 X1.3242 Y1.4594
N1346 X1.3293 Y1.5032
N1347 X1.3337 Y1.547
N1348 X1.3376 Y1.5908
N1349 X1.3408 Y1.6347
N1350 X1.3436 Y1.6787
N1351 X1.3459 Y1.7226
N1352 X1.3477 Y1.7666
N1353 X1.3491 Y1.8106
N1354 X1.35 Y1.8546
N1355 X1.3505 Y1.8987
N1356 Y1.9427
N1357 X1.3499 Y1.9867
N1358 X1.3487 Y2.0307
N1359 X1.3469 Y2.0747
N1360 X1.3443 Y2.1186
N1361 X1.3408 Y2.1625
N1362 X1.3363 Y2.2063
N1363 X1.3308 Y2.25
N1364 X1.3238 Y2.2935
N1365 X1.3166 Y2.3304
N1366 X1.3092 Y2.3616
N1367 X1.3019 Y2.3883
N1368 X1.2947 Y2.4111
N1369 X1.2887 Y2.4281
N1370 X1.2823 Y2.4441
N1371 X1.2771 Y2.456
N1372 X1.2713 Y2.4679
N1373 X1.2657 Y2.4784
N1374 X1.2632 Y2.4828
N1375 X1.2538 Y2.4961
N1376 X1.2423 Y2.5076
N1377 X1.2289 Y2.517
N1378 X1.2141 Y2.5239
N1379 X1.1983 Y2.5281
N1380 X1.1821 Y2.5295
N1381 X1.0835
N1382 G3 X1.0475 Y2.4949 I0.0013 J-0.0375
N1383 G1 X0.9236 Y0.8513
N1384 G3 X0.9597 Y0.811 I0.0374 J-0.0028
N1385 G1 X1.0525
N1386 X1.0639 Y0.8115
N1387 X1.0697 Y0.8121
N1388 X1.0756 Y0.8129
N1389 X1.0814 Y0.814
N1390 X1.0872 Y0.8153
N1391 X1.0932 Y0.8169
N1392 X1.0994 Y0.8188
N1393 X1.1062 Y0.8212
N1394 X1.1129 Y0.8238
N1395 X1.1202 Y0.827
N1396 X1.1276 Y0.8304
N1397 X1.1355 Y0.8346
N1398 X1.1435 Y0.8391
N1399 X1.152 Y0.8444
N1400 X1.1606 Y0.8502
N1401 X1.1698 Y0.8568
N1402 X1.1791 Y0.8641
N1403 X1.1888 Y0.8723
N1404 X1.1987 Y0.8813
N1405 X1.2091 Y0.8915
N1406 X1.2196 Y0.9025
N1407 X1.2308 Y0.9152
N1408 X1.2418 Y0.9286
N1409 X1.2536 Y0.9442
N1410 X1.265 Y0.9605
N1411 X1.2772 Y0.9793
N1412 X1.2895 Y0.9998
N1413 X1.3019 Y1.0223
N1414 X1.3151 Y1.0486
N1415 X1.3274 Y1.0757
N1416 X1.3404 Y1.1069
N1417 X1.3535 Y1.1422
N1418 X1.3665 Y1.1817
N1419 X1.3787 Y1.224
N1420 X1.3895 Y1.2667
N1421 X1.399 Y1.3097
N1422 X1.4073 Y1.3529
N1423 X1.4146 Y1.3963
N1424 X1.4211 Y1.4399
N1425 X1.4267 Y1.4835
N1426 X1.4316 Y1.5273
N1427 X1.4358 Y1.5711
N1428 X1.4395 Y1.615
N1429 X1.4426 Y1.6589
N1430 X1.4452 Y1.7028
N1431 X1.4473 Y1.7468
N1432 X1.4489 Y1.7908
N1433 X1.4501 Y1.8348
N1434 X1.4507 Y1.8788
N1435 X1.4508 Y1.9228
N1436 X1.4504 Y1.9669
N1437 X1.4494 Y2.0109
N1438 X1.4477 Y2.0549
N1439 X1.4453 Y2.0988
N1440 X1.4421 Y2.1427
N1441 X1.438 Y2.1866
N1442 X1.4328 Y2.2303
N1443 X1.4263 Y2.2738
N1444 X1.419 Y2.3141
N1445 X1.4115 Y2.3482
N1446 X1.4041 Y2.3766
N1447 X1.3967 Y2.4015
N1448 X1.3902 Y2.4207
N1449 X1.3836 Y2.4379
N1450 X1.378 Y2.4511
N1451 X1.3726 Y2.4628
N1452 X1.3667 Y2.4742
N1453 X1.3615 Y2.4835
N1454 X1.3609 Y2.4846
N1455 X1.3514 Y2.4974
N1456 X1.3399 Y2.5085
N1457 X1.3267 Y2.5175
N1458 X1.3122 Y2.5241
N1459 X1.2967 Y2.5282
N1460 X1.2808 Y2.5295
N1461 X1.1821
N1462 G3 X1.146 Y2.495 I0.0013 J-0.0375
N1463 G1 X1.0164 Y0.8514
N1464 G3 X1.0525 Y0.811 I0.0374 J-0.0029
N1465 G1 X1.1509
N1466 X1.1564 Y0.8112
N1467 X1.1623 Y0.8116
N1468 X1.1682 Y0.8123
N1469 X1.174 Y0.8132
N1470 X1.1798 Y0.8144
N1471 X1.1855 Y0.8158
N1472 X1.1918 Y0.8175
N1473 X1.1982 Y0.8195
N1474 X1.2049 Y0.822
N1475 X1.212 Y0.8248
N1476 X1.2192 Y0.8281
N1477 X1.227 Y0.8319
N1478 X1.2348 Y0.8361
N1479 X1.2433 Y0.841
N1480 X1.2517 Y0.8463
N1481 X1.2608 Y0.8526
N1482 X1.2698 Y0.8593
N1483 X1.2796 Y0.8672
N1484 X1.2892 Y0.8755
N1485 X1.2997 Y0.8853
N1486 X1.3099 Y0.8955
N1487 X1.321 Y0.9076
N1488 X1.3319 Y0.9202
N1489 X1.3435 Y0.9347
N1490 X1.3552 Y0.9505
N1491 X1.3672 Y0.968
N1492 X1.3797 Y0.9878
N1493 X1.3919 Y1.0089
N1494 X1.4051 Y1.0336
N1495 X1.4178 Y1.0596
N1496 X1.4308 Y1.0891
N1497 X1.4442 Y1.1224
N1498 X1.4575 Y1.1597
N1499 X1.4707 Y1.2015
N1500 X1.4824 Y1.2439
N1501 X1.4928 Y1.2867
N1502 X1.5019 Y1.3298
N1503 X1.5099 Y1.3731
N1504 X1.517 Y1.4165
N1505 X1.5232 Y1.4601
N1506 X1.5287 Y1.5038
N1507 X1.5334 Y1.5476
N1508 X1.5375 Y1.5914
N1509 X1.541 Y1.6353
N1510 X1.544 Y1.6792
N1511 X1.5464 Y1.7232
N1512 X1.5483 Y1.7671
N1513 X1.5498 Y1.8111
N1514 X1.5507 Y1.8551
N1515 X1.551 Y1.8992
N1516 X1.5509 Y1.9432
N1517 X1.5501 Y1.9872
N1518 X1.5486 Y2.0312
N1519 X1.5465 Y2.0752
N1520 X1.5436 Y2.1191
N1521 X1.5399 Y2.163
N1522 X1.5351 Y2.2067
N1523 X1.5293 Y2.2504
N1524 X1.5221 Y2.2938
N1525 X1.5146 Y2.3306
N1526 X1.5069 Y2.3627
N1527 X1.4995 Y2.3891
N1528 X1.4921 Y2.4123
N1529 X1.486 Y2.4293
N1530 X1.4795 Y2.4452
N1531 X1.4742 Y2.4571
N1532 X1.4685 Y2.4688
N1533 X1.4628 Y2.4793
N1534 X1.4605 Y2.4832
N1535 X1.4511 Y2.4964
N1536 X1.4396 Y2.5079
N1537 X1.4263 Y2.5171
N1538 X1.4115 Y2.5239
N1539 X1.3958 Y2.5281
N1540 X1.3797 Y2.5295
N1541 X1.2808
N1542 G3 X1.2448 Y2.495 I0.0013 J-0.0375
N1543 G1 X1.1148 Y0.8514
N1544 G3 X1.1509 Y0.811 I0.0374 J-0.003
N1545 G1 X1.2488
N1546 X1.2542 Y0.8112
N1547 X1.2601 Y0.8117
N1548 X1.266 Y0.8124
N1549 X1.2718 Y0.8134
N1550 X1.2776 Y0.8146
N1551 X1.2837 Y0.8161
N1552 X1.2898 Y0.8178
N1553 X1.2964 Y0.82
N1554 X1.3031 Y0.8224
N1555 X1.3103 Y0.8254
N1556 X1.3177 Y0.8288
N1557 X1.3255 Y0.8326
N1558 X1.3335 Y0.837
N1559 X1.3419 Y0.842
N1560 X1.3506 Y0.8476
N1561 X1.3596 Y0.8539
N1562 X1.3691 Y0.861
N1563 X1.3786 Y0.8688
N1564 X1.3887 Y0.8777
N1565 X1.399 Y0.8874
N1566 X1.4097 Y0.8983
N1567 X1.4207 Y0.9103
N1568 X1.432 Y0.9236
N1569 X1.4438 Y0.9386
N1570 X1.4555 Y0.9546
N1571 X1.4681 Y0.9733
N1572 X1.4802 Y0.9927
N1573 X1.4932 Y1.0154
N1574 X1.5062 Y1.0402
N1575 X1.5192 Y1.0674
N1576 X1.5328 Y1.0985
N1577 X1.5463 Y1.1331
N1578 X1.5595 Y1.1708
N1579 X1.5725 Y1.2129
N1580 X1.584 Y1.2554
N1581 X1.5941 Y1.2982
N1582 X1.6031 Y1.3413
N1583 X1.611 Y1.3846
N1584 X1.6181 Y1.4281
N1585 X1.6242 Y1.4717
N1586 X1.6296 Y1.5153
N1587 X1.6343 Y1.5591
N1588 X1.6384 Y1.603
N1589 X1.6419 Y1.6468
N1590 X1.6448 Y1.6908
N1591 X1.6471 Y1.7347
N1592 X1.6489 Y1.7787
N1593 X1.6502 Y1.8227
N1594 X1.6509 Y1.8667
N1595 X1.6511 Y1.9108
N1596 X1.6507 Y1.9548
N1597 X1.6497 Y1.9988
N1598 X1.648 Y2.0428
N1599 X1.6456 Y2.0868
N1600 X1.6424 Y2.1307
N1601 X1.6383 Y2.1745
N1602 X1.6332 Y2.2182
N1603 X1.627 Y2.2618
N1604 X1.6193 Y2.3046
N1605 X1.6116 Y2.3405
N1606 X1.6038 Y2.371
N1607 X1.5964 Y2.3965
N1608 X1.5893 Y2.4177
N1609 X1.5828 Y2.4349
N1610 X1.5769 Y2.4491
N1611 X1.5715 Y2.4607
N1612 X1.5655 Y2.4725
N1613 X1.5601 Y2.4822
N1614 X1.5589 Y2.4842
N1615 X1.5495 Y2.4972
N1616 X1.538 Y2.5084
N1617 X1.5247 Y2.5174
N1618 X1.5102 Y2.5241
N1619 X1.4946 Y2.5281
N1620 X1.4787 Y2.5295
N1621 X1.3797
N1622 G3 X1.3436 Y2.495 I0.0013 J-0.0375
N1623 G1 X1.2127 Y0.8514
N1624 G3 X1.2488 Y0.811 I0.0374 J-0.003
N1625 G1 X1.3449
N1626 X1.3504 Y0.8112
N1627 X1.3563 Y0.8116
N1628 X1.3622 Y0.8123
N1629 X1.368 Y0.8132
N1630 X1.3738 Y0.8144
N1631 X1.3798 Y0.8158
N1632 X1.3859 Y0.8175
N1633 X1.3924 Y0.8196
N1634 X1.3993 Y0.8221
N1635 X1.4063 Y0.8249
N1636 X1.4139 Y0.8283
N1637 X1.4214 Y0.832
N1638 X1.4296 Y0.8364
N1639 X1.4378 Y0.8412
N1640 X1.4466 Y0.8468
N1641 X1.4556 Y0.8529
N1642 X1.465 Y0.86
N1643 X1.4746 Y0.8677
N1644 X1.4847 Y0.8764
N1645 X1.495 Y0.886
N1646 X1.5058 Y0.8969
N1647 X1.5167 Y0.9086
N1648 X1.5283 Y0.9221
N1649 X1.5397 Y0.9363
N1650 X1.552 Y0.953
N1651 X1.564 Y0.9705
N1652 X1.5768 Y0.9907
N1653 X1.5898 Y1.0131
N1654 X1.6026 Y1.0371
N1655 X1.6163 Y1.0651
N1656 X1.6296 Y1.0952
N1657 X1.6429 Y1.1285
N1658 X1.6565 Y1.1665
N1659 X1.6697 Y1.2085
N1660 X1.6815 Y1.2509
N1661 X1.692 Y1.2937
N1662 X1.7012 Y1.3367
N1663 X1.7094 Y1.38
N1664 X1.7167 Y1.4234
N1665 X1.7231 Y1.4669
N1666 X1.7287 Y1.5106
N1667 X1.7336 Y1.5544
N1668 X1.7378 Y1.5982
N1669 X1.7415 Y1.6421
N1670 X1.7445 Y1.686
N1671 X1.7469 Y1.7299
N1672 X1.7488 Y1.7739
N1673 X1.7502 Y1.8179
N1674 X1.751 Y1.8619
N1675 X1.7512 Y1.906
N1676 X1.7508 Y1.95
N1677 X1.7498 Y1.994
N1678 X1.7481 Y2.038
N1679 X1.7457 Y2.0819
N1680 X1.7425 Y2.1259
N1681 X1.7384 Y2.1697
N1682 X1.7333 Y2.2134
N1683 X1.7271 Y2.257
N1684 X1.7196 Y2.2997
N1685 X1.7117 Y2.337
N1686 X1.704 Y2.3676
N1687 X1.6963 Y2.394
N1688 X1.689 Y2.4161
N1689 X1.6828 Y2.4328
N1690 X1.6765 Y2.448
N1691 X1.6711 Y2.4596
N1692 X1.6652 Y2.4715
N1693 X1.6596 Y2.4815
N1694 X1.6581 Y2.484
N1695 X1.6487 Y2.497
N1696 X1.6372 Y2.5082
N1697 X1.6239 Y2.5173
N1698 X1.6093 Y2.524
N1699 X1.5938 Y2.5281
N1700 X1.5778 Y2.5295
N1701 X1.4787
N1702 G3 X1.4426 Y2.4951 I0.0013 J-0.0375
N1703 G1 X1.3089 Y0.8515
N1704 G3 X1.3449 Y0.811 I0.0374 J-0.003
N1705 G1 X1.44
N1706 X1.4514 Y0.8115
N1707 X1.4572 Y0.8121
N1708 X1.4631 Y0.8129
N1709 X1.4689 Y0.814
N1710 X1.4747 Y0.8153
N1711 X1.4808 Y0.8169
N1712 X1.4871 Y0.8188
N1713 X1.494 Y0.8211
N1714 X1.5008 Y0.8237
N1715 X1.5083 Y0.8269
N1716 X1.5157 Y0.8304
N1717 X1.5238 Y0.8346
N1718 X1.532 Y0.8392
N1719 X1.5407 Y0.8445
N1720 X1.5495 Y0.8504
N1721 X1.5588 Y0.8571
N1722 X1.5684 Y0.8645
N1723 X1.5783 Y0.8729
N1724 X1.5886 Y0.8821
N1725 X1.5993 Y0.8925
N1726 X1.6101 Y0.9039
N1727 X1.6216 Y0.9167
N1728 X1.6331 Y0.9306
N1729 X1.6454 Y0.9468
N1730 X1.6573 Y0.9635
N1731 X1.6701 Y0.9831
N1732 X1.6828 Y1.0041
N1733 X1.6958 Y1.0277
N1734 X1.7097 Y1.0549
N1735 X1.7227 Y1.0831
N1736 X1.7363 Y1.1157
N1737 X1.7501 Y1.1525
N1738 X1.764 Y1.194
N1739 X1.7764 Y1.2362
N1740 X1.7874 Y1.2788
N1741 X1.7972 Y1.3217
N1742 X1.8059 Y1.3649
N1743 X1.8136 Y1.4082
N1744 X1.8204 Y1.4517
N1745 X1.8265 Y1.4953
N1746 X1.8317 Y1.539
N1747 X1.8363 Y1.5828
N1748 X1.8402 Y1.6267
N1749 X1.8435 Y1.6706
N1750 X1.8462 Y1.7145
N1751 X1.8483 Y1.7585
N1752 X1.8498 Y1.8025
N1753 X1.8508 Y1.8465
N1754 X1.8512 Y1.8905
N1755 X1.851 Y1.9346
N1756 X1.8502 Y1.9786
N1757 X1.8487 Y2.0226
N1758 X1.8464 Y2.0665
N1759 X1.8434 Y2.1105
N1760 X1.8396 Y2.1543
N1761 X1.8348 Y2.1981
N1762 X1.8289 Y2.2417
N1763 X1.8217 Y2.2851
N1764 X1.814 Y2.3239
N1765 X1.806 Y2.3573
N1766 X1.7984 Y2.3847
N1767 X1.7907 Y2.4089
N1768 X1.7843 Y2.4267
N1769 X1.7777 Y2.4433
N1770 X1.7722 Y2.4556
N1771 X1.7665 Y2.4674
N1772 X1.7607 Y2.4782
N1773 X1.7579 Y2.483
N1774 X1.7485 Y2.4963
N1775 X1.737 Y2.5078
N1776 X1.7236 Y2.5171
N1777 X1.7088 Y2.5239
N1778 X1.6931 Y2.5281
N1779 X1.6769 Y2.5295
N1780 X1.5778
N1781 G3 X1.5417 Y2.4952 I0.0013 J-0.0375
N1782 G1 X1.4039 Y0.8516
N1783 G3 X1.44 Y0.811 I0.0374 J-0.0031
N1784 G1 X1.5412
N1785 X1.5467 Y0.8112
N1786 X1.5526 Y0.8117
N1787 X1.5584 Y0.8124
N1788 X1.5643 Y0.8134
N1789 X1.5701 Y0.8146
N1790 X1.576 Y0.8161
N1791 X1.5823 Y0.8179
N1792 X1.5889 Y0.82
N1793 X1.5958 Y0.8225
N1794 X1.6031 Y0.8255
N1795 X1.6105 Y0.8289
N1796 X1.6186 Y0.8329
N1797 X1.6266 Y0.8373
N1798 X1.6353 Y0.8424
N1799 X1.6439 Y0.848
N1800 X1.6533 Y0.8546
N1801 X1.6626 Y0.8616
N1802 X1.6727 Y0.8698
N1803 X1.6826 Y0.8785
N1804 X1.6935 Y0.8887
N1805 X1.704 Y0.8994
N1806 X1.7156 Y0.9121
N1807 X1.7269 Y0.9254
N1808 X1.739 Y0.9407
N1809 X1.7511 Y0.9572
N1810 X1.7636 Y0.9758
N1811 X1.7767 Y0.9968
N1812 X1.7895 Y1.0191
N1813 X1.8033 Y1.0454
N1814 X1.8167 Y1.0733
N1815 X1.8303 Y1.1045
N1816 X1.8442 Y1.14
N1817 X1.8582 Y1.18
N1818 X1.8713 Y1.2221
N1819 X1.8828 Y1.2645
N1820 X1.8932 Y1.3073
N1821 X1.9024 Y1.3504
N1822 X1.9105 Y1.3936
N1823 X1.9177 Y1.4371
N1824 X1.9241 Y1.4806
N1825 X1.9297 Y1.5243
N1826 X1.9346 Y1.568
N1827 X1.9388 Y1.6119
N1828 X1.9424 Y1.6558
N1829 X1.9453 Y1.6997
N1830 X1.9476 Y1.7436
N1831 X1.9494 Y1.7876
N1832 X1.9506 Y1.8316
N1833 X1.9511 Y1.8757
N1834 Y1.9197
N1835 X1.9504 Y1.9637
N1836 X1.9491 Y2.0077
N1837 X1.947 Y2.0517
N1838 X1.9442 Y2.0956
N1839 X1.9406 Y2.1395
N1840 X1.9361 Y2.1833
N1841 X1.9305 Y2.2269
N1842 X1.9237 Y2.2704
N1843 X1.9159 Y2.312
N1844 X1.9079 Y2.3471
N1845 X1.9001 Y2.3763
N1846 X1.8924 Y2.4017
N1847 X1.8856 Y2.4213
N1848 X1.8788 Y2.4387
N1849 X1.8731 Y2.4519
N1850 X1.8675 Y2.4637
N1851 X1.8616 Y2.4752
N1852 X1.8563 Y2.4844
N1853 X1.8559 Y2.4851
N1854 X1.8465 Y2.4978
N1855 X1.835 Y2.5088
N1856 X1.8218 Y2.5176
N1857 X1.8074 Y2.5242
N1858 X1.792 Y2.5282
N1859 X1.7762 Y2.5295
N1860 X1.6769
N1861 G3 X1.6408 Y2.4951 I0.0013 J-0.0375
N1862 G1 X1.5051 Y0.8515
N1863 G3 X1.5412 Y0.811 I0.0374 J-0.0031
N1864 G1 X1.6374
N1865 X1.6429 Y0.8112
N1866 X1.6488 Y0.8116
N1867 X1.6546 Y0.8122
N1868 X1.6605 Y0.8131
N1869 X1.6663 Y0.8143
N1870 X1.6721 Y0.8156
N1871 X1.6785 Y0.8174
N1872 X1.6849 Y0.8194
N1873 X1.6918 Y0.8218
N1874 X1.6988 Y0.8246
N1875 X1.7064 Y0.8279
N1876 X1.7141 Y0.8316
N1877 X1.7222 Y0.8359
N1878 X1.7306 Y0.8408
N1879 X1.7393 Y0.8463
N1880 X1.7485 Y0.8525
N1881 X1.7578 Y0.8594
N1882 X1.7678 Y0.8672
N1883 X1.7778 Y0.8758
N1884 X1.7883 Y0.8855
N1885 X1.7991 Y0.8962
N1886 X1.8104 Y0.9082
N1887 X1.8219 Y0.9215
N1888 X1.8337 Y0.9361
N1889 X1.8461 Y0.9527
N1890 X1.8583 Y0.9703
N1891 X1.8716 Y0.991
N1892 X1.8844 Y1.0126
N1893 X1.8979 Y1.0377
N1894 X1.9119 Y1.0659
N1895 X1.9253 Y1.0958
N1896 X1.9392 Y1.1302
N1897 X1.9534 Y1.169
N1898 X1.9669 Y1.2109
N1899 X1.979 Y1.2532
N1900 X1.9897 Y1.2959
N1901 X1.9993 Y1.3389
N1902 X2.0078 Y1.3821
N1903 X2.0154 Y1.4255
N1904 X2.0221 Y1.469
N1905 X2.028 Y1.5126
N1906 X2.0331 Y1.5563
N1907 X2.0376 Y1.6001
N1908 X2.0413 Y1.644
N1909 X2.0445 Y1.6879
N1910 X2.047 Y1.7319
N1911 X2.0489 Y1.7758
N1912 X2.0503 Y1.8198
N1913 X2.051 Y1.8639
N1914 X2.0511 Y1.9079
N1915 X2.0505 Y1.9519
N1916 X2.0493 Y1.9959
N1917 X2.0474 Y2.0399
N1918 X2.0448 Y2.0838
N1919 X2.0413 Y2.1277
N1920 X2.037 Y2.1715
N1921 X2.0316 Y2.2152
N1922 X2.0251 Y2.2588
N1923 X2.0173 Y2.3021
N1924 X2.0093 Y2.3386
N1925 X2.0014 Y2.3695
N1926 X1.9936 Y2.3959
N1927 X1.9862 Y2.4179
N1928 X1.98 Y2.4343
N1929 X1.9736 Y2.4494
N1930 X1.9683 Y2.4609
N1931 X1.9623 Y2.4726
N1932 X1.9567 Y2.4826
N1933 X1.9556 Y2.4844
N1934 X1.9462 Y2.4973
N1935 X1.9347 Y2.5085
N1936 X1.9214 Y2.5175
N1937 X1.9069 Y2.5241
N1938 X1.8914 Y2.5281
N1939 X1.8755 Y2.5295
N1940 X1.7762
N1941 G3 X1.7401 Y2.4952 I0.0013 J-0.0375
N1942 G1 X1.6013 Y0.8516
N1943 G3 X1.6374 Y0.811 I0.0374 J-0.0032
N1944 G1 X1.7358
N1945 X1.7413 Y0.8112
N1946 X1.7472 Y0.8116
N1947 X1.7531 Y0.8123
N1948 X1.7589 Y0.8132
N1949 X1.7647 Y0.8143
N1950 X1.7708 Y0.8158
N1951 X1.7769 Y0.8174
N1952 X1.7835 Y0.8195
N1953 X1.7903 Y0.822
N1954 X1.7975 Y0.8248
N1955 X1.8051 Y0.8281
N1956 X1.8128 Y0.8319
N1957 X1.8211 Y0.8363
N1958 X1.8294 Y0.8411
N1959 X1.8384 Y0.8468
N1960 X1.8473 Y0.8529
N1961 X1.8571 Y0.8601
N1962 X1.8667 Y0.8678
N1963 X1.8772 Y0.8768
N1964 X1.8874 Y0.8862
N1965 X1.8986 Y0.8974
N1966 X1.9095 Y0.9091
N1967 X1.9215 Y0.9229
N1968 X1.9332 Y0.9374
N1969 X1.9456 Y0.9541
N1970 X1.9582 Y0.9724
N1971 X1.971 Y0.9925
N1972 X1.9848 Y1.0159
N1973 X1.9978 Y1.0401
N1974 X2.0117 Y1.0684
N1975 X2.026 Y1.1003
N1976 X2.0398 Y1.1345
N1977 X2.0539 Y1.1736
N1978 X2.0673 Y1.2155
N1979 X2.0793 Y1.2579
N1980 X2.09 Y1.3006
N1981 X2.0996 Y1.3435
N1982 X2.1081 Y1.3867
N1983 X2.1156 Y1.4301
N1984 X2.1223 Y1.4736
N1985 X2.1282 Y1.5173
N1986 X2.1333 Y1.561
N1987 X2.1377 Y1.6048
N1988 X2.1415 Y1.6486
N1989 X2.1446 Y1.6926
N1990 X2.1471 Y1.7365
N1991 X2.149 Y1.7805
N1992 X2.1502 Y1.8245
N1993 X2.1509 Y1.8685
N1994 Y1.9125
N1995 X2.1503 Y1.9566
N1996 X2.149 Y2.0006
N1997 X2.1469 Y2.0445
N1998 X2.1442 Y2.0885
N1999 X2.1406 Y2.1324
N2000 X2.1361 Y2.1762
N2001 X2.1306 Y2.2198
N2002 X2.124 Y2.2634
N2003 X2.1161 Y2.3057
N2004 X2.1079 Y2.3426
N2005 X2.0999 Y2.373
N2006 X2.0922 Y2.3985
N2007 X2.0849 Y2.4198
N2008 X2.0784 Y2.4366
N2009 X2.0723 Y2.4509
N2010 X2.0669 Y2.4623
N2011 X2.0609 Y2.4741
N2012 X2.0554 Y2.4837
N2013 X2.0547 Y2.4848
N2014 X2.0453 Y2.4976
N2015 X2.0338 Y2.5087
N2016 X2.0206 Y2.5176
N2017 X2.0061 Y2.5241
N2018 X1.9907 Y2.5282
N2019 X1.9748 Y2.5295
N2020 X1.8755
N2021 G3 X1.8394 Y2.4952 I0.0013 J-0.0375
N2022 G1 X1.6998 Y0.8516
N2023 G3 X1.7358 Y0.811 I0.0374 J-0.0032
N2024 G1 X1.8336
N2025 X1.8391 Y0.8112
N2026 X1.845 Y0.8116
N2027 X1.8509 Y0.8122
N2028 X1.8567 Y0.8131
N2029 X1.8625 Y0.8142
N2030 X1.8686 Y0.8156
N2031 X1.8747 Y0.8173
N2032 X1.8812 Y0.8193
N2033 X1.8882 Y0.8218
N2034 X1.8952 Y0.8245
N2035 X1.9029 Y0.8279
N2036 X1.9105 Y0.8315
N2037 X1.9188 Y0.8359
N2038 X1.9271 Y0.8407
N2039 X1.9361 Y0.8463
N2040 X1.945 Y0.8524
N2041 X1.9547 Y0.8595
N2042 X1.9644 Y0.8671
N2043 X1.9747 Y0.8759
N2044 X1.9852 Y0.8856
N2045 X1.9963 Y0.8965
N2046 X2.0073 Y0.9082
N2047 X2.0193 Y0.9219
N2048 X2.0309 Y0.9363
N2049 X2.0436 Y0.9532
N2050 X2.056 Y0.971
N2051 X2.0691 Y0.9914
N2052 X2.0825 Y1.0141
N2053 X2.0959 Y1.0387
N2054 X2.11 Y1.0672
N2055 X2.124 Y1.0981
N2056 X2.1379 Y1.1323
N2057 X2.1522 Y1.1714
N2058 X2.1658 Y1.2132
N2059 X2.1779 Y1.2555
N2060 X2.1887 Y1.2982
N2061 X2.1984 Y1.3412
N2062 X2.2071 Y1.3843
N2063 X2.2147 Y1.4277
N2064 X2.2215 Y1.4712
N2065 X2.2275 Y1.5148
N2066 X2.2327 Y1.5585
N2067 X2.2373 Y1.6023
N2068 X2.2411 Y1.6462
N2069 X2.2443 Y1.6901
N2070 X2.2468 Y1.734
N2071 X2.2487 Y1.778
N2072 X2.25 Y1.822
N2073 X2.2507 Y1.866
N2074 Y1.91
N2075 X2.2501 Y1.9541
N2076 X2.2489 Y1.9981
N2077 X2.2469 Y2.0421
N2078 X2.2441 Y2.086
N2079 X2.2405 Y2.1299
N2080 X2.2361 Y2.1737
N2081 X2.2306 Y2.2173
N2082 X2.2239 Y2.2609
N2083 X2.2161 Y2.3034
N2084 X2.2078 Y2.3407
N2085 X2.1999 Y2.3711
N2086 X2.192 Y2.3973
N2087 X2.1846 Y2.419
N2088 X2.1783 Y2.4356
N2089 X2.172 Y2.4503
N2090 X2.1666 Y2.4618
N2091 X2.1606 Y2.4735
N2092 X2.1551 Y2.4833
N2093 X2.1542 Y2.4847
N2094 X2.1448 Y2.4975
N2095 X2.1333 Y2.5086
N2096 X2.1201 Y2.5175
N2097 X2.1056 Y2.5241
N2098 X2.0901 Y2.5282
N2099 X2.0743 Y2.5295
N2100 X1.9748
N2101 G3 X1.9388 Y2.4952 I0.0013 J-0.0375
N2102 G1 X1.7976 Y0.8517
N2103 G3 X1.8336 Y0.811 I0.0374 J-0.0032
N2104 G1 X1.9326
N2105 X1.9381 Y0.8112
N2106 X1.944 Y0.8116
N2107 X1.9499 Y0.8123
N2108 X1.9557 Y0.8132
N2109 X1.9615 Y0.8143
N2110 X1.9676 Y0.8157
N2111 X1.9737 Y0.8174
N2112 X1.9804 Y0.8195
N2113 X1.9872 Y0.822
N2114 X1.9944 Y0.8248
N2115 X2.002 Y0.8281
N2116 X2.0097 Y0.8319
N2117 X2.0181 Y0.8363
N2118 X2.0264 Y0.8412
N2119 X2.0355 Y0.8469
N2120 X2.0445 Y0.853
N2121 X2.0543 Y0.8602
N2122 X2.0639 Y0.8679
N2123 X2.0745 Y0.8769
N2124 X2.0848 Y0.8865
N2125 X2.0961 Y0.8977
N2126 X2.1071 Y0.9095
N2127 X2.1192 Y0.9234
N2128 X2.1309 Y0.9379
N2129 X2.1435 Y0.9548
N2130 X2.1562 Y0.9732
N2131 X2.1692 Y0.9935
N2132 X2.1831 Y1.0171
N2133 X2.1962 Y1.0415
N2134 X2.2103 Y1.0701
N2135 X2.2247 Y1.1023
N2136 X2.2387 Y1.1369
N2137 X2.253 Y1.1763
N2138 X2.2665 Y1.2183
N2139 X2.2785 Y1.2606
N2140 X2.2893 Y1.3033
N2141 X2.2989 Y1.3463
N2142 X2.3075 Y1.3894
N2143 X2.3151 Y1.4328
N2144 X2.3219 Y1.4763
N2145 X2.3278 Y1.5199
N2146 X2.333 Y1.5636
N2147 X2.3375 Y1.6074
N2148 X2.3412 Y1.6513
N2149 X2.3444 Y1.6952
N2150 X2.3468 Y1.7392
N2151 X2.3487 Y1.7831
N2152 X2.3499 Y1.8272
N2153 X2.3505 Y1.8712
N2154 Y1.9152
N2155 X2.3498 Y1.9592
N2156 X2.3484 Y2.0032
N2157 X2.3463 Y2.0472
N2158 X2.3434 Y2.0911
N2159 X2.3397 Y2.135
N2160 X2.3351 Y2.1788
N2161 X2.3295 Y2.2224
N2162 X2.3227 Y2.2659
N2163 X2.3147 Y2.3081
N2164 X2.3064 Y2.3446
N2165 X2.2983 Y2.3749
N2166 X2.2906 Y2.4002
N2167 X2.2833 Y2.4212
N2168 X2.2768 Y2.4379
N2169 X2.2708 Y2.4519
N2170 X2.2653 Y2.4633
N2171 X2.2593 Y2.475
N2172 X2.2538 Y2.4845
N2173 X2.2535 Y2.4851
N2174 X2.244 Y2.4978
N2175 X2.2325 Y2.5088
N2176 X2.2194 Y2.5177
N2177 X2.2049 Y2.5242
N2178 X2.1896 Y2.5282
N2179 X2.1737 Y2.5295
N2180 X2.0743
N2181 G3 X2.0382 Y2.4953 I0.0013 J-0.0375
N2182 G1 X1.8965 Y0.8517
N2183 G3 X1.9326 Y0.811 I0.0374 J-0.0032
N2184 G1 X2.031
N2185 X2.0365 Y0.8112
N2186 X2.0424 Y0.8116
N2187 X2.0483 Y0.8123
N2188 X2.0541 Y0.8131
N2189 X2.0599 Y0.8143
N2190 X2.066 Y0.8157
N2191 X2.0722 Y0.8174
N2192 X2.0787 Y0.8194
N2193 X2.0857 Y0.8219
N2194 X2.0928 Y0.8247
N2195 X2.1005 Y0.8281
N2196 X2.1082 Y0.8318
N2197 X2.1165 Y0.8362
N2198 X2.1249 Y0.841
N2199 X2.1339 Y0.8467
N2200 X2.143 Y0.8528
N2201 X2.1526 Y0.8599
N2202 X2.1624 Y0.8677
N2203 X2.1728 Y0.8766
N2204 X2.1834 Y0.8863
N2205 X2.1946 Y0.8974
N2206 X2.2057 Y0.9092
N2207 X2.2178 Y0.9231
N2208 X2.2295 Y0.9376
N2209 X2.2424 Y0.9548
N2210 X2.2548 Y0.9727
N2211 X2.2681 Y0.9935
N2212 X2.2816 Y1.0164
N2213 X2.2951 Y1.0413
N2214 X2.3094 Y1.0702
N2215 X2.3236 Y1.1017
N2216 X2.3377 Y1.1364
N2217 X2.3521 Y1.176
N2218 X2.3656 Y1.2179
N2219 X2.3777 Y1.2602
N2220 X2.3886 Y1.3029
N2221 X2.3983 Y1.3458
N2222 X2.4069 Y1.389
N2223 X2.4146 Y1.4323
N2224 X2.4214 Y1.4758
N2225 X2.4274 Y1.5194
N2226 X2.4326 Y1.5632
N2227 X2.4371 Y1.6069
N2228 X2.4409 Y1.6508
N2229 X2.4441 Y1.6947
N2230 X2.4466 Y1.7387
N2231 X2.4485 Y1.7827
N2232 X2.4497 Y1.8267
N2233 X2.4503 Y1.8707
N2234 Y1.9147
N2235 X2.4496 Y1.9587
N2236 X2.4482 Y2.0027
N2237 X2.4461 Y2.0467
N2238 X2.4432 Y2.0906
N2239 X2.4395 Y2.1345
N2240 X2.4348 Y2.1783
N2241 X2.4292 Y2.2219
N2242 X2.4223 Y2.2654
N2243 X2.4145 Y2.3072
N2244 X2.4061 Y2.3441
N2245 X2.3981 Y2.3741
N2246 X2.3902 Y2.3998
N2247 X2.3829 Y2.421
N2248 X2.3765 Y2.4375
N2249 X2.3703 Y2.4518
N2250 X2.3649 Y2.4631
N2251 X2.3589 Y2.4748
N2252 X2.3534 Y2.4844
N2253 X2.353 Y2.4851
N2254 X2.3435 Y2.4978
N2255 X2.332 Y2.5088
N2256 X2.3189 Y2.5177
N2257 X2.3044 Y2.5242
N2258 X2.2891 Y2.5282
N2259 X2.2733 Y2.5295
N2260 X2.1737
N2261 G3 X2.1377 Y2.4953 I0.0013 J-0.0375
N2262 G1 X1.995 Y0.8517
N2263 G3 X2.031 Y0.811 I0.0374 J-0.0032
N2264 G1 X2.1295
N2265 X2.135 Y0.8112
N2266 X2.1409 Y0.8116
N2267 X2.1468 Y0.8122
N2268 X2.1526 Y0.8131
N2269 X2.1584 Y0.8142
N2270 X2.1644 Y0.8156
N2271 X2.1706 Y0.8173
N2272 X2.1772 Y0.8193
N2273 X2.1841 Y0.8218
N2274 X2.1912 Y0.8245
N2275 X2.1989 Y0.8279
N2276 X2.2066 Y0.8316
N2277 X2.2149 Y0.836
N2278 X2.2233 Y0.8408
N2279 X2.2323 Y0.8464
N2280 X2.2414 Y0.8525
N2281 X2.251 Y0.8596
N2282 X2.2609 Y0.8673
N2283 X2.2712 Y0.8762
N2284 X2.2818 Y0.8858
N2285 X2.293 Y0.8969
N2286 X2.3041 Y0.9087
N2287 X2.3162 Y0.9225
N2288 X2.328 Y0.937
N2289 X2.3409 Y0.9541
N2290 X2.3533 Y0.972
N2291 X2.3666 Y0.9927
N2292 X2.3802 Y1.0155
N2293 X2.3937 Y1.0404
N2294 X2.4081 Y1.0693
N2295 X2.4223 Y1.1006
N2296 X2.4364 Y1.1352
N2297 X2.4509 Y1.1748
N2298 X2.4645 Y1.2166
N2299 X2.4767 Y1.2589
N2300 X2.4877 Y1.3016
N2301 X2.4974 Y1.3445
N2302 X2.5061 Y1.3876
N2303 X2.5139 Y1.431
N2304 X2.5208 Y1.4745
N2305 X2.5269 Y1.5181
N2306 X2.5321 Y1.5618
N2307 X2.5367 Y1.6056
N2308 X2.5406 Y1.6494
N2309 X2.5438 Y1.6933
N2310 X2.5463 Y1.7373
N2311 X2.5482 Y1.7813
N2312 X2.5494 Y1.8253
N2313 X2.5501 Y1.8693
N2314 Y1.9133
N2315 X2.5494 Y1.9573
N2316 X2.548 Y2.0013
N2317 X2.5459 Y2.0453
N2318 X2.543 Y2.0892
N2319 X2.5393 Y2.1331
N2320 X2.5347 Y2.1769
N2321 X2.529 Y2.2205
N2322 X2.5222 Y2.264
N2323 X2.5143 Y2.3061
N2324 X2.5059 Y2.3432
N2325 X2.4979 Y2.3733
N2326 X2.49 Y2.3992
N2327 X2.4826 Y2.4206
N2328 X2.4762 Y2.4371
N2329 X2.47 Y2.4515
N2330 X2.4646 Y2.4629
N2331 X2.4585 Y2.4746
N2332 X2.453 Y2.4842
N2333 X2.4525 Y2.485
N2334 X2.4431 Y2.4978
N2335 X2.4316 Y2.5088
N2336 X2.4184 Y2.5176
N2337 X2.404 Y2.5242
N2338 X2.3886 Y2.5282
N2339 X2.3728 Y2.5295
N2340 X2.2733
N2341 G3 X2.2372 Y2.4953 I0.0013 J-0.0375
N2342 G1 X2.0934 Y0.8517
N2343 G3 X2.1295 Y0.811 I0.0374 J-0.0033
N2344 G1 X2.2273
N2345 X2.2387 Y0.8115
N2346 X2.2446 Y0.8121
N2347 X2.2504 Y0.813
N2348 X2.2562 Y0.814
N2349 X2.2622 Y0.8154
N2350 X2.2684 Y0.817
N2351 X2.2749 Y0.8189
N2352 X2.2818 Y0.8213
N2353 X2.2888 Y0.824
N2354 X2.2965 Y0.8273
N2355 X2.3041 Y0.8309
N2356 X2.3124 Y0.8352
N2357 X2.3207 Y0.8399
N2358 X2.3296 Y0.8454
N2359 X2.3387 Y0.8514
N2360 X2.3483 Y0.8583
N2361 X2.3581 Y0.8659
N2362 X2.3684 Y0.8746
N2363 X2.3789 Y0.8841
N2364 X2.39 Y0.8949
N2365 X2.4012 Y0.9066
N2366 X2.4131 Y0.92
N2367 X2.425 Y0.9344
N2368 X2.4378 Y0.9513
N2369 X2.4502 Y0.9688
N2370 X2.4636 Y0.9892
N2371 X2.4769 Y1.0114
N2372 X2.4906 Y1.0361
N2373 X2.5051 Y1.0647
N2374 X2.519 Y1.0949
N2375 X2.5333 Y1.1291
N2376 X2.5478 Y1.1681
N2377 X2.5618 Y1.2098
N2378 X2.5742 Y1.252
N2379 X2.5854 Y1.2946
N2380 X2.5954 Y1.3375
N2381 X2.6043 Y1.3806
N2382 X2.6123 Y1.4239
N2383 X2.6193 Y1.4674
N2384 X2.6256 Y1.5109
N2385 X2.631 Y1.5546
N2386 X2.6357 Y1.5984
N2387 X2.6397 Y1.6422
N2388 X2.643 Y1.6861
N2389 X2.6457 Y1.7301
N2390 X2.6477 Y1.7741
N2391 X2.6491 Y1.8181
N2392 X2.6498 Y1.8621
N2393 X2.6499 Y1.9061
N2394 X2.6493 Y1.9501
N2395 X2.648 Y1.9941
N2396 X2.646 Y2.0381
N2397 X2.6432 Y2.0821
N2398 X2.6396 Y2.1259
N2399 X2.6351 Y2.1697
N2400 X2.6296 Y2.2134
N2401 X2.623 Y2.2569
N2402 X2.615 Y2.3002
N2403 X2.6068 Y2.3377
N2404 X2.5987 Y2.3689
N2405 X2.5907 Y2.3956
N2406 X2.5831 Y2.4178
N2407 X2.5768 Y2.4344
N2408 X2.5704 Y2.4496
N2409 X2.565 Y2.4611
N2410 X2.559 Y2.4729
N2411 X2.5534 Y2.4829
N2412 X2.5523 Y2.4846
N2413 X2.5429 Y2.4975
N2414 X2.5314 Y2.5085
N2415 X2.5182 Y2.5175
N2416 X2.5036 Y2.5241
N2417 X2.4882 Y2.5282
N2418 X2.4723 Y2.5295
N2419 X2.3728
N2420 G3 X2.3367 Y2.4953 I0.0013 J-0.0375
N2421 G1 X2.1913 Y0.8518
N2422 G3 X2.2273 Y0.811 I0.0374 J-0.0033
N2423 G1 X2.3286
N2424 X2.334 Y0.8112
N2425 X2.3399 Y0.8117
N2426 X2.3458 Y0.8123
N2427 X2.3516 Y0.8133
N2428 X2.3574 Y0.8144
N2429 X2.3635 Y0.8159
N2430 X2.3698 Y0.8176
N2431 X2.3765 Y0.8198
N2432 X2.3834 Y0.8222
N2433 X2.3908 Y0.8252
N2434 X2.3982 Y0.8285
N2435 X2.4062 Y0.8324
N2436 X2.4145 Y0.8369
N2437 X2.4231 Y0.8419
N2438 X2.4321 Y0.8476
N2439 X2.4414 Y0.8539
N2440 X2.4512 Y0.8612
N2441 X2.4611 Y0.8692
N2442 X2.4716 Y0.8783
N2443 X2.4822 Y0.8881
N2444 X2.4935 Y0.8994
N2445 X2.5049 Y0.9117
N2446 X2.5169 Y0.9256
N2447 X2.5292 Y0.941
N2448 X2.5416 Y0.9577
N2449 X2.555 Y0.9772
N2450 X2.5678 Y0.9975
N2451 X2.5818 Y1.0213
N2452 X2.5956 Y1.0472
N2453 X2.6096 Y1.0758
N2454 X2.6241 Y1.1085
N2455 X2.6388 Y1.1452
N2456 X2.6535 Y1.1861
N2457 X2.6668 Y1.2281
N2458 X2.6787 Y1.2704
N2459 X2.6894 Y1.3131
N2460 X2.699 Y1.3561
N2461 X2.7075 Y1.3993
N2462 X2.7151 Y1.4427
N2463 X2.7218 Y1.4862
N2464 X2.7277 Y1.5298
N2465 X2.7328 Y1.5735
N2466 X2.7373 Y1.6173
N2467 X2.741 Y1.6612
N2468 X2.744 Y1.7051
N2469 X2.7464 Y1.7491
N2470 X2.7481 Y1.7931
N2471 X2.7492 Y1.8371
N2472 X2.7496 Y1.8811
N2473 X2.7494 Y1.9251
N2474 X2.7485 Y1.9691
N2475 X2.7469 Y2.0131
N2476 X2.7445 Y2.0571
N2477 X2.7414 Y2.101
N2478 X2.7374 Y2.1449
N2479 X2.7324 Y2.1886
N2480 X2.7265 Y2.2322
N2481 X2.7193 Y2.2757
N2482 X2.7109 Y2.3179
N2483 X2.7028 Y2.3519
N2484 X2.6947 Y2.3811
N2485 X2.6868 Y2.4061
N2486 X2.68 Y2.425
N2487 X2.6733 Y2.4418
N2488 X2.6676 Y2.4548
N2489 X2.6619 Y2.4663
N2490 X2.6559 Y2.4775
N2491 X2.6528 Y2.4829
N2492 X2.6434 Y2.4962
N2493 X2.6319 Y2.5077
N2494 X2.6185 Y2.517
N2495 X2.6037 Y2.5239
N2496 X2.588 Y2.5281
N2497 X2.5718 Y2.5295
N2498 X2.4723
N2499 G3 X2.4362 Y2.4953 I0.0013 J-0.0375
N2500 G1 X2.2925 Y0.8517
N2501 G3 X2.3286 Y0.811 I0.0374 J-0.0033
N2502 G1 X2.4247
N2503 X2.4361 Y0.8115
N2504 X2.442 Y0.8121
N2505 X2.4478 Y0.8129
N2506 X2.4537 Y0.8139
N2507 X2.4594 Y0.8152
N2508 X2.4657 Y0.8168
N2509 X2.4721 Y0.8187
N2510 X2.479 Y0.821
N2511 X2.486 Y0.8237
N2512 X2.4935 Y0.8268
N2513 X2.5013 Y0.8305
N2514 X2.5093 Y0.8346
N2515 X2.5179 Y0.8394
N2516 X2.5265 Y0.8446
N2517 X2.5359 Y0.8508
N2518 X2.5452 Y0.8574
N2519 X2.5553 Y0.8652
N2520 X2.5652 Y0.8734
N2521 X2.5761 Y0.8832
N2522 X2.5868 Y0.8934
N2523 X2.5984 Y0.9055
N2524 X2.6098 Y0.9182
N2525 X2.6221 Y0.933
N2526 X2.6344 Y0.9489
N2527 X2.6473 Y0.9669
N2528 X2.6606 Y0.987
N2529 X2.6739 Y1.0089
N2530 X2.6882 Y1.0345
N2531 X2.7019 Y1.0612
N2532 X2.7162 Y1.0918
N2533 X2.7308 Y1.1264
N2534 X2.7456 Y1.1652
N2535 X2.7597 Y1.2069
N2536 X2.7724 Y1.249
N2537 X2.7837 Y1.2916
N2538 X2.7939 Y1.3344
N2539 X2.8029 Y1.3775
N2540 X2.811 Y1.4208
N2541 X2.8182 Y1.4642
N2542 X2.8245 Y1.5078
N2543 X2.8301 Y1.5514
N2544 X2.8348 Y1.5952
N2545 X2.8389 Y1.639
N2546 X2.8423 Y1.6829
N2547 X2.845 Y1.7269
N2548 X2.8471 Y1.7709
N2549 X2.8485 Y1.8149
N2550 X2.8492 Y1.8589
N2551 X2.8493 Y1.9029
N2552 X2.8487 Y1.9469
N2553 X2.8475 Y1.9909
N2554 X2.8455 Y2.0349
N2555 X2.8427 Y2.0788
N2556 X2.8391 Y2.1227
N2557 X2.8347 Y2.1665
N2558 X2.8292 Y2.2102
N2559 X2.8227 Y2.2537
N2560 X2.8148 Y2.2971
N2561 X2.8066 Y2.3349
N2562 X2.7983 Y2.3671
N2563 X2.7905 Y2.3935
N2564 X2.7829 Y2.4159
N2565 X2.7762 Y2.4336
N2566 X2.77 Y2.4484
N2567 X2.7645 Y2.4602
N2568 X2.7584 Y2.4722
N2569 X2.7529 Y2.482
N2570 X2.7515 Y2.4844
N2571 X2.742 Y2.4973
N2572 X2.7305 Y2.5084
N2573 X2.7173 Y2.5175
N2574 X2.7028 Y2.5241
N2575 X2.6873 Y2.5281
N2576 X2.6713 Y2.5295
N2577 X2.5718
N2578 G3 X2.5357 Y2.4954 I0.0013 J-0.0375
N2579 G1 X2.3887 Y0.8518
N2580 G3 X2.4247 Y0.811 I0.0374 J-0.0033
N2581 G1 X2.526
N2582 X2.5315 Y0.8112
N2583 X2.5373 Y0.8116
N2584 X2.5432 Y0.8123
N2585 X2.5491 Y0.8132
N2586 X2.5549 Y0.8143
N2587 X2.5609 Y0.8157
N2588 X2.5671 Y0.8174
N2589 X2.5738 Y0.8195
N2590 X2.5806 Y0.8219
N2591 X2.588 Y0.8248
N2592 X2.5954 Y0.828
N2593 X2.6035 Y0.8319
N2594 X2.6116 Y0.8362
N2595 X2.6202 Y0.8412
N2596 X2.6292 Y0.8468
N2597 X2.6384 Y0.8531
N2598 X2.6481 Y0.8602
N2599 X2.6581 Y0.8681
N2600 X2.6685 Y0.877
N2601 X2.6792 Y0.8868
N2602 X2.6904 Y0.8979
N2603 X2.7019 Y0.9101
N2604 X2.7137 Y0.9237
N2605 X2.7261 Y0.939
N2606 X2.7385 Y0.9556
N2607 X2.752 Y0.9749
N2608 X2.7648 Y0.995
N2609 X2.7788 Y1.0186
N2610 X2.7928 Y1.0444
N2611 X2.8068 Y1.0727
N2612 X2.8214 Y1.1051
N2613 X2.8362 Y1.1414
N2614 X2.8509 Y1.1819
N2615 X2.8645 Y1.2238
N2616 X2.8766 Y1.2661
N2617 X2.8875 Y1.3087
N2618 X2.8972 Y1.3517
N2619 X2.9059 Y1.3948
N2620 X2.9137 Y1.4382
N2621 X2.9205 Y1.4817
N2622 X2.9265 Y1.5253
N2623 X2.9318 Y1.569
N2624 X2.9363 Y1.6128
N2625 X2.9401 Y1.6566
N2626 X2.9432 Y1.7005
N2627 X2.9456 Y1.7445
N2628 X2.9474 Y1.7885
N2629 X2.9485 Y1.8325
N2630 X2.949 Y1.8765
N2631 X2.9488 Y1.9205
N2632 X2.948 Y1.9646
N2633 X2.9464 Y2.0086
N2634 X2.9441 Y2.0525
N2635 X2.941 Y2.0964
N2636 X2.9371 Y2.1403
N2637 X2.9322 Y2.184
N2638 X2.9264 Y2.2277
N2639 X2.9193 Y2.2711
N2640 X2.9109 Y2.3139
N2641 X2.9028 Y2.3487
N2642 X2.8946 Y2.3784
N2643 X2.8867 Y2.4037
N2644 X2.8798 Y2.4234
N2645 X2.8731 Y2.4403
N2646 X2.8672 Y2.4536
N2647 X2.8616 Y2.4652
N2648 X2.8556 Y2.4766
N2649 X2.8521 Y2.4827
N2650 X2.8427 Y2.4961
N2651 X2.8311 Y2.5076
N2652 X2.8177 Y2.517
N2653 X2.8029 Y2.5239
N2654 X2.7872 Y2.5281
N2655 X2.7709 Y2.5295
N2656 X2.6713
N2657 G3 X2.6353 Y2.4953 I0.0013 J-0.0375
N2658 G1 X2.4899 Y0.8518
N2659 G3 X2.526 Y0.811 I0.0374 J-0.0033
N2660 G1 X2.6272
N2661 X2.6327 Y0.8112
N2662 X2.6386 Y0.8117
N2663 X2.6444 Y0.8125
N2664 X2.6503 Y0.8134
N2665 X2.656 Y0.8146
N2666 X2.6623 Y0.8162
N2667 X2.6686 Y0.818
N2668 X2.6754 Y0.8202
N2669 X2.6824 Y0.8228
N2670 X2.6897 Y0.8258
N2671 X2.6975 Y0.8293
N2672 X2.7055 Y0.8333
N2673 X2.714 Y0.8379
N2674 X2.7225 Y0.843
N2675 X2.7319 Y0.849
N2676 X2.7411 Y0.8555
N2677 X2.7511 Y0.863
N2678 X2.761 Y0.8711
N2679 X2.7718 Y0.8806
N2680 X2.7824 Y0.8906
N2681 X2.794 Y0.9024
N2682 X2.8054 Y0.9148
N2683 X2.8177 Y0.9293
N2684 X2.8298 Y0.9447
N2685 X2.8427 Y0.9624
N2686 X2.8559 Y0.9819
N2687 X2.8693 Y1.0034
N2688 X2.8837 Y1.0285
N2689 X2.8973 Y1.0545
N2690 X2.9117 Y1.0845
N2691 X2.9264 Y1.1184
N2692 X2.9412 Y1.1562
N2693 X2.9558 Y1.1977
N2694 X2.9688 Y1.2398
N2695 X2.9805 Y1.2822
N2696 X2.9909 Y1.325
N2697 X3.0003 Y1.368
N2698 X3.0086 Y1.4112
N2699 X3.016 Y1.4546
N2700 X3.0225 Y1.4982
N2701 X3.0283 Y1.5418
N2702 X3.0332 Y1.5856
N2703 X3.0375 Y1.6294
N2704 X3.041 Y1.6733
N2705 X3.0439 Y1.7172
N2706 X3.0461 Y1.7612
N2707 X3.0476 Y1.8052
N2708 X3.0485 Y1.8492
N2709 X3.0487 Y1.8932
N2710 X3.0482 Y1.9372
N2711 X3.0471 Y1.9812
N2712 X3.0453 Y2.0252
N2713 X3.0426 Y2.0692
N2714 X3.0392 Y2.1131
N2715 X3.035 Y2.1569
N2716 X3.0298 Y2.2006
N2717 X3.0235 Y2.2442
N2718 X3.0159 Y2.2875
N2719 X3.0075 Y2.3277
N2720 X2.9993 Y2.3605
N2721 X2.9913 Y2.3882
N2722 X2.9835 Y2.4119
N2723 X2.9769 Y2.4298
N2724 X2.9703 Y2.4457
N2725 X2.9649 Y2.4577
N2726 X2.9587 Y2.4699
N2727 X2.9531 Y2.4801
N2728 X2.951 Y2.4838
N2729 X2.9415 Y2.4969
N2730 X2.93 Y2.5082
N2731 X2.9167 Y2.5173
N2732 X2.9021 Y2.524
N2733 X2.8865 Y2.5281
N2734 X2.8704 Y2.5295
N2735 X2.7709
N2736 G3 X2.7348 Y2.4953 I0.0013 J-0.0375
N2737 G1 X2.5911 Y0.8517
N2738 G3 X2.6272 Y0.811 I0.0374 J-0.0033
N2739 G1 X2.7256
N2740 X2.7311 Y0.8112
N2741 X2.737 Y0.8117
N2742 X2.7429 Y0.8124
N2743 X2.7487 Y0.8133
N2744 X2.7546 Y0.8145
N2745 X2.7605 Y0.8159
N2746 X2.767 Y0.8178
N2747 X2.7736 Y0.8198
N2748 X2.7807 Y0.8224
N2749 X2.7879 Y0.8253
N2750 X2.7956 Y0.8288
N2751 X2.8036 Y0.8327
N2752 X2.8119 Y0.8371
N2753 X2.8207 Y0.8423
N2754 X2.8295 Y0.8479
N2755 X2.8391 Y0.8546
N2756 X2.8486 Y0.8617
N2757 X2.859 Y0.87
N2758 X2.8692 Y0.8788
N2759 X2.8804 Y0.8893
N2760 X2.8914 Y0.9003
N2761 X2.9032 Y0.9131
N2762 X2.915 Y0.9268
N2763 X2.9275 Y0.9425
N2764 X2.9402 Y0.9597
N2765 X2.9533 Y0.9788
N2766 X2.9672 Y1.0008
N2767 X2.9805 Y1.0238
N2768 X2.995 Y1.0509
N2769 X3.0094 Y1.0806
N2770 X3.0236 Y1.1128
N2771 X3.0383 Y1.1495
N2772 X3.053 Y1.191
N2773 X3.0663 Y1.233
N2774 X3.0782 Y1.2754
N2775 X3.0888 Y1.3181
N2776 X3.0984 Y1.3611
N2777 X3.1069 Y1.4043
N2778 X3.1145 Y1.4476
N2779 X3.1212 Y1.4911
N2780 X3.127 Y1.5348
N2781 X3.1321 Y1.5785
N2782 X3.1365 Y1.6223
N2783 X3.1402 Y1.6662
N2784 X3.1432 Y1.7101
N2785 X3.1455 Y1.7541
N2786 X3.1471 Y1.7981
N2787 X3.1481 Y1.8421
N2788 X3.1484 Y1.8861
N2789 X3.1481 Y1.9301
N2790 X3.1471 Y1.9741
N2791 X3.1453 Y2.0181
N2792 X3.1428 Y2.0621
N2793 X3.1395 Y2.106
N2794 X3.1354 Y2.1498
N2795 X3.1303 Y2.1935
N2796 X3.1242 Y2.2371
N2797 X3.1168 Y2.2805
N2798 X3.1087 Y2.3204
N2799 X3.1003 Y2.355
N2800 X3.0924 Y2.3833
N2801 X3.0845 Y2.4079
N2802 X3.0778 Y2.4263
N2803 X3.071 Y2.4432
N2804 X3.0654 Y2.4556
N2805 X3.0595 Y2.4676
N2806 X3.0537 Y2.4784
N2807 X3.0509 Y2.4832
N2808 X3.0415 Y2.4965
N2809 X3.0299 Y2.5079
N2810 X3.0166 Y2.5171
N2811 X3.0019 Y2.5239
N2812 X2.9862 Y2.5281
N2813 X2.97 Y2.5295
N2814 X2.8704
N2815 G3 X2.8344 Y2.4953 I0.0013 J-0.0375
N2816 G1 X2.6896 Y0.8517
N2817 G3 X2.7256 Y0.811 I0.0374 J-0.0033
N2818 G1 X2.8235
N2819 X2.829 Y0.8112
N2820 X2.8349 Y0.8116
N2821 X2.8407 Y0.8122
N2822 X2.8466 Y0.8131
N2823 X2.8524 Y0.8142
N2824 X2.8583 Y0.8156
N2825 X2.8647 Y0.8173
N2826 X2.8712 Y0.8193
N2827 X2.8782 Y0.8218
N2828 X2.8853 Y0.8246
N2829 X2.8929 Y0.8279
N2830 X2.9009 Y0.8317
N2831 X2.909 Y0.836
N2832 X2.9177 Y0.841
N2833 X2.9265 Y0.8464
N2834 X2.936 Y0.8528
N2835 X2.9455 Y0.8597
N2836 X2.9558 Y0.8679
N2837 X2.9659 Y0.8765
N2838 X2.9769 Y0.8866
N2839 X2.9878 Y0.8972
N2840 X2.9996 Y0.9098
N2841 X3.0113 Y0.9231
N2842 X3.0238 Y0.9384
N2843 X3.0364 Y0.9552
N2844 X3.0493 Y0.9737
N2845 X3.0631 Y0.9951
N2846 X3.0764 Y1.0173
N2847 X3.0907 Y1.0437
N2848 X3.105 Y1.0723
N2849 X3.1192 Y1.1036
N2850 X3.1339 Y1.1394
N2851 X3.1487 Y1.1797
N2852 X3.1624 Y1.2216
N2853 X3.1746 Y1.2639
N2854 X3.1856 Y1.3065
N2855 X3.1955 Y1.3494
N2856 X3.2043 Y1.3925
N2857 X3.2121 Y1.4359
N2858 X3.2191 Y1.4793
N2859 X3.2252 Y1.5229
N2860 X3.2305 Y1.5666
N2861 X3.2351 Y1.6104
N2862 X3.239 Y1.6543
N2863 X3.2421 Y1.6982
N2864 X3.2446 Y1.7421
N2865 X3.2465 Y1.7861
N2866 X3.2476 Y1.8301
N2867 X3.2481 Y1.8741
N2868 X3.248 Y1.9182
N2869 X3.2471 Y1.9622
N2870 X3.2456 Y2.0062
N2871 X3.2433 Y2.0501
N2872 X3.2402 Y2.0941
N2873 X3.2362 Y2.1379
N2874 X3.2314 Y2.1817
N2875 X3.2255 Y2.2253
N2876 X3.2185 Y2.2688
N2877 X3.2103 Y2.3112
N2878 X3.202 Y2.3469
N2879 X3.1939 Y2.3766
N2880 X3.1859 Y2.4023
N2881 X3.179 Y2.4221
N2882 X3.1721 Y2.4395
N2883 X3.1663 Y2.4527
N2884 X3.1606 Y2.4646
N2885 X3.1546 Y2.476
N2886 X3.1492 Y2.4855
N2887 X3.1397 Y2.4981
N2888 X3.1282 Y2.509
N2889 X3.1151 Y2.5178
N2890 X3.1007 Y2.5242
N2891 X3.0854 Y2.5282
N2892 X3.0697 Y2.5295
N2893 X2.97
N2894 G3 X2.934 Y2.4954 I0.0013 J-0.0375
N2895 G1 X2.7874 Y0.8518
N2896 G3 X2.8235 Y0.811 I0.0374 J-0.0033
N2897 G1 X2.9247
N2898 X2.9302 Y0.8112
N2899 X2.9361 Y0.8117
N2900 X2.9419 Y0.8124
N2901 X2.9478 Y0.8134
N2902 X2.9536 Y0.8145
N2903 X2.9598 Y0.8161
N2904 X2.9661 Y0.8178
N2905 X2.9729 Y0.82
N2906 X2.9798 Y0.8226
N2907 X2.9872 Y0.8256
N2908 X2.995 Y0.829
N2909 X3.0029 Y0.833
N2910 X3.0114 Y0.8376
N2911 X3.0199 Y0.8426
N2912 X3.0292 Y0.8486
N2913 X3.0384 Y0.8549
N2914 X3.0485 Y0.8625
N2915 X3.0584 Y0.8705
N2916 X3.0692 Y0.8799
N2917 X3.0798 Y0.8898
N2918 X3.0914 Y0.9015
N2919 X3.1028 Y0.9138
N2920 X3.1151 Y0.9283
N2921 X3.1273 Y0.9436
N2922 X3.1402 Y0.9612
N2923 X3.1534 Y0.9806
N2924 X3.1667 Y1.0018
N2925 X3.1811 Y1.0267
N2926 X3.1947 Y1.0524
N2927 X3.2091 Y1.0822
N2928 X3.2239 Y1.1158
N2929 X3.2387 Y1.1534
N2930 X3.2534 Y1.1949
N2931 X3.2666 Y1.2369
N2932 X3.2784 Y1.2793
N2933 X3.289 Y1.3221
N2934 X3.2984 Y1.3651
N2935 X3.3069 Y1.4083
N2936 X3.3144 Y1.4516
N2937 X3.321 Y1.4952
N2938 X3.3269 Y1.5388
N2939 X3.3319 Y1.5825
N2940 X3.3363 Y1.6263
N2941 X3.3399 Y1.6702
N2942 X3.3428 Y1.7141
N2943 X3.345 Y1.7581
N2944 X3.3466 Y1.8021
N2945 X3.3475 Y1.8461
N2946 X3.3478 Y1.8901
N2947 X3.3474 Y1.9342
N2948 X3.3463 Y1.9782
N2949 X3.3444 Y2.0222
N2950 X3.3419 Y2.0661
N2951 X3.3385 Y2.11
N2952 X3.3342 Y2.1538
N2953 X3.329 Y2.1975
N2954 X3.3228 Y2.2411
N2955 X3.3153 Y2.2845
N2956 X3.3068 Y2.3253
N2957 X3.2986 Y2.3584
N2958 X3.2906 Y2.3865
N2959 X3.2826 Y2.4109
N2960 X3.2761 Y2.4287
N2961 X3.2694 Y2.445
N2962 X3.2638 Y2.4574
N2963 X3.258 Y2.4689
N2964 X3.2521 Y2.4798
N2965 X3.2498 Y2.4836
N2966 X3.2404 Y2.4968
N2967 X3.2289 Y2.5081
N2968 X3.2156 Y2.5172
N2969 X3.2009 Y2.524
N2970 X3.1853 Y2.5281
N2971 X3.1692 Y2.5295
N2972 X3.0697
N2973 G3 X3.0336 Y2.4953 I0.0013 J-0.0375
N2974 G1 X2.8886 Y0.8517
N2975 G3 X2.9247 Y0.811 I0.0374 J-0.0033
N2976 G1 X3.0209
N2977 X3.0323 Y0.8115
N2978 X3.0381 Y0.8121
N2979 X3.044 Y0.8129
N2980 X3.0498 Y0.814
N2981 X3.0556 Y0.8152
N2982 X3.0619 Y0.8169
N2983 X3.0684 Y0.8188
N2984 X3.0752 Y0.8211
N2985 X3.0824 Y0.8239
N2986 X3.0898 Y0.827
N2987 X3.0978 Y0.8307
N2988 X3.1058 Y0.8348
N2989 X3.1145 Y0.8397
N2990 X3.1231 Y0.845
N2991 X3.1325 Y0.8512
N2992 X3.1419 Y0.8579
N2993 X3.152 Y0.8657
N2994 X3.1621 Y0.8741
N2995 X3.173 Y0.8839
N2996 X3.1839 Y0.8945
N2997 X3.1956 Y0.9066
N2998 X3.2071 Y0.9195
N2999 X3.2197 Y0.9346
N3000 X3.2319 Y0.9504
N3001 X3.2452 Y0.9691
N3002 X3.2582 Y0.989
N3003 X3.272 Y1.0116
N3004 X3.2864 Y1.0374
N3005 X3.3002 Y1.0645
N3006 X3.3148 Y1.0958
N3007 X3.3296 Y1.131
N3008 X3.3445 Y1.1702
N3009 X3.3585 Y1.2119
N3010 X3.3711 Y1.2541
N3011 X3.3824 Y1.2966
N3012 X3.3926 Y1.3395
N3013 X3.4016 Y1.3826
N3014 X3.4097 Y1.4258
N3015 X3.4169 Y1.4693
N3016 X3.4232 Y1.5129
N3017 X3.4287 Y1.5565
N3018 X3.4334 Y1.6003
N3019 X3.4375 Y1.6441
N3020 X3.4408 Y1.688
N3021 X3.4434 Y1.732
N3022 X3.4454 Y1.776
N3023 X3.4467 Y1.82
N3024 X3.4474 Y1.864
N3025 Y1.908
N3026 X3.4467 Y1.952
N3027 X3.4452 Y1.996
N3028 X3.4431 Y2.04
N3029 X3.4402 Y2.0839
N3030 X3.4365 Y2.1278
N3031 X3.4319 Y2.1716
N3032 X3.4263 Y2.2152
N3033 X3.4195 Y2.2588
N3034 X3.4115 Y2.302
N3035 X3.4031 Y2.3394
N3036 X3.3948 Y2.3709
N3037 X3.3869 Y2.3969
N3038 X3.3795 Y2.4186
N3039 X3.3728 Y2.4359
N3040 X3.3667 Y2.4502
N3041 X3.3612 Y2.4619
N3042 X3.3551 Y2.4738
N3043 X3.3496 Y2.4834
N3044 X3.3487 Y2.4848
N3045 X3.3393 Y2.4976
N3046 X3.3278 Y2.5087
N3047 X3.3146 Y2.5176
N3048 X3.3001 Y2.5241
N3049 X3.2847 Y2.5282
N3050 X3.2689 Y2.5295
N3051 X3.1692
N3052 G3 X3.1332 Y2.4954 I0.0013 J-0.0375
N3053 G1 X2.9848 Y0.8518
N3054 G3 X3.0209 Y0.811 I0.0373 J-0.0034
N3055 G1 X3.1221
N3056 X3.1276 Y0.8112
N3057 X3.1335 Y0.8116
N3058 X3.1394 Y0.8123
N3059 X3.1452 Y0.8132
N3060 X3.151 Y0.8143
N3061 X3.1571 Y0.8157
N3062 X3.1633 Y0.8174
N3063 X3.1701 Y0.8195
N3064 X3.1769 Y0.8219
N3065 X3.1843 Y0.8248
N3066 X3.1918 Y0.8281
N3067 X3.1998 Y0.832
N3068 X3.208 Y0.8363
N3069 X3.2166 Y0.8413
N3070 X3.2257 Y0.847
N3071 X3.2349 Y0.8532
N3072 X3.2448 Y0.8605
N3073 X3.2547 Y0.8683
N3074 X3.2653 Y0.8774
N3075 X3.2759 Y0.8871
N3076 X3.2874 Y0.8985
N3077 X3.2988 Y0.9106
N3078 X3.3108 Y0.9244
N3079 X3.3231 Y0.9396
N3080 X3.3358 Y0.9565
N3081 X3.3492 Y0.9757
N3082 X3.3623 Y0.9962
N3083 X3.3765 Y1.0203
N3084 X3.3904 Y1.0458
N3085 X3.4047 Y1.0747
N3086 X3.4194 Y1.1075
N3087 X3.4343 Y1.144
N3088 X3.4491 Y1.1846
N3089 X3.4627 Y1.2265
N3090 X3.4748 Y1.2688
N3091 X3.4857 Y1.3115
N3092 X3.4955 Y1.3544
N3093 X3.5042 Y1.3976
N3094 X3.5119 Y1.4409
N3095 X3.5188 Y1.4844
N3096 X3.5248 Y1.528
N3097 X3.5301 Y1.5717
N3098 X3.5346 Y1.6155
N3099 X3.5384 Y1.6594
N3100 X3.5415 Y1.7033
N3101 X3.5439 Y1.7472
N3102 X3.5456 Y1.7912
N3103 X3.5467 Y1.8352
N3104 X3.5471 Y1.8793
N3105 X3.5468 Y1.9233
N3106 X3.5459 Y1.9673
N3107 X3.5442 Y2.0113
N3108 X3.5418 Y2.0553
N3109 X3.5387 Y2.0992
N3110 X3.5346 Y2.143
N3111 X3.5297 Y2.1867
N3112 X3.5237 Y2.2304
N3113 X3.5166 Y2.2738
N3114 X3.5081 Y2.3161
N3115 X3.4999 Y2.3508
N3116 X3.4917 Y2.3803
N3117 X3.4838 Y2.4053
N3118 X3.4769 Y2.4247
N3119 X3.4702 Y2.4415
N3120 X3.4643 Y2.4546
N3121 X3.4587 Y2.4661
N3122 X3.4527 Y2.4774
N3123 X3.4495 Y2.4829
N3124 X3.4401 Y2.4962
N3125 X3.4285 Y2.5077
N3126 X3.4152 Y2.517
N3127 X3.4004 Y2.5239
N3128 X3.3847 Y2.5281
N3129 X3.3685 Y2.5295
N3130 X3.2689
N3131 G3 X3.2328 Y2.4954 I0.0013 J-0.0375
N3132 G1 X3.0861 Y0.8518
N3133 G3 X3.1221 Y0.811 I0.0374 J-0.0033
N3134 G1 X3.2233
N3135 X3.2288 Y0.8112
N3136 X3.2347 Y0.8117
N3137 X3.2406 Y0.8124
N3138 X3.2464 Y0.8134
N3139 X3.2522 Y0.8146
N3140 X3.2584 Y0.8161
N3141 X3.2647 Y0.8179
N3142 X3.2715 Y0.8201
N3143 X3.2786 Y0.8227
N3144 X3.2859 Y0.8257
N3145 X3.2937 Y0.8292
N3146 X3.3016 Y0.8331
N3147 X3.3102 Y0.8378
N3148 X3.3187 Y0.8428
N3149 X3.3281 Y0.8488
N3150 X3.3373 Y0.8553
N3151 X3.3474 Y0.8628
N3152 X3.3573 Y0.8709
N3153 X3.3681 Y0.8803
N3154 X3.3788 Y0.8904
N3155 X3.3905 Y0.9022
N3156 X3.4019 Y0.9145
N3157 X3.4143 Y0.9292
N3158 X3.4264 Y0.9444
N3159 X3.4395 Y0.9623
N3160 X3.4526 Y0.9817
N3161 X3.4662 Y1.0034
N3162 X3.4806 Y1.0284
N3163 X3.4943 Y1.0544
N3164 X3.5089 Y1.0846
N3165 X3.5237 Y1.1185
N3166 X3.5385 Y1.1562
N3167 X3.5532 Y1.1977
N3168 X3.5663 Y1.2397
N3169 X3.578 Y1.2822
N3170 X3.5885 Y1.3249
N3171 X3.5979 Y1.3679
N3172 X3.6064 Y1.4111
N3173 X3.6138 Y1.4545
N3174 X3.6204 Y1.498
N3175 X3.6262 Y1.5417
N3176 X3.6312 Y1.5854
N3177 X3.6355 Y1.6292
N3178 X3.6391 Y1.6731
N3179 X3.6419 Y1.717
N3180 X3.6441 Y1.761
N3181 X3.6457 Y1.805
N3182 X3.6465 Y1.849
N3183 X3.6467 Y1.893
N3184 X3.6463 Y1.9371
N3185 X3.6451 Y1.9811
N3186 X3.6432 Y2.0251
N3187 X3.6406 Y2.069
N3188 X3.6371 Y2.1129
N3189 X3.6329 Y2.1567
N3190 X3.6276 Y2.2004
N3191 X3.6213 Y2.244
N3192 X3.6137 Y2.2874
N3193 X3.6051 Y2.3278
N3194 X3.597 Y2.3605
N3195 X3.5889 Y2.3884
N3196 X3.5811 Y2.4121
N3197 X3.5745 Y2.4299
N3198 X3.5679 Y2.4459
N3199 X3.5624 Y2.4579
N3200 X3.5563 Y2.4701
N3201 X3.5507 Y2.4803
N3202 X3.5485 Y2.4839
N3203 X3.5391 Y2.4969
N3204 X3.5276 Y2.5082
N3205 X3.5143 Y2.5173
N3206 X3.4997 Y2.524
N3207 X3.4841 Y2.5281
N3208 X3.4681 Y2.5295
N3209 X3.3685
N3210 G3 X3.3324 Y2.4953 I0.0013 J-0.0375
N3211 G1 X3.1873 Y0.8517
N3212 G3 X3.2233 Y0.811 I0.0374 J-0.0033
N3213 G1 X3.3218
N3214 X3.3273 Y0.8112
N3215 X3.3332 Y0.8117
N3216 X3.339 Y0.8123
N3217 X3.3449 Y0.8132
N3218 X3.3507 Y0.8144
N3219 X3.3567 Y0.8158
N3220 X3.3631 Y0.8176
N3221 X3.3697 Y0.8197
N3222 X3.3767 Y0.8222
N3223 X3.384 Y0.8251
N3224 X3.3917 Y0.8285
N3225 X3.3997 Y0.8324
N3226 X3.4079 Y0.8368
N3227 X3.4168 Y0.8419
N3228 X3.4256 Y0.8475
N3229 X3.4352 Y0.8541
N3230 X3.4447 Y0.8611
N3231 X3.4551 Y0.8694
N3232 X3.4653 Y0.8782
N3233 X3.4765 Y0.8886
N3234 X3.4875 Y0.8995
N3235 X3.4994 Y0.9123
N3236 X3.5112 Y0.9259
N3237 X3.5238 Y0.9416
N3238 X3.5364 Y0.9586
N3239 X3.5496 Y0.9778
N3240 X3.5635 Y0.9995
N3241 X3.577 Y1.0226
N3242 X3.5915 Y1.0497
N3243 X3.6058 Y1.0789
N3244 X3.6202 Y1.111
N3245 X3.6349 Y1.1476
N3246 X3.6498 Y1.1889
N3247 X3.6632 Y1.2308
N3248 X3.6752 Y1.2732
N3249 X3.686 Y1.3158
N3250 X3.6956 Y1.3588
N3251 X3.7042 Y1.402
N3252 X3.7119 Y1.4453
N3253 X3.7187 Y1.4888
N3254 X3.7247 Y1.5324
N3255 X3.7299 Y1.5761
N3256 X3.7343 Y1.6199
N3257 X3.738 Y1.6638
N3258 X3.7411 Y1.7077
N3259 X3.7434 Y1.7517
N3260 X3.7451 Y1.7957
N3261 X3.7461 Y1.8397
N3262 X3.7465 Y1.8837
N3263 X3.7461 Y1.9277
N3264 X3.7451 Y1.9718
N3265 X3.7434 Y2.0157
N3266 X3.7409 Y2.0597
N3267 X3.7376 Y2.1036
N3268 X3.7335 Y2.1474
N3269 X3.7284 Y2.1912
N3270 X3.7223 Y2.2348
N3271 X3.715 Y2.2782
N3272 X3.7068 Y2.3188
N3273 X3.6984 Y2.3536
N3274 X3.6904 Y2.3821
N3275 X3.6825 Y2.407
N3276 X3.6757 Y2.4257
N3277 X3.6689 Y2.4426
N3278 X3.6633 Y2.4552
N3279 X3.6574 Y2.4671
N3280 X3.6515 Y2.4781
N3281 X3.6486 Y2.4832
N3282 X3.6392 Y2.4964
N3283 X3.6276 Y2.5078
N3284 X3.6143 Y2.5171
N3285 X3.5996 Y2.5239
N3286 X3.5839 Y2.5281
N3287 X3.5677 Y2.5295
N3288 X3.4681
N3289 G3 X3.432 Y2.4954 I0.0013 J-0.0375
N3290 G1 X3.2857 Y0.8518
N3291 G3 X3.3218 Y0.811 I0.0374 J-0.0033
N3292 G1 X3.4196
N3293 X3.431 Y0.8116
N3294 X3.4369 Y0.8122
N3295 X3.4427 Y0.813
N3296 X3.4485 Y0.8141
N3297 X3.4544 Y0.8154
N3298 X3.4608 Y0.8171
N3299 X3.4673 Y0.8191
N3300 X3.4743 Y0.8215
N3301 X3.4814 Y0.8242
N3302 X3.489 Y0.8275
N3303 X3.4969 Y0.8312
N3304 X3.505 Y0.8355
N3305 X3.5137 Y0.8404
N3306 X3.5225 Y0.8458
N3307 X3.532 Y0.8522
N3308 X3.5414 Y0.859
N3309 X3.5517 Y0.867
N3310 X3.5618 Y0.8755
N3311 X3.5728 Y0.8855
N3312 X3.5837 Y0.8961
N3313 X3.5955 Y0.9085
N3314 X3.6072 Y0.9218
N3315 X3.6197 Y0.9369
N3316 X3.6323 Y0.9535
N3317 X3.6453 Y0.9719
N3318 X3.6591 Y0.9931
N3319 X3.6723 Y1.0152
N3320 X3.6867 Y1.0413
N3321 X3.701 Y1.0696
N3322 X3.7153 Y1.1007
N3323 X3.73 Y1.1362
N3324 X3.7449 Y1.1762
N3325 X3.7588 Y1.218
N3326 X3.7712 Y1.2602
N3327 X3.7824 Y1.3028
N3328 X3.7924 Y1.3457
N3329 X3.8013 Y1.3888
N3330 X3.8093 Y1.4321
N3331 X3.8164 Y1.4755
N3332 X3.8226 Y1.5191
N3333 X3.828 Y1.5628
N3334 X3.8327 Y1.6065
N3335 X3.8367 Y1.6504
N3336 X3.8399 Y1.6943
N3337 X3.8425 Y1.7382
N3338 X3.8444 Y1.7822
N3339 X3.8456 Y1.8262
N3340 X3.8461 Y1.8703
N3341 X3.846 Y1.9143
N3342 X3.8452 Y1.9583
N3343 X3.8436 Y2.0023
N3344 X3.8414 Y2.0463
N3345 X3.8384 Y2.0902
N3346 X3.8345 Y2.134
N3347 X3.8297 Y2.1778
N3348 X3.8239 Y2.2214
N3349 X3.817 Y2.2649
N3350 X3.8087 Y2.3082
N3351 X3.8004 Y2.3441
N3352 X3.7923 Y2.3745
N3353 X3.7842 Y2.4005
N3354 X3.7772 Y2.4207
N3355 X3.7703 Y2.4383
N3356 X3.7644 Y2.4518
N3357 X3.7588 Y2.4637
N3358 X3.7527 Y2.4752
N3359 X3.7474 Y2.4845
N3360 X3.747 Y2.4853
N3361 X3.7375 Y2.498
N3362 X3.726 Y2.5089
N3363 X3.7129 Y2.5177
N3364 X3.6984 Y2.5242
N3365 X3.6831 Y2.5282
N3366 X3.6673 Y2.5295
N3367 X3.5677
N3368 G3 X3.5316 Y2.4954 I0.0013 J-0.0375
N3369 G1 X3.3836 Y0.8518
N3370 G3 X3.4196 Y0.811 I0.0373 J-0.0034
N3371 G1 X3.5208
N3372 X3.5263 Y0.8112
N3373 X3.5322 Y0.8117
N3374 X3.5381 Y0.8123
N3375 X3.5439 Y0.8132
N3376 X3.5497 Y0.8144
N3377 X3.5559 Y0.8159
N3378 X3.5621 Y0.8176
N3379 X3.5689 Y0.8197
N3380 X3.5758 Y0.8222
N3381 X3.5832 Y0.8251
N3382 X3.5909 Y0.8285
N3383 X3.5988 Y0.8324
N3384 X3.6073 Y0.8369
N3385 X3.6158 Y0.8419
N3386 X3.625 Y0.8477
N3387 X3.6342 Y0.854
N3388 X3.6442 Y0.8614
N3389 X3.6541 Y0.8693
N3390 X3.6649 Y0.8786
N3391 X3.6755 Y0.8884
N3392 X3.6871 Y0.9
N3393 X3.6984 Y0.9121
N3394 X3.7107 Y0.9264
N3395 X3.7229 Y0.9415
N3396 X3.7358 Y0.9588
N3397 X3.749 Y0.978
N3398 X3.7623 Y0.999
N3399 X3.7767 Y1.0236
N3400 X3.7903 Y1.049
N3401 X3.8047 Y1.0784
N3402 X3.8196 Y1.1117
N3403 X3.8345 Y1.1487
N3404 X3.8493 Y1.1899
N3405 X3.8627 Y1.2319
N3406 X3.8747 Y1.2742
N3407 X3.8855 Y1.3169
N3408 X3.8951 Y1.3599
N3409 X3.9037 Y1.403
N3410 X3.9114 Y1.4464
N3411 X3.9182 Y1.4899
N3412 X3.9241 Y1.5335
N3413 X3.9293 Y1.5772
N3414 X3.9337 Y1.621
N3415 X3.9375 Y1.6649
N3416 X3.9405 Y1.7088
N3417 X3.9428 Y1.7528
N3418 X3.9445 Y1.7968
N3419 X3.9454 Y1.8408
N3420 X3.9458 Y1.8848
N3421 X3.9454 Y1.9288
N3422 X3.9444 Y1.9728
N3423 X3.9426 Y2.0168
N3424 X3.9401 Y2.0608
N3425 X3.9368 Y2.1047
N3426 X3.9326 Y2.1485
N3427 X3.9276 Y2.1922
N3428 X3.9214 Y2.2358
N3429 X3.9141 Y2.2793
N3430 X3.9056 Y2.321
N3431 X3.8974 Y2.3548
N3432 X3.8892 Y2.3836
N3433 X3.8813 Y2.4083
N3434 X3.8745 Y2.4269
N3435 X3.8678 Y2.4434
N3436 X3.8621 Y2.4561
N3437 X3.8564 Y2.4676
N3438 X3.8505 Y2.4787
N3439 X3.8477 Y2.4833
N3440 X3.8383 Y2.4965
N3441 X3.8268 Y2.5079
N3442 X3.8135 Y2.5171
N3443 X3.7988 Y2.5239
N3444 X3.7831 Y2.5281
N3445 X3.7669 Y2.5295
N3446 X3.6673
N3447 G3 X3.6313 Y2.4954 I0.0013 J-0.0375
N3448 G1 X3.4848 Y0.8518
N3449 G3 X3.5208 Y0.811 I0.0374 J-0.0033
N3450 G1 X3.6198
N3451 X3.6253 Y0.8112
N3452 X3.6312 Y0.8116
N3453 X3.637 Y0.8123
N3454 X3.6429 Y0.8132
N3455 X3.6487 Y0.8143
N3456 X3.6547 Y0.8157
N3457 X3.6611 Y0.8174
N3458 X3.6676 Y0.8194
N3459 X3.6747 Y0.822
N3460 X3.6819 Y0.8248
N3461 X3.6896 Y0.8281
N3462 X3.6974 Y0.8319
N3463 X3.7058 Y0.8363
N3464 X3.7144 Y0.8413
N3465 X3.7233 Y0.8469
N3466 X3.7328 Y0.8533
N3467 X3.7424 Y0.8604
N3468 X3.7526 Y0.8684
N3469 X3.7629 Y0.8772
N3470 X3.774 Y0.8874
N3471 X3.785 Y0.8983
N3472 X3.7967 Y0.9107
N3473 X3.8086 Y0.9244
N3474 X3.821 Y0.9396
N3475 X3.8339 Y0.9568
N3476 X3.8468 Y0.9754
N3477 X3.8608 Y0.9972
N3478 X3.8741 Y1.0198
N3479 X3.8885 Y1.0463
N3480 X3.9032 Y1.0759
N3481 X3.9174 Y1.1073
N3482 X3.932 Y1.1434
N3483 X3.9469 Y1.1842
N3484 X3.9605 Y1.2261
N3485 X3.9727 Y1.2684
N3486 X3.9836 Y1.311
N3487 X3.9934 Y1.3539
N3488 X4.0022 Y1.3971
N3489 X4.01 Y1.4404
N3490 X4.0169 Y1.4839
N3491 X4.023 Y1.5275
N3492 X4.0283 Y1.5712
N3493 X4.0328 Y1.615
N3494 X4.0366 Y1.6588
N3495 X4.0397 Y1.7028
N3496 X4.0422 Y1.7467
N3497 X4.0439 Y1.7907
N3498 X4.045 Y1.8347
N3499 X4.0455 Y1.8787
N3500 X4.0452 Y1.9228
N3501 X4.0443 Y1.9668
N3502 X4.0426 Y2.0108
N3503 X4.0402 Y2.0547
N3504 X4.037 Y2.0986
N3505 X4.033 Y2.1425
N3506 X4.028 Y2.1862
N3507 X4.022 Y2.2298
N3508 X4.0148 Y2.2733
N3509 X4.0066 Y2.3145
N3510 X3.9982 Y2.3502
N3511 X3.9901 Y2.3793
N3512 X3.9822 Y2.4046
N3513 X3.9753 Y2.4238
N3514 X3.9684 Y2.4411
N3515 X3.9628 Y2.4539
N3516 X3.9569 Y2.4659
N3517 X3.951 Y2.477
N3518 X3.9476 Y2.4828
N3519 X3.9382 Y2.4962
N3520 X3.9267 Y2.5077
N3521 X3.9133 Y2.517
N3522 X3.8985 Y2.5239
N3523 X3.8828 Y2.5281
N3524 X3.8666 Y2.5295
N3525 X3.7669
N3526 G3 X3.7309 Y2.4954 I0.0013 J-0.0375
N3527 G1 X3.5837 Y0.8518
N3528 G3 X3.6198 Y0.811 I0.0374 J-0.0033
N3529 G1 X3.7182
N3530 X3.7296 Y0.8116
N3531 X3.7355 Y0.8122
N3532 X3.7413 Y0.813
N3533 X3.7472 Y0.8141
N3534 X3.7531 Y0.8154
N3535 X3.7595 Y0.8171
N3536 X3.7659 Y0.8191
N3537 X3.773 Y0.8215
N3538 X3.78 Y0.8242
N3539 X3.7877 Y0.8275
N3540 X3.7955 Y0.8312
N3541 X3.8038 Y0.8355
N3542 X3.8123 Y0.8403
N3543 X3.8212 Y0.8458
N3544 X3.8305 Y0.8521
N3545 X3.8401 Y0.859
N3546 X3.8503 Y0.8669
N3547 X3.8606 Y0.8756
N3548 X3.8714 Y0.8854
N3549 X3.8825 Y0.8962
N3550 X3.8941 Y0.9084
N3551 X3.906 Y0.9218
N3552 X3.9183 Y0.9368
N3553 X3.9312 Y0.9537
N3554 X3.944 Y0.9718
N3555 X3.9578 Y0.9931
N3556 X3.9711 Y1.0152
N3557 X3.9853 Y1.041
N3558 X4 Y1.0701
N3559 X4.0141 Y1.1008
N3560 X4.0288 Y1.1362
N3561 X4.0437 Y1.1761
N3562 X4.0576 Y1.2179
N3563 X4.07 Y1.2601
N3564 X4.0812 Y1.3027
N3565 X4.0912 Y1.3456
N3566 X4.1002 Y1.3887
N3567 X4.1082 Y1.432
N3568 X4.1153 Y1.4754
N3569 X4.1215 Y1.519
N3570 X4.127 Y1.5627
N3571 X4.1316 Y1.6065
N3572 X4.1356 Y1.6503
N3573 X4.1389 Y1.6942
N3574 X4.1414 Y1.7382
N3575 X4.1433 Y1.7821
N3576 X4.1446 Y1.8262
N3577 X4.1451 Y1.8702
N3578 X4.145 Y1.9142
N3579 X4.1442 Y1.9582
N3580 X4.1427 Y2.0022
N3581 X4.1404 Y2.0462
N3582 X4.1374 Y2.0901
N3583 X4.1335 Y2.1339
N3584 X4.1287 Y2.1777
N3585 X4.1229 Y2.2214
N3586 X4.1159 Y2.2648
N3587 X4.1077 Y2.3078
N3588 X4.0993 Y2.3442
N3589 X4.0912 Y2.3744
N3590 X4.0832 Y2.4005
N3591 X4.0761 Y2.4207
N3592 X4.0692 Y2.4384
N3593 X4.0634 Y2.4518
N3594 X4.0576 Y2.4638
N3595 X4.0516 Y2.4753
N3596 X4.0463 Y2.4845
N3597 X4.0458 Y2.4853
N3598 X4.0364 Y2.498
N3599 X4.0249 Y2.5089
N3600 X4.0118 Y2.5177
N3601 X3.9973 Y2.5242
N3602 X3.982 Y2.5282
N3603 X3.9662 Y2.5295
N3604 X3.8666
N3605 G3 X3.8305 Y2.4954 I0.0013 J-0.0375
N3606 G1 X3.6822 Y0.8518
N3607 G3 X3.7182 Y0.811 I0.0373 J-0.0034
N3608 G1 X3.8195
N3609 X3.825 Y0.8112
N3610 X3.8309 Y0.8117
N3611 X3.8367 Y0.8123
N3612 X3.8426 Y0.8132
N3613 X3.8483 Y0.8144
N3614 X3.8545 Y0.8158
N3615 X3.8608 Y0.8176
N3616 X3.8676 Y0.8197
N3617 X3.8745 Y0.8222
N3618 X3.8818 Y0.8251
N3619 X3.8895 Y0.8285
N3620 X3.8974 Y0.8324
N3621 X3.9059 Y0.8369
N3622 X3.9144 Y0.8418
N3623 X3.9237 Y0.8477
N3624 X3.9328 Y0.8539
N3625 X3.9429 Y0.8614
N3626 X3.9527 Y0.8692
N3627 X3.9635 Y0.8785
N3628 X3.9741 Y0.8883
N3629 X3.9857 Y0.8998
N3630 X3.997 Y0.912
N3631 X4.0094 Y0.9263
N3632 X4.0215 Y0.9414
N3633 X4.0344 Y0.9587
N3634 X4.0476 Y0.9779
N3635 X4.0609 Y0.9988
N3636 X4.0753 Y1.0233
N3637 X4.089 Y1.0487
N3638 X4.1034 Y1.0781
N3639 X4.1182 Y1.1114
N3640 X4.1332 Y1.1484
N3641 X4.148 Y1.1896
N3642 X4.1614 Y1.2315
N3643 X4.1734 Y1.2738
N3644 X4.1842 Y1.3165
N3645 X4.1939 Y1.3595
N3646 X4.2025 Y1.4026
N3647 X4.2102 Y1.446
N3648 X4.217 Y1.4895
N3649 X4.223 Y1.5331
N3650 X4.2282 Y1.5768
N3651 X4.2326 Y1.6206
N3652 X4.2364 Y1.6645
N3653 X4.2394 Y1.7084
N3654 X4.2418 Y1.7524
N3655 X4.2434 Y1.7963
N3656 X4.2444 Y1.8404
N3657 X4.2448 Y1.8844
N3658 X4.2444 Y1.9284
N3659 X4.2434 Y1.9724
N3660 X4.2416 Y2.0164
N3661 X4.2391 Y2.0604
N3662 X4.2358 Y2.1043
N3663 X4.2317 Y2.1481
N3664 X4.2266 Y2.1918
N3665 X4.2205 Y2.2354
N3666 X4.2131 Y2.2788
N3667 X4.2046 Y2.3206
N3668 X4.1964 Y2.3545
N3669 X4.1882 Y2.3834
N3670 X4.1802 Y2.4081
N3671 X4.1735 Y2.4268
N3672 X4.1668 Y2.4433
N3673 X4.161 Y2.4561
N3674 X4.1554 Y2.4675
N3675 X4.1494 Y2.4786
N3676 X4.1466 Y2.4833
N3677 X4.1372 Y2.4965
N3678 X4.1257 Y2.5079
N3679 X4.1124 Y2.5171
N3680 X4.0977 Y2.5239
N3681 X4.082 Y2.5281
N3682 X4.0658 Y2.5295
N3683 X3.9662
N3684 G3 X3.9302 Y2.4954 I0.0013 J-0.0375
N3685 G1 X3.7834 Y0.8518
N3686 G3 X3.8195 Y0.811 I0.0374 J-0.0033
N3687 G1 X3.9179
N3688 X3.9234 Y0.8112
N3689 X3.9293 Y0.8116
N3690 X3.9352 Y0.8122
N3691 X3.941 Y0.8131
N3692 X3.9468 Y0.8142
N3693 X3.9528 Y0.8155
N3694 X3.9592 Y0.8172
N3695 X3.9656 Y0.8192
N3696 X3.9727 Y0.8217
N3697 X3.9798 Y0.8245
N3698 X3.9875 Y0.8278
N3699 X3.9954 Y0.8315
N3700 X4.0036 Y0.8358
N3701 X4.0123 Y0.8408
N3702 X4.0211 Y0.8463
N3703 X4.0306 Y0.8527
N3704 X4.0401 Y0.8596
N3705 X4.0503 Y0.8676
N3706 X4.0605 Y0.8762
N3707 X4.0716 Y0.8863
N3708 X4.0826 Y0.8971
N3709 X4.0943 Y0.9095
N3710 X4.1061 Y0.9229
N3711 X4.1185 Y0.938
N3712 X4.1312 Y0.9549
N3713 X4.1442 Y0.9734
N3714 X4.1581 Y0.9949
N3715 X4.1715 Y1.0172
N3716 X4.1859 Y1.0436
N3717 X4.2004 Y1.0725
N3718 X4.2146 Y1.1038
N3719 X4.2294 Y1.1396
N3720 X4.2443 Y1.1799
N3721 X4.258 Y1.2217
N3722 X4.2703 Y1.264
N3723 X4.2814 Y1.3066
N3724 X4.2913 Y1.3495
N3725 X4.3002 Y1.3926
N3726 X4.3081 Y1.4359
N3727 X4.3152 Y1.4794
N3728 X4.3213 Y1.523
N3729 X4.3267 Y1.5667
N3730 X4.3313 Y1.6105
N3731 X4.3352 Y1.6543
N3732 X4.3384 Y1.6982
N3733 X4.341 Y1.7422
N3734 X4.3428 Y1.7861
N3735 X4.344 Y1.8302
N3736 X4.3445 Y1.8742
N3737 X4.3443 Y1.9182
N3738 X4.3434 Y1.9622
N3739 X4.3418 Y2.0062
N3740 X4.3394 Y2.0502
N3741 X4.3363 Y2.0941
N3742 X4.3324 Y2.1379
N3743 X4.3275 Y2.1817
N3744 X4.3216 Y2.2253
N3745 X4.3145 Y2.2688
N3746 X4.3062 Y2.3113
N3747 X4.2979 Y2.3471
N3748 X4.2898 Y2.3769
N3749 X4.2817 Y2.4026
N3750 X4.2748 Y2.4223
N3751 X4.2679 Y2.4398
N3752 X4.2621 Y2.4529
N3753 X4.2564 Y2.4648
N3754 X4.2504 Y2.4762
N3755 X4.245 Y2.4855
N3756 X4.2355 Y2.4982
N3757 X4.224 Y2.509
N3758 X4.2109 Y2.5178
N3759 X4.1965 Y2.5242
N3760 X4.1813 Y2.5282
N3761 X4.1655 Y2.5295
N3762 X4.0658
N3763 G3 X4.0298 Y2.4954 I0.0013 J-0.0375
N3764 G1 X3.8819 Y0.8518
N3765 G3 X3.9179 Y0.811 I0.0373 J-0.0034
N3766 G1 X4.0191
N3767 X4.0246 Y0.8112
N3768 X4.0305 Y0.8117
N3769 X4.0364 Y0.8124
N3770 X4.0422 Y0.8133
N3771 X4.048 Y0.8145
N3772 X4.0542 Y0.816
N3773 X4.0605 Y0.8177
N3774 X4.0673 Y0.8199
N3775 X4.0742 Y0.8224
N3776 X4.0816 Y0.8253
N3777 X4.0893 Y0.8288
N3778 X4.0972 Y0.8327
N3779 X4.1058 Y0.8373
N3780 X4.1143 Y0.8422
N3781 X4.1236 Y0.8481
N3782 X4.1328 Y0.8545
N3783 X4.1428 Y0.8619
N3784 X4.1528 Y0.8699
N3785 X4.1636 Y0.8793
N3786 X4.1742 Y0.8891
N3787 X4.1858 Y0.9008
N3788 X4.1972 Y0.9131
N3789 X4.2096 Y0.9276
N3790 X4.2218 Y0.9427
N3791 X4.2348 Y0.9603
N3792 X4.2479 Y0.9795
N3793 X4.2613 Y1.0008
N3794 X4.2758 Y1.0255
N3795 X4.2894 Y1.0511
N3796 X4.3039 Y1.0809
N3797 X4.3188 Y1.1145
N3798 X4.3337 Y1.1519
N3799 X4.3485 Y1.1933
N3800 X4.3618 Y1.2353
N3801 X4.3737 Y1.2777
N3802 X4.3844 Y1.3204
N3803 X4.394 Y1.3633
N3804 X4.4025 Y1.4065
N3805 X4.4102 Y1.4499
N3806 X4.4169 Y1.4934
N3807 X4.4228 Y1.537
N3808 X4.4279 Y1.5807
N3809 X4.4323 Y1.6245
N3810 X4.436 Y1.6684
N3811 X4.439 Y1.7123
N3812 X4.4413 Y1.7563
N3813 X4.4429 Y1.8003
N3814 X4.4438 Y1.8443
N3815 X4.4441 Y1.8883
N3816 X4.4437 Y1.9324
N3817 X4.4426 Y1.9764
N3818 X4.4407 Y2.0204
N3819 X4.4382 Y2.0643
N3820 X4.4348 Y2.1082
N3821 X4.4305 Y2.152
N3822 X4.4254 Y2.1957
N3823 X4.4191 Y2.2393
N3824 X4.4117 Y2.2827
N3825 X4.4031 Y2.3239
N3826 X4.3949 Y2.3573
N3827 X4.3868 Y2.3857
N3828 X4.3788 Y2.4102
N3829 X4.3722 Y2.4283
N3830 X4.3655 Y2.4446
N3831 X4.3598 Y2.4571
N3832 X4.3541 Y2.4686
N3833 X4.3482 Y2.4795
N3834 X4.3458 Y2.4836
N3835 X4.3364 Y2.4967
N3836 X4.3248 Y2.508
N3837 X4.3115 Y2.5172
N3838 X4.2969 Y2.524
N3839 X4.2812 Y2.5281
N3840 X4.2651 Y2.5295
N3841 X4.1655
N3842 G3 X4.1295 Y2.4954 I0.0013 J-0.0375
N3843 G1 X3.9831 Y0.8518
N3844 G3 X4.0191 Y0.811 I0.0374 J-0.0033
N3845 G1 X4.117
N3846 X4.1225 Y0.8112
N3847 X4.1284 Y0.8116
N3848 X4.1342 Y0.8122
N3849 X4.1401 Y0.8131
N3850 X4.1459 Y0.8142
N3851 X4.1518 Y0.8155
N3852 X4.1582 Y0.8172
N3853 X4.1646 Y0.8192
N3854 X4.1716 Y0.8216
N3855 X4.1788 Y0.8244
N3856 X4.1864 Y0.8277
N3857 X4.1944 Y0.8314
N3858 X4.2025 Y0.8357
N3859 X4.2113 Y0.8407
N3860 X4.22 Y0.8461
N3861 X4.2296 Y0.8525
N3862 X4.239 Y0.8593
N3863 X4.2493 Y0.8674
N3864 X4.2594 Y0.8759
N3865 X4.2705 Y0.8861
N3866 X4.2814 Y0.8967
N3867 X4.2933 Y0.9092
N3868 X4.3049 Y0.9224
N3869 X4.3174 Y0.9377
N3870 X4.33 Y0.9542
N3871 X4.3431 Y0.9729
N3872 X4.3568 Y0.994
N3873 X4.3703 Y1.0166
N3874 X4.3849 Y1.0432
N3875 X4.399 Y1.0713
N3876 X4.4135 Y1.1029
N3877 X4.4283 Y1.1387
N3878 X4.4432 Y1.1789
N3879 X4.457 Y1.2207
N3880 X4.4693 Y1.263
N3881 X4.4805 Y1.3056
N3882 X4.4904 Y1.3485
N3883 X4.4993 Y1.3916
N3884 X4.5073 Y1.4349
N3885 X4.5143 Y1.4783
N3886 X4.5205 Y1.5219
N3887 X4.5259 Y1.5656
N3888 X4.5306 Y1.6094
N3889 X4.5345 Y1.6532
N3890 X4.5377 Y1.6971
N3891 X4.5402 Y1.7411
N3892 X4.5421 Y1.7851
N3893 X4.5432 Y1.8291
N3894 X4.5437 Y1.8731
N3895 X4.5436 Y1.9171
N3896 X4.5427 Y1.9611
N3897 X4.5411 Y2.0051
N3898 X4.5388 Y2.0491
N3899 X4.5357 Y2.093
N3900 X4.5317 Y2.1369
N3901 X4.5269 Y2.1806
N3902 X4.521 Y2.2243
N3903 X4.514 Y2.2677
N3904 X4.5056 Y2.3109
N3905 X4.4974 Y2.3464
N3906 X4.4892 Y2.3765
N3907 X4.4812 Y2.4023
N3908 X4.4742 Y2.4221
N3909 X4.4673 Y2.4395
N3910 X4.4615 Y2.4528
N3911 X4.4558 Y2.4646
N3912 X4.4498 Y2.476
N3913 X4.4443 Y2.4855
N3914 X4.4348 Y2.4981
N3915 X4.4234 Y2.509
N3916 X4.4103 Y2.5178
N3917 X4.3958 Y2.5242
N3918 X4.3806 Y2.5282
N3919 X4.3648 Y2.5295
N3920 X4.2651
N3921 G3 X4.2291 Y2.4954 I0.0013 J-0.0375
N3922 G1 X4.0809 Y0.8518
N3923 G3 X4.117 Y0.811 I0.0373 J-0.0034
N3924 G1 X4.2182
N3925 X4.2237 Y0.8112
N3926 X4.2296 Y0.8117
N3927 X4.2355 Y0.8124
N3928 X4.2413 Y0.8133
N3929 X4.2471 Y0.8144
N3930 X4.2533 Y0.8159
N3931 X4.2596 Y0.8177
N3932 X4.2663 Y0.8198
N3933 X4.2733 Y0.8223
N3934 X4.2806 Y0.8253
N3935 X4.2884 Y0.8287
N3936 X4.2963 Y0.8326
N3937 X4.3048 Y0.8371
N3938 X4.3133 Y0.8421
N3939 X4.3226 Y0.848
N3940 X4.3317 Y0.8543
N3941 X4.3418 Y0.8618
N3942 X4.3517 Y0.8697
N3943 X4.3625 Y0.879
N3944 X4.3731 Y0.8889
N3945 X4.3848 Y0.9005
N3946 X4.3961 Y0.9128
N3947 X4.4085 Y0.9272
N3948 X4.4207 Y0.9423
N3949 X4.4336 Y0.9598
N3950 X4.4468 Y0.979
N3951 X4.4602 Y1.0002
N3952 X4.4747 Y1.025
N3953 X4.4883 Y1.0505
N3954 X4.5029 Y1.0802
N3955 X4.5177 Y1.1137
N3956 X4.5327 Y1.151
N3957 X4.5475 Y1.1925
N3958 X4.5608 Y1.2344
N3959 X4.5728 Y1.2768
N3960 X4.5835 Y1.3195
N3961 X4.5931 Y1.3625
N3962 X4.6017 Y1.4056
N3963 X4.6093 Y1.449
N3964 X4.6161 Y1.4925
N3965 X4.622 Y1.5361
N3966 X4.6272 Y1.5798
N3967 X4.6316 Y1.6237
N3968 X4.6352 Y1.6675
N3969 X4.6382 Y1.7114
N3970 X4.6405 Y1.7554
N3971 X4.6421 Y1.7994
N3972 X4.6431 Y1.8434
N3973 X4.6434 Y1.8874
N3974 X4.643 Y1.9315
N3975 X4.6419 Y1.9755
N3976 X4.6401 Y2.0195
N3977 X4.6375 Y2.0634
N3978 X4.6341 Y2.1073
N3979 X4.6299 Y2.1511
N3980 X4.6248 Y2.1948
N3981 X4.6186 Y2.2384
N3982 X4.6111 Y2.2818
N3983 X4.6026 Y2.3232
N3984 X4.5944 Y2.3566
N3985 X4.5863 Y2.3851
N3986 X4.5783 Y2.4097
N3987 X4.5716 Y2.4279
N3988 X4.5649 Y2.4443
N3989 X4.5592 Y2.4569
N3990 X4.5535 Y2.4684
N3991 X4.5476 Y2.4793
N3992 X4.5451 Y2.4835
N3993 X4.5357 Y2.4967
N3994 X4.5242 Y2.508
N3995 X4.5109 Y2.5172
N3996 X4.4962 Y2.524
N3997 X4.4805 Y2.5281
N3998 X4.4644 Y2.5295
N3999 X4.3648
N4000 G3 X4.3288 Y2.4954 I0.0013 J-0.0375
N4001 G1 X4.1822 Y0.8518
N4002 G3 X4.2182 Y0.811 I0.0374 J-0.0033
N4003 G1 X4.3172
N4004 X4.3227 Y0.8112
N4005 X4.3285 Y0.8116
N4006 X4.3344 Y0.8123
N4007 X4.3403 Y0.8132
N4008 X4.3461 Y0.8143
N4009 X4.352 Y0.8157
N4010 X4.3585 Y0.8175
N4011 X4.365 Y0.8195
N4012 X4.3721 Y0.822
N4013 X4.3793 Y0.8249
N4014 X4.387 Y0.8283
N4015 X4.3949 Y0.8321
N4016 X4.4032 Y0.8365
N4017 X4.4119 Y0.8415
N4018 X4.4209 Y0.8471
N4019 X4.4304 Y0.8536
N4020 X4.44 Y0.8606
N4021 X4.4502 Y0.8688
N4022 X4.4605 Y0.8776
N4023 X4.4716 Y0.8878
N4024 X4.4827 Y0.8988
N4025 X4.4944 Y0.9113
N4026 X4.5063 Y0.925
N4027 X4.5188 Y0.9404
N4028 X4.5316 Y0.9576
N4029 X4.5446 Y0.9763
N4030 X4.5587 Y0.9983
N4031 X4.572 Y1.021
N4032 X4.5865 Y1.0477
N4033 X4.6012 Y1.0773
N4034 X4.6154 Y1.109
N4035 X4.6301 Y1.1453
N4036 X4.6451 Y1.1864
N4037 X4.6586 Y1.2283
N4038 X4.6707 Y1.2706
N4039 X4.6816 Y1.3132
N4040 X4.6914 Y1.3562
N4041 X4.7001 Y1.3993
N4042 X4.7079 Y1.4426
N4043 X4.7148 Y1.4861
N4044 X4.7208 Y1.5297
N4045 X4.7261 Y1.5734
N4046 X4.7306 Y1.6172
N4047 X4.7344 Y1.6611
N4048 X4.7375 Y1.705
N4049 X4.7399 Y1.749
N4050 X4.7416 Y1.793
N4051 X4.7427 Y1.837
N4052 X4.7431 Y1.881
N4053 X4.7428 Y1.925
N4054 X4.7418 Y1.969
N4055 X4.7401 Y2.013
N4056 X4.7376 Y2.057
N4057 X4.7344 Y2.1009
N4058 X4.7303 Y2.1447
N4059 X4.7252 Y2.1885
N4060 X4.7192 Y2.2321
N4061 X4.7119 Y2.2755
N4062 X4.7037 Y2.3164
N4063 X4.6953 Y2.3518
N4064 X4.6872 Y2.3807
N4065 X4.6793 Y2.4057
N4066 X4.6725 Y2.4247
N4067 X4.6656 Y2.4418
N4068 X4.66 Y2.4545
N4069 X4.6541 Y2.4665
N4070 X4.6482 Y2.4776
N4071 X4.645 Y2.483
N4072 X4.6356 Y2.4963
N4073 X4.6241 Y2.5078
N4074 X4.6107 Y2.5171
N4075 X4.596 Y2.5239
N4076 X4.5803 Y2.5281
N4077 X4.5641 Y2.5295
N4078 X4.4644
N4079 G3 X4.4284 Y2.4954 I0.0013 J-0.0375
N4080 G1 X4.2811 Y0.8518
N4081 G3 X4.3172 Y0.811 I0.0374 J-0.0033
N4082 G1 X4.4156
N4083 X4.427 Y0.8116
N4084 X4.4329 Y0.8122
N4085 X4.4387 Y0.813
N4086 X4.4445 Y0.8141
N4087 X4.4505 Y0.8155
N4088 X4.4569 Y0.8172
N4089 X4.4633 Y0.8191
N4090 X4.4704 Y0.8216
N4091 X4.4775 Y0.8243
N4092 X4.4851 Y0.8276
N4093 X4.4929 Y0.8313
N4094 X4.5012 Y0.8356
N4095 X4.5098 Y0.8405
N4096 X4.5187 Y0.846
N4097 X4.5281 Y0.8523
N4098 X4.5376 Y0.8592
N4099 X4.5479 Y0.8672
N4100 X4.5581 Y0.8759
N4101 X4.5691 Y0.8858
N4102 X4.5801 Y0.8965
N4103 X4.5918 Y0.9088
N4104 X4.6036 Y0.9223
N4105 X4.616 Y0.9374
N4106 X4.6289 Y0.9543
N4107 X4.6417 Y0.9725
N4108 X4.6556 Y0.9939
N4109 X4.6689 Y1.0161
N4110 X4.6832 Y1.0421
N4111 X4.6979 Y1.0712
N4112 X4.712 Y1.1021
N4113 X4.7268 Y1.1377
N4114 X4.7417 Y1.1779
N4115 X4.7555 Y1.2197
N4116 X4.7679 Y1.2619
N4117 X4.7791 Y1.3045
N4118 X4.7891 Y1.3474
N4119 X4.798 Y1.3905
N4120 X4.806 Y1.4338
N4121 X4.8131 Y1.4772
N4122 X4.8193 Y1.5208
N4123 X4.8247 Y1.5645
N4124 X4.8294 Y1.6083
N4125 X4.8333 Y1.6521
N4126 X4.8366 Y1.696
N4127 X4.8391 Y1.74
N4128 X4.841 Y1.7839
N4129 X4.8422 Y1.8279
N4130 X4.8427 Y1.872
N4131 X4.8426 Y1.916
N4132 X4.8417 Y1.96
N4133 X4.8402 Y2.004
N4134 X4.8378 Y2.048
N4135 X4.8348 Y2.0919
N4136 X4.8308 Y2.1357
N4137 X4.826 Y2.1795
N4138 X4.8201 Y2.2231
N4139 X4.8131 Y2.2666
N4140 X4.8049 Y2.3093
N4141 X4.7965 Y2.3455
N4142 X4.7884 Y2.3755
N4143 X4.7804 Y2.4014
N4144 X4.7733 Y2.4214
N4145 X4.7664 Y2.439
N4146 X4.7606 Y2.4523
N4147 X4.7549 Y2.4642
N4148 X4.7489 Y2.4757
N4149 X4.7436 Y2.4849
N4150 X4.7433 Y2.4854
N4151 X4.7338 Y2.4981
N4152 X4.7223 Y2.5089
N4153 X4.7092 Y2.5177
N4154 X4.6948 Y2.5242
N4155 X4.6795 Y2.5282
N4156 X4.6637 Y2.5295
N4157 X4.5641
N4158 G3 X4.528 Y2.4954 I0.0013 J-0.0375
N4159 G1 X4.3796 Y0.8518
N4160 G3 X4.4156 Y0.811 I0.0373 J-0.0034
N4161 G1 X4.5168
N4162 X4.5223 Y0.8112
N4163 X4.5282 Y0.8117
N4164 X4.5341 Y0.8123
N4165 X4.5399 Y0.8133
N4166 X4.5457 Y0.8144
N4167 X4.5519 Y0.8159
N4168 X4.5582 Y0.8176
N4169 X4.5649 Y0.8198
N4170 X4.5719 Y0.8222
N4171 X4.5792 Y0.8252
N4172 X4.5869 Y0.8286
N4173 X4.5949 Y0.8324
N4174 X4.6034 Y0.837
N4175 X4.6119 Y0.842
N4176 X4.6212 Y0.8478
N4177 X4.6303 Y0.8541
N4178 X4.6404 Y0.8615
N4179 X4.6503 Y0.8695
N4180 X4.6611 Y0.8788
N4181 X4.6717 Y0.8886
N4182 X4.6833 Y0.9002
N4183 X4.6946 Y0.9123
N4184 X4.707 Y0.9267
N4185 X4.7192 Y0.9418
N4186 X4.7321 Y0.9592
N4187 X4.7453 Y0.9784
N4188 X4.7587 Y0.9995
N4189 X4.7731 Y1.0241
N4190 X4.7867 Y1.0496
N4191 X4.8012 Y1.0791
N4192 X4.8161 Y1.1125
N4193 X4.831 Y1.1497
N4194 X4.8459 Y1.191
N4195 X4.8593 Y1.2329
N4196 X4.8713 Y1.2753
N4197 X4.882 Y1.318
N4198 X4.8917 Y1.3609
N4199 X4.9003 Y1.4041
N4200 X4.908 Y1.4474
N4201 X4.9148 Y1.4909
N4202 X4.9207 Y1.5346
N4203 X4.9259 Y1.5783
N4204 X4.9304 Y1.6221
N4205 X4.9341 Y1.6659
N4206 X4.9371 Y1.7099
N4207 X4.9394 Y1.7538
N4208 X4.9411 Y1.7978
N4209 X4.942 Y1.8418
N4210 X4.9424 Y1.8859
N4211 X4.942 Y1.9299
N4212 X4.9409 Y1.9739
N4213 X4.9391 Y2.0179
N4214 X4.9366 Y2.0618
N4215 X4.9332 Y2.1057
N4216 X4.929 Y2.1496
N4217 X4.9239 Y2.1933
N4218 X4.9178 Y2.2369
N4219 X4.9104 Y2.2803
N4220 X4.9018 Y2.3219
N4221 X4.8936 Y2.3555
N4222 X4.8855 Y2.3842
N4223 X4.8775 Y2.4089
N4224 X4.8708 Y2.4274
N4225 X4.8641 Y2.4438
N4226 X4.8584 Y2.4565
N4227 X4.8527 Y2.468
N4228 X4.8467 Y2.479
N4229 X4.8441 Y2.4834
N4230 X4.8347 Y2.4966
N4231 X4.8231 Y2.508
N4232 X4.8098 Y2.5172
N4233 X4.7951 Y2.524
N4234 X4.7795 Y2.5281
N4235 X4.7634 Y2.5295
N4236 X4.6637
N4237 G3 X4.6277 Y2.4954 I0.0013 J-0.0375
N4238 G1 X4.4808 Y0.8518
N4239 G3 X4.5168 Y0.811 I0.0374 J-0.0033
N4240 G1 X4.6153
N4241 X4.6208 Y0.8112
N4242 X4.6267 Y0.8116
N4243 X4.6326 Y0.8122
N4244 X4.6384 Y0.8131
N4245 X4.6442 Y0.8142
N4246 X4.6501 Y0.8156
N4247 X4.6566 Y0.8173
N4248 X4.663 Y0.8193
N4249 X4.6701 Y0.8217
N4250 X4.6772 Y0.8245
N4251 X4.6849 Y0.8278
N4252 X4.6928 Y0.8316
N4253 X4.701 Y0.8359
N4254 X4.7097 Y0.8409
N4255 X4.7186 Y0.8464
N4256 X4.7281 Y0.8528
N4257 X4.7376 Y0.8597
N4258 X4.7478 Y0.8678
N4259 X4.758 Y0.8764
N4260 X4.7691 Y0.8865
N4261 X4.7801 Y0.8973
N4262 X4.7918 Y0.9097
N4263 X4.8036 Y0.9231
N4264 X4.816 Y0.9383
N4265 X4.8288 Y0.9552
N4266 X4.8418 Y0.9738
N4267 X4.8557 Y0.9953
N4268 X4.8691 Y1.0178
N4269 X4.8836 Y1.0442
N4270 X4.898 Y1.0731
N4271 X4.9123 Y1.1045
N4272 X4.9271 Y1.1404
N4273 X4.942 Y1.1809
N4274 X4.9558 Y1.2227
N4275 X4.9681 Y1.265
N4276 X4.9791 Y1.3076
N4277 X4.9891 Y1.3505
N4278 X4.9979 Y1.3936
N4279 X5.0058 Y1.4369
N4280 X5.0128 Y1.4804
N4281 X5.019 Y1.524
N4282 X5.0244 Y1.5677
N4283 X5.029 Y1.6115
N4284 X5.0329 Y1.6553
N4285 X5.0361 Y1.6992
N4286 X5.0386 Y1.7432
N4287 X5.0404 Y1.7872
N4288 X5.0416 Y1.8312
N4289 X5.042 Y1.8752
N4290 X5.0418 Y1.9192
N4291 X5.0409 Y1.9632
N4292 X5.0393 Y2.0072
N4293 X5.0369 Y2.0512
N4294 X5.0338 Y2.0951
N4295 X5.0298 Y2.1389
N4296 X5.0249 Y2.1827
N4297 X5.019 Y2.2263
N4298 X5.0119 Y2.2698
N4299 X5.0036 Y2.3122
N4300 X4.9952 Y2.3479
N4301 X4.9871 Y2.3776
N4302 X4.9791 Y2.4032
N4303 X4.9721 Y2.4227
N4304 X4.9653 Y2.4401
N4305 X4.9595 Y2.4532
N4306 X4.9538 Y2.4651
N4307 X4.9478 Y2.4764
N4308 X4.9424 Y2.4856
N4309 X4.933 Y2.4982
N4310 X4.9215 Y2.509
N4311 X4.9084 Y2.5178
N4312 X4.894 Y2.5242
N4313 X4.8788 Y2.5282
N4314 X4.8631 Y2.5295
N4315 X4.7634
N4316 G3 X4.7273 Y2.4954 I0.0013 J-0.0375
N4317 G1 X4.5792 Y0.8518
N4318 G3 X4.6153 Y0.811 I0.0373 J-0.0034
N4319 G1 X4.7165
N4320 X4.722 Y0.8112
N4321 X4.7279 Y0.8117
N4322 X4.7338 Y0.8124
N4323 X4.7396 Y0.8133
N4324 X4.7454 Y0.8145
N4325 X4.7516 Y0.816
N4326 X4.7579 Y0.8177
N4327 X4.7647 Y0.8199
N4328 X4.7716 Y0.8224
N4329 X4.779 Y0.8254
N4330 X4.7868 Y0.8288
N4331 X4.7947 Y0.8327
N4332 X4.8032 Y0.8373
N4333 X4.8117 Y0.8423
N4334 X4.821 Y0.8482
N4335 X4.8302 Y0.8545
N4336 X4.8403 Y0.862
N4337 X4.8502 Y0.87
N4338 X4.861 Y0.8794
N4339 X4.8717 Y0.8893
N4340 X4.8833 Y0.901
N4341 X4.8947 Y0.9133
N4342 X4.9072 Y0.9278
N4343 X4.9193 Y0.943
N4344 X4.9323 Y0.9606
N4345 X4.9455 Y0.9798
N4346 X4.9589 Y1.0011
N4347 X4.9734 Y1.0259
N4348 X4.987 Y1.0516
N4349 X5.0016 Y1.0814
N4350 X5.0165 Y1.1151
N4351 X5.0314 Y1.1525
N4352 X5.0462 Y1.194
N4353 X5.0595 Y1.236
N4354 X5.0714 Y1.2783
N4355 X5.0821 Y1.321
N4356 X5.0916 Y1.364
N4357 X5.1002 Y1.4072
N4358 X5.1078 Y1.4506
N4359 X5.1145 Y1.4941
N4360 X5.1204 Y1.5377
N4361 X5.1256 Y1.5814
N4362 X5.1299 Y1.6252
N4363 X5.1336 Y1.6691
N4364 X5.1366 Y1.713
N4365 X5.1389 Y1.757
N4366 X5.1405 Y1.801
N4367 X5.1414 Y1.845
N4368 X5.1416 Y1.889
N4369 X5.1412 Y1.933
N4370 X5.1401 Y1.9771
N4371 X5.1383 Y2.021
N4372 X5.1357 Y2.065
N4373 X5.1323 Y2.1089
N4374 X5.128 Y2.1527
N4375 X5.1228 Y2.1964
N4376 X5.1166 Y2.24
N4377 X5.1091 Y2.2834
N4378 X5.1005 Y2.3245
N4379 X5.0923 Y2.3578
N4380 X5.0842 Y2.3861
N4381 X5.0762 Y2.4105
N4382 X5.0696 Y2.4286
N4383 X5.0629 Y2.4448
N4384 X5.0573 Y2.4573
N4385 X5.0515 Y2.4688
N4386 X5.0456 Y2.4797
N4387 X5.0433 Y2.4836
N4388 X5.0339 Y2.4968
N4389 X5.0223 Y2.5081
N4390 X5.009 Y2.5172
N4391 X4.9944 Y2.524
N4392 X4.9788 Y2.5281
N4393 X4.9627 Y2.5295
N4394 X4.8631
N4395 G3 X4.827 Y2.4954 I0.0013 J-0.0375
N4396 G1 X4.6805 Y0.8518
N4397 G3 X4.7165 Y0.811 I0.0374 J-0.0033
N4398 G1 X4.8143
N4399 X4.8198 Y0.8112
N4400 X4.8257 Y0.8116
N4401 X4.8316 Y0.8122
N4402 X4.8375 Y0.8131
N4403 X4.8433 Y0.8142
N4404 X4.8491 Y0.8155
N4405 X4.8556 Y0.8172
N4406 X4.862 Y0.8192
N4407 X4.869 Y0.8216
N4408 X4.8762 Y0.8244
N4409 X4.8838 Y0.8277
N4410 X4.8918 Y0.8315
N4411 X4.8999 Y0.8357
N4412 X4.9087 Y0.8407
N4413 X4.9174 Y0.8461
N4414 X4.927 Y0.8525
N4415 X4.9364 Y0.8594
N4416 X4.9467 Y0.8675
N4417 X4.9568 Y0.876
N4418 X4.968 Y0.8861
N4419 X4.9789 Y0.8968
N4420 X4.9907 Y0.9093
N4421 X5.0023 Y0.9225
N4422 X5.0149 Y0.9378
N4423 X5.0274 Y0.9543
N4424 X5.0406 Y0.9731
N4425 X5.0543 Y0.9941
N4426 X5.0678 Y1.0168
N4427 X5.0825 Y1.0435
N4428 X5.0966 Y1.0716
N4429 X5.111 Y1.1032
N4430 X5.1258 Y1.1391
N4431 X5.1408 Y1.1794
N4432 X5.1546 Y1.2212
N4433 X5.1669 Y1.2634
N4434 X5.1781 Y1.306
N4435 X5.188 Y1.3489
N4436 X5.1969 Y1.392
N4437 X5.2049 Y1.4353
N4438 X5.2119 Y1.4788
N4439 X5.2181 Y1.5224
N4440 X5.2235 Y1.566
N4441 X5.2282 Y1.6098
N4442 X5.2321 Y1.6537
N4443 X5.2353 Y1.6976
N4444 X5.2378 Y1.7415
N4445 X5.2396 Y1.7855
N4446 X5.2408 Y1.8295
N4447 X5.2413 Y1.8735
N4448 X5.2411 Y1.9176
N4449 X5.2402 Y1.9616
N4450 X5.2386 Y2.0056
N4451 X5.2363 Y2.0495
N4452 X5.2332 Y2.0935
N4453 X5.2292 Y2.1373
N4454 X5.2244 Y2.1811
N4455 X5.2185 Y2.2247
N4456 X5.2114 Y2.2681
N4457 X5.203 Y2.3113
N4458 X5.1948 Y2.3467
N4459 X5.1866 Y2.3768
N4460 X5.1786 Y2.4025
N4461 X5.1716 Y2.4223
N4462 X5.1648 Y2.4396
N4463 X5.1589 Y2.4529
N4464 X5.1533 Y2.4647
N4465 X5.1472 Y2.4761
N4466 X5.1418 Y2.4855
N4467 X5.1323 Y2.4982
N4468 X5.1209 Y2.509
N4469 X5.1078 Y2.5178
N4470 X5.0934 Y2.5242
N4471 X5.0781 Y2.5282
N4472 X5.0624 Y2.5295
N4473 X4.9627
N4474 G3 X4.9266 Y2.4954 I0.0013 J-0.0375
N4475 G1 X4.7783 Y0.8518
N4476 G3 X4.8143 Y0.811 I0.0373 J-0.0034
N4477 G1 X4.9156
N4478 X4.9211 Y0.8112
N4479 X4.927 Y0.8117
N4480 X4.9328 Y0.8124
N4481 X4.9387 Y0.8133
N4482 X4.9445 Y0.8144
N4483 X4.9507 Y0.8159
N4484 X4.9569 Y0.8177
N4485 X4.9637 Y0.8198
N4486 X4.9707 Y0.8223
N4487 X4.978 Y0.8253
N4488 X4.9857 Y0.8287
N4489 X4.9937 Y0.8326
N4490 X5.0022 Y0.8371
N4491 X5.0107 Y0.8421
N4492 X5.02 Y0.848
N4493 X5.0292 Y0.8543
N4494 X5.0392 Y0.8618
N4495 X5.0491 Y0.8697
N4496 X5.0599 Y0.879
N4497 X5.0705 Y0.8889
N4498 X5.0822 Y0.9006
N4499 X5.0936 Y0.9128
N4500 X5.106 Y0.9272
N4501 X5.1181 Y0.9424
N4502 X5.1311 Y0.9599
N4503 X5.1443 Y0.9791
N4504 X5.1577 Y1.0003
N4505 X5.1722 Y1.0251
N4506 X5.1858 Y1.0507
N4507 X5.2004 Y1.0804
N4508 X5.2153 Y1.1139
N4509 X5.2302 Y1.1512
N4510 X5.2451 Y1.1927
N4511 X5.2584 Y1.2347
N4512 X5.2703 Y1.277
N4513 X5.2811 Y1.3197
N4514 X5.2907 Y1.3627
N4515 X5.2993 Y1.4059
N4516 X5.3069 Y1.4492
N4517 X5.3137 Y1.4927
N4518 X5.3196 Y1.5363
N4519 X5.3247 Y1.5801
N4520 X5.3291 Y1.6239
N4521 X5.3328 Y1.6677
N4522 X5.3358 Y1.7117
N4523 X5.3381 Y1.7556
N4524 X5.3397 Y1.7996
N4525 X5.3407 Y1.8436
N4526 X5.3409 Y1.8877
N4527 X5.3405 Y1.9317
N4528 X5.3394 Y1.9757
N4529 X5.3376 Y2.0197
N4530 X5.335 Y2.0636
N4531 X5.3317 Y2.1075
N4532 X5.3274 Y2.1513
N4533 X5.3223 Y2.1951
N4534 X5.3161 Y2.2386
N4535 X5.3086 Y2.282
N4536 X5.3001 Y2.3234
N4537 X5.2919 Y2.3568
N4538 X5.2837 Y2.3853
N4539 X5.2758 Y2.4098
N4540 X5.2691 Y2.428
N4541 X5.2624 Y2.4444
N4542 X5.2567 Y2.457
N4543 X5.251 Y2.4684
N4544 X5.2451 Y2.4794
N4545 X5.2426 Y2.4835
N4546 X5.2332 Y2.4967
N4547 X5.2217 Y2.508
N4548 X5.2084 Y2.5172
N4549 X5.1937 Y2.524
N4550 X5.1781 Y2.5281
N4551 X5.162 Y2.5295
