%
(1001)
(T3  D=6.35 CR=0 - ZMIN=-12.065 - ball end mill)
N0 G90
N1 G17
(Adaptive2)
N2 T3 M6
N3 S10000 M3
N5 G0 X-3.165 Y58.6
N6 Z15
N7 Z5
N8 Z3.138
N9 G1 Z2.503 F1524
N10 Z-3.175
N11 X-3.157 Y58.515
N12 X-3.011 Y58.549
N13 X-2.88 Y58.622
N14 X-2.758 Y58.71
N15 X-2.64 Y58.811
N16 X-2.507 Y58.942
N17 X-2.362 Y59.109
N18 X-2.204 Y59.318
N19 X-2.035 Y59.581
N20 X-1.855 Y59.909
N21 X-1.665 Y60.324
N22 X-1.466 Y60.856
N23 X-1.26 Y61.56
N24 X-1.068 Y62.452
N25 X-1.043 Y62.617
N26 X-1.027 Y62.906
N27 X-1.063 Y63.193
N28 X-1.151 Y63.469
N29 X-1.379 Y64.009
N30 X-1.471 Y64.539
N31 X-1.481 Y64.746
N32 X-1.489 Y65.16
N33 X-1.49 Y65.574
N34 Y83.785
N35 X-1.484 Y84.405
N36 X-1.453 Y84.612
N37 X-1.395 Y84.975
N38 X-1.391 Y84.987
N39 X-1.163 Y85.531
N40 X-0.982 Y85.783
N41 X-0.909 Y85.854
N42 X-0.73 Y86.025
N43 X-0.72 Y86.034
N44 X-0.479 Y86.194
N45 X0.078 Y86.409
N46 X0.608 Y86.482
N47 X0.815 Y86.488
N48 X1.437 Y86.49
N49 X198.77
N50 X199.185 Y86.488
N51 X199.392 Y86.482
N52 X199.922 Y86.409
N53 X200.479 Y86.194
N54 X200.72 Y86.034
N55 X200.74 Y86.016
N56 X200.973 Y85.793
N57 X200.982 Y85.783
N58 X201.163 Y85.531
N59 X201.391 Y84.987
N60 X201.395 Y84.975
N61 X201.462 Y84.551
N62 X201.484 Y84.405
N63 X201.49 Y83.785
N64 Y65.367
N65 X201.489 Y65.16
N66 X201.481 Y64.746
N67 X201.471 Y64.539
N68 X201.379 Y64.009
N69 X201.374 Y63.996
N70 X201.335 Y63.889
N71 X201.125 Y63.026
N72 X200.973 Y62.127
N73 X200.867 Y61.221
N74 X200.793 Y60.312
N75 X200.741 Y59.402
N76 X200.704 Y58.491
N77 X200.678 Y57.579
N78 X200.66 Y56.668
N79 X200.647 Y55.756
N80 X200.638 Y54.844
N81 X200.632 Y53.932
N82 X200.627 Y53.021
N83 X200.621 Y51.197
N84 X200.618 Y48.462
N85 X200.616 Y42.079
N86 Y22.642
N87 X200.642 Y22.357
N88 X200.718 Y22.082
N89 X200.843 Y21.825
N90 X201.012 Y21.594
N91 X201.048 Y21.552
N92 X201.07 Y21.524
N93 X201.346 Y20.965
N94 X201.349 Y20.952
N95 X201.467 Y20.406
N96 X201.488 Y19.84
N97 X201.49 Y19.633
N98 Y1.215
N99 X201.484 Y0.595
N100 X201.453 Y0.388
N101 X201.395 Y0.025
N102 X201.391 Y0.013
N103 X201.163 Y-0.531
N104 X200.982 Y-0.783
N105 X200.909 Y-0.854
N106 X200.73 Y-1.025
N107 X200.72 Y-1.034
N108 X200.479 Y-1.194
N109 X199.922 Y-1.409
N110 X199.392 Y-1.482
N111 X199.185 Y-1.488
N112 X198.563 Y-1.49
N113 X1.23
N114 X0.815 Y-1.488
N115 X0.608 Y-1.482
N116 X0.078 Y-1.409
N117 X-0.479 Y-1.194
N118 X-0.72 Y-1.034
N119 X-0.74 Y-1.016
N120 X-0.973 Y-0.793
N121 X-0.982 Y-0.783
N122 X-1.163 Y-0.531
N123 X-1.391 Y0.013
N124 X-1.395 Y0.025
N125 X-1.462 Y0.449
N126 X-1.484 Y0.595
N127 X-1.49 Y1.215
N128 Y19.633
N129 X-1.488 Y19.84
N130 X-1.467 Y20.406
N131 X-1.349 Y20.952
N132 X-1.346 Y20.965
N133 X-1.224 Y21.405
N134 X-1.043 Y22.298
N135 X-0.918 Y23.201
N136 X-0.83 Y24.109
N137 X-0.768 Y25.019
N138 X-0.725 Y25.93
N139 X-0.694 Y26.841
N140 X-0.673 Y27.752
N141 X-0.657 Y28.664
N142 X-0.647 Y29.576
N143 X-0.639 Y30.488
N144 X-0.634 Y31.399
N145 X-0.63 Y32.311
N146 X-0.625 Y34.135
N147 X-0.622 Y36.87
N148 X-0.62 Y44.165
N149 X-0.619 Y54.195
N150 X-0.559 Y55.105
N151 X-0.365 Y55.996
N152 X-0.106 Y56.87
N153 X0.178 Y57.736
N154 X0.458 Y58.604
N155 X0.718 Y59.478
N156 X0.937 Y60.316
N157 X1.048 Y60.913
N158 X1.055 Y60.976
N159 X1.059 Y61.28
N160 X1.006 Y61.58
N161 X0.896 Y61.864
N162 X0.734 Y62.121
N163 X0.526 Y62.343
N164 X0.28 Y62.522
N165 X0.003 Y62.65
N166 X-0.487 Y62.822
N167 X-0.507 Y62.833
N168 X-0.699 Y62.955
N169 X-0.978 Y63.22
N170 X-0.998 Y63.246
N171 X-1.14 Y63.446
N172 X-1.147 Y63.458
N173 X-1.151 Y63.469
N174 G3 X-1.297 Y63.669 I-0.576 J-0.267
N175 G1 X-1.371 Y63.736 Z-3.167
N176 X-1.442 Y63.801 Z-3.144
N177 X-1.51 Y63.864 Z-3.106
N178 X-1.572 Y63.921 Z-3.054
N179 X-1.628 Y63.972 Z-2.989
N180 X-1.676 Y64.016 Z-2.913
N181 X-1.714 Y64.052 Z-2.828
N182 X-1.742 Y64.077 Z-2.736
N183 X-1.759 Y64.093 Z-2.639
N184 X-1.765 Y64.098 Z-2.54
N185 G0 Z5
N186 X-2.194 Y20.834
N187 Z-1.905
N188 G1 Z-2.54 F1524
N189 X-2.187 Z-2.639
N190 X-2.163 Z-2.736
N191 X-2.125 Z-2.828
N192 X-2.073 Z-2.913
N193 X-2.008 Y20.835 Z-2.989
N194 X-1.933 Z-3.054
N195 X-1.848 Z-3.106
N196 X-1.756 Y20.836 Z-3.144
N197 X-1.659 Z-3.167
N198 X-1.559 Y20.837 Z-3.175
N199 G3 X-1.346 Y20.965 I-0.001 J0.244
N200 G1 X-1.07 Y21.524
N201 X-1.048 Y21.552
N202 X-0.916 Y21.702
N203 X-0.841 Y21.776
N204 X-0.684 Y21.909
N205 X-0.531 Y22.017
N206 X-0.437 Y22.082
N207 X-0.288 Y22.213
N208 X-0.13 Y22.374
N209 X0.043 Y22.578
N210 X0.225 Y22.827
N211 X0.419 Y23.136
N212 X0.621 Y23.517
N213 X0.833 Y23.997
N214 X1.05 Y24.605
N215 X1.275 Y25.412
N216 X1.455 Y26.306
N217 X1.584 Y27.208
N218 X1.678 Y28.115
N219 X1.745 Y29.025
N220 X1.793 Y29.935
N221 X1.828 Y30.846
N222 X1.854 Y31.758
N223 X1.872 Y32.669
N224 X1.885 Y33.581
N225 X1.895 Y34.493
N226 X1.902 Y35.405
N227 X1.907 Y36.317
N228 X1.913 Y38.14
N229 X1.918 Y40.876
N230 X1.92 Y46.346
N231 X1.921 Y53.641
N232 X1.943 Y54.553
N233 X2.11 Y55.449
N234 X2.385 Y56.318
N235 X2.652 Y57.19
N236 X2.9 Y58.068
N237 X3.075 Y58.814
N238 X3.165 Y59.378
N239 X3.205 Y59.836
N240 X3.212 Y60.273
N241 X3.19 Y60.653
N242 X3.142 Y61.018
N243 X3.075 Y61.347
N244 X3.052 Y61.426
N245 X2.925 Y61.744
N246 X2.732 Y62.027
N247 X2.483 Y62.262
N248 X2.189 Y62.438
N249 X1.864 Y62.547
N250 X1.524 Y62.584
N251 X0.815
N252 X0.608 Y62.586
N253 X0.052 Y62.633
N254 X0.003 Y62.65
N255 G3 X-0.243 Y62.676 I-0.19 J-0.606
N256 G1 X-0.342 Y62.667 Z-3.167
N257 X-0.438 Y62.659 Z-3.144
N258 X-0.53 Y62.65 Z-3.106
N259 X-0.615 Y62.643 Z-3.054
N260 X-0.69 Y62.636 Z-2.989
N261 X-0.755 Y62.63 Z-2.913
N262 X-0.806 Y62.625 Z-2.828
N263 X-0.844 Y62.622 Z-2.736
N264 X-0.868 Y62.62 Z-2.639
N265 X-0.875 Y62.619 Z-2.54
N266 G0 Z5
N267 X-1.252 Y22.483
N268 Z-1.905
N269 G1 Z-2.54 F1524
N270 X-1.246 Y22.478 Z-2.639
N271 X-1.228 Y22.463 Z-2.736
N272 X-1.2 Y22.438 Z-2.828
N273 X-1.161 Y22.403 Z-2.913
N274 X-1.112 Y22.36 Z-2.989
N275 X-1.055 Y22.31 Z-3.054
N276 X-0.992 Y22.254 Z-3.106
N277 X-0.923 Y22.193 Z-3.144
N278 X-0.85 Y22.129 Z-3.167
N279 X-0.776 Y22.063 Z-3.175
N280 G3 X-0.531 Y22.017 I0.161 J0.183
N281 G1 X-0.427 Y22.059
N282 X0.052 Y22.23
N283 X0.065 Y22.233
N284 X0.308 Y22.255
N285 X0.421 Y22.271
N286 X0.567 Y22.307
N287 X0.712 Y22.354
N288 X0.865 Y22.417
N289 X1.042 Y22.505
N290 X1.221 Y22.612
N291 X1.414 Y22.745
N292 X1.63 Y22.92
N293 X1.842 Y23.118
N294 X2.068 Y23.361
N295 X2.31 Y23.663
N296 X2.547 Y24.006
N297 X2.8 Y24.437
N298 X3.052 Y24.946
N299 X3.31 Y25.577
N300 X3.571 Y26.379
N301 X3.791 Y27.264
N302 X3.956 Y28.161
N303 X4.082 Y29.064
N304 X4.176 Y29.971
N305 X4.248 Y30.88
N306 X4.301 Y31.79
N307 X4.341 Y32.701
N308 X4.372 Y33.612
N309 X4.394 Y34.524
N310 X4.411 Y35.435
N311 X4.424 Y36.347
N312 X4.433 Y37.259
N313 X4.44 Y38.171
N314 X4.445 Y39.082
N315 X4.452 Y40.906
N316 X4.457 Y43.641
N317 X4.46 Y48.201
N318 X4.461 Y53.671
N319 X4.498 Y54.582
N320 X4.76 Y55.456
N321 X5.004 Y56.334
N322 X5.214 Y57.222
N323 X5.373 Y58.111
N324 X5.453 Y58.88
N325 X5.474 Y59.512
N326 X5.452 Y60.059
N327 X5.403 Y60.49
N328 X5.324 Y60.914
N329 X5.233 Y61.263
N330 X5.112 Y61.616
N331 X4.965 Y61.887
N332 X4.767 Y62.125
N333 X4.527 Y62.32
N334 X4.254 Y62.465
N335 X3.958 Y62.554
N336 X3.651 Y62.584
N337 X1.524
N338 G3 X1.283 Y62.527 I0.022 J-0.635
N339 G1 X1.192 Y62.486 Z-3.167
N340 X1.104 Y62.446 Z-3.144
N341 X1.021 Y62.408 Z-3.106
N342 X0.943 Y62.373 Z-3.054
N343 X0.874 Y62.341 Z-2.989
N344 X0.815 Y62.314 Z-2.913
N345 X0.768 Y62.293 Z-2.828
N346 X0.733 Y62.277 Z-2.736
N347 X0.712 Y62.267 Z-2.639
N348 X0.705 Y62.264 Z-2.54
N349 G0 Z5
N350 X-0.064 Y23.012
N351 Z-1.905
N352 G1 Z-2.54 F1524
N353 X-0.062 Y23.005 Z-2.639
N354 X-0.055 Y22.983 Z-2.736
N355 X-0.045 Y22.946 Z-2.828
N356 X-0.031 Y22.896 Z-2.913
N357 X-0.014 Y22.833 Z-2.989
N358 X0.006 Y22.76 Z-3.054
N359 X0.029 Y22.678 Z-3.106
N360 X0.053 Y22.59 Z-3.144
N361 X0.079 Y22.496 Z-3.167
N362 X0.105 Y22.4 Z-3.175
N363 G3 X0.308 Y22.255 I0.191 J0.053
N364 G1 X0.608 Y22.283
N365 X0.815 Y22.286
N366 X1.758
N367 X1.871 Y22.291
N368 X2.029 Y22.31
N369 X2.192 Y22.341
N370 X2.376 Y22.39
N371 X2.571 Y22.457
N372 X2.779 Y22.546
N373 X3.006 Y22.664
N374 X3.236 Y22.804
N375 X3.493 Y22.988
N376 X3.743 Y23.196
N377 X4.021 Y23.463
N378 X4.296 Y23.768
N379 X4.585 Y24.139
N380 X4.875 Y24.574
N381 X5.177 Y25.106
N382 X5.469 Y25.719
N383 X5.768 Y26.483
N384 X6.038 Y27.354
N385 X6.251 Y28.241
N386 X6.418 Y29.137
N387 X6.549 Y30.039
N388 X6.652 Y30.945
N389 X6.732 Y31.854
N390 X6.794 Y32.763
N391 X6.842 Y33.674
N392 X6.879 Y34.585
N393 X6.908 Y35.496
N394 X6.93 Y36.408
N395 X6.947 Y37.32
N396 X6.96 Y38.231
N397 X6.969 Y39.143
N398 X6.977 Y40.055
N399 X6.983 Y40.967
N400 X6.987 Y41.879
N401 X6.993 Y43.702
N402 X6.998 Y46.438
N403 X7.001 Y51.908
N404 Y53.732
N405 X7.128 Y54.635
N406 X7.346 Y55.52
N407 X7.531 Y56.413
N408 X7.674 Y57.314
N409 X7.763 Y58.209
N410 X7.785 Y59.022
N411 X7.753 Y59.728
N412 X7.688 Y60.28
N413 X7.599 Y60.746
N414 X7.486 Y61.167
N415 X7.363 Y61.522
N416 X7.319 Y61.623
N417 X7.171 Y61.893
N418 X6.974 Y62.129
N419 X6.734 Y62.322
N420 X6.462 Y62.466
N421 X6.167 Y62.554
N422 X5.861 Y62.584
N423 X3.651
N424 G3 X3.41 Y62.527 I0.022 J-0.635
N425 G1 X3.319 Y62.486 Z-3.167
N426 X3.231 Y62.446 Z-3.144
N427 X3.147 Y62.408 Z-3.106
N428 X3.07 Y62.373 Z-3.054
N429 X3.001 Y62.341 Z-2.989
N430 X2.942 Y62.314 Z-2.913
N431 X2.895 Y62.293 Z-2.828
N432 X2.86 Y62.277 Z-2.736
N433 X2.839 Y62.267 Z-2.639
N434 X2.832 Y62.264 Z-2.54
N435 G0 Z5
N436 X1.457 Y23.074
N437 Z-1.905
N438 G1 Z-2.54 F1524
N439 X1.458 Y23.066 Z-2.639
N440 X1.463 Y23.043 Z-2.736
N441 X1.469 Y23.006 Z-2.828
N442 X1.478 Y22.955 Z-2.913
N443 X1.49 Y22.891 Z-2.989
N444 X1.503 Y22.816 Z-3.054
N445 X1.518 Y22.733 Z-3.106
N446 X1.535 Y22.642 Z-3.144
N447 X1.552 Y22.547 Z-3.167
N448 X1.569 Y22.449 Z-3.175
N449 G3 X1.758 Y22.286 I0.195 J0.035
N450 G1 X3.621
N451 X3.735 Y22.291
N452 X3.907 Y22.306
N453 X4.09 Y22.336
N454 X4.289 Y22.383
N455 X4.508 Y22.452
N456 X4.734 Y22.541
N457 X4.989 Y22.664
N458 X5.241 Y22.808
N459 X5.526 Y23
N460 X5.803 Y23.217
N461 X6.112 Y23.497
N462 X6.414 Y23.814
N463 X6.741 Y24.21
N464 X7.059 Y24.658
N465 X7.395 Y25.212
N466 X7.725 Y25.856
N467 X8.055 Y26.635
N468 X8.35 Y27.498
N469 X8.589 Y28.378
N470 X8.782 Y29.269
N471 X8.938 Y30.167
N472 X9.063 Y31.07
N473 X9.163 Y31.977
N474 X9.244 Y32.885
N475 X9.307 Y33.795
N476 X9.358 Y34.705
N477 X9.398 Y35.616
N478 X9.429 Y36.527
N479 X9.454 Y37.439
N480 X9.473 Y38.35
N481 X9.489 Y39.262
N482 X9.5 Y40.174
N483 X9.51 Y41.085
N484 X9.517 Y41.997
N485 X9.522 Y42.909
N486 X9.53 Y44.733
N487 X9.535 Y46.556
N488 X9.539 Y50.204
N489 X9.54 Y51.115
N490 X9.541 Y52.027
N491 Y52.939
N492 X9.555 Y53.851
N493 X9.738 Y54.744
N494 X9.896 Y55.642
N495 X10.021 Y56.545
N496 X10.104 Y57.453
N497 X10.138 Y58.364
N498 X10.115 Y59.196
N499 X10.042 Y59.921
N500 X9.942 Y60.496
N501 X9.829 Y60.948
N502 X9.69 Y61.369
N503 X9.596 Y61.599
N504 X9.45 Y61.875
N505 X9.253 Y62.116
N506 X9.012 Y62.315
N507 X8.737 Y62.463
N508 X8.438 Y62.553
N509 X8.127 Y62.584
N510 X5.861
N511 G3 X5.62 Y62.527 I0.022 J-0.635
N512 G1 X5.529 Y62.486 Z-3.167
N513 X5.441 Y62.446 Z-3.144
N514 X5.357 Y62.408 Z-3.106
N515 X5.28 Y62.373 Z-3.054
N516 X5.211 Y62.341 Z-2.989
N517 X5.152 Y62.314 Z-2.913
N518 X5.105 Y62.293 Z-2.828
N519 X5.07 Y62.277 Z-2.736
N520 X5.049 Y62.267 Z-2.639
N521 X5.042 Y62.264 Z-2.54
N522 G0 Z5
N523 X3.321 Y23.074
N524 Z-1.905
N525 G1 Z-2.54 F1524
N526 X3.322 Y23.066 Z-2.639
N527 X3.326 Y23.043 Z-2.736
N528 X3.333 Y23.006 Z-2.828
N529 X3.342 Y22.955 Z-2.913
N530 X3.353 Y22.891 Z-2.989
N531 X3.367 Y22.816 Z-3.054
N532 X3.382 Y22.733 Z-3.106
N533 X3.398 Y22.642 Z-3.144
N534 X3.415 Y22.547 Z-3.167
N535 X3.433 Y22.449 Z-3.175
N536 G3 X3.621 Y22.286 I0.195 J0.035
N537 G1 X5.692
N538 X5.806 Y22.291
N539 X5.986 Y22.306
N540 X6.182 Y22.336
N541 X6.392 Y22.384
N542 X6.626 Y22.455
N543 X6.865 Y22.548
N544 X7.137 Y22.676
N545 X7.406 Y22.828
N546 X7.709 Y23.028
N547 X8.008 Y23.259
N548 X8.338 Y23.554
N549 X8.665 Y23.892
N550 X9.016 Y24.312
N551 X9.357 Y24.784
N552 X9.718 Y25.369
N553 X10.081 Y26.065
N554 X10.439 Y26.892
N555 X10.74 Y27.753
N556 X10.989 Y28.63
N557 X11.194 Y29.518
N558 X11.362 Y30.414
N559 X11.501 Y31.316
N560 X11.614 Y32.22
N561 X11.706 Y33.127
N562 X11.781 Y34.036
N563 X11.841 Y34.946
N564 X11.89 Y35.857
N565 X11.929 Y36.768
N566 X11.961 Y37.679
N567 X11.986 Y38.59
N568 X12.006 Y39.502
N569 X12.022 Y40.414
N570 X12.035 Y41.325
N571 X12.045 Y42.237
N572 X12.053 Y43.149
N573 X12.059 Y44.061
N574 X12.064 Y44.972
N575 X12.071 Y46.796
N576 X12.077 Y49.531
N577 X12.082 Y52.267
N578 X12.083 Y53.179
N579 X12.174 Y54.086
N580 X12.308 Y54.988
N581 X12.414 Y55.893
N582 X12.488 Y56.802
N583 X12.521 Y57.713
N584 X12.506 Y58.625
N585 X12.439 Y59.476
N586 X12.333 Y60.173
N587 X12.208 Y60.721
N588 X12.067 Y61.186
N589 X11.921 Y61.564
N590 X11.87 Y61.672
N591 X11.718 Y61.93
N592 X11.52 Y62.154
N593 X11.284 Y62.337
N594 X11.018 Y62.473
N595 X10.731 Y62.556
N596 X10.434 Y62.584
N597 X8.127
N598 G3 X7.886 Y62.527 I0.022 J-0.635
N599 G1 X7.796 Y62.486 Z-3.167
N600 X7.708 Y62.446 Z-3.144
N601 X7.624 Y62.408 Z-3.106
N602 X7.547 Y62.373 Z-3.054
N603 X7.478 Y62.341 Z-2.989
N604 X7.419 Y62.314 Z-2.913
N605 X7.371 Y62.293 Z-2.828
N606 X7.337 Y62.277 Z-2.736
N607 X7.316 Y62.267 Z-2.639
N608 X7.308 Y62.264 Z-2.54
N609 G0 Z5
N610 X5.391 Y23.074
N611 Z-1.905
N612 G1 Z-2.54 F1524
N613 X5.393 Y23.066 Z-2.639
N614 X5.397 Y23.043 Z-2.736
N615 X5.404 Y23.006 Z-2.828
N616 X5.413 Y22.955 Z-2.913
N617 X5.424 Y22.891 Z-2.989
N618 X5.438 Y22.816 Z-3.054
N619 X5.453 Y22.733 Z-3.106
N620 X5.469 Y22.642 Z-3.144
N621 X5.486 Y22.547 Z-3.167
N622 X5.503 Y22.449 Z-3.175
N623 G3 X5.692 Y22.286 I0.195 J0.035
N624 G1 X7.856
N625 X8.083 Y22.297
N626 X8.284 Y22.321
N627 X8.492 Y22.361
N628 X8.723 Y22.422
N629 X8.973 Y22.509
N630 X9.234 Y22.621
N631 X9.526 Y22.772
N632 X9.816 Y22.95
N633 X10.145 Y23.186
N634 X10.464 Y23.452
N635 X10.825 Y23.799
N636 X11.169 Y24.182
N637 X11.545 Y24.667
N638 X11.913 Y25.219
N639 X12.29 Y25.883
N640 X12.673 Y26.689
N641 X13.004 Y27.539
N642 X13.282 Y28.407
N643 X13.516 Y29.289
N644 X13.711 Y30.179
N645 X13.874 Y31.077
N646 X14.009 Y31.978
N647 X14.122 Y32.883
N648 X14.215 Y33.79
N649 X14.291 Y34.699
N650 X14.354 Y35.608
N651 X14.406 Y36.519
N652 X14.448 Y37.43
N653 X14.482 Y38.341
N654 X14.51 Y39.252
N655 X14.532 Y40.164
N656 X14.55 Y41.075
N657 X14.565 Y41.987
N658 X14.576 Y42.899
N659 X14.586 Y43.811
N660 X14.593 Y44.722
N661 X14.599 Y45.634
N662 X14.608 Y47.458
N663 X14.616 Y50.193
N664 X14.62 Y51.105
N665 X14.623 Y52.929
N666 X14.7 Y53.837
N667 X14.798 Y54.744
N668 X14.876 Y55.652
N669 X14.926 Y56.563
N670 X14.94 Y57.474
N671 X14.912 Y58.386
N672 X14.833 Y59.294
N673 X14.709 Y60.08
N674 X14.57 Y60.678
N675 X14.425 Y61.145
N676 X14.265 Y61.555
N677 X14.206 Y61.68
N678 X14.053 Y61.935
N679 X13.856 Y62.157
N680 X13.62 Y62.339
N681 X13.355 Y62.474
N682 X13.069 Y62.556
N683 X12.773 Y62.584
N684 X10.434
N685 G3 X10.193 Y62.527 I0.022 J-0.635
N686 G1 X10.102 Y62.486 Z-3.167
N687 X10.014 Y62.446 Z-3.144
N688 X9.93 Y62.408 Z-3.106
N689 X9.853 Y62.373 Z-3.054
N690 X9.784 Y62.341 Z-2.989
N691 X9.725 Y62.314 Z-2.913
N692 X9.678 Y62.293 Z-2.828
N693 X9.643 Y62.277 Z-2.736
N694 X9.622 Y62.267 Z-2.639
N695 X9.615 Y62.264 Z-2.54
N696 G0 Z5
N697 X7.555 Y23.074
N698 Z-1.905
N699 G1 Z-2.54 F1524
N700 X7.557 Y23.066 Z-2.639
N701 X7.561 Y23.043 Z-2.736
N702 X7.567 Y23.006 Z-2.828
N703 X7.577 Y22.955 Z-2.913
N704 X7.588 Y22.891 Z-2.989
N705 X7.601 Y22.816 Z-3.054
N706 X7.616 Y22.733 Z-3.106
N707 X7.633 Y22.642 Z-3.144
N708 X7.65 Y22.547 Z-3.167
N709 X7.667 Y22.449 Z-3.175
N710 G3 X7.856 Y22.286 I0.195 J0.035
N711 G1 X10.133
N712 X10.247 Y22.291
N713 X10.444 Y22.308
N714 X10.646 Y22.339
N715 X10.879 Y22.393
N716 X11.123 Y22.468
N717 X11.388 Y22.571
N718 X11.675 Y22.707
N719 X11.97 Y22.874
N720 X12.299 Y23.093
N721 X12.622 Y23.344
N722 X12.989 Y23.673
N723 X13.34 Y24.037
N724 X13.724 Y24.498
N725 X14.11 Y25.035
N726 X14.499 Y25.669
N727 X14.9 Y26.442
N728 X15.261 Y27.28
N729 X15.567 Y28.138
N730 X15.828 Y29.012
N731 X16.048 Y29.897
N732 X16.235 Y30.79
N733 X16.392 Y31.688
N734 X16.525 Y32.59
N735 X16.636 Y33.495
N736 X16.729 Y34.402
N737 X16.806 Y35.31
N738 X16.87 Y36.22
N739 X16.924 Y37.13
N740 X16.968 Y38.041
N741 X17.004 Y38.952
N742 X17.034 Y39.863
N743 X17.058 Y40.775
N744 X17.078 Y41.686
N745 X17.095 Y42.598
N746 X17.108 Y43.51
N747 X17.118 Y44.422
N748 X17.127 Y45.333
N749 X17.134 Y46.245
N750 X17.145 Y48.069
N751 X17.153 Y49.892
N752 X17.159 Y50.804
N753 X17.162 Y52.628
N754 X17.22 Y53.538
N755 X17.293 Y54.447
N756 X17.348 Y55.357
N757 X17.378 Y56.268
N758 Y57.18
N759 X17.341 Y58.091
N760 X17.26 Y58.999
N761 X17.131 Y59.871
N762 X16.983 Y60.534
N763 X16.832 Y61.033
N764 X16.663 Y61.479
N765 X16.575 Y61.667
N766 X16.423 Y61.926
N767 X16.225 Y62.151
N768 X15.989 Y62.335
N769 X15.722 Y62.472
N770 X15.434 Y62.556
N771 X15.136 Y62.584
N772 X12.773
N773 G3 X12.532 Y62.527 I0.022 J-0.635
N774 G1 X12.441 Y62.486 Z-3.167
N775 X12.353 Y62.446 Z-3.144
N776 X12.269 Y62.408 Z-3.106
N777 X12.192 Y62.373 Z-3.054
N778 X12.123 Y62.341 Z-2.989
N779 X12.064 Y62.314 Z-2.913
N780 X12.017 Y62.293 Z-2.828
N781 X11.982 Y62.277 Z-2.736
N782 X11.961 Y62.267 Z-2.639
N783 X11.954 Y62.264 Z-2.54
N784 G0 Z5
N785 X9.833 Y23.074
N786 Z-1.905
N787 G1 Z-2.54 F1524
N788 X9.834 Y23.066 Z-2.639
N789 X9.838 Y23.043 Z-2.736
N790 X9.845 Y23.006 Z-2.828
N791 X9.854 Y22.955 Z-2.913
N792 X9.866 Y22.891 Z-2.989
N793 X9.879 Y22.816 Z-3.054
N794 X9.894 Y22.733 Z-3.106
N795 X9.91 Y22.642 Z-3.144
N796 X9.927 Y22.547 Z-3.167
N797 X9.945 Y22.449 Z-3.175
N798 G3 X10.133 Y22.286 I0.195 J0.035
N799 G1 X12.411
N800 X12.639 Y22.297
N801 X12.838 Y22.321
N802 X13.069 Y22.365
N803 X13.302 Y22.428
N804 X13.57 Y22.521
N805 X13.845 Y22.639
N806 X14.145 Y22.795
N807 X14.464 Y22.991
N808 X14.795 Y23.229
N809 X15.156 Y23.53
N810 X15.517 Y23.878
N811 X15.903 Y24.308
N812 X16.302 Y24.823
N813 X16.699 Y25.419
N814 X17.112 Y26.15
N815 X17.503 Y26.974
N816 X17.838 Y27.822
N817 X18.125 Y28.687
N818 X18.371 Y29.565
N819 X18.581 Y30.453
N820 X18.76 Y31.347
N821 X18.913 Y32.246
N822 X19.043 Y33.148
N823 X19.152 Y34.053
N824 X19.245 Y34.961
N825 X19.323 Y35.869
N826 X19.389 Y36.778
N827 X19.443 Y37.689
N828 X19.489 Y38.599
N829 X19.527 Y39.51
N830 X19.559 Y40.422
N831 X19.585 Y41.333
N832 X19.607 Y42.245
N833 X19.624 Y43.156
N834 X19.639 Y44.068
N835 X19.651 Y44.98
N836 X19.661 Y45.891
N837 X19.669 Y46.803
N838 X19.683 Y48.627
N839 X19.694 Y50.45
N840 X19.701 Y51.362
N841 X19.702 Y52.274
N842 X19.739 Y53.185
N843 X19.792 Y54.095
N844 X19.829 Y55.006
N845 X19.845 Y55.918
N846 X19.835 Y56.83
N847 X19.793 Y57.741
N848 X19.714 Y58.649
N849 X19.587 Y59.552
N850 X19.433 Y60.303
N851 X19.27 Y60.881
N852 X19.098 Y61.354
N853 X18.928 Y61.736
N854 X18.923 Y61.746
N855 X18.73 Y62.028
N856 X18.481 Y62.263
N857 X18.187 Y62.438
N858 X17.863 Y62.547
N859 X17.523 Y62.584
N860 X15.136
N861 G3 X14.895 Y62.527 I0.022 J-0.635
N862 G1 X14.804 Y62.486 Z-3.167
N863 X14.716 Y62.446 Z-3.144
N864 X14.632 Y62.408 Z-3.106
N865 X14.555 Y62.373 Z-3.054
N866 X14.486 Y62.341 Z-2.989
N867 X14.427 Y62.314 Z-2.913
N868 X14.38 Y62.293 Z-2.828
N869 X14.345 Y62.277 Z-2.736
N870 X14.324 Y62.267 Z-2.639
N871 X14.317 Y62.264 Z-2.54
N872 G0 Z5
N873 X12.111 Y23.074
N874 Z-1.905
N875 G1 Z-2.54 F1524
N876 X12.112 Y23.066 Z-2.639
N877 X12.116 Y23.043 Z-2.736
N878 X12.123 Y23.006 Z-2.828
N879 X12.132 Y22.955 Z-2.913
N880 X12.143 Y22.891 Z-2.989
N881 X12.157 Y22.816 Z-3.054
N882 X12.172 Y22.733 Z-3.106
N883 X12.188 Y22.642 Z-3.144
N884 X12.205 Y22.547 Z-3.167
N885 X12.223 Y22.449 Z-3.175
N886 G3 X12.411 Y22.286 I0.195 J0.035
N887 G1 X14.689
N888 X14.916 Y22.297
N889 X15.125 Y22.318
N890 X15.339 Y22.355
N891 X15.58 Y22.415
N892 X15.843 Y22.501
N893 X16.117 Y22.613
N894 X16.427 Y22.767
N895 X16.733 Y22.947
N896 X17.084 Y23.19
N897 X17.425 Y23.464
N898 X17.812 Y23.823
N899 X18.186 Y24.225
N900 X18.594 Y24.732
N901 X19.011 Y25.335
N902 X19.43 Y26.044
N903 X19.836 Y26.86
N904 X20.185 Y27.702
N905 X20.487 Y28.562
N906 X20.747 Y29.436
N907 X20.972 Y30.32
N908 X21.164 Y31.211
N909 X21.33 Y32.108
N910 X21.472 Y33.009
N911 X21.594 Y33.912
N912 X21.698 Y34.818
N913 X21.786 Y35.726
N914 X21.861 Y36.635
N915 X21.924 Y37.544
N916 X21.978 Y38.454
N917 X22.023 Y39.365
N918 X22.061 Y40.276
N919 X22.092 Y41.187
N920 X22.119 Y42.099
N921 X22.141 Y43.01
N922 X22.159 Y43.922
N923 X22.174 Y44.834
N924 X22.187 Y45.745
N925 X22.198 Y46.657
N926 X22.216 Y48.481
N927 X22.223 Y49.392
N928 X22.24 Y51.216
N929 X22.242 Y52.128
N930 X22.306 Y53.95
N931 X22.324 Y54.862
N932 Y55.774
N933 X22.301 Y56.685
N934 X22.248 Y57.596
N935 X22.161 Y58.503
N936 X22.03 Y59.406
N937 X21.858 Y60.245
N938 X21.689 Y60.845
N939 X21.523 Y61.304
N940 X21.334 Y61.728
N941 X21.325 Y61.745
N942 X21.132 Y62.028
N943 X20.883 Y62.262
N944 X20.59 Y62.438
N945 X20.265 Y62.547
N946 X19.925 Y62.584
N947 X17.523
N948 G3 X17.282 Y62.527 I0.022 J-0.635
N949 G1 X17.192 Y62.486 Z-3.167
N950 X17.103 Y62.446 Z-3.144
N951 X17.02 Y62.408 Z-3.106
N952 X16.942 Y62.373 Z-3.054
N953 X16.873 Y62.341 Z-2.989
N954 X16.814 Y62.314 Z-2.913
N955 X16.767 Y62.293 Z-2.828
N956 X16.732 Y62.277 Z-2.736
N957 X16.711 Y62.267 Z-2.639
N958 X16.704 Y62.264 Z-2.54
N959 G0 Z5
N960 X14.388 Y23.074
N961 Z-1.905
N962 G1 Z-2.54 F1524
N963 X14.39 Y23.066 Z-2.639
N964 X14.394 Y23.043 Z-2.736
N965 X14.401 Y23.006 Z-2.828
N966 X14.41 Y22.955 Z-2.913
N967 X14.421 Y22.891 Z-2.989
N968 X14.435 Y22.816 Z-3.054
N969 X14.45 Y22.733 Z-3.106
N970 X14.466 Y22.642 Z-3.144
N971 X14.483 Y22.547 Z-3.167
N972 X14.5 Y22.449 Z-3.175
N973 G3 X14.689 Y22.286 I0.195 J0.035
N974 G1 X17.174
N975 X17.287 Y22.291
N976 X17.495 Y22.314
N977 X17.715 Y22.354
N978 X17.97 Y22.42
N979 X18.227 Y22.506
N980 X18.518 Y22.628
N981 X18.822 Y22.782
N982 X19.147 Y22.977
N983 X19.498 Y23.224
N984 X19.855 Y23.516
N985 X20.243 Y23.883
N986 X20.639 Y24.315
N987 X21.046 Y24.83
N988 X21.475 Y25.461
N989 X21.914 Y26.22
N990 X22.313 Y27.04
N991 X22.659 Y27.883
N992 X22.959 Y28.745
N993 X23.219 Y29.618
N994 X23.444 Y30.502
N995 X23.639 Y31.393
N996 X23.807 Y32.289
N997 X23.953 Y33.189
N998 X24.078 Y34.092
N999 X24.186 Y34.998
N1000 X24.278 Y35.905
N1001 X24.358 Y36.813
N1002 X24.425 Y37.722
N1003 X24.483 Y38.632
N1004 X24.532 Y39.543
N1005 X24.573 Y40.454
N1006 X24.608 Y41.365
N1007 X24.638 Y42.276
N1008 X24.662 Y43.188
N1009 X24.683 Y44.099
N1010 X24.701 Y45.011
N1011 X24.716 Y45.923
N1012 X24.729 Y46.834
N1013 X24.751 Y48.658
N1014 X24.76 Y49.57
N1015 X24.773 Y50.481
N1016 X24.782 Y51.393
N1017 X24.784 Y52.305
N1018 X24.807 Y53.217
N1019 X24.82 Y54.128
N1020 X24.818 Y55.04
N1021 X24.798 Y55.952
N1022 X24.754 Y56.862
N1023 X24.684 Y57.771
N1024 X24.579 Y58.677
N1025 X24.431 Y59.577
N1026 X24.246 Y60.385
N1027 X24.064 Y60.977
N1028 X23.893 Y61.418
N1029 X23.771 Y61.676
N1030 X23.619 Y61.932
N1031 X23.421 Y62.155
N1032 X23.186 Y62.338
N1033 X22.92 Y62.473
N1034 X22.633 Y62.556
N1035 X22.336 Y62.584
N1036 X19.925
N1037 G3 X19.684 Y62.527 I0.022 J-0.635
N1038 G1 X19.594 Y62.486 Z-3.167
N1039 X19.506 Y62.446 Z-3.144
N1040 X19.422 Y62.408 Z-3.106
N1041 X19.344 Y62.373 Z-3.054
N1042 X19.276 Y62.341 Z-2.989
N1043 X19.217 Y62.314 Z-2.913
N1044 X19.169 Y62.293 Z-2.828
N1045 X19.135 Y62.277 Z-2.736
N1046 X19.113 Y62.267 Z-2.639
N1047 X19.106 Y62.264 Z-2.54
N1048 G0 Z5
N1049 X16.873 Y23.074
N1050 Z-1.905
N1051 G1 Z-2.54 F1524
N1052 X16.875 Y23.066 Z-2.639
N1053 X16.879 Y23.043 Z-2.736
N1054 X16.885 Y23.006 Z-2.828
N1055 X16.895 Y22.955 Z-2.913
N1056 X16.906 Y22.891 Z-2.989
N1057 X16.919 Y22.816 Z-3.054
N1058 X16.934 Y22.733 Z-3.106
N1059 X16.951 Y22.642 Z-3.144
N1060 X16.968 Y22.547 Z-3.167
N1061 X16.985 Y22.449 Z-3.175
N1062 G3 X17.174 Y22.286 I0.195 J0.035
N1063 G1 X19.451
N1064 X19.679 Y22.297
N1065 X19.895 Y22.322
N1066 X20.116 Y22.363
N1067 X20.37 Y22.43
N1068 X20.636 Y22.521
N1069 X20.924 Y22.644
N1070 X21.242 Y22.808
N1071 X21.564 Y23.003
N1072 X21.931 Y23.265
N1073 X22.286 Y23.558
N1074 X22.688 Y23.942
N1075 X23.082 Y24.378
N1076 X23.503 Y24.917
N1077 X23.943 Y25.572
N1078 X24.393 Y26.359
N1079 X24.787 Y27.181
N1080 X25.13 Y28.026
N1081 X25.429 Y28.887
N1082 X25.689 Y29.761
N1083 X25.915 Y30.644
N1084 X26.112 Y31.535
N1085 X26.284 Y32.43
N1086 X26.433 Y33.33
N1087 X26.562 Y34.232
N1088 X26.673 Y35.137
N1089 X26.77 Y36.044
N1090 X26.853 Y36.952
N1091 X26.925 Y37.861
N1092 X26.986 Y38.771
N1093 X27.039 Y39.681
N1094 X27.084 Y40.592
N1095 X27.122 Y41.503
N1096 X27.155 Y42.414
N1097 X27.183 Y43.325
N1098 X27.207 Y44.237
N1099 X27.227 Y45.149
N1100 X27.245 Y46.06
N1101 X27.26 Y46.972
N1102 X27.274 Y47.884
N1103 X27.287 Y48.795
N1104 X27.297 Y49.707
N1105 X27.309 Y50.619
N1106 X27.323 Y51.53
N1107 X27.324 Y52.442
N1108 X27.331 Y53.354
N1109 X27.327 Y54.266
N1110 X27.308 Y55.178
N1111 X27.272 Y56.089
N1112 X27.213 Y56.999
N1113 X27.127 Y57.906
N1114 X27.007 Y58.81
N1115 X26.844 Y59.707
N1116 X26.65 Y60.49
N1117 X26.472 Y61.039
N1118 X26.281 Y61.508
N1119 X26.186 Y61.699
N1120 X26.032 Y61.95
N1121 X25.835 Y62.167
N1122 X25.601 Y62.345
N1123 X25.338 Y62.476
N1124 X25.055 Y62.557
N1125 X24.763 Y62.584
N1126 X22.336
N1127 G3 X22.095 Y62.527 I0.022 J-0.635
N1128 G1 X22.005 Y62.486 Z-3.167
N1129 X21.917 Y62.446 Z-3.144
N1130 X21.833 Y62.408 Z-3.106
N1131 X21.755 Y62.373 Z-3.054
N1132 X21.687 Y62.341 Z-2.989
N1133 X21.628 Y62.314 Z-2.913
N1134 X21.58 Y62.293 Z-2.828
N1135 X21.546 Y62.277 Z-2.736
N1136 X21.524 Y62.267 Z-2.639
N1137 X21.517 Y62.264 Z-2.54
N1138 G0 Z5
N1139 X19.151 Y23.074
N1140 Z-1.905
N1141 G1 Z-2.54 F1524
N1142 X19.152 Y23.066 Z-2.639
N1143 X19.156 Y23.043 Z-2.736
N1144 X19.163 Y23.006 Z-2.828
N1145 X19.172 Y22.955 Z-2.913
N1146 X19.184 Y22.891 Z-2.989
N1147 X19.197 Y22.816 Z-3.054
N1148 X19.212 Y22.733 Z-3.106
N1149 X19.228 Y22.642 Z-3.144
N1150 X19.245 Y22.547 Z-3.167
N1151 X19.263 Y22.449 Z-3.175
N1152 G3 X19.451 Y22.286 I0.195 J0.035
N1153 G1 X21.936
N1154 X22.05 Y22.291
N1155 X22.265 Y22.315
N1156 X22.49 Y22.356
N1157 X22.739 Y22.421
N1158 X23.017 Y22.514
N1159 X23.299 Y22.633
N1160 X23.624 Y22.798
N1161 X23.945 Y22.992
N1162 X24.309 Y23.249
N1163 X24.677 Y23.55
N1164 X25.079 Y23.931
N1165 X25.478 Y24.368
N1166 X25.91 Y24.915
N1167 X26.357 Y25.575
N1168 X26.812 Y26.362
N1169 X27.21 Y27.183
N1170 X27.557 Y28.026
N1171 X27.86 Y28.886
N1172 X28.125 Y29.758
N1173 X28.357 Y30.64
N1174 X28.56 Y31.529
N1175 X28.738 Y32.423
N1176 X28.893 Y33.322
N1177 X29.028 Y34.223
N1178 X29.146 Y35.128
N1179 X29.248 Y36.034
N1180 X29.337 Y36.941
N1181 X29.414 Y37.85
N1182 X29.481 Y38.759
N1183 X29.539 Y39.669
N1184 X29.588 Y40.579
N1185 X29.631 Y41.49
N1186 X29.667 Y42.401
N1187 X29.699 Y43.313
N1188 X29.726 Y44.224
N1189 X29.749 Y45.136
N1190 X29.77 Y46.047
N1191 X29.788 Y46.959
N1192 X29.804 Y47.87
N1193 X29.819 Y48.782
N1194 X29.832 Y49.694
N1195 X29.842 Y50.606
N1196 X29.85 Y51.517
N1197 X29.853 Y52.429
N1198 X29.848 Y53.341
N1199 X29.832 Y54.253
N1200 X29.803 Y55.164
N1201 X29.756 Y56.075
N1202 X29.687 Y56.984
N1203 X29.591 Y57.891
N1204 X29.462 Y58.793
N1205 X29.293 Y59.689
N1206 X29.097 Y60.473
N1207 X28.911 Y61.039
N1208 X28.716 Y61.512
N1209 X28.621 Y61.704
N1210 X28.467 Y61.953
N1211 X28.269 Y62.17
N1212 X28.035 Y62.346
N1213 X27.773 Y62.477
N1214 X27.491 Y62.557
N1215 X27.2 Y62.584
N1216 X24.763
N1217 G3 X24.522 Y62.527 I0.022 J-0.635
N1218 G1 X24.431 Y62.486 Z-3.167
N1219 X24.343 Y62.446 Z-3.144
N1220 X24.259 Y62.408 Z-3.106
N1221 X24.182 Y62.373 Z-3.054
N1222 X24.113 Y62.341 Z-2.989
N1223 X24.054 Y62.314 Z-2.913
N1224 X24.007 Y62.293 Z-2.828
N1225 X23.972 Y62.277 Z-2.736
N1226 X23.951 Y62.267 Z-2.639
N1227 X23.944 Y62.264 Z-2.54
N1228 G0 Z5
N1229 X21.636 Y23.074
N1230 Z-1.905
N1231 G1 Z-2.54 F1524
N1232 X21.637 Y23.066 Z-2.639
N1233 X21.641 Y23.043 Z-2.736
N1234 X21.648 Y23.006 Z-2.828
N1235 X21.657 Y22.955 Z-2.913
N1236 X21.668 Y22.891 Z-2.989
N1237 X21.682 Y22.816 Z-3.054
N1238 X21.697 Y22.733 Z-3.106
N1239 X21.713 Y22.642 Z-3.144
N1240 X21.73 Y22.547 Z-3.167
N1241 X21.748 Y22.449 Z-3.175
N1242 G3 X21.936 Y22.286 I0.195 J0.035
N1243 G1 X24.214
N1244 X24.442 Y22.297
N1245 X24.656 Y22.319
N1246 X24.88 Y22.359
N1247 X25.128 Y22.421
N1248 X25.405 Y22.513
N1249 X25.687 Y22.629
N1250 X26.012 Y22.792
N1251 X26.335 Y22.983
N1252 X26.698 Y23.236
N1253 X27.069 Y23.536
N1254 X27.471 Y23.911
N1255 X27.873 Y24.346
N1256 X28.309 Y24.89
N1257 X28.76 Y25.546
N1258 X29.218 Y26.328
N1259 X29.622 Y27.146
N1260 X29.974 Y27.987
N1261 X30.284 Y28.845
N1262 X30.555 Y29.715
N1263 X30.794 Y30.595
N1264 X31.003 Y31.482
N1265 X31.187 Y32.376
N1266 X31.349 Y33.273
N1267 X31.49 Y34.174
N1268 X31.615 Y35.077
N1269 X31.723 Y35.982
N1270 X31.818 Y36.889
N1271 X31.901 Y37.797
N1272 X31.973 Y38.706
N1273 X32.035 Y39.616
N1274 X32.089 Y40.526
N1275 X32.136 Y41.437
N1276 X32.177 Y42.348
N1277 X32.212 Y43.259
N1278 X32.243 Y44.17
N1279 X32.269 Y45.081
N1280 X32.293 Y45.993
N1281 X32.314 Y46.905
N1282 X32.332 Y47.816
N1283 X32.347 Y48.728
N1284 X32.36 Y49.64
N1285 X32.369 Y50.551
N1286 X32.373 Y51.463
N1287 X32.37 Y52.375
N1288 X32.359 Y53.287
N1289 X32.335 Y54.198
N1290 X32.298 Y55.109
N1291 X32.244 Y56.019
N1292 X32.167 Y56.928
N1293 X32.064 Y57.834
N1294 X31.931 Y58.736
N1295 X31.758 Y59.631
N1296 X31.556 Y60.439
N1297 X31.363 Y61.024
N1298 X31.166 Y61.503
N1299 X31.065 Y61.705
N1300 X30.911 Y61.954
N1301 X30.714 Y62.17
N1302 X30.48 Y62.346
N1303 X30.218 Y62.477
N1304 X29.936 Y62.557
N1305 X29.645 Y62.584
N1306 X27.2
N1307 G3 X26.958 Y62.527 I0.022 J-0.635
N1308 G1 X26.868 Y62.486 Z-3.167
N1309 X26.78 Y62.446 Z-3.144
N1310 X26.696 Y62.408 Z-3.106
N1311 X26.619 Y62.373 Z-3.054
N1312 X26.55 Y62.341 Z-2.989
N1313 X26.491 Y62.314 Z-2.913
N1314 X26.444 Y62.293 Z-2.828
N1315 X26.409 Y62.277 Z-2.736
N1316 X26.388 Y62.267 Z-2.639
N1317 X26.381 Y62.264 Z-2.54
N1318 G0 Z5
N1319 X23.913 Y23.074
N1320 Z-1.905
N1321 G1 Z-2.54 F1524
N1322 X23.915 Y23.066 Z-2.639
N1323 X23.919 Y23.043 Z-2.736
N1324 X23.926 Y23.006 Z-2.828
N1325 X23.935 Y22.955 Z-2.913
N1326 X23.946 Y22.891 Z-2.989
N1327 X23.96 Y22.816 Z-3.054
N1328 X23.975 Y22.733 Z-3.106
N1329 X23.991 Y22.642 Z-3.144
N1330 X24.008 Y22.547 Z-3.167
N1331 X24.025 Y22.449 Z-3.175
N1332 G3 X24.214 Y22.286 I0.195 J0.035
N1333 G1 X26.699
N1334 X26.812 Y22.291
N1335 X27.024 Y22.31
N1336 X27.246 Y22.346
N1337 X27.491 Y22.404
N1338 X27.768 Y22.491
N1339 X28.046 Y22.602
N1340 X28.368 Y22.757
N1341 X28.692 Y22.943
N1342 X29.051 Y23.185
N1343 X29.425 Y23.479
N1344 X29.822 Y23.84
N1345 X30.228 Y24.267
N1346 X30.666 Y24.799
N1347 X31.116 Y25.433
N1348 X31.577 Y26.195
N1349 X31.991 Y27.007
N1350 X32.355 Y27.843
N1351 X32.675 Y28.697
N1352 X32.957 Y29.564
N1353 X33.205 Y30.441
N1354 X33.424 Y31.326
N1355 X33.617 Y32.218
N1356 X33.787 Y33.113
N1357 X33.937 Y34.013
N1358 X34.069 Y34.915
N1359 X34.185 Y35.819
N1360 X34.287 Y36.725
N1361 X34.377 Y37.633
N1362 X34.455 Y38.541
N1363 X34.523 Y39.451
N1364 X34.583 Y40.36
N1365 X34.635 Y41.271
N1366 X34.681 Y42.181
N1367 X34.72 Y43.092
N1368 X34.755 Y44.004
N1369 X34.785 Y44.915
N1370 X34.812 Y45.826
N1371 X34.835 Y46.738
N1372 X34.855 Y47.649
N1373 X34.871 Y48.561
N1374 X34.883 Y49.473
N1375 X34.891 Y50.385
N1376 X34.892 Y51.296
N1377 X34.885 Y52.208
N1378 X34.869 Y53.12
N1379 X34.842 Y54.031
N1380 X34.8 Y54.942
N1381 X34.741 Y55.852
N1382 X34.661 Y56.76
N1383 X34.556 Y57.666
N1384 X34.423 Y58.568
N1385 X34.254 Y59.464
N1386 X34.04 Y60.341
N1387 X33.839 Y60.964
N1388 X33.641 Y61.453
N1389 X33.523 Y61.695
N1390 X33.369 Y61.947
N1391 X33.172 Y62.165
N1392 X32.937 Y62.344
N1393 X32.674 Y62.476
N1394 X32.391 Y62.557
N1395 X32.097 Y62.584
N1396 X29.645
N1397 G3 X29.403 Y62.527 I0.022 J-0.635
N1398 G1 X29.313 Y62.486 Z-3.167
N1399 X29.225 Y62.446 Z-3.144
N1400 X29.141 Y62.408 Z-3.106
N1401 X29.064 Y62.373 Z-3.054
N1402 X28.995 Y62.341 Z-2.989
N1403 X28.936 Y62.314 Z-2.913
N1404 X28.889 Y62.293 Z-2.828
N1405 X28.854 Y62.277 Z-2.736
N1406 X28.833 Y62.267 Z-2.639
N1407 X28.826 Y62.264 Z-2.54
N1408 G0 Z5
N1409 X26.398 Y23.074
N1410 Z-1.905
N1411 G1 Z-2.54 F1524
N1412 X26.4 Y23.066 Z-2.639
N1413 X26.404 Y23.043 Z-2.736
N1414 X26.41 Y23.006 Z-2.828
N1415 X26.42 Y22.955 Z-2.913
N1416 X26.431 Y22.891 Z-2.989
N1417 X26.444 Y22.816 Z-3.054
N1418 X26.459 Y22.733 Z-3.106
N1419 X26.476 Y22.642 Z-3.144
N1420 X26.493 Y22.547 Z-3.167
N1421 X26.51 Y22.449 Z-3.175
N1422 G3 X26.699 Y22.286 I0.195 J0.035
N1423 G1 X29.183
N1424 X29.297 Y22.291
N1425 X29.513 Y22.315
N1426 X29.74 Y22.358
N1427 X30.005 Y22.427
N1428 X30.272 Y22.517
N1429 X30.573 Y22.645
N1430 X30.894 Y22.809
N1431 X31.231 Y23.012
N1432 X31.605 Y23.277
N1433 X31.977 Y23.584
N1434 X32.386 Y23.973
N1435 X32.808 Y24.437
N1436 X33.243 Y24.99
N1437 X33.704 Y25.672
N1438 X34.158 Y26.463
N1439 X34.557 Y27.283
N1440 X34.909 Y28.124
N1441 X35.22 Y28.981
N1442 X35.494 Y29.851
N1443 X35.737 Y30.73
N1444 X35.951 Y31.616
N1445 X36.141 Y32.508
N1446 X36.309 Y33.404
N1447 X36.458 Y34.303
N1448 X36.589 Y35.206
N1449 X36.705 Y36.11
N1450 X36.806 Y37.016
N1451 X36.896 Y37.924
N1452 X36.975 Y38.832
N1453 X37.044 Y39.741
N1454 X37.105 Y40.651
N1455 X37.159 Y41.561
N1456 X37.205 Y42.472
N1457 X37.247 Y43.383
N1458 X37.283 Y44.294
N1459 X37.314 Y45.205
N1460 X37.341 Y46.117
N1461 X37.364 Y47.028
N1462 X37.383 Y47.94
N1463 X37.397 Y48.851
N1464 X37.406 Y49.763
N1465 X37.408 Y50.675
N1466 X37.403 Y51.587
N1467 X37.389 Y52.498
N1468 X37.363 Y53.41
N1469 X37.325 Y54.321
N1470 X37.271 Y55.231
N1471 X37.2 Y56.14
N1472 X37.107 Y57.047
N1473 X36.99 Y57.952
N1474 X36.844 Y58.852
N1475 X36.658 Y59.744
N1476 X36.44 Y60.554
N1477 X36.246 Y61.11
N1478 X36.044 Y61.578
N1479 X35.965 Y61.729
N1480 X35.773 Y62.017
N1481 X35.524 Y62.256
N1482 X35.228 Y62.435
N1483 X34.901 Y62.546
N1484 X34.557 Y62.584
N1485 X32.097
N1486 G3 X31.856 Y62.527 I0.022 J-0.635
N1487 G1 X31.766 Y62.486 Z-3.167
N1488 X31.677 Y62.446 Z-3.144
N1489 X31.594 Y62.408 Z-3.106
N1490 X31.516 Y62.373 Z-3.054
N1491 X31.447 Y62.341 Z-2.989
N1492 X31.389 Y62.314 Z-2.913
N1493 X31.341 Y62.293 Z-2.828
N1494 X31.306 Y62.277 Z-2.736
N1495 X31.285 Y62.267 Z-2.639
N1496 X31.278 Y62.264 Z-2.54
N1497 G0 Z5
N1498 X28.883 Y23.074
N1499 Z-1.905
N1500 G1 Z-2.54 F1524
N1501 X28.884 Y23.066 Z-2.639
N1502 X28.888 Y23.043 Z-2.736
N1503 X28.895 Y23.006 Z-2.828
N1504 X28.904 Y22.955 Z-2.913
N1505 X28.916 Y22.891 Z-2.989
N1506 X28.929 Y22.816 Z-3.054
N1507 X28.944 Y22.733 Z-3.106
N1508 X28.96 Y22.642 Z-3.144
N1509 X28.978 Y22.547 Z-3.167
N1510 X28.995 Y22.449 Z-3.175
N1511 G3 X29.183 Y22.286 I0.195 J0.035
N1512 G1 X31.461 Y22.285
N1513 X31.689 Y22.297
N1514 X31.899 Y22.317
N1515 X32.132 Y22.356
N1516 X32.374 Y22.415
N1517 X32.656 Y22.505
N1518 X32.938 Y22.619
N1519 X33.257 Y22.775
N1520 X33.594 Y22.972
N1521 X33.949 Y23.214
N1522 X34.336 Y23.522
N1523 X34.732 Y23.886
N1524 X35.151 Y24.331
N1525 X35.6 Y24.883
N1526 X36.059 Y25.539
N1527 X36.526 Y26.322
N1528 X36.937 Y27.136
N1529 X37.3 Y27.972
N1530 X37.62 Y28.826
N1531 X37.904 Y29.693
N1532 X38.155 Y30.569
N1533 X38.378 Y31.453
N1534 X38.576 Y32.343
N1535 X38.752 Y33.238
N1536 X38.908 Y34.136
N1537 X39.046 Y35.038
N1538 X39.168 Y35.941
N1539 X39.277 Y36.846
N1540 X39.373 Y37.753
N1541 X39.457 Y38.661
N1542 X39.532 Y39.57
N1543 X39.598 Y40.479
N1544 X39.656 Y41.389
N1545 X39.708 Y42.3
N1546 X39.753 Y43.21
N1547 X39.792 Y44.121
N1548 X39.826 Y45.032
N1549 X39.856 Y45.944
N1550 X39.88 Y46.855
N1551 X39.9 Y47.767
N1552 X39.914 Y48.679
N1553 X39.922 Y49.59
N1554 Y50.502
N1555 X39.915 Y51.414
N1556 X39.898 Y52.326
N1557 X39.871 Y53.237
N1558 X39.83 Y54.148
N1559 X39.774 Y55.058
N1560 X39.701 Y55.967
N1561 X39.608 Y56.874
N1562 X39.491 Y57.778
N1563 X39.346 Y58.678
N1564 X39.164 Y59.572
N1565 X38.944 Y60.424
N1566 X38.733 Y61.048
N1567 X38.54 Y61.508
N1568 X38.435 Y61.715
N1569 X38.28 Y61.961
N1570 X38.083 Y62.175
N1571 X37.85 Y62.35
N1572 X37.589 Y62.478
N1573 X37.309 Y62.557
N1574 X37.019 Y62.584
N1575 X34.557
N1576 G3 X34.316 Y62.527 I0.022 J-0.635
N1577 G1 X34.225 Y62.486 Z-3.167
N1578 X34.137 Y62.446 Z-3.144
N1579 X34.053 Y62.408 Z-3.106
N1580 X33.976 Y62.373 Z-3.054
N1581 X33.907 Y62.341 Z-2.989
N1582 X33.848 Y62.314 Z-2.913
N1583 X33.801 Y62.293 Z-2.828
N1584 X33.766 Y62.277 Z-2.736
N1585 X33.745 Y62.267 Z-2.639
N1586 X33.738 Y62.264 Z-2.54
N1587 G0 Z5
N1588 X31.161 Y23.074
N1589 Z-1.905
N1590 G1 Z-2.54 F1524
N1591 X31.162 Y23.066 Z-2.639
N1592 X31.166 Y23.043 Z-2.736
N1593 X31.173 Y23.006 Z-2.828
N1594 X31.182 Y22.954 Z-2.913
N1595 X31.194 Y22.891 Z-2.989
N1596 X31.207 Y22.816 Z-3.054
N1597 X31.222 Y22.732 Z-3.106
N1598 X31.238 Y22.642 Z-3.144
N1599 X31.255 Y22.547 Z-3.167
N1600 X31.273 Y22.449 Z-3.175
N1601 G3 X31.461 Y22.285 I0.195 J0.035
N1602 G1 X33.946
N1603 X34.174 Y22.297
N1604 X34.396 Y22.322
N1605 X34.622 Y22.365
N1606 X34.886 Y22.435
N1607 X35.162 Y22.53
N1608 X35.461 Y22.657
N1609 X35.794 Y22.828
N1610 X36.127 Y23.031
N1611 X36.512 Y23.305
N1612 X36.884 Y23.614
N1613 X37.304 Y24.016
N1614 X37.726 Y24.483
N1615 X38.173 Y25.055
N1616 X38.644 Y25.758
N1617 X39.096 Y26.55
N1618 X39.495 Y27.37
N1619 X39.848 Y28.211
N1620 X40.161 Y29.067
N1621 X40.438 Y29.936
N1622 X40.685 Y30.813
N1623 X40.904 Y31.698
N1624 X41.099 Y32.589
N1625 X41.273 Y33.484
N1626 X41.428 Y34.383
N1627 X41.565 Y35.284
N1628 X41.687 Y36.188
N1629 X41.795 Y37.093
N1630 X41.892 Y38
N1631 X41.977 Y38.908
N1632 X42.053 Y39.816
N1633 X42.12 Y40.726
N1634 X42.179 Y41.636
N1635 X42.231 Y42.546
N1636 X42.277 Y43.457
N1637 X42.317 Y44.368
N1638 X42.352 Y45.279
N1639 X42.38 Y46.19
N1640 X42.403 Y47.102
N1641 X42.421 Y48.013
N1642 X42.432 Y48.925
N1643 X42.435 Y49.837
N1644 X42.431 Y50.749
N1645 X42.418 Y51.66
N1646 X42.394 Y52.572
N1647 X42.359 Y53.483
N1648 X42.31 Y54.393
N1649 X42.245 Y55.303
N1650 X42.163 Y56.211
N1651 X42.061 Y57.117
N1652 X41.934 Y58.02
N1653 X41.777 Y58.918
N1654 X41.582 Y59.809
N1655 X41.359 Y60.605
N1656 X41.161 Y61.155
N1657 X40.956 Y61.619
N1658 X40.89 Y61.743
N1659 X40.697 Y62.026
N1660 X40.448 Y62.261
N1661 X40.155 Y62.438
N1662 X39.83 Y62.547
N1663 X39.489 Y62.584
N1664 X37.019
N1665 G3 X36.778 Y62.527 I0.022 J-0.635
N1666 G1 X36.688 Y62.486 Z-3.167
N1667 X36.599 Y62.446 Z-3.144
N1668 X36.516 Y62.408 Z-3.106
N1669 X36.438 Y62.373 Z-3.054
N1670 X36.369 Y62.341 Z-2.989
N1671 X36.31 Y62.314 Z-2.913
N1672 X36.263 Y62.293 Z-2.828
N1673 X36.228 Y62.277 Z-2.736
N1674 X36.207 Y62.267 Z-2.639
N1675 X36.2 Y62.264 Z-2.54
N1676 G0 Z5
N1677 X33.646 Y23.074
N1678 Z-1.905
N1679 G1 Z-2.54 F1524
N1680 X33.647 Y23.066 Z-2.639
N1681 X33.651 Y23.043 Z-2.736
N1682 X33.658 Y23.006 Z-2.828
N1683 X33.667 Y22.954 Z-2.913
N1684 X33.678 Y22.891 Z-2.989
N1685 X33.692 Y22.816 Z-3.054
N1686 X33.707 Y22.732 Z-3.106
N1687 X33.723 Y22.642 Z-3.144
N1688 X33.74 Y22.546 Z-3.167
N1689 X33.758 Y22.449 Z-3.175
N1690 G3 X33.946 Y22.285 I0.195 J0.035
N1691 G1 X36.431
N1692 X36.545 Y22.291
N1693 X36.749 Y22.309
N1694 X36.987 Y22.347
N1695 X37.227 Y22.404
N1696 X37.503 Y22.491
N1697 X37.795 Y22.606
N1698 X38.107 Y22.756
N1699 X38.457 Y22.956
N1700 X38.804 Y23.19
N1701 X39.201 Y23.501
N1702 X39.591 Y23.855
N1703 X40.021 Y24.305
N1704 X40.473 Y24.854
N1705 X40.932 Y25.5
N1706 X41.405 Y26.28
N1707 X41.823 Y27.09
N1708 X42.192 Y27.924
N1709 X42.52 Y28.775
N1710 X42.811 Y29.639
N1711 X43.071 Y30.513
N1712 X43.302 Y31.395
N1713 X43.508 Y32.283
N1714 X43.692 Y33.176
N1715 X43.856 Y34.073
N1716 X44.003 Y34.973
N1717 X44.133 Y35.876
N1718 X44.25 Y36.78
N1719 X44.354 Y37.686
N1720 X44.446 Y38.593
N1721 X44.528 Y39.501
N1722 X44.602 Y40.41
N1723 X44.666 Y41.319
N1724 X44.723 Y42.229
N1725 X44.774 Y43.14
N1726 X44.817 Y44.051
N1727 X44.855 Y44.962
N1728 X44.886 Y45.873
N1729 X44.911 Y46.784
N1730 X44.93 Y47.696
N1731 X44.942 Y48.608
N1732 X44.946 Y49.52
N1733 X44.943 Y50.431
N1734 X44.93 Y51.343
N1735 X44.906 Y52.255
N1736 X44.872 Y53.166
N1737 X44.824 Y54.076
N1738 X44.761 Y54.986
N1739 X44.682 Y55.894
N1740 X44.583 Y56.801
N1741 X44.461 Y57.705
N1742 X44.313 Y58.604
N1743 X44.13 Y59.497
N1744 X43.901 Y60.38
N1745 X43.687 Y61.016
N1746 X43.494 Y61.479
N1747 X43.376 Y61.713
N1748 X43.221 Y61.96
N1749 X43.024 Y62.174
N1750 X42.791 Y62.349
N1751 X42.53 Y62.478
N1752 X42.249 Y62.557
N1753 X41.959 Y62.584
N1754 X39.489
N1755 G3 X39.248 Y62.527 I0.022 J-0.635
N1756 G1 X39.157 Y62.486 Z-3.167
N1757 X39.069 Y62.446 Z-3.144
N1758 X38.985 Y62.408 Z-3.106
N1759 X38.908 Y62.373 Z-3.054
N1760 X38.839 Y62.341 Z-2.989
N1761 X38.78 Y62.314 Z-2.913
N1762 X38.733 Y62.293 Z-2.828
N1763 X38.698 Y62.277 Z-2.736
N1764 X38.677 Y62.267 Z-2.639
N1765 X38.67 Y62.264 Z-2.54
N1766 G0 Z5
N1767 X36.13 Y23.074
N1768 Z-1.905
N1769 G1 Z-2.54 F1524
N1770 X36.132 Y23.066 Z-2.639
N1771 X36.136 Y23.043 Z-2.736
N1772 X36.143 Y23.005 Z-2.828
N1773 X36.152 Y22.954 Z-2.913
N1774 X36.163 Y22.89 Z-2.989
N1775 X36.176 Y22.816 Z-3.054
N1776 X36.191 Y22.732 Z-3.106
N1777 X36.208 Y22.642 Z-3.144
N1778 X36.225 Y22.546 Z-3.167
N1779 X36.242 Y22.448 Z-3.175
N1780 G3 X36.431 Y22.285 I0.195 J0.035
N1781 G1 X38.916
N1782 X39.029 Y22.291
N1783 X39.249 Y22.313
N1784 X39.474 Y22.353
N1785 X39.736 Y22.419
N1786 X40.011 Y22.51
N1787 X40.308 Y22.633
N1788 X40.639 Y22.798
N1789 X40.971 Y22.995
N1790 X41.355 Y23.262
N1791 X41.728 Y23.564
N1792 X42.149 Y23.958
N1793 X42.572 Y24.415
N1794 X43.023 Y24.979
N1795 X43.5 Y25.672
N1796 X43.961 Y26.459
N1797 X44.369 Y27.274
N1798 X44.731 Y28.111
N1799 X45.052 Y28.964
N1800 X45.339 Y29.83
N1801 X45.595 Y30.705
N1802 X45.823 Y31.588
N1803 X46.027 Y32.477
N1804 X46.21 Y33.37
N1805 X46.373 Y34.267
N1806 X46.519 Y35.167
N1807 X46.65 Y36.069
N1808 X46.766 Y36.974
N1809 X46.871 Y37.88
N1810 X46.964 Y38.787
N1811 X47.047 Y39.695
N1812 X47.121 Y40.604
N1813 X47.186 Y41.513
N1814 X47.244 Y42.423
N1815 X47.294 Y43.333
N1816 X47.338 Y44.244
N1817 X47.375 Y45.155
N1818 X47.405 Y46.067
N1819 X47.428 Y46.978
N1820 X47.445 Y47.89
N1821 X47.454 Y48.801
N1822 Y49.713
N1823 X47.446 Y50.625
N1824 X47.428 Y51.537
N1825 X47.4 Y52.448
N1826 X47.359 Y53.359
N1827 X47.306 Y54.269
N1828 X47.237 Y55.178
N1829 X47.151 Y56.086
N1830 X47.045 Y56.992
N1831 X46.916 Y57.895
N1832 X46.758 Y58.793
N1833 X46.564 Y59.683
N1834 X46.337 Y60.516
N1835 X46.132 Y61.098
N1836 X45.923 Y61.577
N1837 X45.841 Y61.734
N1838 X45.648 Y62.02
N1839 X45.399 Y62.258
N1840 X45.104 Y62.436
N1841 X44.777 Y62.547
N1842 X44.435 Y62.584
N1843 X41.959
N1844 G3 X41.718 Y62.527 I0.022 J-0.635
N1845 G1 X41.628 Y62.486 Z-3.167
N1846 X41.539 Y62.446 Z-3.144
N1847 X41.456 Y62.408 Z-3.106
N1848 X41.378 Y62.373 Z-3.054
N1849 X41.309 Y62.341 Z-2.989
N1850 X41.251 Y62.314 Z-2.913
N1851 X41.203 Y62.293 Z-2.828
N1852 X41.168 Y62.277 Z-2.736
N1853 X41.147 Y62.267 Z-2.639
N1854 X41.14 Y62.264 Z-2.54
N1855 G0 Z5
N1856 X38.615 Y23.073
N1857 Z-1.905
N1858 G1 Z-2.54 F1524
N1859 X38.616 Y23.066 Z-2.639
N1860 X38.621 Y23.043 Z-2.736
N1861 X38.627 Y23.005 Z-2.828
N1862 X38.637 Y22.954 Z-2.913
N1863 X38.648 Y22.89 Z-2.989
N1864 X38.661 Y22.816 Z-3.054
N1865 X38.676 Y22.732 Z-3.106
N1866 X38.693 Y22.641 Z-3.144
N1867 X38.71 Y22.546 Z-3.167
N1868 X38.727 Y22.448 Z-3.175
N1869 G3 X38.916 Y22.285 I0.195 J0.035
N1870 G1 X41.4
N1871 X41.514 Y22.291
N1872 X41.738 Y22.316
N1873 X41.97 Y22.36
N1874 X42.228 Y22.428
N1875 X42.517 Y22.528
N1876 X42.81 Y22.653
N1877 X43.15 Y22.827
N1878 X43.487 Y23.033
N1879 X43.867 Y23.303
N1880 X44.253 Y23.624
N1881 X44.681 Y24.033
N1882 X45.106 Y24.504
N1883 X45.567 Y25.093
N1884 X46.051 Y25.816
N1885 X46.503 Y26.608
N1886 X46.904 Y27.427
N1887 X47.26 Y28.267
N1888 X47.577 Y29.122
N1889 X47.86 Y29.988
N1890 X48.113 Y30.864
N1891 X48.34 Y31.748
N1892 X48.542 Y32.637
N1893 X48.724 Y33.53
N1894 X48.887 Y34.427
N1895 X49.032 Y35.327
N1896 X49.163 Y36.23
N1897 X49.28 Y37.134
N1898 X49.385 Y38.04
N1899 X49.479 Y38.947
N1900 X49.563 Y39.855
N1901 X49.638 Y40.763
N1902 X49.704 Y41.673
N1903 X49.762 Y42.583
N1904 X49.812 Y43.493
N1905 X49.855 Y44.404
N1906 X49.891 Y45.315
N1907 X49.92 Y46.226
N1908 X49.942 Y47.138
N1909 X49.956 Y48.05
N1910 X49.962 Y48.962
N1911 X49.959 Y49.873
N1912 X49.948 Y50.785
N1913 X49.926 Y51.697
N1914 X49.892 Y52.608
N1915 X49.847 Y53.519
N1916 X49.788 Y54.428
N1917 X49.714 Y55.337
N1918 X49.623 Y56.244
N1919 X49.511 Y57.149
N1920 X49.375 Y58.051
N1921 X49.21 Y58.948
N1922 X49.007 Y59.837
N1923 X48.785 Y60.611
N1924 X48.574 Y61.186
N1925 X48.367 Y61.646
N1926 X48.31 Y61.751
N1927 X48.117 Y62.032
N1928 X47.868 Y62.265
N1929 X47.575 Y62.44
N1930 X47.252 Y62.548
N1931 X46.913 Y62.584
N1932 X44.435
N1933 G3 X44.194 Y62.527 I0.022 J-0.635
N1934 G1 X44.103 Y62.486 Z-3.167
N1935 X44.015 Y62.446 Z-3.144
N1936 X43.931 Y62.408 Z-3.106
N1937 X43.854 Y62.373 Z-3.054
N1938 X43.785 Y62.341 Z-2.989
N1939 X43.726 Y62.314 Z-2.913
N1940 X43.679 Y62.293 Z-2.828
N1941 X43.644 Y62.277 Z-2.736
N1942 X43.623 Y62.267 Z-2.639
N1943 X43.616 Y62.264 Z-2.54
N1944 G0 Z5
N1945 X41.1 Y23.073
N1946 Z-1.905
N1947 G1 Z-2.54 F1524
N1948 X41.101 Y23.066 Z-2.639
N1949 X41.105 Y23.043 Z-2.736
N1950 X41.112 Y23.005 Z-2.828
N1951 X41.121 Y22.954 Z-2.913
N1952 X41.133 Y22.89 Z-2.989
N1953 X41.146 Y22.816 Z-3.054
N1954 X41.161 Y22.732 Z-3.106
N1955 X41.177 Y22.641 Z-3.144
N1956 X41.194 Y22.546 Z-3.167
N1957 X41.212 Y22.448 Z-3.175
N1958 G3 X41.4 Y22.285 I0.195 J0.035
N1959 G1 X43.678
N1960 X43.906 Y22.296
N1961 X44.11 Y22.314
N1962 X44.347 Y22.351
N1963 X44.589 Y22.408
N1964 X44.864 Y22.494
N1965 X45.161 Y22.61
N1966 X45.471 Y22.759
N1967 X45.827 Y22.962
N1968 X46.175 Y23.195
N1969 X46.576 Y23.508
N1970 X46.969 Y23.864
N1971 X47.406 Y24.319
N1972 X47.863 Y24.872
N1973 X48.333 Y25.53
N1974 X48.807 Y26.309
N1975 X49.227 Y27.118
N1976 X49.601 Y27.95
N1977 X49.933 Y28.799
N1978 X50.23 Y29.661
N1979 X50.496 Y30.533
N1980 X50.734 Y31.413
N1981 X50.948 Y32.299
N1982 X51.14 Y33.191
N1983 X51.312 Y34.086
N1984 X51.467 Y34.985
N1985 X51.606 Y35.886
N1986 X51.731 Y36.789
N1987 X51.843 Y37.694
N1988 X51.944 Y38.6
N1989 X52.034 Y39.508
N1990 X52.114 Y40.416
N1991 X52.185 Y41.325
N1992 X52.248 Y42.235
N1993 X52.302 Y43.145
N1994 X52.349 Y44.055
N1995 X52.388 Y44.966
N1996 X52.42 Y45.878
N1997 X52.444 Y46.789
N1998 X52.46 Y47.701
N1999 X52.468 Y48.613
N2000 Y49.524
N2001 X52.458 Y50.436
N2002 X52.438 Y51.348
N2003 X52.407 Y52.259
N2004 X52.364 Y53.17
N2005 X52.308 Y54.08
N2006 X52.237 Y54.989
N2007 X52.15 Y55.897
N2008 X52.044 Y56.802
N2009 X51.915 Y57.705
N2010 X51.76 Y58.603
N2011 X51.571 Y59.496
N2012 X51.338 Y60.377
N2013 X51.121 Y61.018
N2014 X50.926 Y61.483
N2015 X50.806 Y61.717
N2016 X50.615 Y62.008
N2017 X50.365 Y62.251
N2018 X50.068 Y62.433
N2019 X49.738 Y62.546
N2020 X49.392 Y62.584
N2021 X46.913
N2022 G3 X46.672 Y62.527 I0.022 J-0.635
N2023 G1 X46.582 Y62.486 Z-3.167
N2024 X46.494 Y62.446 Z-3.144
N2025 X46.41 Y62.408 Z-3.106
N2026 X46.333 Y62.373 Z-3.054
N2027 X46.264 Y62.341 Z-2.989
N2028 X46.205 Y62.314 Z-2.913
N2029 X46.157 Y62.293 Z-2.828
N2030 X46.123 Y62.277 Z-2.736
N2031 X46.102 Y62.267 Z-2.639
N2032 X46.094 Y62.264 Z-2.54
N2033 G0 Z5
N2034 X43.378 Y23.073
N2035 Z-1.905
N2036 G1 Z-2.54 F1524
N2037 X43.379 Y23.065 Z-2.639
N2038 X43.383 Y23.043 Z-2.736
N2039 X43.39 Y23.005 Z-2.828
N2040 X43.399 Y22.954 Z-2.913
N2041 X43.41 Y22.89 Z-2.989
N2042 X43.424 Y22.815 Z-3.054
N2043 X43.439 Y22.732 Z-3.106
N2044 X43.455 Y22.641 Z-3.144
N2045 X43.472 Y22.546 Z-3.167
N2046 X43.49 Y22.448 Z-3.175
N2047 G3 X43.678 Y22.285 I0.195 J0.035
N2048 G1 X46.163
N2049 X46.391 Y22.296
N2050 X46.611 Y22.317
N2051 X46.835 Y22.356
N2052 X47.095 Y22.42
N2053 X47.373 Y22.51
N2054 X47.668 Y22.63
N2055 X48.003 Y22.795
N2056 X48.334 Y22.989
N2057 X48.718 Y23.253
N2058 X49.095 Y23.554
N2059 X49.521 Y23.948
N2060 X49.945 Y24.402
N2061 X50.403 Y24.968
N2062 X50.888 Y25.665
N2063 X51.353 Y26.449
N2064 X51.766 Y27.262
N2065 X52.134 Y28.096
N2066 X52.462 Y28.947
N2067 X52.755 Y29.81
N2068 X53.018 Y30.683
N2069 X53.254 Y31.564
N2070 X53.466 Y32.451
N2071 X53.657 Y33.342
N2072 X53.828 Y34.238
N2073 X53.983 Y35.137
N2074 X54.122 Y36.038
N2075 X54.247 Y36.941
N2076 X54.359 Y37.846
N2077 X54.46 Y38.752
N2078 X54.55 Y39.659
N2079 X54.63 Y40.568
N2080 X54.701 Y41.477
N2081 X54.764 Y42.386
N2082 X54.818 Y43.297
N2083 X54.864 Y44.207
N2084 X54.902 Y45.118
N2085 X54.932 Y46.03
N2086 X54.955 Y46.941
N2087 X54.969 Y47.853
N2088 X54.974 Y48.765
N2089 X54.97 Y49.676
N2090 X54.957 Y50.588
N2091 X54.933 Y51.5
N2092 X54.899 Y52.411
N2093 X54.852 Y53.321
N2094 X54.792 Y54.231
N2095 X54.716 Y55.14
N2096 X54.624 Y56.047
N2097 X54.513 Y56.952
N2098 X54.379 Y57.854
N2099 X54.217 Y58.751
N2100 X54.02 Y59.642
N2101 X53.791 Y60.479
N2102 X53.571 Y61.1
N2103 X53.366 Y61.569
N2104 X53.279 Y61.736
N2105 X53.086 Y62.021
N2106 X52.837 Y62.259
N2107 X52.542 Y62.437
N2108 X52.216 Y62.547
N2109 X51.873 Y62.584
N2110 X49.392
N2111 G3 X49.15 Y62.527 I0.022 J-0.635
N2112 G1 X49.06 Y62.486 Z-3.167
N2113 X48.972 Y62.446 Z-3.144
N2114 X48.888 Y62.408 Z-3.106
N2115 X48.811 Y62.373 Z-3.054
N2116 X48.742 Y62.341 Z-2.989
N2117 X48.683 Y62.314 Z-2.913
N2118 X48.636 Y62.293 Z-2.828
N2119 X48.601 Y62.277 Z-2.736
N2120 X48.58 Y62.267 Z-2.639
N2121 X48.573 Y62.264 Z-2.54
N2122 G0 Z5
N2123 X45.862 Y23.073
N2124 Z-1.905
N2125 G1 Z-2.54 F1524
N2126 X45.864 Y23.065 Z-2.639
N2127 X45.868 Y23.042 Z-2.736
N2128 X45.875 Y23.005 Z-2.828
N2129 X45.884 Y22.954 Z-2.913
N2130 X45.895 Y22.89 Z-2.989
N2131 X45.909 Y22.815 Z-3.054
N2132 X45.924 Y22.732 Z-3.106
N2133 X45.94 Y22.641 Z-3.144
N2134 X45.957 Y22.546 Z-3.167
N2135 X45.974 Y22.448 Z-3.175
N2136 G3 X46.163 Y22.285 I0.195 J0.035
N2137 G1 X48.648 Y22.284
N2138 X48.875 Y22.296
N2139 X49.097 Y22.319
N2140 X49.328 Y22.36
N2141 X49.584 Y22.425
N2142 X49.872 Y22.521
N2143 X50.163 Y22.642
N2144 X50.501 Y22.811
N2145 X50.84 Y23.013
N2146 X51.217 Y23.277
N2147 X51.607 Y23.593
N2148 X52.035 Y23.994
N2149 X52.463 Y24.459
N2150 X52.928 Y25.042
N2151 X53.418 Y25.758
N2152 X53.878 Y26.545
N2153 X54.287 Y27.361
N2154 X54.651 Y28.197
N2155 X54.976 Y29.048
N2156 X55.268 Y29.912
N2157 X55.529 Y30.786
N2158 X55.764 Y31.667
N2159 X55.975 Y32.554
N2160 X56.166 Y33.446
N2161 X56.337 Y34.341
N2162 X56.492 Y35.24
N2163 X56.631 Y36.141
N2164 X56.757 Y37.044
N2165 X56.87 Y37.949
N2166 X56.971 Y38.855
N2167 X57.062 Y39.762
N2168 X57.142 Y40.67
N2169 X57.213 Y41.579
N2170 X57.276 Y42.489
N2171 X57.33 Y43.399
N2172 X57.375 Y44.31
N2173 X57.412 Y45.221
N2174 X57.442 Y46.132
N2175 X57.462 Y47.044
N2176 X57.474 Y47.956
N2177 X57.478 Y48.868
N2178 X57.472 Y49.779
N2179 X57.456 Y50.691
N2180 X57.43 Y51.602
N2181 X57.392 Y52.513
N2182 X57.342 Y53.424
N2183 X57.278 Y54.333
N2184 X57.2 Y55.242
N2185 X57.105 Y56.149
N2186 X56.99 Y57.053
N2187 X56.851 Y57.954
N2188 X56.683 Y58.851
N2189 X56.481 Y59.74
N2190 X56.252 Y60.55
N2191 X56.034 Y61.152
N2192 X55.828 Y61.614
N2193 X55.757 Y61.747
N2194 X55.564 Y62.029
N2195 X55.315 Y62.263
N2196 X55.021 Y62.439
N2197 X54.697 Y62.548
N2198 X54.357 Y62.584
N2199 X51.873
N2200 G3 X51.632 Y62.527 I0.022 J-0.635
N2201 G1 X51.542 Y62.486 Z-3.167
N2202 X51.454 Y62.446 Z-3.144
N2203 X51.37 Y62.408 Z-3.106
N2204 X51.293 Y62.373 Z-3.054
N2205 X51.224 Y62.341 Z-2.989
N2206 X51.165 Y62.314 Z-2.913
N2207 X51.117 Y62.293 Z-2.828
N2208 X51.083 Y62.277 Z-2.736
N2209 X51.062 Y62.267 Z-2.639
N2210 X51.054 Y62.264 Z-2.54
N2211 G0 Z5
N2212 X48.347 Y23.073
N2213 Z-1.905
N2214 G1 Z-2.54 F1524
N2215 X48.349 Y23.065 Z-2.639
N2216 X48.353 Y23.042 Z-2.736
N2217 X48.359 Y23.005 Z-2.828
N2218 X48.369 Y22.953 Z-2.913
N2219 X48.38 Y22.89 Z-2.989
N2220 X48.393 Y22.815 Z-3.054
N2221 X48.408 Y22.732 Z-3.106
N2222 X48.425 Y22.641 Z-3.144
N2223 X48.442 Y22.546 Z-3.167
N2224 X48.459 Y22.448 Z-3.175
N2225 G3 X48.648 Y22.284 I0.195 J0.035
N2226 G1 X51.132
N2227 X51.36 Y22.296
N2228 X51.581 Y22.32
N2229 X51.819 Y22.364
N2230 X52.074 Y22.431
N2231 X52.368 Y22.53
N2232 X52.661 Y22.654
N2233 X52.996 Y22.825
N2234 X53.345 Y23.036
N2235 X53.72 Y23.301
N2236 X54.118 Y23.628
N2237 X54.544 Y24.033
N2238 X54.98 Y24.511
N2239 X55.45 Y25.109
N2240 X55.945 Y25.841
N2241 X56.4 Y26.631
N2242 X56.805 Y27.448
N2243 X57.166 Y28.285
N2244 X57.489 Y29.138
N2245 X57.779 Y30.002
N2246 X58.039 Y30.876
N2247 X58.273 Y31.758
N2248 X58.484 Y32.645
N2249 X58.674 Y33.536
N2250 X58.845 Y34.432
N2251 X59 Y35.331
N2252 X59.14 Y36.232
N2253 X59.266 Y37.135
N2254 X59.379 Y38.039
N2255 X59.481 Y38.945
N2256 X59.572 Y39.853
N2257 X59.653 Y40.761
N2258 X59.724 Y41.67
N2259 X59.786 Y42.58
N2260 X59.84 Y43.49
N2261 X59.885 Y44.401
N2262 X59.921 Y45.312
N2263 X59.949 Y46.223
N2264 X59.968 Y47.135
N2265 X59.979 Y48.046
N2266 X59.98 Y48.958
N2267 X59.972 Y49.87
N2268 X59.954 Y50.782
N2269 X59.925 Y51.693
N2270 X59.885 Y52.604
N2271 X59.833 Y53.514
N2272 X59.766 Y54.424
N2273 X59.685 Y55.332
N2274 X59.586 Y56.238
N2275 X59.467 Y57.142
N2276 X59.324 Y58.043
N2277 X59.153 Y58.938
N2278 X58.945 Y59.826
N2279 X58.717 Y60.611
N2280 X58.502 Y61.195
N2281 X58.293 Y61.653
N2282 X58.237 Y61.756
N2283 X58.044 Y62.036
N2284 X57.795 Y62.267
N2285 X57.503 Y62.441
N2286 X57.181 Y62.548
N2287 X56.843 Y62.585
N2288 X54.357 Y62.584
N2289 G3 X54.116 Y62.528 I0.022 J-0.635
N2290 G1 X54.026 Y62.486 Z-3.167
N2291 X53.938 Y62.446 Z-3.144
N2292 X53.854 Y62.408 Z-3.106
N2293 X53.776 Y62.373 Z-3.054
N2294 X53.708 Y62.341 Z-2.989
N2295 X53.649 Y62.315 Z-2.913
N2296 X53.601 Y62.293 Z-2.828
N2297 X53.567 Y62.277 Z-2.736
N2298 X53.545 Y62.267 Z-2.639
N2299 X53.538 Y62.264 Z-2.54
N2300 G0 Z5
N2301 X50.832 Y23.073
N2302 Z-1.905
N2303 G1 Z-2.54 F1524
N2304 X50.833 Y23.065 Z-2.639
N2305 X50.837 Y23.042 Z-2.736
N2306 X50.844 Y23.005 Z-2.828
N2307 X50.853 Y22.953 Z-2.913
N2308 X50.865 Y22.89 Z-2.989
N2309 X50.878 Y22.815 Z-3.054
N2310 X50.893 Y22.731 Z-3.106
N2311 X50.909 Y22.641 Z-3.144
N2312 X50.926 Y22.545 Z-3.167
N2313 X50.944 Y22.448 Z-3.175
N2314 G3 X51.132 Y22.284 I0.195 J0.035
N2315 G1 X53.617
N2316 X53.845 Y22.296
N2317 X54.065 Y22.321
N2318 X54.309 Y22.367
N2319 X54.563 Y22.435
N2320 X54.858 Y22.537
N2321 X55.156 Y22.664
N2322 X55.49 Y22.836
N2323 X55.848 Y23.054
N2324 X56.22 Y23.32
N2325 X56.625 Y23.656
N2326 X57.049 Y24.063
N2327 X57.49 Y24.552
N2328 X57.965 Y25.162
N2329 X58.464 Y25.906
N2330 X58.915 Y26.699
N2331 X59.317 Y27.517
N2332 X59.676 Y28.356
N2333 X59.997 Y29.209
N2334 X60.286 Y30.074
N2335 X60.545 Y30.948
N2336 X60.778 Y31.829
N2337 X60.989 Y32.716
N2338 X61.179 Y33.608
N2339 X61.351 Y34.504
N2340 X61.506 Y35.402
N2341 X61.647 Y36.303
N2342 X61.773 Y37.206
N2343 X61.887 Y38.111
N2344 X61.989 Y39.017
N2345 X62.081 Y39.924
N2346 X62.162 Y40.832
N2347 X62.233 Y41.741
N2348 X62.295 Y42.651
N2349 X62.348 Y43.561
N2350 X62.392 Y44.472
N2351 X62.428 Y45.383
N2352 X62.455 Y46.295
N2353 X62.473 Y47.206
N2354 X62.482 Y48.118
N2355 Y49.03
N2356 X62.472 Y49.942
N2357 X62.452 Y50.853
N2358 X62.421 Y51.764
N2359 X62.379 Y52.675
N2360 X62.324 Y53.585
N2361 X62.256 Y54.495
N2362 X62.172 Y55.403
N2363 X62.07 Y56.309
N2364 X61.948 Y57.212
N2365 X61.801 Y58.112
N2366 X61.626 Y59.007
N2367 X61.415 Y59.894
N2368 X61.188 Y60.66
N2369 X60.974 Y61.23
N2370 X60.764 Y61.684
N2371 X60.72 Y61.764
N2372 X60.526 Y62.041
N2373 X60.278 Y62.271
N2374 X59.987 Y62.442
N2375 X59.666 Y62.549
N2376 X59.33 Y62.585
N2377 X56.843
N2378 G3 X56.602 Y62.528 I0.022 J-0.635
N2379 G1 X56.511 Y62.487 Z-3.167
N2380 X56.423 Y62.446 Z-3.144
N2381 X56.339 Y62.408 Z-3.106
N2382 X56.262 Y62.373 Z-3.054
N2383 X56.193 Y62.342 Z-2.989
N2384 X56.134 Y62.315 Z-2.913
N2385 X56.087 Y62.293 Z-2.828
N2386 X56.052 Y62.277 Z-2.736
N2387 X56.031 Y62.268 Z-2.639
N2388 X56.024 Y62.264 Z-2.54
N2389 G0 Z5
N2390 X53.317 Y23.073
N2391 Z-1.905
N2392 G1 Z-2.54 F1524
N2393 X53.318 Y23.065 Z-2.639
N2394 X53.322 Y23.042 Z-2.736
N2395 X53.329 Y23.004 Z-2.828
N2396 X53.338 Y22.953 Z-2.913
N2397 X53.35 Y22.89 Z-2.989
N2398 X53.363 Y22.815 Z-3.054
N2399 X53.378 Y22.731 Z-3.106
N2400 X53.394 Y22.641 Z-3.144
N2401 X53.411 Y22.545 Z-3.167
N2402 X53.429 Y22.448 Z-3.175
N2403 G3 X53.617 Y22.284 I0.195 J0.035
N2404 G1 X56.102
N2405 X56.33 Y22.295
N2406 X56.549 Y22.322
N2407 X56.798 Y22.37
N2408 X57.051 Y22.438
N2409 X57.345 Y22.54
N2410 X57.649 Y22.671
N2411 X57.981 Y22.844
N2412 X58.346 Y23.068
N2413 X58.716 Y23.334
N2414 X59.126 Y23.677
N2415 X59.549 Y24.085
N2416 X59.995 Y24.583
N2417 X60.473 Y25.2
N2418 X60.974 Y25.955
N2419 X61.423 Y26.749
N2420 X61.823 Y27.569
N2421 X62.18 Y28.407
N2422 X62.501 Y29.261
N2423 X62.788 Y30.126
N2424 X63.047 Y31.001
N2425 X63.281 Y31.882
N2426 X63.492 Y32.769
N2427 X63.682 Y33.661
N2428 X63.855 Y34.556
N2429 X64.01 Y35.455
N2430 X64.151 Y36.355
N2431 X64.278 Y37.258
N2432 X64.393 Y38.163
N2433 X64.495 Y39.069
N2434 X64.587 Y39.976
N2435 X64.668 Y40.884
N2436 X64.74 Y41.793
N2437 X64.802 Y42.703
N2438 X64.855 Y43.613
N2439 X64.898 Y44.524
N2440 X64.933 Y45.435
N2441 X64.959 Y46.347
N2442 X64.977 Y47.258
N2443 X64.985 Y48.17
N2444 X64.983 Y49.082
N2445 X64.972 Y49.994
N2446 X64.95 Y50.905
N2447 X64.918 Y51.816
N2448 X64.874 Y52.727
N2449 X64.817 Y53.637
N2450 X64.746 Y54.546
N2451 X64.66 Y55.454
N2452 X64.556 Y56.36
N2453 X64.431 Y57.263
N2454 X64.282 Y58.163
N2455 X64.105 Y59.057
N2456 X63.89 Y59.943
N2457 X63.664 Y60.696
N2458 X63.451 Y61.255
N2459 X63.241 Y61.707
N2460 X63.206 Y61.77
N2461 X63.011 Y62.045
N2462 X62.764 Y62.273
N2463 X62.473 Y62.444
N2464 X62.153 Y62.549
N2465 X61.819 Y62.585
N2466 X59.33
N2467 G3 X59.089 Y62.528 I0.022 J-0.635
N2468 G1 X58.999 Y62.487 Z-3.167
N2469 X58.91 Y62.447 Z-3.144
N2470 X58.827 Y62.408 Z-3.106
N2471 X58.749 Y62.373 Z-3.054
N2472 X58.68 Y62.342 Z-2.989
N2473 X58.621 Y62.315 Z-2.913
N2474 X58.574 Y62.293 Z-2.828
N2475 X58.539 Y62.277 Z-2.736
N2476 X58.518 Y62.268 Z-2.639
N2477 X58.511 Y62.265 Z-2.54
N2478 G0 Z5
N2479 X55.802 Y23.072
N2480 Z-1.905
N2481 G1 Z-2.54 F1524
N2482 X55.803 Y23.065 Z-2.639
N2483 X55.807 Y23.042 Z-2.736
N2484 X55.814 Y23.004 Z-2.828
N2485 X55.823 Y22.953 Z-2.913
N2486 X55.834 Y22.889 Z-2.989
N2487 X55.848 Y22.815 Z-3.054
N2488 X55.863 Y22.731 Z-3.106
N2489 X55.879 Y22.641 Z-3.144
N2490 X55.896 Y22.545 Z-3.167
N2491 X55.914 Y22.447 Z-3.175
N2492 G3 X56.102 Y22.284 I0.195 J0.035
N2493 G1 X58.587
N2494 X58.814 Y22.295
N2495 X59.033 Y22.322
N2496 X59.284 Y22.371
N2497 X59.538 Y22.44
N2498 X59.831 Y22.543
N2499 X60.14 Y22.676
N2500 X60.47 Y22.849
N2501 X60.841 Y23.078
N2502 X61.209 Y23.344
N2503 X61.622 Y23.691
N2504 X62.044 Y24.1
N2505 X62.494 Y24.603
N2506 X62.974 Y25.227
N2507 X63.477 Y25.988
N2508 X63.924 Y26.782
N2509 X64.323 Y27.602
N2510 X64.68 Y28.441
N2511 X65 Y29.295
N2512 X65.287 Y30.161
N2513 X65.546 Y31.035
N2514 X65.78 Y31.916
N2515 X65.991 Y32.803
N2516 X66.182 Y33.695
N2517 X66.355 Y34.59
N2518 X66.512 Y35.488
N2519 X66.653 Y36.389
N2520 X66.781 Y37.292
N2521 X66.896 Y38.196
N2522 X66.999 Y39.102
N2523 X67.091 Y40.009
N2524 X67.173 Y40.918
N2525 X67.245 Y41.827
N2526 X67.307 Y42.736
N2527 X67.359 Y43.647
N2528 X67.403 Y44.557
N2529 X67.437 Y45.469
N2530 X67.463 Y46.38
N2531 X67.479 Y47.292
N2532 X67.486 Y48.203
N2533 X67.484 Y49.115
N2534 X67.471 Y50.027
N2535 X67.448 Y50.939
N2536 X67.415 Y51.85
N2537 X67.369 Y52.76
N2538 X67.311 Y53.67
N2539 X67.239 Y54.579
N2540 X67.151 Y55.487
N2541 X67.045 Y56.392
N2542 X66.918 Y57.295
N2543 X66.767 Y58.195
N2544 X66.588 Y59.089
N2545 X66.371 Y59.974
N2546 X66.145 Y60.719
N2547 X65.933 Y61.272
N2548 X65.722 Y61.722
N2549 X65.693 Y61.774
N2550 X65.498 Y62.048
N2551 X65.251 Y62.275
N2552 X64.961 Y62.445
N2553 X64.642 Y62.55
N2554 X64.308 Y62.585
N2555 X61.819
N2556 G3 X61.577 Y62.528 I0.022 J-0.635
N2557 G1 X61.487 Y62.487 Z-3.167
N2558 X61.399 Y62.447 Z-3.144
N2559 X61.315 Y62.409 Z-3.106
N2560 X61.238 Y62.373 Z-3.054
N2561 X61.169 Y62.342 Z-2.989
N2562 X61.11 Y62.315 Z-2.913
N2563 X61.063 Y62.293 Z-2.828
N2564 X61.028 Y62.278 Z-2.736
N2565 X61.007 Y62.268 Z-2.639
N2566 X61 Y62.265 Z-2.54
N2567 G0 Z5
N2568 X58.286 Y23.072
N2569 Z-1.905
N2570 G1 Z-2.54 F1524
N2571 X58.288 Y23.065 Z-2.639
N2572 X58.292 Y23.042 Z-2.736
N2573 X58.299 Y23.004 Z-2.828
N2574 X58.308 Y22.953 Z-2.913
N2575 X58.319 Y22.889 Z-2.989
N2576 X58.333 Y22.815 Z-3.054
N2577 X58.348 Y22.731 Z-3.106
N2578 X58.364 Y22.64 Z-3.144
N2579 X58.381 Y22.545 Z-3.167
N2580 X58.398 Y22.447 Z-3.175
N2581 G3 X58.587 Y22.284 I0.195 J0.035
N2582 G1 X61.072
N2583 X61.299 Y22.295
N2584 X61.517 Y22.322
N2585 X61.77 Y22.371
N2586 X62.024 Y22.441
N2587 X62.317 Y22.544
N2588 X62.628 Y22.679
N2589 X62.958 Y22.852
N2590 X63.332 Y23.084
N2591 X63.699 Y23.35
N2592 X64.115 Y23.699
N2593 X64.536 Y24.108
N2594 X64.988 Y24.616
N2595 X65.471 Y25.244
N2596 X65.973 Y26.005
N2597 X66.419 Y26.8
N2598 X66.818 Y27.62
N2599 X67.174 Y28.459
N2600 X67.494 Y29.313
N2601 X67.782 Y30.178
N2602 X68.042 Y31.052
N2603 X68.276 Y31.933
N2604 X68.488 Y32.82
N2605 X68.68 Y33.712
N2606 X68.854 Y34.607
N2607 X69.011 Y35.505
N2608 X69.153 Y36.406
N2609 X69.282 Y37.308
N2610 X69.398 Y38.213
N2611 X69.501 Y39.119
N2612 X69.594 Y40.026
N2613 X69.676 Y40.934
N2614 X69.748 Y41.843
N2615 X69.81 Y42.752
N2616 X69.863 Y43.663
N2617 X69.906 Y44.574
N2618 X69.94 Y45.485
N2619 X69.965 Y46.396
N2620 X69.981 Y47.308
N2621 X69.987 Y48.22
N2622 X69.984 Y49.131
N2623 X69.971 Y50.043
N2624 X69.947 Y50.955
N2625 X69.912 Y51.866
N2626 X69.866 Y52.776
N2627 X69.806 Y53.686
N2628 X69.733 Y54.595
N2629 X69.643 Y55.503
N2630 X69.536 Y56.408
N2631 X69.408 Y57.311
N2632 X69.256 Y58.21
N2633 X69.075 Y59.104
N2634 X68.857 Y59.989
N2635 X68.631 Y60.73
N2636 X68.419 Y61.281
N2637 X68.208 Y61.729
N2638 X68.182 Y61.776
N2639 X67.987 Y62.049
N2640 X67.74 Y62.276
N2641 X67.45 Y62.445
N2642 X67.131 Y62.55
N2643 X66.798 Y62.585
N2644 X64.308
N2645 G3 X64.067 Y62.528 I0.022 J-0.635
N2646 G1 X63.976 Y62.487 Z-3.167
N2647 X63.888 Y62.447 Z-3.144
N2648 X63.804 Y62.409 Z-3.106
N2649 X63.727 Y62.373 Z-3.054
N2650 X63.658 Y62.342 Z-2.989
N2651 X63.599 Y62.315 Z-2.913
N2652 X63.552 Y62.294 Z-2.828
N2653 X63.517 Y62.278 Z-2.736
N2654 X63.496 Y62.268 Z-2.639
N2655 X63.489 Y62.265 Z-2.54
N2656 G0 Z5
N2657 X60.771 Y23.072
N2658 Z-1.905
N2659 G1 Z-2.54 F1524
N2660 X60.773 Y23.064 Z-2.639
N2661 X60.777 Y23.042 Z-2.736
N2662 X60.783 Y23.004 Z-2.828
N2663 X60.793 Y22.953 Z-2.913
N2664 X60.804 Y22.889 Z-2.989
N2665 X60.817 Y22.815 Z-3.054
N2666 X60.832 Y22.731 Z-3.106
N2667 X60.849 Y22.64 Z-3.144
N2668 X60.866 Y22.545 Z-3.167
N2669 X60.883 Y22.447 Z-3.175
N2670 G3 X61.072 Y22.284 I0.195 J0.035
N2671 G1 X63.556
N2672 X63.784 Y22.295
N2673 X64.002 Y22.322
N2674 X64.255 Y22.372
N2675 X64.51 Y22.441
N2676 X64.802 Y22.544
N2677 X65.115 Y22.681
N2678 X65.444 Y22.853
N2679 X65.819 Y23.086
N2680 X66.187 Y23.352
N2681 X66.605 Y23.703
N2682 X67.025 Y24.112
N2683 X67.479 Y24.622
N2684 X67.963 Y25.252
N2685 X68.465 Y26.014
N2686 X68.911 Y26.809
N2687 X69.31 Y27.629
N2688 X69.667 Y28.468
N2689 X69.987 Y29.321
N2690 X70.276 Y30.186
N2691 X70.536 Y31.06
N2692 X70.771 Y31.941
N2693 X70.984 Y32.828
N2694 X71.176 Y33.719
N2695 X71.351 Y34.614
N2696 X71.509 Y35.512
N2697 X71.652 Y36.413
N2698 X71.781 Y37.315
N2699 X71.898 Y38.22
N2700 X72.002 Y39.125
N2701 X72.095 Y40.033
N2702 X72.178 Y40.941
N2703 X72.25 Y41.85
N2704 X72.312 Y42.759
N2705 X72.365 Y43.67
N2706 X72.408 Y44.58
N2707 X72.442 Y45.491
N2708 X72.467 Y46.403
N2709 X72.482 Y47.315
N2710 X72.488 Y48.226
N2711 X72.484 Y49.138
N2712 X72.47 Y50.05
N2713 X72.445 Y50.961
N2714 X72.41 Y51.873
N2715 X72.362 Y52.783
N2716 X72.302 Y53.693
N2717 X72.227 Y54.602
N2718 X72.137 Y55.509
N2719 X72.029 Y56.414
N2720 X71.9 Y57.317
N2721 X71.747 Y58.216
N2722 X71.565 Y59.109
N2723 X71.346 Y59.995
N2724 X71.12 Y60.735
N2725 X70.908 Y61.285
N2726 X70.696 Y61.733
N2727 X70.671 Y61.777
N2728 X70.477 Y62.05
N2729 X70.23 Y62.276
N2730 X69.94 Y62.445
N2731 X69.622 Y62.55
N2732 X69.288 Y62.585
N2733 X66.798
N2734 G3 X66.557 Y62.528 I0.022 J-0.635
N2735 G1 X66.466 Y62.487 Z-3.167
N2736 X66.378 Y62.447 Z-3.144
N2737 X66.294 Y62.409 Z-3.106
N2738 X66.217 Y62.374 Z-3.054
N2739 X66.148 Y62.342 Z-2.989
N2740 X66.089 Y62.315 Z-2.913
N2741 X66.042 Y62.294 Z-2.828
N2742 X66.007 Y62.278 Z-2.736
N2743 X65.986 Y62.268 Z-2.639
N2744 X65.979 Y62.265 Z-2.54
N2745 G0 Z5
N2746 X63.256 Y23.072
N2747 Z-1.905
N2748 G1 Z-2.54 F1524
N2749 X63.257 Y23.064 Z-2.639
N2750 X63.261 Y23.041 Z-2.736
N2751 X63.268 Y23.004 Z-2.828
N2752 X63.277 Y22.953 Z-2.913
N2753 X63.289 Y22.889 Z-2.989
N2754 X63.302 Y22.814 Z-3.054
N2755 X63.317 Y22.731 Z-3.106
N2756 X63.333 Y22.64 Z-3.144
N2757 X63.35 Y22.545 Z-3.167
N2758 X63.368 Y22.447 Z-3.175
N2759 G3 X63.556 Y22.284 I0.195 J0.035
N2760 G1 X66.041
N2761 X66.269 Y22.295
N2762 X66.486 Y22.322
N2763 X66.739 Y22.371
N2764 X66.995 Y22.441
N2765 X67.286 Y22.544
N2766 X67.601 Y22.681
N2767 X67.93 Y22.853
N2768 X68.305 Y23.086
N2769 X68.673 Y23.352
N2770 X69.092 Y23.704
N2771 X69.512 Y24.113
N2772 X69.967 Y24.624
N2773 X70.452 Y25.255
N2774 X70.954 Y26.016
N2775 X71.401 Y26.811
N2776 X71.8 Y27.63
N2777 X72.158 Y28.469
N2778 X72.479 Y29.323
N2779 X72.768 Y30.188
N2780 X73.029 Y31.061
N2781 X73.265 Y31.942
N2782 X73.478 Y32.828
N2783 X73.672 Y33.719
N2784 X73.847 Y34.614
N2785 X74.006 Y35.512
N2786 X74.15 Y36.412
N2787 X74.28 Y37.315
N2788 X74.397 Y38.219
N2789 X74.502 Y39.125
N2790 X74.596 Y40.032
N2791 X74.679 Y40.94
N2792 X74.751 Y41.849
N2793 X74.813 Y42.759
N2794 X74.866 Y43.669
N2795 X74.909 Y44.58
N2796 X74.943 Y45.491
N2797 X74.968 Y46.402
N2798 X74.983 Y47.314
N2799 X74.988 Y48.226
N2800 X74.984 Y49.138
N2801 X74.969 Y50.049
N2802 X74.944 Y50.961
N2803 X74.908 Y51.872
N2804 X74.86 Y52.782
N2805 X74.798 Y53.692
N2806 X74.723 Y54.601
N2807 X74.632 Y55.508
N2808 X74.523 Y56.413
N2809 X74.393 Y57.316
N2810 X74.239 Y58.215
N2811 X74.057 Y59.108
N2812 X73.838 Y59.993
N2813 X73.611 Y60.736
N2814 X73.398 Y61.286
N2815 X73.187 Y61.734
N2816 X73.162 Y61.777
N2817 X72.968 Y62.05
N2818 X72.72 Y62.277
N2819 X72.431 Y62.446
N2820 X72.113 Y62.55
N2821 X71.779 Y62.586
N2822 X69.288 Y62.585
N2823 G3 X69.047 Y62.529 I0.022 J-0.635
N2824 G1 X68.957 Y62.487 Z-3.167
N2825 X68.868 Y62.447 Z-3.144
N2826 X68.785 Y62.409 Z-3.106
N2827 X68.707 Y62.374 Z-3.054
N2828 X68.638 Y62.342 Z-2.989
N2829 X68.58 Y62.316 Z-2.913
N2830 X68.532 Y62.294 Z-2.828
N2831 X68.497 Y62.278 Z-2.736
N2832 X68.476 Y62.268 Z-2.639
N2833 X68.469 Y62.265 Z-2.54
N2834 G0 Z5
N2835 X65.741 Y23.072
N2836 Z-1.905
N2837 G1 Z-2.54 F1524
N2838 X65.742 Y23.064 Z-2.639
N2839 X65.746 Y23.041 Z-2.736
N2840 X65.753 Y23.004 Z-2.828
N2841 X65.762 Y22.953 Z-2.913
N2842 X65.774 Y22.889 Z-2.989
N2843 X65.787 Y22.814 Z-3.054
N2844 X65.802 Y22.731 Z-3.106
N2845 X65.818 Y22.64 Z-3.144
N2846 X65.835 Y22.545 Z-3.167
N2847 X65.853 Y22.447 Z-3.175
N2848 G3 X66.041 Y22.284 I0.195 J0.035
N2849 G1 X68.526 Y22.283
N2850 X68.754 Y22.295
N2851 X68.971 Y22.321
N2852 X69.224 Y22.371
N2853 X69.479 Y22.44
N2854 X69.771 Y22.543
N2855 X70.086 Y22.679
N2856 X70.414 Y22.851
N2857 X70.79 Y23.084
N2858 X71.158 Y23.35
N2859 X71.577 Y23.701
N2860 X71.998 Y24.11
N2861 X72.453 Y24.62
N2862 X72.939 Y25.252
N2863 X73.442 Y26.012
N2864 X73.889 Y26.807
N2865 X74.289 Y27.626
N2866 X74.647 Y28.465
N2867 X74.969 Y29.318
N2868 X75.259 Y30.182
N2869 X75.521 Y31.056
N2870 X75.757 Y31.936
N2871 X75.972 Y32.823
N2872 X76.166 Y33.713
N2873 X76.343 Y34.608
N2874 X76.503 Y35.506
N2875 X76.647 Y36.406
N2876 X76.778 Y37.308
N2877 X76.896 Y38.212
N2878 X77.001 Y39.118
N2879 X77.095 Y40.025
N2880 X77.179 Y40.933
N2881 X77.251 Y41.842
N2882 X77.314 Y42.752
N2883 X77.367 Y43.662
N2884 X77.41 Y44.573
N2885 X77.444 Y45.484
N2886 X77.468 Y46.395
N2887 X77.483 Y47.307
N2888 X77.488 Y48.219
N2889 X77.483 Y49.131
N2890 X77.468 Y50.042
N2891 X77.443 Y50.954
N2892 X77.406 Y51.865
N2893 X77.357 Y52.775
N2894 X77.295 Y53.685
N2895 X77.219 Y54.594
N2896 X77.127 Y55.501
N2897 X77.018 Y56.406
N2898 X76.887 Y57.309
N2899 X76.733 Y58.207
N2900 X76.551 Y59.101
N2901 X76.332 Y59.986
N2902 X76.104 Y60.732
N2903 X75.891 Y61.284
N2904 X75.68 Y61.732
N2905 X75.654 Y61.777
N2906 X75.459 Y62.05
N2907 X75.212 Y62.277
N2908 X74.923 Y62.446
N2909 X74.604 Y62.55
N2910 X74.271 Y62.586
N2911 X71.779
N2912 G3 X71.538 Y62.529 I0.022 J-0.635
N2913 G1 X71.448 Y62.488 Z-3.167
N2914 X71.359 Y62.447 Z-3.144
N2915 X71.276 Y62.409 Z-3.106
N2916 X71.198 Y62.374 Z-3.054
N2917 X71.129 Y62.343 Z-2.989
N2918 X71.071 Y62.316 Z-2.913
N2919 X71.023 Y62.294 Z-2.828
N2920 X70.988 Y62.278 Z-2.736
N2921 X70.967 Y62.269 Z-2.639
N2922 X70.96 Y62.265 Z-2.54
N2923 G0 Z5
N2924 X68.226 Y23.072
N2925 Z-1.905
N2926 G1 Z-2.54 F1524
N2927 X68.227 Y23.064 Z-2.639
N2928 X68.231 Y23.041 Z-2.736
N2929 X68.238 Y23.004 Z-2.828
N2930 X68.247 Y22.952 Z-2.913
N2931 X68.258 Y22.889 Z-2.989
N2932 X68.272 Y22.814 Z-3.054
N2933 X68.287 Y22.73 Z-3.106
N2934 X68.303 Y22.64 Z-3.144
N2935 X68.32 Y22.545 Z-3.167
N2936 X68.338 Y22.447 Z-3.175
N2937 G3 X68.526 Y22.283 I0.195 J0.035
N2938 G1 X71.011
N2939 X71.238 Y22.295
N2940 X71.455 Y22.321
N2941 X71.708 Y22.37
N2942 X71.964 Y22.439
N2943 X72.255 Y22.541
N2944 X72.57 Y22.677
N2945 X72.898 Y22.848
N2946 X73.274 Y23.08
N2947 X73.641 Y23.345
N2948 X74.061 Y23.697
N2949 X74.481 Y24.104
N2950 X74.937 Y24.614
N2951 X75.424 Y25.244
N2952 X75.927 Y26.004
N2953 X76.376 Y26.798
N2954 X76.776 Y27.617
N2955 X77.135 Y28.455
N2956 X77.458 Y29.308
N2957 X77.749 Y30.172
N2958 X78.012 Y31.045
N2959 X78.25 Y31.925
N2960 X78.465 Y32.811
N2961 X78.66 Y33.702
N2962 X78.838 Y34.596
N2963 X78.998 Y35.494
N2964 X79.144 Y36.394
N2965 X79.275 Y37.296
N2966 X79.394 Y38.2
N2967 X79.5 Y39.106
N2968 X79.594 Y40.013
N2969 X79.678 Y40.921
N2970 X79.751 Y41.83
N2971 X79.814 Y42.739
N2972 X79.867 Y43.65
N2973 X79.91 Y44.56
N2974 X79.944 Y45.472
N2975 X79.968 Y46.383
N2976 X79.983 Y47.295
N2977 X79.988 Y48.207
N2978 X79.983 Y49.118
N2979 X79.967 Y50.03
N2980 X79.941 Y50.941
N2981 X79.904 Y51.853
N2982 X79.855 Y52.763
N2983 X79.793 Y53.673
N2984 X79.716 Y54.581
N2985 X79.624 Y55.488
N2986 X79.514 Y56.394
N2987 X79.383 Y57.296
N2988 X79.229 Y58.195
N2989 X79.047 Y59.088
N2990 X78.828 Y59.973
N2991 X78.599 Y60.724
N2992 X78.385 Y61.279
N2993 X78.174 Y61.728
N2994 X78.146 Y61.777
N2995 X77.952 Y62.05
N2996 X77.704 Y62.276
N2997 X77.415 Y62.446
N2998 X77.096 Y62.55
N2999 X76.763 Y62.586
N3000 X74.271
N3001 G3 X74.03 Y62.529 I0.022 J-0.635
N3002 G1 X73.939 Y62.488 Z-3.167
N3003 X73.851 Y62.448 Z-3.144
N3004 X73.767 Y62.409 Z-3.106
N3005 X73.69 Y62.374 Z-3.054
N3006 X73.621 Y62.343 Z-2.989
N3007 X73.562 Y62.316 Z-2.913
N3008 X73.515 Y62.294 Z-2.828
N3009 X73.48 Y62.278 Z-2.736
N3010 X73.459 Y62.269 Z-2.639
N3011 X73.452 Y62.266 Z-2.54
N3012 G0 Z5
N3013 X70.71 Y23.072
N3014 Z-1.905
N3015 G1 Z-2.54 F1524
N3016 X70.712 Y23.064 Z-2.639
N3017 X70.716 Y23.041 Z-2.736
N3018 X70.723 Y23.004 Z-2.828
N3019 X70.732 Y22.952 Z-2.913
N3020 X70.743 Y22.889 Z-2.989
N3021 X70.757 Y22.814 Z-3.054
N3022 X70.771 Y22.73 Z-3.106
N3023 X70.788 Y22.64 Z-3.144
N3024 X70.805 Y22.544 Z-3.167
N3025 X70.822 Y22.447 Z-3.175
N3026 G3 X71.011 Y22.283 I0.195 J0.035
N3027 G1 X73.496
N3028 X73.723 Y22.295
N3029 X73.94 Y22.32
N3030 X74.192 Y22.369
N3031 X74.447 Y22.437
N3032 X74.738 Y22.539
N3033 X75.053 Y22.674
N3034 X75.381 Y22.844
N3035 X75.756 Y23.075
N3036 X76.124 Y23.339
N3037 X76.543 Y23.689
N3038 X76.964 Y24.095
N3039 X77.42 Y24.603
N3040 X77.906 Y25.232
N3041 X78.411 Y25.991
N3042 X78.861 Y26.784
N3043 X79.262 Y27.603
N3044 X79.623 Y28.44
N3045 X79.947 Y29.292
N3046 X80.239 Y30.156
N3047 X80.502 Y31.029
N3048 X80.741 Y31.909
N3049 X80.957 Y32.795
N3050 X81.154 Y33.685
N3051 X81.332 Y34.58
N3052 X81.493 Y35.477
N3053 X81.64 Y36.377
N3054 X81.772 Y37.279
N3055 X81.891 Y38.183
N3056 X81.997 Y39.089
N3057 X82.092 Y39.996
N3058 X82.176 Y40.904
N3059 X82.25 Y41.812
N3060 X82.313 Y42.722
N3061 X82.366 Y43.632
N3062 X82.41 Y44.543
N3063 X82.443 Y45.454
N3064 X82.468 Y46.366
N3065 X82.482 Y47.277
N3066 X82.487 Y48.189
N3067 X82.482 Y49.101
N3068 X82.466 Y50.013
N3069 X82.44 Y50.924
N3070 X82.402 Y51.835
N3071 X82.353 Y52.746
N3072 X82.29 Y53.655
N3073 X82.214 Y54.564
N3074 X82.121 Y55.471
N3075 X82.011 Y56.376
N3076 X81.88 Y57.279
N3077 X81.726 Y58.177
N3078 X81.544 Y59.071
N3079 X81.326 Y59.956
N3080 X81.096 Y60.714
N3081 X80.88 Y61.273
N3082 X80.669 Y61.722
N3083 X80.639 Y61.776
N3084 X80.445 Y62.049
N3085 X80.197 Y62.276
N3086 X79.908 Y62.446
N3087 X79.589 Y62.551
N3088 X79.255 Y62.586
N3089 X76.763
N3090 G3 X76.521 Y62.529 I0.022 J-0.635
N3091 G1 X76.431 Y62.488 Z-3.167
N3092 X76.343 Y62.448 Z-3.144
N3093 X76.259 Y62.409 Z-3.106
N3094 X76.182 Y62.374 Z-3.054
N3095 X76.113 Y62.343 Z-2.989
N3096 X76.054 Y62.316 Z-2.913
N3097 X76.007 Y62.294 Z-2.828
N3098 X75.972 Y62.279 Z-2.736
N3099 X75.951 Y62.269 Z-2.639
N3100 X75.944 Y62.266 Z-2.54
N3101 G0 Z5
N3102 X73.195 Y23.071
N3103 Z-1.905
N3104 G1 Z-2.54 F1524
N3105 X73.197 Y23.064 Z-2.639
N3106 X73.201 Y23.041 Z-2.736
N3107 X73.207 Y23.003 Z-2.828
N3108 X73.217 Y22.952 Z-2.913
N3109 X73.228 Y22.888 Z-2.989
N3110 X73.241 Y22.814 Z-3.054
N3111 X73.256 Y22.73 Z-3.106
N3112 X73.273 Y22.64 Z-3.144
N3113 X73.29 Y22.544 Z-3.167
N3114 X73.307 Y22.446 Z-3.175
N3115 G3 X73.496 Y22.283 I0.195 J0.035
N3116 G1 X75.98
N3117 X76.208 Y22.294
N3118 X76.425 Y22.32
N3119 X76.676 Y22.368
N3120 X76.931 Y22.435
N3121 X77.222 Y22.536
N3122 X77.535 Y22.67
N3123 X77.863 Y22.84
N3124 X78.238 Y23.069
N3125 X78.605 Y23.332
N3126 X79.024 Y23.68
N3127 X79.444 Y24.084
N3128 X79.9 Y24.59
N3129 X80.387 Y25.216
N3130 X80.893 Y25.974
N3131 X81.344 Y26.766
N3132 X81.747 Y27.584
N3133 X82.109 Y28.421
N3134 X82.434 Y29.273
N3135 X82.727 Y30.136
N3136 X82.992 Y31.009
N3137 X83.232 Y31.889
N3138 X83.449 Y32.774
N3139 X83.646 Y33.664
N3140 X83.825 Y34.559
N3141 X83.988 Y35.456
N3142 X84.135 Y36.356
N3143 X84.268 Y37.258
N3144 X84.387 Y38.162
N3145 X84.494 Y39.067
N3146 X84.59 Y39.974
N3147 X84.675 Y40.882
N3148 X84.748 Y41.791
N3149 X84.812 Y42.7
N3150 X84.865 Y43.611
N3151 X84.909 Y44.521
N3152 X84.943 Y45.432
N3153 X84.967 Y46.344
N3154 X84.981 Y47.256
N3155 X84.986 Y48.167
N3156 X84.981 Y49.079
N3157 X84.965 Y49.991
N3158 X84.939 Y50.902
N3159 X84.901 Y51.813
N3160 X84.851 Y52.724
N3161 X84.789 Y53.634
N3162 X84.712 Y54.542
N3163 X84.619 Y55.449
N3164 X84.509 Y56.354
N3165 X84.378 Y57.257
N3166 X84.224 Y58.155
N3167 X84.042 Y59.049
N3168 X83.825 Y59.934
N3169 X83.593 Y60.7
N3170 X83.377 Y61.264
N3171 X83.166 Y61.714
N3172 X83.133 Y61.774
N3173 X82.939 Y62.048
N3174 X82.691 Y62.276
N3175 X82.401 Y62.446
N3176 X82.082 Y62.551
N3177 X81.747 Y62.586
N3178 X79.255
N3179 G3 X79.014 Y62.529 I0.022 J-0.635
N3180 G1 X78.923 Y62.488 Z-3.167
N3181 X78.835 Y62.448 Z-3.144
N3182 X78.751 Y62.41 Z-3.106
N3183 X78.674 Y62.374 Z-3.054
N3184 X78.605 Y62.343 Z-2.989
N3185 X78.546 Y62.316 Z-2.913
N3186 X78.499 Y62.295 Z-2.828
N3187 X78.464 Y62.279 Z-2.736
N3188 X78.443 Y62.269 Z-2.639
N3189 X78.436 Y62.266 Z-2.54
N3190 G0 Z5
N3191 X75.68 Y23.071
N3192 Z-1.905
N3193 G1 Z-2.54 F1524
N3194 X75.681 Y23.064 Z-2.639
N3195 X75.685 Y23.041 Z-2.736
N3196 X75.692 Y23.003 Z-2.828
N3197 X75.701 Y22.952 Z-2.913
N3198 X75.713 Y22.888 Z-2.989
N3199 X75.726 Y22.814 Z-3.054
N3200 X75.741 Y22.73 Z-3.106
N3201 X75.757 Y22.639 Z-3.144
N3202 X75.774 Y22.544 Z-3.167
N3203 X75.792 Y22.446 Z-3.175
N3204 G3 X75.98 Y22.283 I0.195 J0.035
N3205 G1 X78.465
N3206 X78.693 Y22.294
N3207 X78.909 Y22.319
N3208 X79.16 Y22.366
N3209 X79.414 Y22.433
N3210 X79.705 Y22.533
N3211 X80.017 Y22.666
N3212 X80.345 Y22.834
N3213 X80.719 Y23.062
N3214 X81.086 Y23.323
N3215 X81.504 Y23.669
N3216 X81.924 Y24.071
N3217 X82.38 Y24.574
N3218 X82.866 Y25.196
N3219 X83.374 Y25.953
N3220 X83.827 Y26.745
N3221 X84.231 Y27.562
N3222 X84.594 Y28.398
N3223 X84.921 Y29.25
N3224 X85.215 Y30.113
N3225 X85.481 Y30.985
N3226 X85.722 Y31.864
N3227 X85.94 Y32.75
N3228 X86.138 Y33.64
N3229 X86.318 Y34.534
N3230 X86.481 Y35.431
N3231 X86.629 Y36.33
N3232 X86.763 Y37.232
N3233 X86.883 Y38.136
N3234 X86.991 Y39.042
N3235 X87.087 Y39.948
N3236 X87.172 Y40.856
N3237 X87.246 Y41.765
N3238 X87.31 Y42.675
N3239 X87.364 Y43.585
N3240 X87.407 Y44.496
N3241 X87.441 Y45.407
N3242 X87.466 Y46.318
N3243 X87.48 Y47.23
N3244 X87.485 Y48.142
N3245 X87.48 Y49.053
N3246 X87.464 Y49.965
N3247 X87.437 Y50.877
N3248 X87.4 Y51.788
N3249 X87.35 Y52.698
N3250 X87.287 Y53.608
N3251 X87.21 Y54.516
N3252 X87.117 Y55.423
N3253 X87.007 Y56.328
N3254 X86.877 Y57.231
N3255 X86.723 Y58.13
N3256 X86.542 Y59.023
N3257 X86.326 Y59.909
N3258 X86.092 Y60.685
N3259 X85.875 Y61.254
N3260 X85.664 Y61.705
N3261 X85.627 Y61.772
N3262 X85.433 Y62.047
N3263 X85.185 Y62.275
N3264 X84.895 Y62.445
N3265 X84.575 Y62.551
N3266 X84.24 Y62.586
N3267 X81.747
N3268 G3 X81.506 Y62.529 I0.022 J-0.635
N3269 G1 X81.416 Y62.488 Z-3.167
N3270 X81.328 Y62.448 Z-3.144
N3271 X81.244 Y62.41 Z-3.106
N3272 X81.167 Y62.375 Z-3.054
N3273 X81.098 Y62.343 Z-2.989
N3274 X81.039 Y62.316 Z-2.913
N3275 X80.991 Y62.295 Z-2.828
N3276 X80.957 Y62.279 Z-2.736
N3277 X80.936 Y62.269 Z-2.639
N3278 X80.928 Y62.266 Z-2.54
N3279 G0 Z5
N3280 X78.165 Y23.071
N3281 Z-1.905
N3282 G1 Z-2.54 F1524
N3283 X78.166 Y23.064 Z-2.639
N3284 X78.17 Y23.041 Z-2.736
N3285 X78.177 Y23.003 Z-2.828
N3286 X78.186 Y22.952 Z-2.913
N3287 X78.198 Y22.888 Z-2.989
N3288 X78.211 Y22.814 Z-3.054
N3289 X78.226 Y22.73 Z-3.106
N3290 X78.242 Y22.639 Z-3.144
N3291 X78.259 Y22.544 Z-3.167
N3292 X78.277 Y22.446 Z-3.175
N3293 G3 X78.465 Y22.283 I0.195 J0.035
N3294 G1 X80.95
N3295 X81.178 Y22.294
N3296 X81.394 Y22.318
N3297 X81.644 Y22.365
N3298 X81.897 Y22.431
N3299 X82.188 Y22.53
N3300 X82.498 Y22.661
N3301 X82.826 Y22.828
N3302 X83.199 Y23.054
N3303 X83.565 Y23.313
N3304 X83.983 Y23.656
N3305 X84.403 Y24.056
N3306 X84.857 Y24.556
N3307 X85.343 Y25.174
N3308 X85.853 Y25.929
N3309 X86.308 Y26.72
N3310 X86.714 Y27.536
N3311 X87.079 Y28.372
N3312 X87.406 Y29.223
N3313 X87.702 Y30.085
N3314 X87.969 Y30.957
N3315 X88.211 Y31.836
N3316 X88.43 Y32.721
N3317 X88.63 Y33.611
N3318 X88.811 Y34.505
N3319 X88.975 Y35.401
N3320 X89.123 Y36.301
N3321 X89.258 Y37.203
N3322 X89.379 Y38.107
N3323 X89.487 Y39.012
N3324 X89.584 Y39.919
N3325 X89.669 Y40.827
N3326 X89.744 Y41.735
N3327 X89.808 Y42.645
N3328 X89.862 Y43.555
N3329 X89.906 Y44.466
N3330 X89.94 Y45.377
N3331 X89.964 Y46.288
N3332 X89.979 Y47.2
N3333 X89.984 Y48.112
N3334 X89.979 Y49.024
N3335 X89.963 Y49.935
N3336 X89.936 Y50.847
N3337 X89.899 Y51.758
N3338 X89.849 Y52.668
N3339 X89.786 Y53.578
N3340 X89.709 Y54.487
N3341 X89.616 Y55.394
N3342 X89.506 Y56.299
N3343 X89.376 Y57.201
N3344 X89.223 Y58.1
N3345 X89.043 Y58.994
N3346 X88.827 Y59.88
N3347 X88.592 Y60.667
N3348 X88.374 Y61.242
N3349 X88.163 Y61.695
N3350 X88.121 Y61.77
N3351 X87.927 Y62.046
N3352 X87.679 Y62.274
N3353 X87.389 Y62.445
N3354 X87.069 Y62.551
N3355 X86.734 Y62.587
N3356 X84.24 Y62.586
N3357 G3 X83.999 Y62.53 I0.022 J-0.635
N3358 G1 X83.909 Y62.488 Z-3.167
N3359 X83.821 Y62.448 Z-3.144
N3360 X83.737 Y62.41 Z-3.106
N3361 X83.66 Y62.375 Z-3.054
N3362 X83.591 Y62.343 Z-2.989
N3363 X83.532 Y62.316 Z-2.913
N3364 X83.484 Y62.295 Z-2.828
N3365 X83.45 Y62.279 Z-2.736
N3366 X83.428 Y62.269 Z-2.639
N3367 X83.421 Y62.266 Z-2.54
N3368 G0 Z5
N3369 X80.649 Y23.071
N3370 Z-1.905
N3371 G1 Z-2.54 F1524
N3372 X80.651 Y23.063 Z-2.639
N3373 X80.655 Y23.041 Z-2.736
N3374 X80.662 Y23.003 Z-2.828
N3375 X80.671 Y22.952 Z-2.913
N3376 X80.682 Y22.888 Z-2.989
N3377 X80.696 Y22.813 Z-3.054
N3378 X80.711 Y22.73 Z-3.106
N3379 X80.727 Y22.639 Z-3.144
N3380 X80.744 Y22.544 Z-3.167
N3381 X80.762 Y22.446 Z-3.175
N3382 G3 X80.95 Y22.283 I0.195 J0.035
N3383 G1 X83.435
N3384 X83.662 Y22.294
N3385 X83.879 Y22.317
N3386 X84.128 Y22.363
N3387 X84.379 Y22.428
N3388 X84.67 Y22.526
N3389 X84.978 Y22.655
N3390 X85.307 Y22.821
N3391 X85.678 Y23.044
N3392 X86.044 Y23.302
N3393 X86.46 Y23.642
N3394 X86.88 Y24.039
N3395 X87.334 Y24.535
N3396 X87.819 Y25.149
N3397 X88.329 Y25.898
N3398 X88.786 Y26.688
N3399 X89.194 Y27.503
N3400 X89.56 Y28.338
N3401 X89.89 Y29.188
N3402 X90.187 Y30.05
N3403 X90.455 Y30.922
N3404 X90.699 Y31.8
N3405 X90.919 Y32.685
N3406 X91.12 Y33.575
N3407 X91.301 Y34.468
N3408 X91.466 Y35.365
N3409 X91.616 Y36.264
N3410 X91.751 Y37.166
N3411 X91.873 Y38.07
N3412 X91.982 Y38.975
N3413 X92.079 Y39.882
N3414 X92.165 Y40.789
N3415 X92.24 Y41.698
N3416 X92.305 Y42.608
N3417 X92.359 Y43.518
N3418 X92.403 Y44.428
N3419 X92.438 Y45.34
N3420 X92.463 Y46.251
N3421 X92.478 Y47.163
N3422 X92.483 Y48.075
N3423 X92.477 Y48.986
N3424 X92.462 Y49.898
N3425 X92.435 Y50.809
N3426 X92.398 Y51.721
N3427 X92.348 Y52.631
N3428 X92.286 Y53.541
N3429 X92.209 Y54.449
N3430 X92.116 Y55.356
N3431 X92.007 Y56.262
N3432 X91.877 Y57.164
N3433 X91.725 Y58.063
N3434 X91.545 Y58.957
N3435 X91.331 Y59.843
N3436 X91.094 Y60.645
N3437 X90.874 Y61.227
N3438 X90.664 Y61.681
N3439 X90.616 Y61.767
N3440 X90.422 Y62.044
N3441 X90.174 Y62.273
N3442 X89.883 Y62.445
N3443 X89.563 Y62.551
N3444 X89.227 Y62.587
N3445 X86.734
N3446 G3 X86.492 Y62.53 I0.022 J-0.635
N3447 G1 X86.402 Y62.489 Z-3.167
N3448 X86.314 Y62.448 Z-3.144
N3449 X86.23 Y62.41 Z-3.106
N3450 X86.153 Y62.375 Z-3.054
N3451 X86.084 Y62.343 Z-2.989
N3452 X86.025 Y62.317 Z-2.913
N3453 X85.978 Y62.295 Z-2.828
N3454 X85.943 Y62.279 Z-2.736
N3455 X85.922 Y62.27 Z-2.639
N3456 X85.915 Y62.266 Z-2.54
N3457 G0 Z5
N3458 X83.134 Y23.071
N3459 Z-1.905
N3460 G1 Z-2.54 F1524
N3461 X83.136 Y23.063 Z-2.639
N3462 X83.14 Y23.04 Z-2.736
N3463 X83.146 Y23.003 Z-2.828
N3464 X83.156 Y22.952 Z-2.913
N3465 X83.167 Y22.888 Z-2.989
N3466 X83.18 Y22.813 Z-3.054
N3467 X83.195 Y22.73 Z-3.106
N3468 X83.212 Y22.639 Z-3.144
N3469 X83.229 Y22.544 Z-3.167
N3470 X83.246 Y22.446 Z-3.175
N3471 G3 X83.435 Y22.283 I0.195 J0.035
N3472 G1 X85.92 Y22.282
N3473 X86.147 Y22.294
N3474 X86.363 Y22.317
N3475 X86.611 Y22.361
N3476 X86.862 Y22.425
N3477 X87.153 Y22.522
N3478 X87.458 Y22.649
N3479 X87.787 Y22.814
N3480 X88.156 Y23.034
N3481 X88.522 Y23.29
N3482 X88.937 Y23.627
N3483 X89.357 Y24.022
N3484 X89.809 Y24.513
N3485 X90.294 Y25.121
N3486 X90.803 Y25.865
N3487 X91.262 Y26.653
N3488 X91.673 Y27.467
N3489 X92.041 Y28.301
N3490 X92.372 Y29.15
N3491 X92.671 Y30.012
N3492 X92.941 Y30.883
N3493 X93.186 Y31.761
N3494 X93.407 Y32.646
N3495 X93.609 Y33.535
N3496 X93.792 Y34.428
N3497 X93.958 Y35.325
N3498 X94.108 Y36.224
N3499 X94.244 Y37.126
N3500 X94.367 Y38.029
N3501 X94.476 Y38.934
N3502 X94.574 Y39.841
N3503 X94.661 Y40.749
N3504 X94.736 Y41.657
N3505 X94.801 Y42.567
N3506 X94.856 Y43.477
N3507 X94.901 Y44.388
N3508 X94.936 Y45.299
N3509 X94.961 Y46.21
N3510 X94.976 Y47.122
N3511 X94.981 Y48.034
N3512 X94.976 Y48.946
N3513 X94.961 Y49.857
N3514 X94.935 Y50.769
N3515 X94.897 Y51.68
N3516 X94.848 Y52.59
N3517 X94.785 Y53.5
N3518 X94.709 Y54.408
N3519 X94.617 Y55.316
N3520 X94.508 Y56.221
N3521 X94.379 Y57.124
N3522 X94.227 Y58.023
N3523 X94.049 Y58.917
N3524 X93.837 Y59.804
N3525 X93.596 Y60.62
N3526 X93.375 Y61.21
N3527 X93.166 Y61.666
N3528 X93.112 Y61.764
N3529 X92.918 Y62.042
N3530 X92.67 Y62.272
N3531 X92.379 Y62.444
N3532 X92.057 Y62.551
N3533 X91.721 Y62.587
N3534 X89.227
N3535 G3 X88.986 Y62.53 I0.022 J-0.635
N3536 G1 X88.895 Y62.489 Z-3.167
N3537 X88.807 Y62.448 Z-3.144
N3538 X88.723 Y62.41 Z-3.106
N3539 X88.646 Y62.375 Z-3.054
N3540 X88.577 Y62.344 Z-2.989
N3541 X88.518 Y62.317 Z-2.913
N3542 X88.471 Y62.295 Z-2.828
N3543 X88.436 Y62.279 Z-2.736
N3544 X88.415 Y62.27 Z-2.639
N3545 X88.408 Y62.266 Z-2.54
N3546 G0 Z5
N3547 X85.619 Y23.071
N3548 Z-1.905
N3549 G1 Z-2.54 F1524
N3550 X85.62 Y23.063 Z-2.639
N3551 X85.625 Y23.04 Z-2.736
N3552 X85.631 Y23.003 Z-2.828
N3553 X85.64 Y22.951 Z-2.913
N3554 X85.652 Y22.888 Z-2.989
N3555 X85.665 Y22.813 Z-3.054
N3556 X85.68 Y22.73 Z-3.106
N3557 X85.696 Y22.639 Z-3.144
N3558 X85.714 Y22.544 Z-3.167
N3559 X85.731 Y22.446 Z-3.175
N3560 G3 X85.92 Y22.282 I0.195 J0.035
N3561 G1 X88.404
N3562 X88.632 Y22.294
N3563 X88.848 Y22.316
N3564 X89.094 Y22.359
N3565 X89.344 Y22.422
N3566 X89.635 Y22.518
N3567 X89.938 Y22.642
N3568 X90.267 Y22.806
N3569 X90.633 Y23.023
N3570 X91 Y23.277
N3571 X91.412 Y23.61
N3572 X91.833 Y24.003
N3573 X92.284 Y24.489
N3574 X92.767 Y25.092
N3575 X93.276 Y25.829
N3576 X93.738 Y26.615
N3577 X94.151 Y27.428
N3578 X94.521 Y28.261
N3579 X94.854 Y29.11
N3580 X95.154 Y29.971
N3581 X95.426 Y30.842
N3582 X95.672 Y31.72
N3583 X95.895 Y32.604
N3584 X96.098 Y33.493
N3585 X96.282 Y34.386
N3586 X96.449 Y35.282
N3587 X96.6 Y36.181
N3588 X96.737 Y37.083
N3589 X96.86 Y37.986
N3590 X96.97 Y38.891
N3591 X97.069 Y39.798
N3592 X97.156 Y40.705
N3593 X97.232 Y41.614
N3594 X97.298 Y42.524
N3595 X97.353 Y43.434
N3596 X97.398 Y44.344
N3597 X97.433 Y45.255
N3598 X97.459 Y46.167
N3599 X97.474 Y47.079
N3600 X97.479 Y47.99
N3601 X97.475 Y48.902
N3602 X97.46 Y49.814
N3603 X97.434 Y50.725
N3604 X97.397 Y51.636
N3605 X97.347 Y52.547
N3606 X97.285 Y53.457
N3607 X97.209 Y54.365
N3608 X97.118 Y55.272
N3609 X97.009 Y56.178
N3610 X96.881 Y57.081
N3611 X96.73 Y57.98
N3612 X96.553 Y58.874
N3613 X96.342 Y59.761
N3614 X96.1 Y60.594
N3615 X95.877 Y61.192
N3616 X95.668 Y61.65
N3617 X95.608 Y61.761
N3618 X95.414 Y62.039
N3619 X95.166 Y62.271
N3620 X94.874 Y62.444
N3621 X94.552 Y62.551
N3622 X94.215 Y62.587
N3623 X91.721
N3624 G3 X91.48 Y62.53 I0.022 J-0.635
N3625 G1 X91.389 Y62.489 Z-3.167
N3626 X91.301 Y62.449 Z-3.144
N3627 X91.217 Y62.41 Z-3.106
N3628 X91.14 Y62.375 Z-3.054
N3629 X91.071 Y62.344 Z-2.989
N3630 X91.012 Y62.317 Z-2.913
N3631 X90.965 Y62.295 Z-2.828
N3632 X90.93 Y62.28 Z-2.736
N3633 X90.909 Y62.27 Z-2.639
N3634 X90.902 Y62.267 Z-2.54
N3635 G0 Z5
N3636 X88.104 Y23.071
N3637 Z-1.905
N3638 G1 Z-2.54 F1524
N3639 X88.105 Y23.063 Z-2.639
N3640 X88.109 Y23.04 Z-2.736
N3641 X88.116 Y23.003 Z-2.828
N3642 X88.125 Y22.951 Z-2.913
N3643 X88.137 Y22.888 Z-2.989
N3644 X88.15 Y22.813 Z-3.054
N3645 X88.165 Y22.729 Z-3.106
N3646 X88.181 Y22.639 Z-3.144
N3647 X88.198 Y22.543 Z-3.167
N3648 X88.216 Y22.446 Z-3.175
N3649 G3 X88.404 Y22.282 I0.195 J0.035
N3650 G1 X90.889
N3651 X91.117 Y22.294
N3652 X91.333 Y22.315
N3653 X91.576 Y22.357
N3654 X91.826 Y22.418
N3655 X92.118 Y22.513
N3656 X92.417 Y22.635
N3657 X92.746 Y22.798
N3658 X93.109 Y23.011
N3659 X93.477 Y23.264
N3660 X93.887 Y23.593
N3661 X94.309 Y23.983
N3662 X94.758 Y24.464
N3663 X95.24 Y25.061
N3664 X95.747 Y25.792
N3665 X96.212 Y26.576
N3666 X96.628 Y27.388
N3667 X97 Y28.22
N3668 X97.335 Y29.068
N3669 X97.637 Y29.928
N3670 X97.91 Y30.798
N3671 X98.158 Y31.676
N3672 X98.382 Y32.56
N3673 X98.586 Y33.448
N3674 X98.771 Y34.341
N3675 X98.939 Y35.237
N3676 X99.091 Y36.136
N3677 X99.229 Y37.038
N3678 X99.353 Y37.941
N3679 X99.464 Y38.846
N3680 X99.563 Y39.752
N3681 X99.651 Y40.66
N3682 X99.728 Y41.569
N3683 X99.794 Y42.478
N3684 X99.849 Y43.388
N3685 X99.895 Y44.299
N3686 X99.931 Y45.21
N3687 X99.956 Y46.121
N3688 X99.972 Y47.033
N3689 X99.978 Y47.945
N3690 X99.973 Y48.857
N3691 X99.959 Y49.768
N3692 X99.933 Y50.68
N3693 X99.896 Y51.591
N3694 X99.847 Y52.501
N3695 X99.786 Y53.411
N3696 X99.71 Y54.32
N3697 X99.619 Y55.227
N3698 X99.511 Y56.132
N3699 X99.384 Y57.035
N3700 X99.234 Y57.935
N3701 X99.058 Y58.829
N3702 X98.849 Y59.717
N3703 X98.604 Y60.566
N3704 X98.38 Y61.173
N3705 X98.172 Y61.633
N3706 X98.104 Y61.757
N3707 X97.911 Y62.037
N3708 X97.662 Y62.269
N3709 X97.37 Y62.443
N3710 X97.047 Y62.551
N3711 X96.709 Y62.587
N3712 X94.215
N3713 G3 X93.974 Y62.53 I0.022 J-0.635
N3714 G1 X93.883 Y62.489 Z-3.167
N3715 X93.795 Y62.449 Z-3.144
N3716 X93.711 Y62.411 Z-3.106
N3717 X93.634 Y62.375 Z-3.054
N3718 X93.565 Y62.344 Z-2.989
N3719 X93.506 Y62.317 Z-2.913
N3720 X93.459 Y62.296 Z-2.828
N3721 X93.424 Y62.28 Z-2.736
N3722 X93.403 Y62.27 Z-2.639
N3723 X93.396 Y62.267 Z-2.54
N3724 G0 Z5
N3725 X90.589 Y23.071
N3726 Z-1.905
N3727 G1 Z-2.54 F1524
N3728 X90.59 Y23.063 Z-2.639
N3729 X90.594 Y23.04 Z-2.736
N3730 X90.601 Y23.002 Z-2.828
N3731 X90.61 Y22.951 Z-2.913
N3732 X90.621 Y22.887 Z-2.989
N3733 X90.635 Y22.813 Z-3.054
N3734 X90.65 Y22.729 Z-3.106
N3735 X90.666 Y22.639 Z-3.144
N3736 X90.683 Y22.543 Z-3.167
N3737 X90.701 Y22.446 Z-3.175
N3738 G3 X90.889 Y22.282 I0.195 J0.035
N3739 G1 X93.374
N3740 X93.602 Y22.293
N3741 X93.818 Y22.314
N3742 X94.058 Y22.354
N3743 X94.308 Y22.415
N3744 X94.6 Y22.509
N3745 X94.896 Y22.628
N3746 X95.226 Y22.789
N3747 X95.585 Y22.999
N3748 X95.954 Y23.25
N3749 X96.362 Y23.575
N3750 X96.783 Y23.962
N3751 X97.231 Y24.437
N3752 X97.712 Y25.029
N3753 X98.218 Y25.752
N3754 X98.686 Y26.535
N3755 X99.104 Y27.345
N3756 X99.479 Y28.176
N3757 X99.816 Y29.024
N3758 X100.12 Y29.883
N3759 X100.394 Y30.753
N3760 X100.643 Y31.63
N3761 X100.869 Y32.513
N3762 X101.074 Y33.402
N3763 X101.26 Y34.294
N3764 X101.429 Y35.19
N3765 X101.582 Y36.089
N3766 X101.721 Y36.991
N3767 X101.846 Y37.894
N3768 X101.958 Y38.799
N3769 X102.057 Y39.705
N3770 X102.146 Y40.613
N3771 X102.223 Y41.521
N3772 X102.289 Y42.43
N3773 X102.346 Y43.341
N3774 X102.392 Y44.251
N3775 X102.428 Y45.162
N3776 X102.454 Y46.074
N3777 X102.47 Y46.985
N3778 X102.476 Y47.897
N3779 X102.472 Y48.809
N3780 X102.457 Y49.721
N3781 X102.432 Y50.632
N3782 X102.396 Y51.543
N3783 X102.347 Y52.454
N3784 X102.286 Y53.364
N3785 X102.211 Y54.272
N3786 X102.12 Y55.18
N3787 X102.013 Y56.085
N3788 X101.887 Y56.988
N3789 X101.738 Y57.888
N3790 X101.563 Y58.783
N3791 X101.356 Y59.671
N3792 X101.109 Y60.537
N3793 X100.884 Y61.153
N3794 X100.676 Y61.615
N3795 X100.601 Y61.753
N3796 X100.408 Y62.034
N3797 X100.159 Y62.268
N3798 X99.866 Y62.443
N3799 X99.543 Y62.551
N3800 X99.204 Y62.587
N3801 X96.709
N3802 G3 X96.468 Y62.53 I0.022 J-0.635
N3803 G1 X96.378 Y62.489 Z-3.167
N3804 X96.289 Y62.449 Z-3.144
N3805 X96.206 Y62.411 Z-3.106
N3806 X96.128 Y62.376 Z-3.054
N3807 X96.059 Y62.344 Z-2.989
N3808 X96 Y62.317 Z-2.913
N3809 X95.953 Y62.296 Z-2.828
N3810 X95.918 Y62.28 Z-2.736
N3811 X95.897 Y62.27 Z-2.639
N3812 X95.89 Y62.267 Z-2.54
N3813 G0 Z5
N3814 X93.073 Y23.07
N3815 Z-1.905
N3816 G1 Z-2.54 F1524
N3817 X93.075 Y23.063 Z-2.639
N3818 X93.079 Y23.04 Z-2.736
N3819 X93.086 Y23.002 Z-2.828
N3820 X93.095 Y22.951 Z-2.913
N3821 X93.106 Y22.887 Z-2.989
N3822 X93.12 Y22.813 Z-3.054
N3823 X93.135 Y22.729 Z-3.106
N3824 X93.151 Y22.639 Z-3.144
N3825 X93.168 Y22.543 Z-3.167
N3826 X93.185 Y22.445 Z-3.175
N3827 G3 X93.374 Y22.282 I0.195 J0.035
N3828 G1 X95.859
N3829 X96.086 Y22.293
N3830 X96.303 Y22.313
N3831 X96.54 Y22.352
N3832 X96.79 Y22.412
N3833 X97.081 Y22.504
N3834 X97.374 Y22.621
N3835 X97.705 Y22.781
N3836 X98.06 Y22.986
N3837 X98.43 Y23.236
N3838 X98.835 Y23.556
N3839 X99.258 Y23.941
N3840 X99.703 Y24.41
N3841 X100.182 Y24.995
N3842 X100.688 Y25.711
N3843 X101.159 Y26.492
N3844 X101.579 Y27.301
N3845 X101.957 Y28.131
N3846 X102.296 Y28.977
N3847 X102.601 Y29.836
N3848 X102.878 Y30.705
N3849 X103.128 Y31.582
N3850 X103.355 Y32.465
N3851 X103.561 Y33.353
N3852 X103.749 Y34.246
N3853 X103.919 Y35.142
N3854 X104.073 Y36.04
N3855 X104.212 Y36.941
N3856 X104.338 Y37.844
N3857 X104.451 Y38.749
N3858 X104.551 Y39.656
N3859 X104.64 Y40.563
N3860 X104.718 Y41.471
N3861 X104.785 Y42.381
N3862 X104.842 Y43.291
N3863 X104.888 Y44.201
N3864 X104.925 Y45.113
N3865 X104.951 Y46.024
N3866 X104.968 Y46.936
N3867 X104.974 Y47.847
N3868 X104.97 Y48.759
N3869 X104.956 Y49.671
N3870 X104.931 Y50.582
N3871 X104.895 Y51.494
N3872 X104.847 Y52.404
N3873 X104.787 Y53.314
N3874 X104.712 Y54.223
N3875 X104.622 Y55.13
N3876 X104.516 Y56.036
N3877 X104.39 Y56.939
N3878 X104.243 Y57.838
N3879 X104.069 Y58.734
N3880 X103.864 Y59.622
N3881 X103.616 Y60.5
N3882 X103.39 Y61.126
N3883 X103.183 Y61.591
N3884 X103.099 Y61.748
N3885 X102.906 Y62.031
N3886 X102.657 Y62.266
N3887 X102.363 Y62.442
N3888 X102.039 Y62.551
N3889 X101.699 Y62.587
N3890 X99.204
N3891 G3 X98.963 Y62.531 I0.022 J-0.635
N3892 G1 X98.872 Y62.489 Z-3.167
N3893 X98.784 Y62.449 Z-3.144
N3894 X98.7 Y62.411 Z-3.106
N3895 X98.623 Y62.376 Z-3.054
N3896 X98.554 Y62.344 Z-2.989
N3897 X98.495 Y62.317 Z-2.913
N3898 X98.448 Y62.296 Z-2.828
N3899 X98.413 Y62.28 Z-2.736
N3900 X98.392 Y62.27 Z-2.639
N3901 X98.385 Y62.267 Z-2.54
N3902 G0 Z5
N3903 X95.558 Y23.07
N3904 Z-1.905
N3905 G1 Z-2.54 F1524
N3906 X95.56 Y23.063 Z-2.639
N3907 X95.564 Y23.04 Z-2.736
N3908 X95.57 Y23.002 Z-2.828
N3909 X95.58 Y22.951 Z-2.913
N3910 X95.591 Y22.887 Z-2.989
N3911 X95.604 Y22.813 Z-3.054
N3912 X95.619 Y22.729 Z-3.106
N3913 X95.636 Y22.638 Z-3.144
N3914 X95.653 Y22.543 Z-3.167
N3915 X95.67 Y22.445 Z-3.175
N3916 G3 X95.859 Y22.282 I0.195 J0.035
N3917 G1 X98.343
N3918 X98.571 Y22.293
N3919 X98.787 Y22.312
N3920 X99.021 Y22.349
N3921 X99.272 Y22.408
N3922 X99.562 Y22.499
N3923 X99.853 Y22.613
N3924 X100.184 Y22.772
N3925 X100.535 Y22.973
N3926 X100.906 Y23.221
N3927 X101.308 Y23.536
N3928 X101.731 Y23.919
N3929 X102.174 Y24.382
N3930 X102.652 Y24.96
N3931 X103.157 Y25.668
N3932 X103.631 Y26.447
N3933 X104.054 Y27.255
N3934 X104.434 Y28.084
N3935 X104.775 Y28.929
N3936 X105.082 Y29.788
N3937 X105.361 Y30.656
N3938 X105.612 Y31.532
N3939 X105.841 Y32.415
N3940 X106.048 Y33.303
N3941 X106.237 Y34.195
N3942 X106.408 Y35.091
N3943 X106.563 Y35.989
N3944 X106.703 Y36.89
N3945 X106.83 Y37.793
N3946 X106.943 Y38.698
N3947 X107.044 Y39.604
N3948 X107.134 Y40.511
N3949 X107.213 Y41.42
N3950 X107.28 Y42.329
N3951 X107.337 Y43.239
N3952 X107.384 Y44.15
N3953 X107.421 Y45.061
N3954 X107.448 Y45.972
N3955 X107.465 Y46.884
N3956 X107.472 Y47.796
N3957 X107.469 Y48.708
N3958 X107.455 Y49.619
N3959 X107.431 Y50.531
N3960 X107.395 Y51.442
N3961 X107.348 Y52.352
N3962 X107.287 Y53.262
N3963 X107.213 Y54.171
N3964 X107.124 Y55.078
N3965 X107.018 Y55.984
N3966 X106.894 Y56.887
N3967 X106.747 Y57.787
N3968 X106.576 Y58.683
N3969 X106.372 Y59.572
N3970 X106.127 Y60.45
N3971 X105.9 Y61.09
N3972 X105.694 Y61.559
N3973 X105.597 Y61.742
N3974 X105.405 Y62.026
N3975 X105.155 Y62.263
N3976 X104.861 Y62.441
N3977 X104.535 Y62.55
N3978 X104.193 Y62.588
N3979 X101.699 Y62.587
N3980 G3 X101.457 Y62.531 I0.022 J-0.635
N3981 G1 X101.367 Y62.489 Z-3.167
N3982 X101.279 Y62.449 Z-3.144
N3983 X101.195 Y62.411 Z-3.106
N3984 X101.118 Y62.376 Z-3.054
N3985 X101.049 Y62.344 Z-2.989
N3986 X100.99 Y62.318 Z-2.913
N3987 X100.943 Y62.296 Z-2.828
N3988 X100.908 Y62.28 Z-2.736
N3989 X100.887 Y62.271 Z-2.639
N3990 X100.88 Y62.267 Z-2.54
N3991 G0 Z5
N3992 X98.043 Y23.07
N3993 Z-1.905
N3994 G1 Z-2.54 F1524
N3995 X98.044 Y23.062 Z-2.639
N3996 X98.049 Y23.04 Z-2.736
N3997 X98.055 Y23.002 Z-2.828
N3998 X98.064 Y22.951 Z-2.913
N3999 X98.076 Y22.887 Z-2.989
N4000 X98.089 Y22.813 Z-3.054
N4001 X98.104 Y22.729 Z-3.106
N4002 X98.12 Y22.638 Z-3.144
N4003 X98.138 Y22.543 Z-3.167
N4004 X98.155 Y22.445 Z-3.175
N4005 G3 X98.343 Y22.282 I0.195 J0.035
N4006 G1 X100.942
N4007 X101.056 Y22.287
N4008 X101.273 Y22.306
N4009 X101.505 Y22.342
N4010 X101.756 Y22.401
N4011 X102.046 Y22.49
N4012 X102.336 Y22.604
N4013 X102.669 Y22.762
N4014 X103.017 Y22.96
N4015 X103.389 Y23.209
N4016 X103.789 Y23.521
N4017 X104.215 Y23.904
N4018 X104.656 Y24.363
N4019 X105.133 Y24.938
N4020 X105.637 Y25.642
N4021 X106.113 Y26.42
N4022 X106.538 Y27.227
N4023 X106.919 Y28.055
N4024 X107.261 Y28.9
N4025 X107.57 Y29.758
N4026 X107.849 Y30.626
N4027 X108.102 Y31.502
N4028 X108.332 Y32.385
N4029 X108.54 Y33.272
N4030 X108.729 Y34.164
N4031 X108.901 Y35.06
N4032 X109.057 Y35.958
N4033 X109.197 Y36.859
N4034 X109.324 Y37.762
N4035 X109.438 Y38.667
N4036 X109.54 Y39.573
N4037 X109.63 Y40.48
N4038 X109.709 Y41.389
N4039 X109.777 Y42.298
N4040 X109.834 Y43.208
N4041 X109.881 Y44.119
N4042 X109.919 Y45.03
N4043 X109.946 Y45.941
N4044 X109.963 Y46.853
N4045 X109.97 Y47.764
N4046 X109.967 Y48.676
N4047 X109.953 Y49.588
N4048 X109.929 Y50.499
N4049 X109.894 Y51.411
N4050 X109.846 Y52.321
N4051 X109.786 Y53.231
N4052 X109.713 Y54.14
N4053 X109.624 Y55.047
N4054 X109.519 Y55.953
N4055 X109.395 Y56.856
N4056 X109.249 Y57.756
N4057 X109.078 Y58.652
N4058 X108.876 Y59.541
N4059 X108.632 Y60.42
N4060 X108.403 Y61.069
N4061 X108.198 Y61.54
N4062 X108.094 Y61.738
N4063 X107.902 Y62.024
N4064 X107.653 Y62.262
N4065 X107.358 Y62.44
N4066 X107.031 Y62.55
N4067 X106.689 Y62.588
N4068 X104.193
N4069 G3 X103.952 Y62.531 I0.022 J-0.635
N4070 G1 X103.862 Y62.49 Z-3.167
N4071 X103.774 Y62.449 Z-3.144
N4072 X103.69 Y62.411 Z-3.106
N4073 X103.613 Y62.376 Z-3.054
N4074 X103.544 Y62.345 Z-2.989
N4075 X103.485 Y62.318 Z-2.913
N4076 X103.437 Y62.296 Z-2.828
N4077 X103.403 Y62.28 Z-2.736
N4078 X103.382 Y62.271 Z-2.639
N4079 X103.374 Y62.267 Z-2.54
N4080 G0 Z5
N4081 X100.642 Y23.07
N4082 Z-1.905
N4083 G1 Z-2.54 F1524
N4084 X100.643 Y23.062 Z-2.639
N4085 X100.647 Y23.039 Z-2.736
N4086 X100.654 Y23.002 Z-2.828
N4087 X100.663 Y22.951 Z-2.913
N4088 X100.675 Y22.887 Z-2.989
N4089 X100.688 Y22.812 Z-3.054
N4090 X100.703 Y22.729 Z-3.106
N4091 X100.719 Y22.638 Z-3.144
N4092 X100.736 Y22.543 Z-3.167
N4093 X100.754 Y22.445 Z-3.175
N4094 G3 X100.942 Y22.282 I0.195 J0.035
N4095 G1 X103.427 Y22.281
N4096 X103.655 Y22.293
N4097 X103.884 Y22.32
N4098 X104.118 Y22.366
N4099 X104.391 Y22.439
N4100 X104.678 Y22.539
N4101 X104.988 Y22.673
N4102 X105.339 Y22.855
N4103 X105.686 Y23.069
N4104 X106.087 Y23.358
N4105 X106.482 Y23.688
N4106 X106.923 Y24.114
N4107 X107.386 Y24.631
N4108 X107.867 Y25.252
N4109 X108.371 Y26.012
N4110 X108.821 Y26.805
N4111 X109.223 Y27.623
N4112 X109.585 Y28.461
N4113 X109.91 Y29.312
N4114 X110.204 Y30.175
N4115 X110.471 Y31.047
N4116 X110.712 Y31.927
N4117 X110.932 Y32.812
N4118 X111.131 Y33.701
N4119 X111.312 Y34.595
N4120 X111.476 Y35.492
N4121 X111.625 Y36.392
N4122 X111.759 Y37.294
N4123 X111.88 Y38.197
N4124 X111.988 Y39.103
N4125 X112.084 Y40.009
N4126 X112.169 Y40.917
N4127 X112.242 Y41.826
N4128 X112.305 Y42.736
N4129 X112.358 Y43.646
N4130 X112.4 Y44.557
N4131 X112.432 Y45.468
N4132 X112.454 Y46.38
N4133 X112.466 Y47.291
N4134 X112.468 Y48.203
N4135 X112.46 Y49.115
N4136 X112.441 Y50.027
N4137 X112.411 Y50.938
N4138 X112.369 Y51.849
N4139 X112.316 Y52.759
N4140 X112.249 Y53.668
N4141 X112.167 Y54.577
N4142 X112.071 Y55.483
N4143 X111.956 Y56.388
N4144 X111.823 Y57.29
N4145 X111.666 Y58.188
N4146 X111.483 Y59.081
N4147 X111.263 Y59.966
N4148 X111.024 Y60.741
N4149 X110.814 Y61.28
N4150 X110.594 Y61.741
N4151 X110.57 Y61.784
N4152 X110.376 Y62.056
N4153 X110.128 Y62.281
N4154 X109.839 Y62.449
N4155 X109.522 Y62.553
N4156 X109.189 Y62.588
N4157 X106.689
N4158 G3 X106.447 Y62.531 I0.022 J-0.635
N4159 G1 X106.357 Y62.49 Z-3.167
N4160 X106.269 Y62.45 Z-3.144
N4161 X106.185 Y62.411 Z-3.106
N4162 X106.108 Y62.376 Z-3.054
N4163 X106.039 Y62.345 Z-2.989
N4164 X105.98 Y62.318 Z-2.913
N4165 X105.933 Y62.296 Z-2.828
N4166 X105.898 Y62.281 Z-2.736
N4167 X105.877 Y62.271 Z-2.639
N4168 X105.87 Y62.268 Z-2.54
N4169 G0 Z5
N4170 X103.127 Y23.07
N4171 Z-1.905
N4172 G1 Z-2.54 F1524
N4173 X103.128 Y23.062 Z-2.639
N4174 X103.132 Y23.039 Z-2.736
N4175 X103.139 Y23.002 Z-2.828
N4176 X103.148 Y22.951 Z-2.913
N4177 X103.159 Y22.887 Z-2.989
N4178 X103.173 Y22.812 Z-3.054
N4179 X103.188 Y22.729 Z-3.106
N4180 X103.204 Y22.638 Z-3.144
N4181 X103.221 Y22.543 Z-3.167
N4182 X103.239 Y22.445 Z-3.175
N4183 G3 X103.427 Y22.281 I0.195 J0.035
N4184 G1 X106.005
N4185 X106.119 Y22.287
N4186 X106.33 Y22.31
N4187 X106.579 Y22.354
N4188 X106.836 Y22.42
N4189 X107.121 Y22.516
N4190 X107.439 Y22.648
N4191 X107.76 Y22.81
N4192 X108.133 Y23.033
N4193 X108.5 Y23.291
N4194 X108.918 Y23.631
N4195 X109.334 Y24.023
N4196 X109.793 Y24.523
N4197 X110.281 Y25.138
N4198 X110.792 Y25.887
N4199 X111.25 Y26.675
N4200 X111.66 Y27.49
N4201 X112.028 Y28.324
N4202 X112.359 Y29.174
N4203 X112.657 Y30.035
N4204 X112.928 Y30.906
N4205 X113.173 Y31.784
N4206 X113.396 Y32.668
N4207 X113.598 Y33.557
N4208 X113.782 Y34.45
N4209 X113.949 Y35.347
N4210 X114.1 Y36.246
N4211 X114.237 Y37.148
N4212 X114.36 Y38.051
N4213 X114.47 Y38.956
N4214 X114.568 Y39.863
N4215 X114.654 Y40.77
N4216 X114.73 Y41.679
N4217 X114.794 Y42.589
N4218 X114.848 Y43.499
N4219 X114.892 Y44.41
N4220 X114.926 Y45.321
N4221 X114.95 Y46.232
N4222 X114.963 Y47.144
N4223 X114.967 Y48.056
N4224 X114.96 Y48.968
N4225 X114.943 Y49.879
N4226 X114.914 Y50.791
N4227 X114.875 Y51.702
N4228 X114.823 Y52.612
N4229 X114.758 Y53.521
N4230 X114.678 Y54.43
N4231 X114.584 Y55.337
N4232 X114.473 Y56.242
N4233 X114.342 Y57.144
N4234 X114.19 Y58.043
N4235 X114.01 Y58.937
N4236 X113.796 Y59.823
N4237 X113.552 Y60.644
N4238 X113.331 Y61.231
N4239 X113.122 Y61.682
N4240 X113.073 Y61.769
N4241 X112.879 Y62.046
N4242 X112.631 Y62.275
N4243 X112.341 Y62.446
N4244 X112.02 Y62.552
N4245 X111.684 Y62.588
N4246 X109.189
N4247 G3 X108.948 Y62.531 I0.022 J-0.635
N4248 G1 X108.858 Y62.49 Z-3.167
N4249 X108.77 Y62.45 Z-3.144
N4250 X108.686 Y62.412 Z-3.106
N4251 X108.609 Y62.376 Z-3.054
N4252 X108.54 Y62.345 Z-2.989
N4253 X108.481 Y62.318 Z-2.913
N4254 X108.433 Y62.296 Z-2.828
N4255 X108.399 Y62.281 Z-2.736
N4256 X108.377 Y62.271 Z-2.639
N4257 X108.37 Y62.268 Z-2.54
N4258 G0 Z5
N4259 X105.704 Y23.07
N4260 Z-1.905
N4261 G1 Z-2.54 F1524
N4262 X105.706 Y23.062 Z-2.639
N4263 X105.71 Y23.039 Z-2.736
N4264 X105.717 Y23.002 Z-2.828
N4265 X105.726 Y22.95 Z-2.913
N4266 X105.737 Y22.887 Z-2.989
N4267 X105.751 Y22.812 Z-3.054
N4268 X105.766 Y22.728 Z-3.106
N4269 X105.782 Y22.638 Z-3.144
N4270 X105.799 Y22.542 Z-3.167
N4271 X105.816 Y22.445 Z-3.175
N4272 G3 X106.005 Y22.281 I0.195 J0.035
N4273 G1 X108.49
N4274 X108.604 Y22.287
N4275 X108.82 Y22.309
N4276 X109.067 Y22.353
N4277 X109.317 Y22.416
N4278 X109.608 Y22.512
N4279 X109.914 Y22.638
N4280 X110.242 Y22.802
