%
(1001)
(T2  D=6 CR=0 - ZMIN=-5 - flat end mill)
N0 G90
N1 G17
(2D Pocket3)
N2 T2 M6
N3 S10000 M3
N5 G0 X44.184 Y75.75
N6 Z15
N7 Z5
N8 G1 Z3.1 F500
N9 G18 G2 X44.763 Z2.5 I0.6 K0
N10 G1 X187 Z-2.467
N11 Y76.499 Z-2.493
N12 X186.805 Z-2.5
N13 X12.78 F1016
N14 Y75.75
N15 X187
N16 Y76.499
N17 X186.805
N18 X115.214 Z-5 F500
N19 X12.78 F1016
N20 Y75.75
N21 X187
N22 Y76.499
N23 X115.214
N24 G3 X114.614 Z-4.4 I0 K0.6 F1000
N25 G0 Z15
N26 X156.345 Y9.25
N27 Z5
N28 G1 Z3.1 F500
N29 G3 X155.766 Z2.5 I-0.6 K0
N30 G1 X12.78 Z-2.493
N31 Y9.055 Z-2.5
N32 Y8.501 F1016
N33 X187
N34 Y9.25
N35 X12.78
N36 Y9.055
N37 Y8.501 Z-2.519 F500
N38 X83.817 Z-5
N39 X187 F1016
N40 Y9.25
N41 X12.78
N42 Y8.501
N43 X83.817
N44 G2 X84.417 Z-4.4 I0 K0.6 F1000
N45 G0 Z15
N46 G17
N47 Z1
N48 M5
N49 M30
