%
(1001)
(T2  D=6 CR=0 - ZMIN=-10.8 - flat end mill)
N0 G90
N1 G17
(Adaptive3)
N2 T2 M6
N3 S10000 M3
N5 G0 X16.48 Y45.156
N6 Z15
N7 Z5
N8 Z2.903
N9 G1 Z2.503 F500
N10 G3 X14.877 Y39.686 Z2.19 I-0.802 J-2.735
N11 X16.48 Y45.156 Z1.878 I0.802 J2.735
N12 X14.877 Y39.686 Z1.565 I-0.802 J-2.735
N13 X16.48 Y45.156 Z1.252 I0.802 J2.735
N14 X14.877 Y39.686 Z0.94 I-0.802 J-2.735
N15 X16.48 Y45.156 Z0.627 I0.802 J2.735
N16 X14.877 Y39.686 Z0.314 I-0.802 J-2.735
N17 X16.48 Y45.156 Z0.002 I0.802 J2.735
N18 X14.877 Y39.686 Z-0.311 I-0.802 J-2.735
N19 X16.48 Y45.156 Z-0.624 I0.802 J2.735
N20 X14.877 Y39.686 Z-0.936 I-0.802 J-2.735
N21 X16.48 Y45.156 Z-1.249 I0.802 J2.735
N22 X14.877 Y39.686 Z-1.562 I-0.802 J-2.735
N23 X16.48 Y45.156 Z-1.874 I0.802 J2.735
N24 X14.877 Y39.686 Z-2.187 I-0.802 J-2.735
N25 X16.48 Y45.156 Z-2.5 I0.802 J2.735
N26 X14.877 Y39.686 Z-2.812 I-0.802 J-2.735
N27 X18.528 Y42.421 Z-2.997 I0.802 J2.735
N28 X12.828 I-2.85 J0
N29 X18.528 I2.85 J0
N30 G1 X18.532 Y42.643 F1016
N31 X18.684 Y43.516
N32 X18.735 Y43.657
N33 X18.768 Y43.803
N34 X18.787 Y43.952
N35 X18.791 Y44.102
N36 X18.783 Y44.256
N37 X18.761 Y44.419
N38 X18.723 Y44.591
N39 X18.669 Y44.77
N40 X18.596 Y44.954
N41 X18.504 Y45.142
N42 X18.392 Y45.33
N43 X18.259 Y45.518
N44 X18.105 Y45.702
N45 X17.929 Y45.88
N46 X17.733 Y46.049
N47 X17.517 Y46.208
N48 X17.281 Y46.353
N49 X17.027 Y46.483
N50 X16.756 Y46.595
N51 X16.471 Y46.687
N52 X16.172 Y46.757
N53 X15.863 Y46.804
N54 X15.546 Y46.826
N55 X15.222 Y46.823
N56 X14.895 Y46.793
N57 X14.567 Y46.736
N58 X14.241 Y46.653
N59 X13.92 Y46.542
N60 X13.606 Y46.405
N61 X13.301 Y46.241
N62 X13.008 Y46.053
N63 X12.73 Y45.84
N64 X12.468 Y45.604
N65 X12.225 Y45.346
N66 X12.002 Y45.069
N67 X11.802 Y44.774
N68 X11.625 Y44.462
N69 X11.473 Y44.137
N70 X11.348 Y43.799
N71 X11.25 Y43.452
N72 X11.18 Y43.097
N73 X11.138 Y42.737
N74 X11.126 Y42.374
N75 X11.143 Y42.011
N76 X11.189 Y41.651
N77 X11.264 Y41.294
N78 X11.367 Y40.945
N79 X11.498 Y40.605
N80 X11.656 Y40.276
N81 X11.84 Y39.96
N82 X12.049 Y39.661
N83 X12.281 Y39.379
N84 X12.536 Y39.116
N85 X12.81 Y38.874
N86 X13.104 Y38.656
N87 X13.414 Y38.461
N88 X13.738 Y38.292
N89 X14.075 Y38.15
N90 X14.423 Y38.035
N91 X14.779 Y37.948
N92 X15.141 Y37.89
N93 X15.506 Y37.862
N94 X15.872
N95 X16.237 Y37.892
N96 X16.599 Y37.952
N97 X16.954 Y38.04
N98 X17.302 Y38.156
N99 X17.639 Y38.3
N100 X17.963 Y38.471
N101 X18.273 Y38.667
N102 X18.566 Y38.887
N103 X18.84 Y39.13
N104 X19.094 Y39.394
N105 X19.326 Y39.678
N106 X19.534 Y39.98
N107 X19.83 Y40.492
N108 X20.174 Y41.214
N109 X20.381 Y41.759
N110 X20.523 Y42.246
N111 X20.615 Y42.695
N112 X20.669 Y43.129
N113 X20.687 Y43.549
N114 X20.671 Y43.956
N115 X20.624 Y44.353
N116 X20.546 Y44.742
N117 X20.437 Y45.121
N118 X20.298 Y45.491
N119 X20.129 Y45.85
N120 X19.931 Y46.196
N121 X19.703 Y46.529
N122 X19.447 Y46.844
N123 X19.164 Y47.142
N124 X18.854 Y47.419
N125 X18.519 Y47.673
N126 X18.159 Y47.904
N127 X17.776 Y48.107
N128 X17.372 Y48.281
N129 X16.951 Y48.424
N130 X16.514 Y48.535
N131 X16.064 Y48.611
N132 X15.604 Y48.651
N133 X15.137 Y48.653
N134 X14.667 Y48.619
N135 X14.197 Y48.545
N136 X13.73 Y48.434
N137 X13.271 Y48.284
N138 X12.822 Y48.097
N139 X12.386 Y47.872
N140 X11.968 Y47.612
N141 X11.569 Y47.317
N142 X11.194 Y46.99
N143 X10.844 Y46.632
N144 X10.523 Y46.246
N145 X10.233 Y45.833
N146 X9.976 Y45.397
N147 X9.754 Y44.94
N148 X9.568 Y44.465
N149 X9.422 Y43.976
N150 X9.314 Y43.476
N151 X9.247 Y42.967
N152 X9.222 Y42.454
N153 X9.237 Y41.94
N154 X9.294 Y41.428
N155 X9.391 Y40.921
N156 X9.529 Y40.424
N157 X9.707 Y39.938
N158 X9.924 Y39.469
N159 X10.177 Y39.017
N160 X10.466 Y38.588
N161 X10.789 Y38.182
N162 X11.144 Y37.804
N163 X11.528 Y37.455
N164 X11.938 Y37.138
N165 X12.374 Y36.855
N166 X12.83 Y36.607
N167 X13.305 Y36.397
N168 X13.796 Y36.226
N169 X14.298 Y36.095
N170 X14.81 Y36.004
N171 X15.327 Y35.955
N172 X15.847 Y35.948
N173 X16.366 Y35.982
N174 X16.88 Y36.058
N175 X17.387 Y36.175
N176 X17.883 Y36.332
N177 X18.364 Y36.528
N178 X18.828 Y36.762
N179 X19.272 Y37.033
N180 X19.693 Y37.339
N181 X20.122 Y37.706
N182 X20.568 Y38.156
N183 X20.987 Y38.652
N184 X21.375 Y39.194
N185 X21.719 Y39.766
N186 X22.009 Y40.352
N187 X22.245 Y40.943
N188 X22.429 Y41.537
N189 X22.561 Y42.129
N190 X22.644 Y42.72
N191 X22.678 Y43.307
N192 X22.666 Y43.888
N193 X22.607 Y44.461
N194 X22.503 Y45.023
N195 X22.355 Y45.574
N196 X22.164 Y46.109
N197 X21.931 Y46.627
N198 X21.656 Y47.126
N199 X21.341 Y47.602
N200 X20.987 Y48.054
N201 X20.596 Y48.478
N202 X20.169 Y48.872
N203 X19.709 Y49.234
N204 X19.217 Y49.56
N205 X18.696 Y49.847
N206 X18.149 Y50.094
N207 X17.58 Y50.299
N208 X16.99 Y50.458
N209 X16.386 Y50.57
N210 X15.769 Y50.633
N211 X15.145 Y50.648
N212 X14.518 Y50.611
N213 X13.891 Y50.524
N214 X13.27 Y50.386
N215 X12.658 Y50.198
N216 X12.059 Y49.96
N217 X11.478 Y49.672
N218 X10.92 Y49.338
N219 X10.387 Y48.958
N220 X9.885 Y48.534
N221 X9.416 Y48.069
N222 X8.984 Y47.567
N223 X8.593 Y47.03
N224 X8.245 Y46.461
N225 X7.943 Y45.864
N226 X7.689 Y45.244
N227 X7.485 Y44.603
N228 X7.333 Y43.947
N229 X7.234 Y43.279
N230 X7.189 Y42.605
N231 X7.198 Y41.928
N232 X7.262 Y41.254
N233 X7.379 Y40.585
N234 X7.55 Y39.928
N235 X7.773 Y39.286
N236 X8.048 Y38.663
N237 X8.371 Y38.065
N238 X8.742 Y37.493
N239 X9.158 Y36.953
N240 X9.616 Y36.448
N241 X10.113 Y35.981
N242 X10.647 Y35.555
N243 X11.213 Y35.174
N244 X11.808 Y34.838
N245 X12.428 Y34.552
N246 X13.069 Y34.316
N247 X13.727 Y34.133
N248 X14.398 Y34.003
N249 X15.077 Y33.927
N250 X15.76 Y33.906
N251 X16.443 Y33.94
N252 X17.121 Y34.028
N253 X17.79 Y34.171
N254 X18.445 Y34.367
N255 X19.082 Y34.614
N256 X19.707 Y34.917
N257 X20.328 Y35.282
N258 X20.936 Y35.708
N259 X21.524 Y36.196
N260 X22.084 Y36.742
N261 X22.605 Y37.338
N262 X23.078 Y37.976
N263 X23.497 Y38.65
N264 X23.86 Y39.351
N265 X24.162 Y40.074
N266 X24.404 Y40.812
N267 X24.584 Y41.561
N268 X24.702 Y42.315
N269 X24.759 Y43.071
N270 X24.755 Y43.823
N271 X24.691 Y44.569
N272 X24.568 Y45.304
N273 X24.387 Y46.025
N274 X24.149 Y46.727
N275 X23.856 Y47.408
N276 X23.508 Y48.063
N277 X23.109 Y48.69
N278 X22.659 Y49.284
N279 X22.161 Y49.842
N280 X21.618 Y50.361
N281 X21.032 Y50.837
N282 X20.406 Y51.267
N283 X19.744 Y51.647
N284 X19.049 Y51.975
N285 X18.326 Y52.247
N286 X17.579 Y52.462
N287 X16.812 Y52.617
N288 X16.031 Y52.711
N289 X15.241 Y52.742
N290 X14.446 Y52.709
N291 X13.652 Y52.612
N292 X12.865 Y52.451
N293 X12.089 Y52.226
N294 X11.33 Y51.938
N295 X10.594 Y51.589
N296 X9.885 Y51.18
N297 X9.208 Y50.713
N298 X8.569 Y50.192
N299 X7.971 Y49.619
N300 X7.419 Y48.998
N301 X6.918 Y48.333
N302 X6.471 Y47.628
N303 X6.08 Y46.887
N304 X5.75 Y46.116
N305 X5.482 Y45.319
N306 X5.278 Y44.501
N307 X5.141 Y43.669
N308 X5.07 Y42.826
N309 X5.068 Y41.98
N310 X5.133 Y41.135
N311 X5.266 Y40.297
N312 X5.466 Y39.472
N313 X5.732 Y38.665
N314 X6.062 Y37.881
N315 X6.455 Y37.125
N316 X6.907 Y36.404
N317 X7.415 Y35.72
N318 X7.977 Y35.079
N319 X8.589 Y34.485
N320 X9.247 Y33.942
N321 X9.947 Y33.453
N322 X10.684 Y33.022
N323 X11.453 Y32.651
N324 X12.25 Y32.344
N325 X13.069 Y32.101
N326 X13.905 Y31.924
N327 X14.752 Y31.815
N328 X15.606 Y31.775
N329 X16.46 Y31.803
N330 X17.309 Y31.9
N331 X18.15 Y32.065
N332 X18.98 Y32.298
N333 X19.798 Y32.6
N334 X20.599 Y32.972
N335 X21.37 Y33.409
N336 X22.104 Y33.905
N337 X22.798 Y34.457
N338 X23.447 Y35.06
N339 X24.049 Y35.71
N340 X24.601 Y36.403
N341 X25.1 Y37.135
N342 X25.544 Y37.902
N343 X25.93 Y38.7
N344 X26.255 Y39.524
N345 X26.517 Y40.371
N346 X26.715 Y41.235
N347 X26.847 Y42.111
N348 X26.912 Y42.995
N349 X26.908 Y43.881
N350 X26.837 Y44.764
N351 X26.697 Y45.639
N352 X26.489 Y46.5
N353 X26.216 Y47.343
N354 X25.877 Y48.162
N355 X25.476 Y48.952
N356 X25.015 Y49.709
N357 X24.496 Y50.427
N358 X23.924 Y51.104
N359 X23.301 Y51.734
N360 X22.631 Y52.314
N361 X21.919 Y52.842
N362 X21.17 Y53.314
N363 X20.386 Y53.728
N364 X19.574 Y54.082
N365 X18.737 Y54.374
N366 X17.881 Y54.603
N367 X17.01 Y54.768
N368 X16.13 Y54.868
N369 X15.244 Y54.902
N370 X14.359 Y54.87
N371 X13.478 Y54.772
N372 X12.607 Y54.61
N373 X11.75 Y54.385
N374 X10.911 Y54.098
N375 X10.095 Y53.753
N376 X9.306 Y53.35
N377 X8.547 Y52.892
N378 X7.823 Y52.381
N379 X7.138 Y51.82
N380 X6.495 Y51.21
N381 X5.897 Y50.555
N382 X5.348 Y49.86
N383 X4.848 Y49.128
N384 X4.401 Y48.364
N385 X4.008 Y47.569
N386 X3.67 Y46.75
N387 X3.393 Y45.909
N388 X3.176 Y45.049
N389 X3.02 Y44.177
N390 X2.925 Y43.296
N391 X2.892 Y42.411
N392 X2.92 Y41.525
N393 X3.008 Y40.643
N394 X3.157 Y39.77
N395 X3.368 Y38.909
N396 X3.639 Y38.065
N397 X3.969 Y37.243
N398 X4.354 Y36.445
N399 X4.793 Y35.675
N400 X5.283 Y34.937
N401 X5.823 Y34.234
N402 X6.412 Y33.572
N403 X7.045 Y32.952
N404 X7.721 Y32.379
N405 X8.434 Y31.853
N406 X9.181 Y31.377
N407 X9.959 Y30.953
N408 X10.765 Y30.583
N409 X11.594 Y30.271
N410 X12.443 Y30.018
N411 X13.308 Y29.825
N412 X14.184 Y29.692
N413 X15.067 Y29.619
N414 X15.953 Y29.606
N415 X16.838 Y29.654
N416 X17.717 Y29.763
N417 X18.587 Y29.934
N418 X19.442 Y30.165
N419 X20.28 Y30.453
N420 X21.097 Y30.797
N421 X21.89 Y31.193
N422 X22.654 Y31.641
N423 X23.387 Y32.14
N424 X24.085 Y32.686
N425 X24.746 Y33.276
N426 X25.369 Y33.906
N427 X25.951 Y34.574
N428 X26.491 Y35.277
N429 X26.984 Y36.013
N430 X27.429 Y36.779
N431 X27.824 Y37.572
N432 X28.169 Y38.389
N433 X28.462 Y39.225
N434 X28.703 Y40.078
N435 X28.889 Y40.944
N436 X29.018 Y41.821
N437 X29.089 Y42.704
N438 X29.103 Y43.59
N439 X29.061 Y44.475
N440 X28.962 Y45.356
N441 X28.808 Y46.228
N442 X28.595 Y47.089
N443 X28.325 Y47.933
N444 X28.001 Y48.757
N445 X27.625 Y49.56
N446 X27.199 Y50.336
N447 X26.723 Y51.084
N448 X26.199 Y51.799
N449 X25.628 Y52.477
N450 X25.015 Y53.116
N451 X24.362 Y53.716
N452 X23.673 Y54.272
N453 X22.95 Y54.785
N454 X22.196 Y55.249
N455 X21.412 Y55.663
N456 X20.604 Y56.027
N457 X19.774 Y56.338
N458 X18.927 Y56.597
N459 X18.065 Y56.804
N460 X17.192 Y56.957
N461 X16.311 Y57.053
N462 X15.426 Y57.092
N463 X14.54 Y57.075
N464 X13.657 Y57.004
N465 X12.78 Y56.879
N466 X11.912 Y56.701
N467 X11.056 Y56.469
N468 X10.217 Y56.184
N469 X9.397 Y55.848
N470 X8.599 Y55.463
N471 X7.826 Y55.031
N472 X7.079 Y54.553
N473 X6.363 Y54.032
N474 X5.681 Y53.466
N475 X5.035 Y52.859
N476 X4.428 Y52.214
N477 X3.86 Y51.534
N478 X3.333 Y50.822
N479 X2.848 Y50.079
N480 X2.629 Y49.695
N481 X2.525 Y49.499
N482 X2.447 Y49.371
N483 X2.37 Y49.242
N484 X2.295 Y49.112
N485 X2.221 Y48.982
N486 X2.15 Y48.85
N487 X2.08 Y48.717
N488 X2.011 Y48.584
N489 X1.945 Y48.449
N490 X1.879 Y48.314
N491 X1.816 Y48.178
N492 X1.753 Y48.042
N493 X1.693 Y47.905
N494 X1.634 Y47.767
N495 X1.577 Y47.628
N496 X1.522 Y47.488
N497 X1.468 Y47.349
N498 X1.415 Y47.208
N499 X1.364 Y47.067
N500 X1.315 Y46.925
N501 X1.267 Y46.783
N502 X1.222 Y46.64
N503 X1.177 Y46.497
N504 X1.134 Y46.353
N505 X1.093 Y46.209
N506 X1.053 Y46.065
N507 X1.014 Y45.92
N508 X0.978 Y45.774
N509 X0.943 Y45.628
N510 X0.909 Y45.482
N511 X0.877 Y45.335
N512 X0.847 Y45.189
N513 X0.818 Y45.041
N514 X0.79 Y44.894
N515 X0.765 Y44.746
N516 X0.741 Y44.598
N517 X0.718 Y44.45
N518 X0.697 Y44.301
N519 X0.677 Y44.153
N520 X0.659 Y44.004
N521 X0.642 Y43.855
N522 X0.627 Y43.705
N523 X0.614 Y43.556
N524 X0.602 Y43.406
N525 X0.591 Y43.257
N526 X0.582 Y43.107
N527 X0.574 Y42.957
N528 X0.569 Y42.807
N529 X0.564 Y42.658
N530 X0.562 Y42.508
N531 X0.56 Y42.358
N532 X0.561 Y42.208
N533 X0.562 Y42.058
N534 X0.565 Y41.908
N535 X0.57 Y41.758
N536 X0.576 Y41.608
N537 X0.584 Y41.458
N538 X0.594 Y41.308
N539 X0.604 Y41.159
N540 X0.617 Y41.009
N541 X0.63 Y40.86
N542 X0.646 Y40.711
N543 X0.663 Y40.562
N544 X0.681 Y40.413
N545 X0.701 Y40.264
N546 X0.723 Y40.116
N547 X0.745 Y39.967
N548 X0.77 Y39.819
N549 X0.795 Y39.672
N550 X0.823 Y39.524
N551 X0.852 Y39.377
N552 X0.882 Y39.23
N553 X0.914 Y39.083
N554 X0.947 Y38.937
N555 X0.982 Y38.791
N556 X1.018 Y38.646
N557 X1.056 Y38.5
N558 X1.095 Y38.356
N559 X1.136 Y38.211
N560 X1.178 Y38.067
N561 X1.221 Y37.924
N562 X1.266 Y37.781
N563 X1.312 Y37.638
N564 X1.36 Y37.496
N565 X1.41 Y37.354
N566 X1.46 Y37.213
N567 X1.512 Y37.072
N568 X1.565 Y36.932
N569 X1.62 Y36.792
N570 X1.676 Y36.653
N571 X1.734 Y36.515
N572 X1.793 Y36.377
N573 X1.853 Y36.239
N574 X1.915 Y36.103
N575 X1.977 Y35.966
N576 X2.041 Y35.831
N577 X2.107 Y35.696
N578 X2.174 Y35.562
N579 X2.243 Y35.428
N580 X2.312 Y35.295
N581 X2.383 Y35.163
N582 X2.455 Y35.032
N583 X2.528 Y34.901
N584 X2.603 Y34.771
N585 X2.679 Y34.641
N586 X2.757 Y34.513
N587 X2.836 Y34.385
N588 X2.916 Y34.258
N589 X2.996 Y34.132
N590 X3.079 Y34.007
N591 X3.162 Y33.882
N592 X3.247 Y33.759
N593 X3.334 Y33.636
N594 X3.421 Y33.514
N595 X3.51 Y33.393
N596 X3.599 Y33.273
N597 X3.69 Y33.153
N598 X3.782 Y33.035
N599 X3.876 Y32.918
N600 X3.97 Y32.801
N601 X4.066 Y32.686
N602 X4.163 Y32.571
N603 X4.261 Y32.457
N604 X4.36 Y32.345
N605 X4.46 Y32.233
N606 X4.561 Y32.123
N607 X4.664 Y32.013
N608 X4.767 Y31.905
N609 X4.872 Y31.797
N610 X4.977 Y31.69
N611 X5.084 Y31.585
N612 X5.192 Y31.48
N613 X5.3 Y31.377
N614 X5.41 Y31.275
N615 X5.521 Y31.174
N616 X5.633 Y31.074
N617 X5.745 Y30.975
N618 X5.859 Y30.877
N619 X5.974 Y30.78
N620 X6.09 Y30.685
N621 X6.206 Y30.59
N622 X6.324 Y30.497
N623 X6.442 Y30.405
N624 X6.561 Y30.314
N625 X6.681 Y30.224
N626 X6.802 Y30.136
N627 X6.924 Y30.048
N628 X7.047 Y29.962
N629 X7.171 Y29.877
N630 X7.295 Y29.794
N631 X7.421 Y29.711
N632 X7.547 Y29.63
N633 X7.673 Y29.55
N634 X7.801 Y29.471
N635 X7.93 Y29.394
N636 X8.059 Y29.318
N637 X8.189 Y29.243
N638 X8.319 Y29.169
N639 X8.451 Y29.096
N640 X8.583 Y29.025
N641 X8.716 Y28.956
N642 X8.849 Y28.887
N643 X8.984 Y28.82
N644 X9.118 Y28.755
N645 X9.254 Y28.69
N646 X9.39 Y28.627
N647 X9.527 Y28.565
N648 X9.664 Y28.505
N649 X9.802 Y28.447
N650 X9.941 Y28.389
N651 X10.08 Y28.333
N652 X10.219 Y28.278
N653 X10.359 Y28.224
N654 X10.5 Y28.173
N655 X10.641 Y28.122
N656 X10.783 Y28.073
N657 X10.925 Y28.025
N658 X11.068 Y27.979
N659 X11.211 Y27.934
N660 X11.355 Y27.89
N661 X11.499 Y27.848
N662 X11.643 Y27.808
N663 X11.788 Y27.769
N664 X11.933 Y27.731
N665 X12.079 Y27.695
N666 X12.224 Y27.66
N667 X12.371 Y27.626
N668 X12.517 Y27.594
N669 X12.664 Y27.564
N670 X12.811 Y27.535
N671 X12.959 Y27.507
N672 X13.106 Y27.481
N673 X13.254 Y27.456
N674 X13.402 Y27.432
N675 X13.551 Y27.411
N676 X13.7 Y27.39
N677 X13.848 Y27.372
N678 X13.997 Y27.354
N679 X14.146 Y27.338
N680 X14.296 Y27.323
N681 X14.445 Y27.31
N682 X14.595 Y27.299
N683 X14.744 Y27.289
N684 X14.894 Y27.28
N685 X15.044 Y27.273
N686 X15.194 Y27.267
N687 X15.344 Y27.263
N688 X15.494 Y27.26
N689 X15.644 Y27.259
N690 X15.794
N691 X15.944 Y27.261
N692 X16.094 Y27.265
N693 X16.244 Y27.269
N694 X16.394 Y27.275
N695 X16.543 Y27.283
N696 X16.693 Y27.292
N697 X16.843 Y27.303
N698 X16.992 Y27.315
N699 X17.142 Y27.329
N700 X17.291 Y27.344
N701 X17.44 Y27.36
N702 X17.589 Y27.378
N703 X17.737 Y27.398
N704 X17.886 Y27.419
N705 X18.034 Y27.442
N706 X18.182 Y27.466
N707 X18.33 Y27.491
N708 X18.478 Y27.518
N709 X18.625 Y27.546
N710 X18.772 Y27.576
N711 X18.919 Y27.607
N712 X19.065 Y27.64
N713 X19.211 Y27.674
N714 X19.357 Y27.71
N715 X19.502 Y27.746
N716 X19.647 Y27.785
N717 X19.792 Y27.824
N718 X19.936 Y27.866
N719 X20.08 Y27.908
N720 X20.224 Y27.952
N721 X20.367 Y27.997
N722 X20.509 Y28.044
N723 X20.651 Y28.092
N724 X20.793 Y28.141
N725 X20.934 Y28.192
N726 X21.075 Y28.244
N727 X21.215 Y28.298
N728 X21.354 Y28.353
N729 X21.494 Y28.409
N730 X21.632 Y28.466
N731 X21.77 Y28.525
N732 X21.907 Y28.585
N733 X22.044 Y28.647
N734 X22.18 Y28.71
N735 X22.316 Y28.774
N736 X22.451 Y28.839
N737 X22.585 Y28.906
N738 X22.719 Y28.974
N739 X22.852 Y29.043
N740 X22.984 Y29.114
N741 X23.116 Y29.186
N742 X23.247 Y29.259
N743 X23.377 Y29.333
N744 X23.507 Y29.409
N745 X23.636 Y29.486
N746 X23.764 Y29.564
N747 X23.891 Y29.643
N748 X24.018 Y29.724
N749 X24.143 Y29.805
N750 X24.269 Y29.888
N751 X24.393 Y29.972
N752 X24.516 Y30.057
N753 X24.639 Y30.144
N754 X24.761 Y30.231
N755 X24.882 Y30.32
N756 X25.002 Y30.41
N757 X25.121 Y30.501
N758 X25.24 Y30.593
N759 X25.357 Y30.686
N760 X25.474 Y30.78
N761 X25.59 Y30.875
N762 X25.705 Y30.972
N763 X25.819 Y31.069
N764 X25.932 Y31.168
N765 X26.044 Y31.267
N766 X26.155 Y31.368
N767 X26.266 Y31.469
N768 X26.375 Y31.572
N769 X26.484 Y31.676
N770 X26.591 Y31.78
N771 X26.698 Y31.886
N772 X26.803 Y31.992
N773 X26.908 Y32.1
N774 X27.011 Y32.208
N775 X27.114 Y32.318
N776 X27.216 Y32.428
N777 X27.316 Y32.539
N778 X27.416 Y32.651
N779 X27.514 Y32.765
N780 X27.612 Y32.879
N781 X27.708 Y32.994
N782 X27.803 Y33.11
N783 X27.897 Y33.226
N784 X27.991 Y33.344
N785 X28.083 Y33.462
N786 X28.174 Y33.582
N787 X28.263 Y33.702
N788 X28.352 Y33.823
N789 X28.439 Y33.945
N790 X28.526 Y34.067
N791 X28.611 Y34.19
N792 X28.696 Y34.315
N793 X28.779 Y34.439
N794 X28.86 Y34.565
N795 X28.941 Y34.692
N796 X29.021 Y34.819
N797 X29.099 Y34.947
N798 X29.176 Y35.075
N799 X29.253 Y35.205
N800 X29.327 Y35.335
N801 X29.401 Y35.465
N802 X29.473 Y35.597
N803 X29.544 Y35.729
N804 X29.615 Y35.861
N805 X29.684 Y35.995
N806 X29.751 Y36.128
N807 X29.818 Y36.263
N808 X29.883 Y36.398
N809 X29.946 Y36.534
N810 X30.009 Y36.67
N811 X30.071 Y36.807
N812 X30.131 Y36.944
N813 X30.19 Y37.082
N814 X30.247 Y37.221
N815 X30.519 Y38.064
N816 X30.758 Y38.917
N817 X30.96 Y39.78
N818 X31.122 Y40.651
N819 X31.238 Y41.53
N820 X31.307 Y42.413
N821 X31.33 Y43.299
N822 X31.306 Y44.185
N823 X31.235 Y45.068
N824 X31.115 Y45.946
N825 X30.948 Y46.816
N826 X30.731 Y47.676
N827 X30.465 Y48.521
N828 X30.153 Y49.35
N829 X29.796 Y50.161
N830 X29.394 Y50.951
N831 X28.95 Y51.718
N832 X28.464 Y52.459
N833 X27.936 Y53.171
N834 X27.369 Y53.851
N835 X26.764 Y54.499
N836 X26.125 Y55.113
N837 X25.453 Y55.69
N838 X24.751 Y56.231
N839 X24.02 Y56.732
N840 X23.263 Y57.192
N841 X22.48 Y57.608
N842 X21.676 Y57.98
N843 X20.853 Y58.308
N844 X20.013 Y58.591
N845 X19.16 Y58.829
N846 X18.294 Y59.021
N847 X17.42 Y59.165
N848 X16.539 Y59.26
N849 X15.654 Y59.306
N850 X14.768 Y59.304
N851 X13.883 Y59.255
N852 X13.002 Y59.159
N853 X12.128 Y59.017
N854 X11.262 Y58.829
N855 X10.407 Y58.594
N856 X9.567 Y58.313
N857 X8.743 Y57.987
N858 X7.937 Y57.618
N859 X7.152 Y57.208
N860 X6.389 Y56.758
N861 X5.65 Y56.268
N862 X4.938 Y55.74
N863 X4.257 Y55.174
N864 X3.606 Y54.572
N865 X2.988 Y53.937
N866 X2.696 Y53.604
N867 X2.554 Y53.434
N868 X2.484 Y53.348
N869 X1.927 Y52.659
N870 X1.797 Y52.48
N871 X1.668 Y52.3
N872 G3 X1.58 Y52.083 I0.501 J-0.329 F1000
N873 X1.57 Y51.966 I0.589 J-0.112 F1016
N874 G1 X1.679 Y35.276
N875 G3 X2.879 Y35.284 I0.6 J0.004
N876 X2.27 Y35.88 I-0.6 J-0.004
N877 X2.041 Y35.831 I0.008 J-0.6 F500
N878 G1 X1.941 Y35.783 F1016
N879 X1.845 Y35.668
N880 X1.767 Y35.54
N881 X1.704 Y35.404
N882 X1.653 Y35.263
N883 X1.612 Y35.119
N884 X1.581 Y34.972
N885 X1.559 Y34.824
N886 X1.544 Y34.674
N887 X1.537 Y34.524
N888 X1.536 Y34.374
N889 X1.542 Y34.225
N890 X1.553 Y34.075
N891 X1.57 Y33.926
N892 X1.592 Y33.778
N893 X1.619 Y33.63
N894 X1.651 Y33.483
N895 X1.686 Y33.338
N896 X1.726 Y33.193
N897 X1.77 Y33.049
N898 X1.817 Y32.907
N899 X1.867 Y32.766
N900 X1.921 Y32.626
N901 X1.979 Y32.487
N902 X2.039 Y32.35
N903 X2.102 Y32.214
N904 X2.167 Y32.079
N905 X2.235 Y31.945
N906 X2.306 Y31.813
N907 X2.379 Y31.682
N908 X2.455 Y31.552
N909 X2.532 Y31.424
N910 X2.612 Y31.297
N911 X2.694 Y31.171
N912 X2.778 Y31.047
N913 X2.863 Y30.924
N914 X2.951 Y30.802
N915 X3.04 Y30.681
N916 X3.131 Y30.562
N917 X3.224 Y30.444
N918 X3.318 Y30.328
N919 X3.414 Y30.212
N920 X3.511 Y30.098
N921 X3.61 Y29.985
N922 X3.71 Y29.873
N923 X3.812 Y29.763
N924 X3.915 Y29.654
N925 X4.019 Y29.546
N926 X4.125 Y29.44
N927 X4.231 Y29.334
N928 X4.339 Y29.23
N929 X4.449 Y29.127
N930 X4.559 Y29.025
N931 X4.67 Y28.925
N932 X4.783 Y28.826
N933 X4.896 Y28.728
N934 X5.011 Y28.631
N935 X5.126 Y28.535
N936 X5.243 Y28.441
N937 X5.361 Y28.348
N938 X5.479 Y28.256
N939 X5.598 Y28.165
N940 X5.719 Y28.075
N941 X5.84 Y27.987
N942 X5.962 Y27.9
N943 X6.085 Y27.814
N944 X6.209 Y27.729
N945 X6.334 Y27.646
N946 X6.459 Y27.564
N947 X6.585 Y27.483
N948 X6.712 Y27.403
N949 X6.84 Y27.324
N950 X6.968 Y27.247
N951 X7.098 Y27.171
N952 X7.228 Y27.096
N953 X7.358 Y27.022
N954 X7.489 Y26.949
N955 X7.621 Y26.878
N956 X7.754 Y26.808
N957 X7.887 Y26.739
N958 X8.021 Y26.671
N959 X8.156 Y26.605
N960 X8.291 Y26.54
N961 X8.426 Y26.476
N962 X8.563 Y26.413
N963 X8.699 Y26.351
N964 X8.837 Y26.291
N965 X8.975 Y26.232
N966 X9.113 Y26.174
N967 X9.252 Y26.118
N968 X9.391 Y26.062
N969 X9.531 Y26.008
N970 X9.672 Y25.956
N971 X9.813 Y25.904
N972 X9.954 Y25.854
N973 X10.096 Y25.805
N974 X10.238 Y25.757
N975 X10.38 Y25.71
N976 X10.523 Y25.665
N977 X10.667 Y25.621
N978 X10.81 Y25.578
N979 X10.955 Y25.536
N980 X11.099 Y25.496
N981 X11.244 Y25.457
N982 X11.389 Y25.419
N983 X11.535 Y25.383
N984 X11.68 Y25.347
N985 X11.826 Y25.313
N986 X11.973 Y25.281
N987 X12.12 Y25.249
N988 X12.266 Y25.219
N989 X12.414 Y25.19
N990 X12.561 Y25.162
N991 X12.709 Y25.136
N992 X12.857 Y25.111
N993 X13.005 Y25.087
N994 X13.153 Y25.064
N995 X13.301 Y25.043
N996 X13.45 Y25.023
N997 X13.599 Y25.005
N998 X13.748 Y24.987
N999 X13.897 Y24.971
N1000 X14.046 Y24.956
N1001 X14.196 Y24.943
N1002 X14.345 Y24.93
N1003 X14.495 Y24.919
N1004 X14.645 Y24.91
N1005 X14.794 Y24.901
N1006 X14.944 Y24.894
N1007 X15.094 Y24.888
N1008 X15.244 Y24.884
N1009 X15.394 Y24.88
N1010 X15.544 Y24.878
N1011 X15.694
N1012 X15.844
N1013 X15.994 Y24.88
N1014 X16.144 Y24.883
N1015 X16.294 Y24.888
N1016 X16.444 Y24.894
N1017 X16.593 Y24.901
N1018 X16.743 Y24.909
N1019 X16.893 Y24.919
N1020 X17.043 Y24.93
N1021 X17.192 Y24.942
N1022 X17.341 Y24.955
N1023 X17.491 Y24.97
N1024 X17.64 Y24.986
N1025 X17.789 Y25.003
N1026 X17.938 Y25.022
N1027 X18.086 Y25.041
N1028 X18.235 Y25.062
N1029 X18.383 Y25.085
N1030 X18.531 Y25.108
N1031 X18.679 Y25.133
N1032 X18.827 Y25.159
N1033 X18.975 Y25.186
N1034 X19.122 Y25.215
N1035 X19.269 Y25.245
N1036 X19.416 Y25.276
N1037 X19.562 Y25.308
N1038 X19.708 Y25.342
N1039 X19.854 Y25.377
N1040 X20 Y25.413
N1041 X20.145 Y25.45
N1042 X20.29 Y25.488
N1043 X20.435 Y25.528
N1044 X20.579 Y25.569
N1045 X20.723 Y25.611
N1046 X20.867 Y25.654
N1047 X21.01 Y25.699
N1048 X21.153 Y25.744
N1049 X21.295 Y25.791
N1050 X21.437 Y25.839
N1051 X21.579 Y25.889
N1052 X21.72 Y25.939
N1053 X21.861 Y25.991
N1054 X22.001 Y26.044
N1055 X22.141 Y26.098
N1056 X22.281 Y26.153
N1057 X22.42 Y26.209
N1058 X22.558 Y26.267
N1059 X22.696 Y26.326
N1060 X22.834 Y26.385
N1061 X22.971 Y26.446
N1062 X23.108 Y26.509
N1063 X23.244 Y26.572
N1064 X23.379 Y26.636
N1065 X23.514 Y26.702
N1066 X23.648 Y26.768
N1067 X23.782 Y26.836
N1068 X23.915 Y26.905
N1069 X24.048 Y26.975
N1070 X24.18 Y27.046
N1071 X24.312 Y27.118
N1072 X24.443 Y27.191
N1073 X24.573 Y27.266
N1074 X24.703 Y27.341
N1075 X24.832 Y27.418
N1076 X24.96 Y27.495
N1077 X25.088 Y27.574
N1078 X25.215 Y27.653
N1079 X25.341 Y27.734
N1080 X25.467 Y27.816
N1081 X25.592 Y27.898
N1082 X25.717 Y27.982
N1083 X25.84 Y28.067
N1084 X25.963 Y28.153
N1085 X26.086 Y28.24
N1086 X26.207 Y28.327
N1087 X26.328 Y28.416
N1088 X26.449 Y28.506
N1089 X26.568 Y28.597
N1090 X26.687 Y28.688
N1091 X26.805 Y28.781
N1092 X26.922 Y28.875
N1093 X27.038 Y28.969
N1094 X27.154 Y29.065
N1095 X27.269 Y29.161
N1096 X27.383 Y29.258
N1097 X27.496 Y29.357
N1098 X27.609 Y29.456
N1099 X27.72 Y29.556
N1100 X27.831 Y29.657
N1101 X27.941 Y29.759
N1102 X28.051 Y29.862
N1103 X28.159 Y29.965
N1104 X28.267 Y30.07
N1105 X28.373 Y30.175
N1106 X28.479 Y30.282
N1107 X28.584 Y30.389
N1108 X28.688 Y30.497
N1109 X28.791 Y30.606
N1110 X28.894 Y30.715
N1111 X28.995 Y30.826
N1112 X29.096 Y30.937
N1113 X29.196 Y31.049
N1114 X29.294 Y31.162
N1115 X29.392 Y31.276
N1116 X29.489 Y31.39
N1117 X29.585 Y31.506
N1118 X29.68 Y31.622
N1119 X29.774 Y31.738
N1120 X29.867 Y31.856
N1121 X29.96 Y31.974
N1122 X30.051 Y32.093
N1123 X30.141 Y32.213
N1124 X30.231 Y32.334
N1125 X30.319 Y32.455
N1126 X30.406 Y32.577
N1127 X30.493 Y32.699
N1128 X30.578 Y32.822
N1129 X30.663 Y32.946
N1130 X30.746 Y33.071
N1131 X30.829 Y33.196
N1132 X30.91 Y33.322
N1133 X30.99 Y33.449
N1134 X31.07 Y33.576
N1135 X31.148 Y33.704
N1136 X31.226 Y33.833
N1137 X31.302 Y33.962
N1138 X31.377 Y34.092
N1139 X31.45 Y34.223
N1140 X31.522 Y34.354
N1141 X31.593 Y34.487
N1142 X31.662 Y34.62
N1143 X31.73 Y34.753
N1144 X31.798 Y34.887
N1145 X31.863 Y35.022
N1146 X31.928 Y35.158
N1147 X31.991 Y35.294
N1148 X32.053 Y35.43
N1149 X32.114 Y35.567
N1150 X32.174 Y35.705
N1151 X32.233 Y35.843
N1152 X32.29 Y35.981
N1153 X32.347 Y36.12
N1154 X32.402 Y36.26
N1155 X32.457 Y36.402
N1156 X32.51 Y36.543
N1157 X32.562 Y36.683
N1158 X32.613 Y36.824
N1159 X32.663 Y36.966
N1160 X32.711 Y37.108
N1161 X32.76 Y37.254
N1162 X32.81 Y37.408
N1163 X32.855 Y37.55
N1164 X32.9 Y37.694
N1165 X32.943 Y37.838
N1166 X32.984 Y37.982
N1167 X33.025 Y38.126
N1168 X33.066 Y38.278
N1169 X33.107 Y38.431
N1170 X33.145 Y38.576
N1171 X33.181 Y38.722
N1172 X33.216 Y38.868
N1173 X33.249 Y39.014
N1174 X33.282 Y39.162
N1175 X33.316 Y39.319
N1176 X33.347 Y39.466
N1177 X33.376 Y39.613
N1178 X33.404 Y39.76
N1179 X33.431 Y39.908
N1180 X33.456 Y40.055
N1181 X33.482 Y40.207
N1182 X33.507 Y40.367
N1183 X33.529 Y40.515
N1184 X33.55 Y40.664
N1185 X33.57 Y40.813
N1186 X33.589 Y40.962
N1187 X33.606 Y41.111
N1188 X33.623 Y41.266
N1189 X33.639 Y41.422
N1190 X33.653 Y41.572
N1191 X33.666 Y41.721
N1192 X33.678 Y41.871
N1193 X33.688 Y42.02
N1194 X33.697 Y42.17
N1195 X33.706 Y42.329
N1196 X33.713 Y42.478
N1197 X33.718 Y42.628
N1198 X33.723 Y42.778
N1199 X33.726 Y42.928
N1200 X33.728 Y43.078
N1201 X33.729 Y43.23
N1202 Y43.389
N1203 X33.727 Y43.539
N1204 X33.725 Y43.689
N1205 X33.721 Y43.839
N1206 X33.716 Y43.989
N1207 X33.709 Y44.139
N1208 X33.701 Y44.292
N1209 X33.692 Y44.448
N1210 X33.683 Y44.598
N1211 X33.672 Y44.747
N1212 X33.534 Y45.623
N1213 X33.369 Y46.493
N1214 X33.173 Y47.358
N1215 X32.941 Y48.213
N1216 X32.671 Y49.057
N1217 X32.364 Y49.888
N1218 X32.019 Y50.704
N1219 X31.637 Y51.504
N1220 X31.218 Y52.285
N1221 X30.763 Y53.045
N1222 X30.271 Y53.782
N1223 X29.743 Y54.493
N1224 X29.18 Y55.178
N1225 X28.585 Y55.834
N1226 X27.958 Y56.461
N1227 X27.303 Y57.057
N1228 X26.62 Y57.622
N1229 X25.911 Y58.153
N1230 X25.176 Y58.649
N1231 X24.419 Y59.108
N1232 X23.639 Y59.53
N1233 X22.84 Y59.912
N1234 X22.023 Y60.257
N1235 X21.191 Y60.562
N1236 X20.346 Y60.828
N1237 X20.182 Y60.871
N1238 X20.065 Y60.897
N1239 X19.946 Y60.912
N1240 X19.826 Y60.917
N1241 X12.66 Y60.918
N1242 X11.775 Y60.873
N1243 X11.664 Y60.872
N1244 X11.514 Y60.868
N1245 X11.364 Y60.862
N1246 X11.214 Y60.853
N1247 X11.065 Y60.841
N1248 X10.916 Y60.827
N1249 X10.766 Y60.811
N1250 X10.618 Y60.792
N1251 X10.469 Y60.772
N1252 X10.321 Y60.749
N1253 X10.173 Y60.725
N1254 X10.025 Y60.698
N1255 X9.878 Y60.669
N1256 X9.731 Y60.638
N1257 X9.585 Y60.606
N1258 X9.439 Y60.572
N1259 X9.293 Y60.536
N1260 X9.148 Y60.498
N1261 X9.003 Y60.458
N1262 X8.859 Y60.417
N1263 X8.715 Y60.374
N1264 X8.572 Y60.33
N1265 X8.429 Y60.285
N1266 X8.287 Y60.237
N1267 X8.145 Y60.188
N1268 X8.004 Y60.138
N1269 X7.863 Y60.086
N1270 X7.723 Y60.032
N1271 X7.583 Y59.978
N1272 X7.444 Y59.922
N1273 X7.305 Y59.865
N1274 X7.167 Y59.806
N1275 X7.03 Y59.746
N1276 X6.893 Y59.684
N1277 X6.757 Y59.622
N1278 X6.621 Y59.558
N1279 X6.486 Y59.493
N1280 X6.351 Y59.426
N1281 X6.217 Y59.359
N1282 X6.084 Y59.29
N1283 X5.951 Y59.22
N1284 X5.819 Y59.149
N1285 X5.688 Y59.076
N1286 X5.557 Y59.003
N1287 X5.427 Y58.928
N1288 X5.298 Y58.852
N1289 X5.169 Y58.775
N1290 X5.041 Y58.697
N1291 X4.913 Y58.618
N1292 X4.787 Y58.538
N1293 X4.661 Y58.456
N1294 X4.535 Y58.374
N1295 X4.411 Y58.29
N1296 X4.287 Y58.206
N1297 X4.164 Y58.12
N1298 X4.041 Y58.034
N1299 X3.919 Y57.946
N1300 X3.798 Y57.858
N1301 X3.678 Y57.768
N1302 X3.559 Y57.677
N1303 X3.44 Y57.585
N1304 X3.322 Y57.493
N1305 X3.204 Y57.399
N1306 X3.088 Y57.305
N1307 X2.972 Y57.209
N1308 X2.857 Y57.113
N1309 X2.743 Y57.015
N1310 X2.63 Y56.917
N1311 X2.518 Y56.817
N1312 X2.407 Y56.717
N1313 X2.296 Y56.616
N1314 X2.186 Y56.513
N1315 X2.071 Y56.405
N1316 X1.954 Y56.292
N1317 X1.795 Y56.138
N1318 X1.614 Y56.01
N1319 X1.415 Y55.913
N1320 X1.203 Y55.848
N1321 X0.983 Y55.818
N1322 X0.762 Y55.822
N1323 X0.544 Y55.862
N1324 X0.335 Y55.935
N1325 X0.14 Y56.041
N1326 X-0.036 Y56.175
N1327 X-0.188 Y56.336
N1328 X-0.313 Y56.519
N1329 X-0.408 Y56.719
N1330 X-0.655 Y57.57
N1331 X-0.716 Y58.454
N1332 X-0.759 Y59.339
N1333 X-0.788 Y60.166
N1334 X-0.827 Y60.451
N1335 X-0.923 Y60.721
N1336 X-1.073 Y60.967
N1337 X-1.27 Y61.176
N1338 X-1.505 Y61.341
N1339 X-1.629 Y61.41
N1340 X-1.778 Y61.504
N1341 X-1.83 Y61.545
N1342 X-2.031 Y61.709
N1343 X-2.081 Y61.741
N1344 G3 X-2.308 Y61.799 I-0.258 J-0.542 F1000
N1345 X-2.94 Y61.201 I-0.031 J-0.599 F1016
N1346 G1 X-3 Y32.519
N1347 Y32.283 F500
N1348 Y23.697 F1016
N1349 X-2.999 Y23.596
N1350 X-2.984 Y23.496
N1351 X-2.97 Y23.445
N1352 X-2.951 Y23.395
N1353 X-2.927 Y23.345
N1354 X-2.896 Y23.294
N1355 X-2.836 Y23.219
N1356 X-2.795 Y23.18
N1357 X-2.773 Y23.164
N1358 X-2.643 Y23.239
N1359 X-2.521 Y23.326
N1360 X-2.407 Y23.423
N1361 X-2.299 Y23.527
N1362 X-2.197 Y23.637
N1363 X-2.101 Y23.753
N1364 X-2.011 Y23.872
N1365 X-1.925 Y23.996
N1366 X-1.845 Y24.122
N1367 X-1.768 Y24.251
N1368 X-1.696 Y24.383
N1369 X-1.628 Y24.516
N1370 X-1.563 Y24.652
N1371 X-1.502 Y24.789
N1372 X-1.444 Y24.927
N1373 X-1.389 Y25.067
N1374 X-1.338 Y25.207
N1375 X-1.288 Y25.349
N1376 X-1.242 Y25.492
N1377 X-1.198 Y25.635
N1378 X-1.156 Y25.779
N1379 X-1.116 Y25.924
N1380 X-1.079 Y26.069
N1381 X-1.043 Y26.215
N1382 X-1.009 Y26.361
N1383 X-0.978 Y26.507
N1384 X-0.947 Y26.654
N1385 X-0.918 Y26.801
N1386 X-0.891 Y26.949
N1387 X-0.853 Y27.167
N1388 X-0.781 Y27.377
N1389 X-0.677 Y27.572
N1390 X-0.543 Y27.749
N1391 X-0.383 Y27.902
N1392 X-0.201 Y28.028
N1393 X-0.001 Y28.124
N1394 X0.211 Y28.187
N1395 X0.431 Y28.216
N1396 X0.653 Y28.209
N1397 X0.87 Y28.168
N1398 X1.704 Y27.869
N1399 X2.221 Y27.469
N1400 X2.536 Y27.23
N1401 X2.793 Y27.037
N1402 X3.02 Y26.87
N1403 X3.23 Y26.717
N1404 X3.425 Y26.578
N1405 X3.61 Y26.447
N1406 X3.789 Y26.323
N1407 X3.961 Y26.205
N1408 X4.128 Y26.094
N1409 X4.29 Y25.986
N1410 X4.45 Y25.882
N1411 X4.607 Y25.782
N1412 X4.761 Y25.685
N1413 X4.913 Y25.59
N1414 X5.063 Y25.499
N1415 X5.212 Y25.409
N1416 X5.359 Y25.322
N1417 X5.506 Y25.238
N1418 X5.651 Y25.155
N1419 X5.796 Y25.074
N1420 X5.939 Y24.994
N1421 X6.082 Y24.917
N1422 X6.225 Y24.841
N1423 X6.367 Y24.767
N1424 X6.508 Y24.694
N1425 X6.65 Y24.623
N1426 X6.791 Y24.553
N1427 X6.932 Y24.485
N1428 X7.072 Y24.418
N1429 X7.212 Y24.352
N1430 X7.352 Y24.288
N1431 X7.492 Y24.225
N1432 X7.632 Y24.163
N1433 X7.773 Y24.102
N1434 X7.94 Y24.032
N1435 X8.114 Y23.972
N1436 X8.294 Y23.937
N1437 X8.477 Y23.925
N1438 X20.508
N1439 X21.302 Y23.965
N1440 X21.986 Y24.055
N1441 X22.775 Y24.224
N1442 X23.624 Y24.478
N1443 X24.451 Y24.796
N1444 X25.256 Y25.166
N1445 X26.038 Y25.583
N1446 X26.797 Y26.041
N1447 X27.532 Y26.536
N1448 X28.242 Y27.065
N1449 X28.928 Y27.627
N1450 X29.587 Y28.219
N1451 X30.219 Y28.84
N1452 X30.824 Y29.488
N1453 X31.4 Y30.161
N1454 X31.947 Y30.858
N1455 X32.463 Y31.579
N1456 X32.945 Y32.322
N1457 X33.392 Y33.087
N1458 X33.804 Y33.872
N1459 X34.181 Y34.674
N1460 X34.522 Y35.491
N1461 X34.829 Y36.323
N1462 X35.1 Y37.166
N1463 X35.336 Y38.021
N1464 X35.536 Y38.884
N1465 X35.7 Y39.755
N1466 X35.828 Y40.631
N1467 X35.92 Y41.513
N1468 X35.974 Y42.397
N1469 X35.987 Y43.283
N1470 X35.952 Y44.169
N1471 X35.876 Y45.052
N1472 X35.762 Y45.93
N1473 X35.612 Y46.804
N1474 X35.426 Y47.67
N1475 X35.205 Y48.528
N1476 X34.95 Y49.377
N1477 X34.661 Y50.214
N1478 X34.338 Y51.04
N1479 X33.981 Y51.851
N1480 X33.592 Y52.647
N1481 X33.169 Y53.426
N1482 X32.713 Y54.186
N1483 X32.224 Y54.925
N1484 X31.704 Y55.642
N1485 X31.153 Y56.335
N1486 X30.572 Y57.005
N1487 X29.964 Y57.649
N1488 X29.329 Y58.268
N1489 X28.668 Y58.858
N1490 X27.983 Y59.42
N1491 X27.274 Y59.952
N1492 X26.542 Y60.451
N1493 X26.131 Y60.707
N1494 X25.899 Y60.822
N1495 X25.651 Y60.893
N1496 X25.393 Y60.917
N1497 X19.826
N1498 G3 X19.598 Y60.863 I0.021 J-0.6 F1000
N1499 G1 X19.527 Y60.831 Z-2.989
N1500 X19.459 Y60.8 Z-2.967
N1501 X19.396 Y60.771 Z-2.93
N1502 X19.341 Y60.746 Z-2.88
N1503 X19.295 Y60.726 Z-2.819
N1504 X19.262 Y60.71 Z-2.75
N1505 X19.241 Y60.701 Z-2.675
N1506 X19.234 Y60.698 Z-2.597
N1507 G0 Z5
N1508 X20.26 Y24.473
N1509 Z-2.197
N1510 G1 Z-2.597 F500
N1511 X20.261 Y24.466 Z-2.675
N1512 X20.265 Y24.443 Z-2.75
N1513 X20.272 Y24.407 Z-2.819
N1514 X20.28 Y24.358 Z-2.88
N1515 X20.291 Y24.298 Z-2.93
N1516 X20.303 Y24.23 Z-2.967
N1517 X20.316 Y24.157 Z-2.989
N1518 X20.33 Y24.08 Z-2.997
N1519 G3 X20.508 Y23.925 I0.185 J0.033
N1520 G1 X25.338 Y23.926 F1016
N1521 X25.749 Y23.946
N1522 X26.184 Y24.003
N1523 X26.665 Y24.106
N1524 X27.236 Y24.277
N1525 X27.88 Y24.528
N1526 X28.607 Y24.881
N1527 X29.371 Y25.331
N1528 X30.1 Y25.835
N1529 X30.795 Y26.384
N1530 X31.46 Y26.971
N1531 X32.094 Y27.589
N1532 X32.699 Y28.236
N1533 X33.275 Y28.91
N1534 X33.822 Y29.607
N1535 X34.339 Y30.327
N1536 X34.824 Y31.069
N1537 X35.277 Y31.83
N1538 X35.699 Y32.609
N1539 X36.09 Y33.405
N1540 X36.448 Y34.215
N1541 X36.775 Y35.038
N1542 X37.071 Y35.874
N1543 X37.334 Y36.72
N1544 X37.565 Y37.575
N1545 X37.764 Y38.439
N1546 X37.93 Y39.309
N1547 X38.063 Y40.185
N1548 X38.161 Y41.066
N1549 X38.222 Y41.95
N1550 X38.246 Y42.836
N1551 X38.234 Y43.722
N1552 X38.187 Y44.607
N1553 X38.104 Y45.489
N1554 X37.989 Y46.368
N1555 X37.84 Y47.241
N1556 X37.658 Y48.108
N1557 X37.443 Y48.968
N1558 X37.196 Y49.819
N1559 X36.917 Y50.66
N1560 X36.608 Y51.491
N1561 X36.268 Y52.309
N1562 X35.898 Y53.114
N1563 X35.497 Y53.905
N1564 X35.067 Y54.679
N1565 X34.608 Y55.437
N1566 X34.119 Y56.176
N1567 X33.601 Y56.895
N1568 X33.056 Y57.594
N1569 X32.484 Y58.271
N1570 X31.887 Y58.925
N1571 X31.265 Y59.556
N1572 X30.619 Y60.163
N1573 X30.149 Y60.573
N1574 X29.946 Y60.719
N1575 X29.721 Y60.828
N1576 X29.48 Y60.894
N1577 X29.23 Y60.916
N1578 X25.393 Y60.917
N1579 G3 X25.165 Y60.863 I0.021 J-0.6 F1000
N1580 G1 X25.094 Y60.831 Z-2.989
N1581 X25.026 Y60.8 Z-2.967
N1582 X24.963 Y60.771 Z-2.93
N1583 X24.908 Y60.746 Z-2.88
N1584 X24.863 Y60.725 Z-2.819
N1585 X24.829 Y60.71 Z-2.75
N1586 X24.808 Y60.7 Z-2.675
N1587 X24.801 Y60.697 Z-2.597
N1588 G0 Z5
N1589 X25.09 Y24.474
N1590 Z-2.197
N1591 G1 Z-2.597 F500
N1592 X25.091 Y24.466 Z-2.675
N1593 X25.095 Y24.444 Z-2.75
N1594 X25.101 Y24.407 Z-2.819
N1595 X25.11 Y24.358 Z-2.88
N1596 X25.121 Y24.299 Z-2.93
N1597 X25.133 Y24.231 Z-2.967
N1598 X25.146 Y24.157 Z-2.989
N1599 X25.16 Y24.08 Z-2.997
N1600 G3 X25.338 Y23.926 I0.185 J0.033
N1601 G1 X28.961 F1016
N1602 X29.281 Y23.942
N1603 X29.639 Y23.989
N1604 X30.025 Y24.072
N1605 X30.483 Y24.209
N1606 X30.979 Y24.402
N1607 X31.557 Y24.683
N1608 X32.213 Y25.069
N1609 X32.938 Y25.578
N1610 X33.62 Y26.144
N1611 X34.263 Y26.754
N1612 X34.869 Y27.4
N1613 X35.441 Y28.077
N1614 X35.98 Y28.78
N1615 X36.488 Y29.507
N1616 X36.965 Y30.253
N1617 X37.412 Y31.019
N1618 X37.829 Y31.8
N1619 X38.216 Y32.597
N1620 X38.575 Y33.408
N1621 X38.904 Y34.23
N1622 X39.203 Y35.064
N1623 X39.473 Y35.909
N1624 X39.712 Y36.762
N1625 X39.922 Y37.623
N1626 X40.101 Y38.491
N1627 X40.249 Y39.364
N1628 X40.365 Y40.243
N1629 X40.45 Y41.125
N1630 X40.502 Y42.009
N1631 X40.522 Y42.895
N1632 X40.511 Y43.781
N1633 X40.467 Y44.666
N1634 X40.391 Y45.549
N1635 X40.284 Y46.429
N1636 X40.147 Y47.304
N1637 X39.979 Y48.174
N1638 X39.781 Y49.038
N1639 X39.554 Y49.895
N1640 X39.298 Y50.743
N1641 X39.013 Y51.582
N1642 X38.7 Y52.411
N1643 X38.359 Y53.229
N1644 X37.99 Y54.035
N1645 X37.593 Y54.827
N1646 X37.169 Y55.605
N1647 X36.717 Y56.367
N1648 X36.239 Y57.113
N1649 X35.734 Y57.842
N1650 X35.205 Y58.552
N1651 X34.651 Y59.244
N1652 X34.073 Y59.916
N1653 X33.567 Y60.465
N1654 X33.351 Y60.656
N1655 X33.1 Y60.798
N1656 X32.825 Y60.886
N1657 X32.538 Y60.916
N1658 X29.23
N1659 G3 X29.002 Y60.863 I0.021 J-0.6 F1000
N1660 G1 X28.931 Y60.83 Z-2.989
N1661 X28.863 Y60.799 Z-2.967
N1662 X28.8 Y60.771 Z-2.93
N1663 X28.745 Y60.746 Z-2.88
N1664 X28.7 Y60.725 Z-2.819
N1665 X28.666 Y60.71 Z-2.75
N1666 X28.645 Y60.7 Z-2.675
N1667 X28.638 Y60.697 Z-2.597
N1668 G0 Z5
N1669 X28.712 Y24.474
N1670 Z-2.197
N1671 G1 Z-2.597 F500
N1672 X28.713 Y24.466 Z-2.675
N1673 X28.717 Y24.444 Z-2.75
N1674 X28.724 Y24.408 Z-2.819
N1675 X28.733 Y24.359 Z-2.88
N1676 X28.743 Y24.299 Z-2.93
N1677 X28.756 Y24.231 Z-2.967
N1678 X28.769 Y24.157 Z-2.989
N1679 X28.783 Y24.08 Z-2.997
N1680 G3 X28.961 Y23.926 I0.185 J0.033
N1681 G1 X32.18 F1016
N1682 X32.411 Y23.938
N1683 X32.727 Y23.979
N1684 X33.07 Y24.053
N1685 X33.475 Y24.174
N1686 X33.903 Y24.341
N1687 X34.401 Y24.583
N1688 X34.953 Y24.907
N1689 X35.556 Y25.331
N1690 X36.236 Y25.895
N1691 X36.87 Y26.514
N1692 X37.461 Y27.174
N1693 X38.014 Y27.867
N1694 X38.531 Y28.586
N1695 X39.015 Y29.328
N1696 X39.468 Y30.09
N1697 X39.891 Y30.869
N1698 X40.284 Y31.663
N1699 X40.649 Y32.47
N1700 X40.986 Y33.29
N1701 X41.293 Y34.121
N1702 X41.573 Y34.962
N1703 X41.824 Y35.812
N1704 X42.048 Y36.669
N1705 X42.243 Y37.533
N1706 X42.41 Y38.404
N1707 X42.548 Y39.279
N1708 X42.657 Y40.158
N1709 X42.737 Y41.041
N1710 X42.788 Y41.926
N1711 X42.81 Y42.811
N1712 X42.803 Y43.697
N1713 X42.765 Y44.583
N1714 X42.699 Y45.466
N1715 X42.604 Y46.347
N1716 X42.481 Y47.225
N1717 X42.329 Y48.098
N1718 X42.151 Y48.966
N1719 X41.945 Y49.828
N1720 X41.712 Y50.683
N1721 X41.453 Y51.53
N1722 X41.167 Y52.369
N1723 X40.856 Y53.199
N1724 X40.518 Y54.018
N1725 X40.153 Y54.825
N1726 X39.763 Y55.621
N1727 X39.347 Y56.404
N1728 X38.907 Y57.172
N1729 X38.442 Y57.927
N1730 X37.953 Y58.666
N1731 X37.441 Y59.389
N1732 X36.906 Y60.096
N1733 X36.656 Y60.402
N1734 X36.435 Y60.618
N1735 X36.172 Y60.781
N1736 X35.879 Y60.882
N1737 X35.572 Y60.916
N1738 X32.538
N1739 G3 X32.31 Y60.863 I0.021 J-0.6 F1000
N1740 G1 X32.239 Y60.83 Z-2.989
N1741 X32.171 Y60.799 Z-2.967
N1742 X32.108 Y60.77 Z-2.93
N1743 X32.053 Y60.745 Z-2.88
N1744 X32.007 Y60.725 Z-2.819
N1745 X31.974 Y60.709 Z-2.75
N1746 X31.953 Y60.7 Z-2.675
N1747 X31.946 Y60.697 Z-2.597
N1748 G0 Z5
N1749 X31.932 Y24.474
N1750 Z-2.197
N1751 G1 Z-2.597 F500
N1752 X31.933 Y24.467 Z-2.675
N1753 X31.937 Y24.444 Z-2.75
N1754 X31.944 Y24.408 Z-2.819
N1755 X31.953 Y24.359 Z-2.88
N1756 X31.963 Y24.299 Z-2.93
N1757 X31.975 Y24.231 Z-2.967
N1758 X31.989 Y24.157 Z-2.989
N1759 X32.002 Y24.081 Z-2.997
N1760 G3 X32.18 Y23.926 I0.185 J0.033
N1761 G1 X34.998 F1016
N1762 X35.32 Y23.943
N1763 X35.596 Y23.979
N1764 X35.928 Y24.05
N1765 X36.284 Y24.156
N1766 X36.686 Y24.313
N1767 X37.128 Y24.527
N1768 X37.63 Y24.823
N1769 X38.163 Y25.198
N1770 X38.765 Y25.697
N1771 X39.399 Y26.316
N1772 X39.984 Y26.982
N1773 X40.526 Y27.683
N1774 X41.03 Y28.412
N1775 X41.498 Y29.164
N1776 X41.933 Y29.936
N1777 X42.338 Y30.724
N1778 X42.713 Y31.527
N1779 X43.059 Y32.343
N1780 X43.377 Y33.17
N1781 X43.668 Y34.007
N1782 X43.932 Y34.853
N1783 X44.169 Y35.707
N1784 X44.379 Y36.568
N1785 X44.563 Y37.434
N1786 X44.72 Y38.307
N1787 X44.851 Y39.183
N1788 X44.955 Y40.063
N1789 X45.032 Y40.946
N1790 X45.083 Y41.83
N1791 X45.106 Y42.716
N1792 X45.102 Y43.602
N1793 X45.071 Y44.488
N1794 X45.013 Y45.372
N1795 X44.928 Y46.254
N1796 X44.818 Y47.133
N1797 X44.681 Y48.009
N1798 X44.519 Y48.88
N1799 X44.331 Y49.746
N1800 X44.119 Y50.606
N1801 X43.882 Y51.46
N1802 X43.62 Y52.307
N1803 X43.334 Y53.145
N1804 X43.023 Y53.975
N1805 X42.688 Y54.795
N1806 X42.328 Y55.605
N1807 X41.944 Y56.404
N1808 X41.537 Y57.191
N1809 X41.106 Y57.965
N1810 X40.653 Y58.727
N1811 X40.178 Y59.475
N1812 X39.68 Y60.208
N1813 X39.56 Y60.366
N1814 X39.338 Y60.597
N1815 X39.068 Y60.771
N1816 X38.766 Y60.879
N1817 X38.448 Y60.916
N1818 X35.572
N1819 G3 X35.344 Y60.862 I0.021 J-0.6 F1000
N1820 G1 X35.273 Y60.83 Z-2.989
N1821 X35.205 Y60.799 Z-2.967
N1822 X35.142 Y60.77 Z-2.93
N1823 X35.086 Y60.745 Z-2.88
N1824 X35.041 Y60.724 Z-2.819
N1825 X35.008 Y60.709 Z-2.75
N1826 X34.987 Y60.7 Z-2.675
N1827 X34.98 Y60.697 Z-2.597
N1828 G0 Z5
N1829 X34.749 Y24.474
N1830 Z-2.197
N1831 G1 Z-2.597 F500
N1832 X34.751 Y24.467 Z-2.675
N1833 X34.755 Y24.444 Z-2.75
N1834 X34.761 Y24.408 Z-2.819
N1835 X34.77 Y24.359 Z-2.88
N1836 X34.781 Y24.299 Z-2.93
N1837 X34.793 Y24.231 Z-2.967
N1838 X34.806 Y24.158 Z-2.989
N1839 X34.82 Y24.081 Z-2.997
N1840 G3 X34.998 Y23.926 I0.185 J0.033
N1841 G1 X37.815 Y23.927 F1016
N1842 X38.047 Y23.938
N1843 X38.324 Y23.975
N1844 X38.643 Y24.043
N1845 X38.971 Y24.141
N1846 X39.362 Y24.294
N1847 X39.765 Y24.489
N1848 X40.236 Y24.766
N1849 X40.731 Y25.114
N1850 X41.284 Y25.573
N1851 X41.896 Y26.171
N1852 X42.479 Y26.838
N1853 X43.014 Y27.545
N1854 X43.507 Y28.281
N1855 X43.963 Y29.041
N1856 X44.384 Y29.82
N1857 X44.774 Y30.616
N1858 X45.133 Y31.426
N1859 X45.464 Y32.248
N1860 X45.767 Y33.081
N1861 X46.043 Y33.923
N1862 X46.292 Y34.773
N1863 X46.517 Y35.631
N1864 X46.716 Y36.494
N1865 X46.889 Y37.363
N1866 X47.038 Y38.237
N1867 X47.162 Y39.114
N1868 X47.262 Y39.995
N1869 X47.336 Y40.878
N1870 X47.385 Y41.762
N1871 X47.409 Y42.648
N1872 X47.408 Y43.534
N1873 X47.381 Y44.42
N1874 X47.33 Y45.305
N1875 X47.253 Y46.187
N1876 X47.153 Y47.068
N1877 X47.028 Y47.945
N1878 X46.879 Y48.819
N1879 X46.706 Y49.688
N1880 X46.511 Y50.552
N1881 X46.292 Y51.411
N1882 X46.05 Y52.263
N1883 X45.785 Y53.109
N1884 X45.497 Y53.947
N1885 X45.187 Y54.777
N1886 X44.853 Y55.598
N1887 X44.497 Y56.409
N1888 X44.119 Y57.21
N1889 X43.718 Y58.001
N1890 X43.296 Y58.78
N1891 X42.852 Y59.547
N1892 X42.383 Y60.299
N1893 X42.344 Y60.35
N1894 X42.121 Y60.587
N1895 X41.849 Y60.766
N1896 X41.544 Y60.878
N1897 X41.22 Y60.916
N1898 X38.448
N1899 G3 X38.22 Y60.862 I0.021 J-0.6 F1000
N1900 G1 X38.149 Y60.83 Z-2.989
N1901 X38.081 Y60.799 Z-2.967
N1902 X38.018 Y60.77 Z-2.93
N1903 X37.962 Y60.745 Z-2.88
N1904 X37.917 Y60.724 Z-2.819
N1905 X37.884 Y60.709 Z-2.75
N1906 X37.863 Y60.699 Z-2.675
N1907 X37.856 Y60.696 Z-2.597
N1908 G0 Z5
N1909 X37.567 Y24.475
N1910 Z-2.197
N1911 G1 Z-2.597 F500
N1912 X37.568 Y24.467 Z-2.675
N1913 X37.572 Y24.445 Z-2.75
N1914 X37.579 Y24.408 Z-2.819
N1915 X37.587 Y24.359 Z-2.88
N1916 X37.598 Y24.3 Z-2.93
N1917 X37.61 Y24.232 Z-2.967
N1918 X37.624 Y24.158 Z-2.989
N1919 X37.637 Y24.081 Z-2.997
N1920 G3 X37.815 Y23.927 I0.185 J0.033
N1921 G1 X40.432 F1016
N1922 X40.696 Y23.94
N1923 X40.972 Y23.976
N1924 X41.265 Y24.039
N1925 X41.589 Y24.136
N1926 X41.962 Y24.282
N1927 X42.348 Y24.469
N1928 X42.793 Y24.731
N1929 X43.266 Y25.063
N1930 X43.785 Y25.494
N1931 X44.358 Y26.053
N1932 X44.941 Y26.721
N1933 X45.472 Y27.43
N1934 X45.958 Y28.171
N1935 X46.404 Y28.936
N1936 X46.815 Y29.722
N1937 X47.192 Y30.523
N1938 X47.539 Y31.339
N1939 X47.857 Y32.166
N1940 X48.147 Y33.003
N1941 X48.411 Y33.849
N1942 X48.649 Y34.703
N1943 X48.863 Y35.563
N1944 X49.053 Y36.428
N1945 X49.218 Y37.299
N1946 X49.36 Y38.173
N1947 X49.479 Y39.052
N1948 X49.574 Y39.933
N1949 X49.645 Y40.816
N1950 X49.693 Y41.701
N1951 X49.718 Y42.586
N1952 X49.719 Y43.473
N1953 X49.696 Y44.358
N1954 X49.65 Y45.243
N1955 X49.581 Y46.127
N1956 X49.489 Y47.008
N1957 X49.374 Y47.887
N1958 X49.237 Y48.762
N1959 X49.077 Y49.634
N1960 X48.896 Y50.501
N1961 X48.693 Y51.364
N1962 X48.468 Y52.221
N1963 X48.222 Y53.072
N1964 X47.954 Y53.917
N1965 X47.665 Y54.754
N1966 X47.354 Y55.584
N1967 X47.023 Y56.406
N1968 X46.67 Y57.219
N1969 X46.296 Y58.022
N1970 X45.901 Y58.815
N1971 X45.485 Y59.598
N1972 X45.088 Y60.268
N1973 X45.049 Y60.323
N1974 X44.875 Y60.525
N1975 X44.665 Y60.691
N1976 X44.428 Y60.814
N1977 X44.172 Y60.89
N1978 X43.906 Y60.915
N1979 X41.22 Y60.916
N1980 G3 X40.993 Y60.862 I0.021 J-0.6 F1000
N1981 G1 X40.922 Y60.83 Z-2.989
N1982 X40.853 Y60.798 Z-2.967
N1983 X40.79 Y60.77 Z-2.93
N1984 X40.735 Y60.745 Z-2.88
N1985 X40.69 Y60.724 Z-2.819
N1986 X40.656 Y60.709 Z-2.75
N1987 X40.636 Y60.699 Z-2.675
N1988 X40.629 Y60.696 Z-2.597
N1989 G0 Z5
N1990 X40.183 Y24.475
N1991 Z-2.197
N1992 G1 Z-2.597 F500
N1993 X40.184 Y24.467 Z-2.675
N1994 X40.188 Y24.445 Z-2.75
N1995 X40.195 Y24.408 Z-2.819
N1996 X40.204 Y24.36 Z-2.88
N1997 X40.214 Y24.3 Z-2.93
N1998 X40.226 Y24.232 Z-2.967
N1999 X40.24 Y24.158 Z-2.989
N2000 X40.253 Y24.081 Z-2.997
N2001 G3 X40.432 Y23.927 I0.185 J0.033
N2002 G1 X43.048 F1016
N2003 X43.276 Y23.938
N2004 X43.548 Y23.974
N2005 X43.824 Y24.033
N2006 X44.148 Y24.13
N2007 X44.502 Y24.268
N2008 X44.882 Y24.453
N2009 X45.307 Y24.703
N2010 X45.766 Y25.026
N2011 X46.259 Y25.435
N2012 X46.805 Y25.967
N2013 X47.387 Y26.635
N2014 X47.915 Y27.347
N2015 X48.396 Y28.091
N2016 X48.835 Y28.861
N2017 X49.236 Y29.651
N2018 X49.603 Y30.458
N2019 X49.939 Y31.277
N2020 X50.246 Y32.109
N2021 X50.525 Y32.95
N2022 X50.779 Y33.799
N2023 X51.008 Y34.655
N2024 X51.212 Y35.517
N2025 X51.393 Y36.384
N2026 X51.552 Y37.256
N2027 X51.687 Y38.132
N2028 X51.801 Y39.011
N2029 X51.891 Y39.892
N2030 X51.96 Y40.776
N2031 X52.007 Y41.661
N2032 X52.032 Y42.546
N2033 X52.034 Y43.433
N2034 X52.015 Y44.318
N2035 X51.973 Y45.204
N2036 X51.91 Y46.087
N2037 X51.825 Y46.97
N2038 X51.719 Y47.849
N2039 X51.591 Y48.726
N2040 X51.443 Y49.6
N2041 X51.273 Y50.47
N2042 X51.084 Y51.335
N2043 X50.873 Y52.196
N2044 X50.643 Y53.052
N2045 X50.392 Y53.901
N2046 X50.121 Y54.745
N2047 X49.83 Y55.582
N2048 X49.52 Y56.412
N2049 X49.189 Y57.234
N2050 X48.838 Y58.048
N2051 X48.468 Y58.853
N2052 X48.073 Y59.646
N2053 X47.731 Y60.244
N2054 X47.69 Y60.305
N2055 X47.516 Y60.513
N2056 X47.305 Y60.684
N2057 X47.065 Y60.811
N2058 X46.804 Y60.889
N2059 X46.534 Y60.915
N2060 X43.906
N2061 G3 X43.678 Y60.862 I0.021 J-0.6 F1000
N2062 G1 X43.607 Y60.829 Z-2.989
N2063 X43.538 Y60.798 Z-2.967
N2064 X43.475 Y60.77 Z-2.93
N2065 X43.42 Y60.744 Z-2.88
N2066 X43.375 Y60.724 Z-2.819
N2067 X43.341 Y60.709 Z-2.75
N2068 X43.321 Y60.699 Z-2.675
N2069 X43.314 Y60.696 Z-2.597
N2070 G0 Z5
N2071 X42.799 Y24.475
N2072 Z-2.197
N2073 G1 Z-2.597 F500
N2074 X42.8 Y24.467 Z-2.675
N2075 X42.804 Y24.445 Z-2.75
N2076 X42.811 Y24.409 Z-2.819
N2077 X42.82 Y24.36 Z-2.88
N2078 X42.83 Y24.3 Z-2.93
N2079 X42.843 Y24.232 Z-2.967
N2080 X42.856 Y24.158 Z-2.989
N2081 X42.87 Y24.081 Z-2.997
N2082 G3 X43.048 Y23.927 I0.185 J0.033
N2083 G1 X45.463 F1016
N2084 X45.818 Y23.945
N2085 X46.076 Y23.979
N2086 X46.349 Y24.037
N2087 X46.674 Y24.134
N2088 X47.01 Y24.266
N2089 X47.386 Y24.448
N2090 X47.794 Y24.688
N2091 X48.242 Y25.003
N2092 X48.715 Y25.396
N2093 X49.24 Y25.908
N2094 X49.807 Y26.558
N2095 X50.334 Y27.27
N2096 X50.811 Y28.017
N2097 X51.244 Y28.79
N2098 X51.639 Y29.583
N2099 X51.998 Y30.393
N2100 X52.326 Y31.216
N2101 X52.624 Y32.051
N2102 X52.895 Y32.894
N2103 X53.14 Y33.746
N2104 X53.361 Y34.604
N2105 X53.558 Y35.468
N2106 X53.732 Y36.337
N2107 X53.885 Y37.21
N2108 X54.015 Y38.086
N2109 X54.124 Y38.966
N2110 X54.212 Y39.847
N2111 X54.279 Y40.731
N2112 X54.325 Y41.616
N2113 X54.35 Y42.502
N2114 X54.354 Y43.388
N2115 X54.338 Y44.274
N2116 X54.3 Y45.159
N2117 X54.242 Y46.043
N2118 X54.164 Y46.926
N2119 X54.065 Y47.807
N2120 X53.946 Y48.685
N2121 X53.807 Y49.56
N2122 X53.649 Y50.432
N2123 X53.471 Y51.3
N2124 X53.274 Y52.164
N2125 X53.058 Y53.023
N2126 X52.823 Y53.877
N2127 X52.568 Y54.726
N2128 X52.295 Y55.569
N2129 X52.003 Y56.406
N2130 X51.692 Y57.235
N2131 X51.362 Y58.058
N2132 X51.012 Y58.872
N2133 X50.635 Y59.674
N2134 X50.323 Y60.235
N2135 X50.286 Y60.291
N2136 X50.112 Y60.504
N2137 X49.9 Y60.678
N2138 X49.657 Y60.808
N2139 X49.394 Y60.888
N2140 X49.121 Y60.915
N2141 X46.534
N2142 G3 X46.306 Y60.862 I0.021 J-0.6 F1000
N2143 G1 X46.235 Y60.829 Z-2.989
N2144 X46.167 Y60.798 Z-2.967
N2145 X46.104 Y60.769 Z-2.93
N2146 X46.049 Y60.744 Z-2.88
N2147 X46.004 Y60.724 Z-2.819
N2148 X45.97 Y60.708 Z-2.75
N2149 X45.949 Y60.699 Z-2.675
N2150 X45.942 Y60.696 Z-2.597
N2151 G0 Z5
N2152 X45.214 Y24.475
N2153 Z-2.197
N2154 G1 Z-2.597 F500
N2155 X45.215 Y24.468 Z-2.675
N2156 X45.219 Y24.445 Z-2.75
N2157 X45.226 Y24.409 Z-2.819
N2158 X45.235 Y24.36 Z-2.88
N2159 X45.245 Y24.3 Z-2.93
N2160 X45.258 Y24.232 Z-2.967
N2161 X45.271 Y24.158 Z-2.989
N2162 X45.285 Y24.081 Z-2.997
N2163 G3 X45.463 Y23.927 I0.185 J0.033
N2164 G1 X48.079 F1016
N2165 X48.307 Y23.939
N2166 X48.557 Y23.972
N2167 X48.829 Y24.03
N2168 X49.153 Y24.127
N2169 X49.477 Y24.253
N2170 X49.851 Y24.435
N2171 X50.247 Y24.668
N2172 X50.689 Y24.978
N2173 X51.147 Y25.359
N2174 X51.657 Y25.856
N2175 X52.206 Y26.485
N2176 X52.733 Y27.198
N2177 X53.208 Y27.946
N2178 X53.638 Y28.721
N2179 X54.027 Y29.517
N2180 X54.38 Y30.33
N2181 X54.701 Y31.155
N2182 X54.993 Y31.992
N2183 X55.257 Y32.838
N2184 X55.495 Y33.692
N2185 X55.71 Y34.551
N2186 X55.901 Y35.417
N2187 X56.07 Y36.287
N2188 X56.218 Y37.16
N2189 X56.344 Y38.037
N2190 X56.45 Y38.917
N2191 X56.536 Y39.799
N2192 X56.601 Y40.683
N2193 X56.647 Y41.568
N2194 X56.672 Y42.453
N2195 X56.678 Y43.34
N2196 X56.664 Y44.226
N2197 X56.631 Y45.111
N2198 X56.577 Y45.996
N2199 X56.505 Y46.879
N2200 X56.413 Y47.76
N2201 X56.302 Y48.639
N2202 X56.172 Y49.516
N2203 X56.024 Y50.389
N2204 X55.857 Y51.26
N2205 X55.672 Y52.126
N2206 X55.468 Y52.989
N2207 X55.247 Y53.847
N2208 X55.007 Y54.7
N2209 X54.749 Y55.548
N2210 X54.474 Y56.39
N2211 X54.18 Y57.226
N2212 X53.869 Y58.055
N2213 X53.537 Y58.877
N2214 X53.174 Y59.685
N2215 X52.882 Y60.224
N2216 X52.846 Y60.279
N2217 X52.672 Y60.495
N2218 X52.459 Y60.673
N2219 X52.215 Y60.806
N2220 X51.949 Y60.887
N2221 X51.673 Y60.915
N2222 X49.121
N2223 G3 X48.893 Y60.861 I0.021 J-0.6 F1000
N2224 G1 X48.822 Y60.829 Z-2.989
N2225 X48.754 Y60.798 Z-2.967
N2226 X48.691 Y60.769 Z-2.93
N2227 X48.636 Y60.744 Z-2.88
N2228 X48.59 Y60.723 Z-2.819
N2229 X48.557 Y60.708 Z-2.75
N2230 X48.536 Y60.699 Z-2.675
N2231 X48.529 Y60.696 Z-2.597
N2232 G0 Z5
N2233 X47.83 Y24.475
N2234 Z-2.197
N2235 G1 Z-2.597 F500
N2236 X47.832 Y24.468 Z-2.675
N2237 X47.836 Y24.445 Z-2.75
N2238 X47.842 Y24.409 Z-2.819
N2239 X47.851 Y24.36 Z-2.88
N2240 X47.862 Y24.3 Z-2.93
N2241 X47.874 Y24.232 Z-2.967
N2242 X47.887 Y24.158 Z-2.989
N2243 X47.901 Y24.082 Z-2.997
N2244 G3 X48.079 Y23.927 I0.185 J0.033
N2245 G1 X50.494 Y23.928 F1016
N2246 X50.78 Y23.942
N2247 X51.02 Y23.973
N2248 X51.293 Y24.032
N2249 X51.61 Y24.127
N2250 X51.928 Y24.25
N2251 X52.302 Y24.432
N2252 X52.685 Y24.657
N2253 X53.122 Y24.965
N2254 X53.568 Y25.334
N2255 X54.064 Y25.819
N2256 X54.599 Y26.432
N2257 X55.126 Y27.144
N2258 X55.599 Y27.894
N2259 X56.025 Y28.67
N2260 X56.41 Y29.469
N2261 X56.759 Y30.283
N2262 X57.074 Y31.111
N2263 X57.36 Y31.95
N2264 X57.618 Y32.798
N2265 X57.851 Y33.653
N2266 X58.059 Y34.514
N2267 X58.245 Y35.38
N2268 X58.41 Y36.251
N2269 X58.553 Y37.126
N2270 X58.676 Y38.003
N2271 X58.779 Y38.883
N2272 X58.863 Y39.766
N2273 X58.927 Y40.649
N2274 X58.972 Y41.534
N2275 X58.998 Y42.42
N2276 X59.005 Y43.306
N2277 X58.993 Y44.192
N2278 X58.963 Y45.078
N2279 X58.914 Y45.963
N2280 X58.846 Y46.846
N2281 X58.76 Y47.728
N2282 X58.656 Y48.608
N2283 X58.534 Y49.486
N2284 X58.395 Y50.361
N2285 X58.237 Y51.233
N2286 X58.062 Y52.101
N2287 X57.87 Y52.966
N2288 X57.661 Y53.827
N2289 X57.434 Y54.684
N2290 X57.19 Y55.536
N2291 X56.929 Y56.383
N2292 X56.651 Y57.224
N2293 X56.355 Y58.059
N2294 X56.037 Y58.887
N2295 X55.687 Y59.696
N2296 X55.409 Y60.219
N2297 X55.377 Y60.269
N2298 X55.203 Y60.489
N2299 X54.989 Y60.669
N2300 X54.743 Y60.804
N2301 X54.476 Y60.887
N2302 X54.197 Y60.915
N2303 X51.673
N2304 G3 X51.445 Y60.861 I0.021 J-0.6 F1000
N2305 G1 X51.374 Y60.829 Z-2.989
N2306 X51.306 Y60.798 Z-2.967
N2307 X51.243 Y60.769 Z-2.93
N2308 X51.188 Y60.744 Z-2.88
N2309 X51.142 Y60.723 Z-2.819
N2310 X51.109 Y60.708 Z-2.75
N2311 X51.088 Y60.699 Z-2.675
N2312 X51.081 Y60.695 Z-2.597
N2313 G0 Z5
N2314 X50.245 Y24.476
N2315 Z-2.197
N2316 G1 Z-2.597 F500
N2317 X50.246 Y24.468 Z-2.675
N2318 X50.25 Y24.446 Z-2.75
N2319 X50.257 Y24.409 Z-2.819
N2320 X50.266 Y24.36 Z-2.88
N2321 X50.276 Y24.301 Z-2.93
N2322 X50.289 Y24.233 Z-2.967
N2323 X50.302 Y24.159 Z-2.989
N2324 X50.316 Y24.082 Z-2.997
N2325 G3 X50.494 Y23.928 I0.185 J0.033
N2326 G1 X52.909 F1016
N2327 X53.226 Y23.944
N2328 X53.461 Y23.974
N2329 X53.734 Y24.033
N2330 X54.043 Y24.126
N2331 X54.359 Y24.249
N2332 X54.732 Y24.43
N2333 X55.106 Y24.65
N2334 X55.538 Y24.953
N2335 X55.975 Y25.316
N2336 X56.461 Y25.79
N2337 X56.984 Y26.391
N2338 X57.511 Y27.103
N2339 X57.983 Y27.853
N2340 X58.407 Y28.631
N2341 X58.788 Y29.431
N2342 X59.132 Y30.248
N2343 X59.443 Y31.078
N2344 X59.724 Y31.918
N2345 X59.977 Y32.767
N2346 X60.205 Y33.624
N2347 X60.409 Y34.486
N2348 X60.59 Y35.353
N2349 X60.751 Y36.225
N2350 X60.89 Y37.1
N2351 X61.01 Y37.978
N2352 X61.111 Y38.858
N2353 X61.192 Y39.741
N2354 X61.255 Y40.625
N2355 X61.3 Y41.51
N2356 X61.326 Y42.395
N2357 X61.334 Y43.281
N2358 X61.325 Y44.167
N2359 X61.297 Y45.053
N2360 X61.252 Y45.938
N2361 X61.189 Y46.822
N2362 X61.108 Y47.704
N2363 X61.01 Y48.585
N2364 X60.895 Y49.464
N2365 X60.763 Y50.34
N2366 X60.614 Y51.213
N2367 X60.449 Y52.084
N2368 X60.266 Y52.951
N2369 X60.068 Y53.815
N2370 X59.853 Y54.674
N2371 X59.621 Y55.53
N2372 X59.373 Y56.38
N2373 X59.108 Y57.226
N2374 X58.825 Y58.066
N2375 X58.519 Y58.897
N2376 X58.192 Y59.675
N2377 X57.925 Y60.191
N2378 X57.884 Y60.256
N2379 X57.71 Y60.48
N2380 X57.496 Y60.664
N2381 X57.248 Y60.801
N2382 X56.978 Y60.886
N2383 X56.697 Y60.914
N2384 X54.197 Y60.915
N2385 G3 X53.969 Y60.861 I0.021 J-0.6 F1000
N2386 G1 X53.898 Y60.829 Z-2.989
N2387 X53.83 Y60.798 Z-2.967
N2388 X53.767 Y60.769 Z-2.93
N2389 X53.712 Y60.744 Z-2.88
N2390 X53.667 Y60.723 Z-2.819
N2391 X53.633 Y60.708 Z-2.75
N2392 X53.612 Y60.698 Z-2.675
N2393 X53.605 Y60.695 Z-2.597
N2394 G0 Z5
N2395 X52.66 Y24.476
N2396 Z-2.197
N2397 G1 Z-2.597 F500
N2398 X52.661 Y24.468 Z-2.675
N2399 X52.665 Y24.446 Z-2.75
N2400 X52.672 Y24.409 Z-2.819
N2401 X52.681 Y24.36 Z-2.88
N2402 X52.691 Y24.301 Z-2.93
N2403 X52.704 Y24.233 Z-2.967
N2404 X52.717 Y24.159 Z-2.989
N2405 X52.731 Y24.082 Z-2.997
N2406 G3 X52.909 Y23.928 I0.185 J0.033
N2407 G1 X55.324 F1016
N2408 X55.651 Y23.944
N2409 X55.883 Y23.975
N2410 X56.156 Y24.033
N2411 X56.458 Y24.124
N2412 X56.774 Y24.247
N2413 X57.145 Y24.427
N2414 X57.512 Y24.643
N2415 X57.94 Y24.944
N2416 X58.37 Y25.301
N2417 X58.849 Y25.768
N2418 X59.364 Y26.358
N2419 X59.891 Y27.07
N2420 X60.361 Y27.821
N2421 X60.782 Y28.601
N2422 X61.161 Y29.402
N2423 X61.501 Y30.22
N2424 X61.808 Y31.051
N2425 X62.085 Y31.893
N2426 X62.334 Y32.744
N2427 X62.557 Y33.601
N2428 X62.757 Y34.464
N2429 X62.935 Y35.333
N2430 X63.092 Y36.205
N2431 X63.229 Y37.08
N2432 X63.346 Y37.959
N2433 X63.444 Y38.839
N2434 X63.524 Y39.722
N2435 X63.586 Y40.606
N2436 X63.63 Y41.491
N2437 X63.657 Y42.376
N2438 X63.666 Y43.262
N2439 X63.659 Y44.149
N2440 X63.634 Y45.034
N2441 X63.592 Y45.919
N2442 X63.533 Y46.804
N2443 X63.457 Y47.686
N2444 X63.364 Y48.568
N2445 X63.256 Y49.447
N2446 X63.13 Y50.324
N2447 X62.989 Y51.199
N2448 X62.832 Y52.071
N2449 X62.659 Y52.94
N2450 X62.47 Y53.806
N2451 X62.265 Y54.668
N2452 X62.044 Y55.526
N2453 X61.808 Y56.38
N2454 X61.554 Y57.229
N2455 X61.282 Y58.073
N2456 X60.985 Y58.908
N2457 X60.675 Y59.661
N2458 X60.416 Y60.172
N2459 X60.37 Y60.247
N2460 X60.197 Y60.473
N2461 X59.981 Y60.66
N2462 X59.732 Y60.799
N2463 X59.46 Y60.885
N2464 X59.177 Y60.914
N2465 X56.697
N2466 G3 X56.469 Y60.861 I0.021 J-0.6 F1000
N2467 G1 X56.398 Y60.828 Z-2.989
N2468 X56.329 Y60.797 Z-2.967
N2469 X56.266 Y60.769 Z-2.93
N2470 X56.211 Y60.744 Z-2.88
N2471 X56.166 Y60.723 Z-2.819
N2472 X56.132 Y60.708 Z-2.75
N2473 X56.112 Y60.698 Z-2.675
N2474 X56.105 Y60.695 Z-2.597
N2475 G0 Z5
N2476 X55.075 Y24.476
N2477 Z-2.197
N2478 G1 Z-2.597 F500
N2479 X55.076 Y24.468 Z-2.675
N2480 X55.08 Y24.446 Z-2.75
N2481 X55.087 Y24.41 Z-2.819
N2482 X55.096 Y24.361 Z-2.88
N2483 X55.106 Y24.301 Z-2.93
N2484 X55.119 Y24.233 Z-2.967
N2485 X55.132 Y24.159 Z-2.989
N2486 X55.146 Y24.082 Z-2.997
N2487 G3 X55.324 Y23.928 I0.185 J0.033
N2488 G1 X57.739 F1016
N2489 X58.059 Y23.944
N2490 X58.29 Y23.974
N2491 X58.563 Y24.033
N2492 X58.86 Y24.122
N2493 X59.175 Y24.245
N2494 X59.544 Y24.423
N2495 X59.908 Y24.638
N2496 X60.331 Y24.935
N2497 X60.757 Y25.289
N2498 X61.229 Y25.749
N2499 X61.737 Y26.332
N2500 X62.264 Y27.044
N2501 X62.733 Y27.796
N2502 X63.153 Y28.576
N2503 X63.529 Y29.379
N2504 X63.866 Y30.198
N2505 X64.17 Y31.03
N2506 X64.443 Y31.873
N2507 X64.688 Y32.725
N2508 X64.908 Y33.583
N2509 X65.105 Y34.447
N2510 X65.28 Y35.316
N2511 X65.434 Y36.189
N2512 X65.568 Y37.065
N2513 X65.683 Y37.943
N2514 X65.779 Y38.824
N2515 X65.858 Y39.707
N2516 X65.919 Y40.591
N2517 X65.963 Y41.476
N2518 X65.99 Y42.361
N2519 X66.001 Y43.247
N2520 X65.995 Y44.134
N2521 X65.972 Y45.019
N2522 X65.933 Y45.905
N2523 X65.878 Y46.789
N2524 X65.806 Y47.672
N2525 X65.719 Y48.554
N2526 X65.616 Y49.434
N2527 X65.497 Y50.312
N2528 X65.362 Y51.188
N2529 X65.213 Y52.062
N2530 X65.048 Y52.932
N2531 X64.868 Y53.8
N2532 X64.672 Y54.664
N2533 X64.462 Y55.525
N2534 X64.235 Y56.381
N2535 X63.991 Y57.233
N2536 X63.728 Y58.079
N2537 X63.438 Y58.917
N2538 X63.141 Y59.651
N2539 X62.888 Y60.157
N2540 X62.839 Y60.239
N2541 X62.666 Y60.468
N2542 X62.45 Y60.657
N2543 X62.2 Y60.798
N2544 X61.927 Y60.885
N2545 X61.641 Y60.914
N2546 X59.177
N2547 G3 X58.949 Y60.861 I0.021 J-0.6 F1000
N2548 G1 X58.878 Y60.828 Z-2.989
N2549 X58.809 Y60.797 Z-2.967
N2550 X58.746 Y60.769 Z-2.93
N2551 X58.691 Y60.743 Z-2.88
N2552 X58.646 Y60.723 Z-2.819
N2553 X58.612 Y60.707 Z-2.75
N2554 X58.592 Y60.698 Z-2.675
N2555 X58.585 Y60.695 Z-2.597
N2556 G0 Z5
N2557 X57.49 Y24.476
N2558 Z-2.197
N2559 G1 Z-2.597 F500
N2560 X57.491 Y24.469 Z-2.675
N2561 X57.495 Y24.446 Z-2.75
N2562 X57.502 Y24.41 Z-2.819
N2563 X57.511 Y24.361 Z-2.88
N2564 X57.521 Y24.301 Z-2.93
N2565 X57.534 Y24.233 Z-2.967
N2566 X57.547 Y24.159 Z-2.989
N2567 X57.561 Y24.082 Z-2.997
N2568 G3 X57.739 Y23.928 I0.185 J0.033
N2569 G1 X60.154 F1016
N2570 X60.456 Y23.943
N2571 X60.686 Y23.974
N2572 X60.958 Y24.032
N2573 X61.251 Y24.12
N2574 X61.567 Y24.243
N2575 X61.932 Y24.42
N2576 X62.294 Y24.633
N2577 X62.714 Y24.928
N2578 X63.136 Y25.279
N2579 X63.603 Y25.734
N2580 X64.105 Y26.31
N2581 X64.632 Y27.022
N2582 X65.101 Y27.774
N2583 X65.519 Y28.556
N2584 X65.893 Y29.359
N2585 X66.227 Y30.179
N2586 X66.528 Y31.013
N2587 X66.798 Y31.857
N2588 X67.041 Y32.709
N2589 X67.258 Y33.568
N2590 X67.452 Y34.433
N2591 X67.624 Y35.302
N2592 X67.775 Y36.175
N2593 X67.907 Y37.052
N2594 X68.02 Y37.93
N2595 X68.116 Y38.811
N2596 X68.193 Y39.694
N2597 X68.254 Y40.578
N2598 X68.298 Y41.463
N2599 X68.326 Y42.349
N2600 X68.337 Y43.235
N2601 X68.332 Y44.121
N2602 X68.312 Y45.007
N2603 X68.276 Y45.892
N2604 X68.224 Y46.777
N2605 X68.157 Y47.661
N2606 X68.074 Y48.543
N2607 X67.976 Y49.423
N2608 X67.863 Y50.302
N2609 X67.735 Y51.179
N2610 X67.592 Y52.054
N2611 X67.434 Y52.926
N2612 X67.262 Y53.795
N2613 X67.075 Y54.661
N2614 X66.873 Y55.524
N2615 X66.656 Y56.383
N2616 X66.42 Y57.237
N2617 X66.164 Y58.085
N2618 X65.88 Y58.925
N2619 X65.594 Y59.644
N2620 X65.346 Y60.146
N2621 X65.294 Y60.233
N2622 X65.122 Y60.464
N2623 X64.905 Y60.654
N2624 X64.654 Y60.796
N2625 X64.38 Y60.884
N2626 X64.093 Y60.914
N2627 X61.641
N2628 G3 X61.413 Y60.86 I0.021 J-0.6 F1000
N2629 G1 X61.342 Y60.828 Z-2.989
N2630 X61.274 Y60.797 Z-2.967
N2631 X61.211 Y60.768 Z-2.93
N2632 X61.156 Y60.743 Z-2.88
N2633 X61.111 Y60.723 Z-2.819
N2634 X61.077 Y60.707 Z-2.75
N2635 X61.056 Y60.698 Z-2.675
N2636 X61.049 Y60.695 Z-2.597
N2637 G0 Z5
N2638 X59.905 Y24.476
N2639 Z-2.197
N2640 G1 Z-2.597 F500
N2641 X59.906 Y24.469 Z-2.675
N2642 X59.91 Y24.446 Z-2.75
N2643 X59.917 Y24.41 Z-2.819
N2644 X59.926 Y24.361 Z-2.88
N2645 X59.936 Y24.301 Z-2.93
N2646 X59.948 Y24.233 Z-2.967
N2647 X59.962 Y24.159 Z-2.989
N2648 X59.975 Y24.083 Z-2.997
N2649 G3 X60.154 Y23.928 I0.185 J0.033
N2650 G1 X62.568 F1016
N2651 X62.843 Y23.942
N2652 X63.072 Y23.972
N2653 X63.345 Y24.031
N2654 X63.634 Y24.117
N2655 X63.949 Y24.24
N2656 X64.312 Y24.416
N2657 X64.672 Y24.628
N2658 X65.089 Y24.921
N2659 X65.509 Y25.269
N2660 X65.971 Y25.721
N2661 X66.469 Y26.292
N2662 X66.994 Y27.001
N2663 X67.462 Y27.753
N2664 X67.879 Y28.535
N2665 X68.251 Y29.339
N2666 X68.584 Y30.16
N2667 X68.883 Y30.994
N2668 X69.15 Y31.839
N2669 X69.39 Y32.692
N2670 X69.605 Y33.552
N2671 X69.797 Y34.417
N2672 X69.967 Y35.287
N2673 X70.116 Y36.16
N2674 X70.247 Y37.037
N2675 X70.359 Y37.916
N2676 X70.453 Y38.797
N2677 X70.53 Y39.679
N2678 X70.59 Y40.564
N2679 X70.634 Y41.449
N2680 X70.662 Y42.334
N2681 X70.675 Y43.22
N2682 X70.672 Y44.106
N2683 X70.654 Y44.992
N2684 X70.62 Y45.878
N2685 X70.572 Y46.763
N2686 X70.508 Y47.646
N2687 X70.43 Y48.529
N2688 X70.337 Y49.41
N2689 X70.229 Y50.29
N2690 X70.107 Y51.168
N2691 X69.971 Y52.043
N2692 X69.82 Y52.916
N2693 X69.655 Y53.787
N2694 X69.476 Y54.655
N2695 X69.282 Y55.519
N2696 X69.072 Y56.38
N2697 X68.844 Y57.236
N2698 X68.594 Y58.087
N2699 X68.315 Y58.928
N2700 X68.037 Y59.637
N2701 X67.793 Y60.136
N2702 X67.739 Y60.227
N2703 X67.566 Y60.46
N2704 X67.35 Y60.652
N2705 X67.098 Y60.795
N2706 X66.822 Y60.884
N2707 X66.534 Y60.914
N2708 X64.093
N2709 G3 X63.865 Y60.86 I0.021 J-0.6 F1000
N2710 G1 X63.794 Y60.828 Z-2.989
N2711 X63.726 Y60.797 Z-2.967
N2712 X63.663 Y60.768 Z-2.93
N2713 X63.608 Y60.743 Z-2.88
N2714 X63.562 Y60.722 Z-2.819
N2715 X63.529 Y60.707 Z-2.75
N2716 X63.508 Y60.698 Z-2.675
N2717 X63.501 Y60.694 Z-2.597
N2718 G0 Z5
N2719 X62.32 Y24.476
N2720 Z-2.197
N2721 G1 Z-2.597 F500
N2722 X62.321 Y24.469 Z-2.675
N2723 X62.325 Y24.446 Z-2.75
N2724 X62.332 Y24.41 Z-2.819
N2725 X62.34 Y24.361 Z-2.88
N2726 X62.351 Y24.301 Z-2.93
N2727 X62.363 Y24.233 Z-2.967
N2728 X62.377 Y24.16 Z-2.989
N2729 X62.39 Y24.083 Z-2.997
N2730 G3 X62.568 Y23.928 I0.185 J0.033
N2731 G1 X64.983 Y23.929 F1016
N2732 X65.221 Y23.94
N2733 X65.45 Y23.971
N2734 X65.723 Y24.029
N2735 X66.009 Y24.115
N2736 X66.325 Y24.238
N2737 X66.685 Y24.412
N2738 X67.044 Y24.624
N2739 X67.458 Y24.915
N2740 X67.876 Y25.262
N2741 X68.335 Y25.71
N2742 X68.829 Y26.276
N2743 X69.349 Y26.979
N2744 X69.817 Y27.731
N2745 X70.234 Y28.514
N2746 X70.605 Y29.318
N2747 X70.937 Y30.14
N2748 X71.233 Y30.975
N2749 X71.5 Y31.82
N2750 X71.738 Y32.674
N2751 X71.951 Y33.534
N2752 X72.141 Y34.399
N2753 X72.309 Y35.269
N2754 X72.457 Y36.143
N2755 X72.586 Y37.02
N2756 X72.697 Y37.899
N2757 X72.79 Y38.78
N2758 X72.867 Y39.663
N2759 X72.927 Y40.547
N2760 X72.972 Y41.432
N2761 X73.001 Y42.317
N2762 X73.015 Y43.204
N2763 X73.013 Y44.09
N2764 X72.997 Y44.976
N2765 X72.966 Y45.861
N2766 X72.921 Y46.746
N2767 X72.861 Y47.63
N2768 X72.787 Y48.513
N2769 X72.698 Y49.395
N2770 X72.595 Y50.275
N2771 X72.479 Y51.154
N2772 X72.349 Y52.03
N2773 X72.204 Y52.904
N2774 X72.046 Y53.776
N2775 X71.874 Y54.645
N2776 X71.687 Y55.512
N2777 X71.483 Y56.374
N2778 X71.262 Y57.232
N2779 X71.018 Y58.084
N2780 X70.743 Y58.926
N2781 X70.471 Y59.628
N2782 X70.231 Y60.126
N2783 X70.174 Y60.222
N2784 X70.002 Y60.456
N2785 X69.785 Y60.65
N2786 X69.532 Y60.794
N2787 X69.256 Y60.883
N2788 X68.967 Y60.914
N2789 X66.534
N2790 G3 X66.306 Y60.86 I0.021 J-0.6 F1000
N2791 G1 X66.235 Y60.828 Z-2.989
N2792 X66.167 Y60.797 Z-2.967
N2793 X66.104 Y60.768 Z-2.93
N2794 X66.049 Y60.743 Z-2.88
N2795 X66.004 Y60.722 Z-2.819
N2796 X65.97 Y60.707 Z-2.75
N2797 X65.949 Y60.697 Z-2.675
N2798 X65.942 Y60.694 Z-2.597
N2799 G0 Z5
N2800 X64.735 Y24.477
N2801 Z-2.197
N2802 G1 Z-2.597 F500
N2803 X64.736 Y24.469 Z-2.675
N2804 X64.74 Y24.447 Z-2.75
N2805 X64.747 Y24.41 Z-2.819
N2806 X64.755 Y24.361 Z-2.88
N2807 X64.766 Y24.302 Z-2.93
N2808 X64.778 Y24.234 Z-2.967
N2809 X64.792 Y24.16 Z-2.989
N2810 X64.805 Y24.083 Z-2.997
N2811 G3 X64.983 Y23.929 I0.185 J0.033
N2812 G1 X67.398 F1016
N2813 X67.593 Y23.939
N2814 X67.822 Y23.969
N2815 X68.095 Y24.027
N2816 X68.379 Y24.112
N2817 X68.695 Y24.235
N2818 X69.052 Y24.408
N2819 X69.41 Y24.619
N2820 X69.822 Y24.909
N2821 X70.239 Y25.255
N2822 X70.695 Y25.7
N2823 X71.186 Y26.263
N2824 X71.703 Y26.961
N2825 X72.171 Y27.713
N2826 X72.587 Y28.496
N2827 X72.957 Y29.301
N2828 X73.287 Y30.123
N2829 X73.583 Y30.958
N2830 X73.848 Y31.804
N2831 X74.084 Y32.658
N2832 X74.296 Y33.518
N2833 X74.484 Y34.384
N2834 X74.651 Y35.255
N2835 X74.798 Y36.128
N2836 X74.926 Y37.005
N2837 X75.036 Y37.884
N2838 X75.129 Y38.766
N2839 X75.206 Y39.649
N2840 X75.266 Y40.533
N2841 X75.311 Y41.418
N2842 X75.341 Y42.303
N2843 X75.356 Y43.189
N2844 Y44.075
N2845 X75.342 Y44.961
N2846 X75.313 Y45.847
N2847 X75.271 Y46.732
N2848 X75.214 Y47.616
N2849 X75.144 Y48.5
N2850 X75.06 Y49.382
N2851 X74.962 Y50.263
N2852 X74.85 Y51.142
N2853 X74.725 Y52.019
N2854 X74.587 Y52.894
N2855 X74.435 Y53.767
N2856 X74.269 Y54.637
N2857 X74.088 Y55.505
N2858 X73.89 Y56.369
N2859 X73.674 Y57.228
N2860 X73.435 Y58.081
N2861 X73.165 Y58.925
N2862 X72.898 Y59.621
N2863 X72.66 Y60.117
N2864 X72.601 Y60.218
N2865 X72.429 Y60.453
N2866 X72.212 Y60.648
N2867 X71.959 Y60.793
N2868 X71.681 Y60.883
N2869 X71.391 Y60.913
N2870 X68.967 Y60.914
N2871 G3 X68.739 Y60.86 I0.021 J-0.6 F1000
N2872 G1 X68.668 Y60.828 Z-2.989
N2873 X68.599 Y60.797 Z-2.967
N2874 X68.537 Y60.768 Z-2.93
N2875 X68.481 Y60.743 Z-2.88
N2876 X68.436 Y60.722 Z-2.819
N2877 X68.402 Y60.707 Z-2.75
N2878 X68.382 Y60.697 Z-2.675
N2879 X68.375 Y60.694 Z-2.597
N2880 G0 Z5
N2881 X67.15 Y24.477
N2882 Z-2.197
N2883 G1 Z-2.597 F500
N2884 X67.151 Y24.469 Z-2.675
N2885 X67.155 Y24.447 Z-2.75
N2886 X67.162 Y24.41 Z-2.819
N2887 X67.17 Y24.361 Z-2.88
N2888 X67.181 Y24.302 Z-2.93
N2889 X67.193 Y24.234 Z-2.967
N2890 X67.207 Y24.16 Z-2.989
N2891 X67.22 Y24.083 Z-2.997
N2892 G3 X67.398 Y23.929 I0.185 J0.033
N2893 G1 X69.813 F1016
N2894 X69.963 Y23.936
N2895 X70.193 Y23.967
N2896 X70.466 Y24.026
N2897 X70.748 Y24.111
N2898 X71.065 Y24.234
N2899 X71.419 Y24.407
N2900 X71.779 Y24.619
N2901 X72.188 Y24.908
N2902 X72.606 Y25.255
N2903 X73.059 Y25.699
N2904 X73.548 Y26.261
N2905 X74.062 Y26.958
N2906 X74.529 Y27.71
N2907 X74.944 Y28.494
N2908 X75.313 Y29.299
N2909 X75.642 Y30.122
N2910 X75.936 Y30.958
N2911 X76.199 Y31.804
N2912 X76.434 Y32.659
N2913 X76.644 Y33.519
N2914 X76.831 Y34.386
N2915 X76.996 Y35.256
N2916 X77.142 Y36.13
N2917 X77.269 Y37.007
N2918 X77.378 Y37.887
N2919 X77.47 Y38.768
N2920 X77.546 Y39.651
N2921 X77.607 Y40.535
N2922 X77.652 Y41.42
N2923 X77.682 Y42.305
N2924 X77.698 Y43.191
N2925 X77.7 Y44.077
N2926 X77.687 Y44.964
N2927 X77.661 Y45.849
N2928 X77.621 Y46.734
N2929 X77.567 Y47.619
N2930 X77.5 Y48.503
N2931 X77.42 Y49.385
N2932 X77.326 Y50.266
N2933 X77.219 Y51.146
N2934 X77.099 Y52.024
N2935 X76.966 Y52.9
N2936 X76.819 Y53.774
N2937 X76.658 Y54.645
N2938 X76.482 Y55.514
N2939 X76.29 Y56.379
N2940 X76.078 Y57.239
N2941 X75.843 Y58.093
N2942 X75.575 Y58.938
N2943 X75.313 Y59.625
N2944 X75.078 Y60.118
N2945 X75.021 Y60.216
N2946 X74.849 Y60.452
N2947 X74.631 Y60.647
N2948 X74.378 Y60.793
N2949 X74.1 Y60.883
N2950 X73.81 Y60.913
N2951 X71.391
N2952 G3 X71.164 Y60.86 I0.021 J-0.6 F1000
N2953 G1 X71.093 Y60.827 Z-2.989
N2954 X71.024 Y60.796 Z-2.967
N2955 X70.961 Y60.768 Z-2.93
N2956 X70.906 Y60.743 Z-2.88
N2957 X70.861 Y60.722 Z-2.819
N2958 X70.827 Y60.707 Z-2.75
N2959 X70.807 Y60.697 Z-2.675
N2960 X70.8 Y60.694 Z-2.597
N2961 G0 Z5
N2962 X69.565 Y24.477
N2963 Z-2.197
N2964 G1 Z-2.597 F500
N2965 X69.566 Y24.469 Z-2.675
N2966 X69.57 Y24.447 Z-2.75
N2967 X69.577 Y24.411 Z-2.819
N2968 X69.585 Y24.362 Z-2.88
N2969 X69.596 Y24.302 Z-2.93
N2970 X69.608 Y24.234 Z-2.967
N2971 X69.621 Y24.16 Z-2.989
N2972 X69.635 Y24.083 Z-2.997
N2973 G3 X69.813 Y23.929 I0.185 J0.033
N2974 G1 X72.027 F1016
N2975 X72.332 Y23.944
N2976 X72.56 Y23.974
N2977 X72.832 Y24.032
N2978 X73.112 Y24.116
N2979 X73.426 Y24.239
N2980 X73.779 Y24.41
N2981 X74.136 Y24.62
N2982 X74.544 Y24.907
N2983 X74.958 Y25.251
N2984 X75.409 Y25.691
N2985 X75.895 Y26.248
N2986 X76.406 Y26.939
N2987 X76.874 Y27.691
N2988 X77.289 Y28.474
N2989 X77.658 Y29.28
N2990 X77.987 Y30.103
N2991 X78.28 Y30.939
N2992 X78.543 Y31.785
N2993 X78.777 Y32.64
N2994 X78.986 Y33.501
N2995 X79.172 Y34.367
N2996 X79.337 Y35.238
N2997 X79.482 Y36.112
N2998 X79.609 Y36.989
N2999 X79.718 Y37.869
N3000 X79.81 Y38.75
N3001 X79.886 Y39.633
N3002 X79.947 Y40.517
N3003 X79.993 Y41.402
N3004 X80.024 Y42.287
N3005 X80.041 Y43.173
N3006 X80.045 Y44.059
N3007 X80.034 Y44.945
N3008 X80.01 Y45.831
N3009 X79.973 Y46.716
N3010 X79.923 Y47.601
N3011 X79.859 Y48.485
N3012 X79.782 Y49.368
N3013 X79.693 Y50.249
N3014 X79.59 Y51.13
N3015 X79.475 Y52.008
N3016 X79.346 Y52.885
N3017 X79.205 Y53.76
N3018 X79.049 Y54.632
N3019 X78.878 Y55.501
N3020 X78.69 Y56.367
N3021 X78.483 Y57.229
N3022 X78.252 Y58.084
N3023 X77.988 Y58.93
N3024 X77.729 Y59.615
N3025 X77.496 Y60.107
N3026 X77.436 Y60.212
N3027 X77.264 Y60.449
N3028 X77.046 Y60.645
N3029 X76.792 Y60.792
N3030 X76.514 Y60.882
N3031 X76.222 Y60.913
N3032 X73.81
N3033 G3 X73.582 Y60.86 I0.021 J-0.6 F1000
N3034 G1 X73.511 Y60.827 Z-2.989
N3035 X73.443 Y60.796 Z-2.967
N3036 X73.38 Y60.767 Z-2.93
N3037 X73.325 Y60.742 Z-2.88
N3038 X73.279 Y60.722 Z-2.819
N3039 X73.246 Y60.706 Z-2.75
N3040 X73.225 Y60.697 Z-2.675
N3041 X73.218 Y60.694 Z-2.597
N3042 G0 Z5
N3043 X71.778 Y24.477
N3044 Z-2.197
N3045 G1 Z-2.597 F500
N3046 X71.78 Y24.47 Z-2.675
N3047 X71.784 Y24.447 Z-2.75
N3048 X71.79 Y24.411 Z-2.819
N3049 X71.799 Y24.362 Z-2.88
N3050 X71.81 Y24.302 Z-2.93
N3051 X71.822 Y24.234 Z-2.967
N3052 X71.835 Y24.16 Z-2.989
N3053 X71.849 Y24.083 Z-2.997
N3054 G3 X72.027 Y23.929 I0.185 J0.033
N3055 G1 X74.442 F1016
N3056 X74.686 Y23.941
N3057 X74.915 Y23.972
N3058 X75.188 Y24.03
N3059 X75.467 Y24.113
N3060 X75.782 Y24.236
N3061 X76.133 Y24.406
N3062 X76.491 Y24.617
N3063 X76.897 Y24.903
N3064 X77.312 Y25.247
N3065 X77.761 Y25.686
N3066 X78.246 Y26.241
N3067 X78.755 Y26.929
N3068 X79.223 Y27.681
N3069 X79.638 Y28.464
N3070 X80.006 Y29.27
N3071 X80.334 Y30.093
N3072 X80.627 Y30.93
N3073 X80.888 Y31.776
N3074 X81.122 Y32.631
N3075 X81.33 Y33.492
N3076 X81.516 Y34.359
N3077 X81.68 Y35.23
N3078 X81.824 Y36.104
N3079 X81.95 Y36.981
N3080 X82.059 Y37.86
N3081 X82.151 Y38.742
N3082 X82.228 Y39.625
N3083 X82.289 Y40.509
N3084 X82.335 Y41.393
N3085 X82.368 Y42.279
N3086 X82.386 Y43.165
N3087 X82.391 Y44.051
N3088 X82.382 Y44.937
N3089 X82.36 Y45.823
N3090 X82.325 Y46.708
N3091 X82.278 Y47.593
N3092 X82.217 Y48.477
N3093 X82.144 Y49.36
N3094 X82.058 Y50.242
N3095 X81.96 Y51.123
N3096 X81.849 Y52.002
N3097 X81.724 Y52.88
N3098 X81.587 Y53.755
N3099 X81.436 Y54.628
N3100 X81.269 Y55.498
N3101 X81.086 Y56.365
N3102 X80.883 Y57.228
N3103 X80.655 Y58.084
N3104 X80.393 Y58.931
N3105 X80.137 Y59.611
N3106 X79.906 Y60.102
N3107 X79.845 Y60.209
N3108 X79.673 Y60.447
N3109 X79.455 Y60.644
N3110 X79.201 Y60.791
N3111 X78.922 Y60.882
N3112 X78.63 Y60.913
N3113 X76.222
N3114 G3 X75.994 Y60.859 I0.021 J-0.6 F1000
N3115 G1 X75.923 Y60.827 Z-2.989
N3116 X75.855 Y60.796 Z-2.967
N3117 X75.792 Y60.767 Z-2.93
N3118 X75.737 Y60.742 Z-2.88
N3119 X75.692 Y60.722 Z-2.819
N3120 X75.658 Y60.706 Z-2.75
N3121 X75.637 Y60.697 Z-2.675
N3122 X75.63 Y60.694 Z-2.597
N3123 G0 Z5
N3124 X74.193 Y24.477
N3125 Z-2.197
N3126 G1 Z-2.597 F500
N3127 X74.195 Y24.47 Z-2.675
N3128 X74.199 Y24.447 Z-2.75
N3129 X74.205 Y24.411 Z-2.819
N3130 X74.214 Y24.362 Z-2.88
N3131 X74.225 Y24.302 Z-2.93
N3132 X74.237 Y24.234 Z-2.967
N3133 X74.25 Y24.16 Z-2.989
N3134 X74.264 Y24.084 Z-2.997
N3135 G3 X74.442 Y23.929 I0.185 J0.033
N3136 G1 X76.857 F1016
N3137 X77.041 Y23.939
N3138 X77.269 Y23.969
N3139 X77.542 Y24.027
N3140 X77.82 Y24.11
N3141 X78.136 Y24.233
N3142 X78.485 Y24.403
N3143 X78.844 Y24.614
N3144 X79.249 Y24.898
N3145 X79.663 Y25.242
N3146 X80.111 Y25.68
N3147 X80.594 Y26.234
N3148 X81.102 Y26.92
N3149 X81.57 Y27.672
N3150 X81.985 Y28.455
N3151 X82.353 Y29.262
N3152 X82.68 Y30.085
N3153 X82.972 Y30.921
N3154 X83.233 Y31.768
N3155 X83.466 Y32.623
N3156 X83.674 Y33.485
N3157 X83.859 Y34.351
N3158 X84.023 Y35.222
N3159 X84.167 Y36.096
N3160 X84.293 Y36.974
N3161 X84.401 Y37.853
N3162 X84.493 Y38.734
N3163 X84.57 Y39.617
N3164 X84.632 Y40.501
N3165 X84.679 Y41.386
N3166 X84.712 Y42.272
N3167 X84.731 Y43.157
N3168 X84.738 Y44.044
N3169 X84.731 Y44.93
N3170 X84.711 Y45.816
N3171 X84.679 Y46.701
N3172 X84.633 Y47.586
N3173 X84.576 Y48.47
N3174 X84.506 Y49.354
N3175 X84.424 Y50.236
N3176 X84.329 Y51.117
N3177 X84.222 Y51.997
N3178 X84.101 Y52.875
N3179 X83.968 Y53.751
N3180 X83.821 Y54.624
N3181 X83.658 Y55.495
N3182 X83.479 Y56.363
N3183 X83.279 Y57.226
N3184 X83.053 Y58.083
N3185 X82.794 Y58.931
N3186 X82.541 Y59.608
N3187 X82.311 Y60.098
N3188 X82.249 Y60.206
N3189 X82.078 Y60.445
N3190 X81.86 Y60.643
N3191 X81.605 Y60.791
N3192 X81.326 Y60.882
N3193 X81.033 Y60.913
N3194 X78.63
N3195 G3 X78.402 Y60.859 I0.021 J-0.6 F1000
N3196 G1 X78.331 Y60.827 Z-2.989
N3197 X78.263 Y60.796 Z-2.967
N3198 X78.2 Y60.767 Z-2.93
N3199 X78.145 Y60.742 Z-2.88
N3200 X78.099 Y60.721 Z-2.819
N3201 X78.066 Y60.706 Z-2.75
N3202 X78.045 Y60.697 Z-2.675
N3203 X78.038 Y60.693 Z-2.597
N3204 G0 Z5
N3205 X76.608 Y24.477
N3206 Z-2.197
N3207 G1 Z-2.597 F500
N3208 X76.61 Y24.47 Z-2.675
N3209 X76.614 Y24.447 Z-2.75
N3210 X76.62 Y24.411 Z-2.819
N3211 X76.629 Y24.362 Z-2.88
N3212 X76.64 Y24.302 Z-2.93
N3213 X76.652 Y24.234 Z-2.967
N3214 X76.665 Y24.161 Z-2.989
N3215 X76.679 Y24.084 Z-2.997
N3216 G3 X76.857 Y23.929 I0.185 J0.033
N3217 G1 X79.071 Y23.93 F1016
N3218 X79.402 Y23.946
N3219 X79.631 Y23.976
N3220 X79.903 Y24.034
N3221 X80.179 Y24.117
N3222 X80.495 Y24.24
N3223 X80.842 Y24.408
N3224 X81.2 Y24.619
N3225 X81.603 Y24.903
N3226 X82.017 Y25.246
N3227 X82.463 Y25.682
N3228 X82.944 Y26.233
N3229 X83.45 Y26.917
N3230 X83.918 Y27.67
N3231 X84.333 Y28.453
N3232 X84.701 Y29.259
N3233 X85.028 Y30.083
N3234 X85.319 Y30.92
N3235 X85.579 Y31.767
N3236 X85.812 Y32.622
N3237 X86.019 Y33.483
N3238 X86.203 Y34.35
N3239 X86.366 Y35.221
N3240 X86.51 Y36.095
N3241 X86.636 Y36.973
N3242 X86.744 Y37.852
N3243 X86.837 Y38.733
N3244 X86.913 Y39.616
N3245 X86.976 Y40.5
N3246 X87.023 Y41.385
N3247 X87.057 Y42.27
N3248 X87.078 Y43.156
N3249 X87.086 Y44.042
N3250 X87.08 Y44.928
N3251 X87.062 Y45.814
N3252 X87.032 Y46.7
N3253 X86.989 Y47.585
N3254 X86.935 Y48.469
N3255 X86.868 Y49.353
N3256 X86.788 Y50.236
N3257 X86.697 Y51.117
N3258 X86.593 Y51.997
N3259 X86.477 Y52.875
N3260 X86.347 Y53.752
N3261 X86.203 Y54.626
N3262 X86.044 Y55.498
N3263 X85.867 Y56.367
N3264 X85.67 Y57.23
N3265 X85.448 Y58.088
N3266 X85.19 Y58.936
N3267 X84.939 Y59.609
N3268 X84.711 Y60.097
N3269 X84.65 Y60.205
N3270 X84.478 Y60.444
N3271 X84.26 Y60.642
N3272 X84.005 Y60.79
N3273 X83.726 Y60.882
N3274 X83.433 Y60.913
N3275 X81.033
N3276 G3 X80.805 Y60.859 I0.021 J-0.6 F1000
N3277 G1 X80.734 Y60.827 Z-2.989
N3278 X80.666 Y60.796 Z-2.967
N3279 X80.603 Y60.767 Z-2.93
N3280 X80.548 Y60.742 Z-2.88
N3281 X80.503 Y60.721 Z-2.819
N3282 X80.469 Y60.706 Z-2.75
N3283 X80.448 Y60.696 Z-2.675
N3284 X80.441 Y60.693 Z-2.597
N3285 G0 Z5
N3286 X78.822 Y24.478
N3287 Z-2.197
N3288 G1 Z-2.597 F500
N3289 X78.823 Y24.47 Z-2.675
N3290 X78.827 Y24.448 Z-2.75
N3291 X78.834 Y24.411 Z-2.819
N3292 X78.843 Y24.362 Z-2.88
N3293 X78.853 Y24.303 Z-2.93
N3294 X78.865 Y24.235 Z-2.967
N3295 X78.879 Y24.161 Z-2.989
N3296 X78.892 Y24.084 Z-2.997
N3297 G3 X79.071 Y23.93 I0.185 J0.033
N3298 G1 X81.485 F1016
N3299 X81.75 Y23.943
N3300 X81.978 Y23.973
N3301 X82.25 Y24.031
N3302 X82.527 Y24.114
N3303 X82.843 Y24.237
N3304 X83.19 Y24.405
N3305 X83.548 Y24.616
N3306 X83.951 Y24.9
N3307 X84.365 Y25.243
N3308 X84.811 Y25.678
N3309 X85.291 Y26.229
N3310 X85.797 Y26.912
N3311 X86.265 Y27.665
N3312 X86.679 Y28.448
N3313 X87.046 Y29.254
N3314 X87.373 Y30.078
N3315 X87.664 Y30.915
N3316 X87.924 Y31.762
N3317 X88.156 Y32.617
N3318 X88.363 Y33.479
N3319 X88.547 Y34.346
N3320 X88.71 Y35.217
N3321 X88.854 Y36.091
N3322 X88.979 Y36.968
N3323 X89.088 Y37.848
N3324 X89.18 Y38.729
N3325 X89.257 Y39.612
N3326 X89.32 Y40.496
N3327 X89.369 Y41.38
N3328 X89.403 Y42.266
N3329 X89.425 Y43.152
N3330 X89.434 Y44.038
N3331 X89.431 Y44.924
N3332 X89.415 Y45.81
N3333 X89.386 Y46.696
N3334 X89.346 Y47.581
N3335 X89.294 Y48.465
N3336 X89.23 Y49.349
N3337 X89.154 Y50.232
N3338 X89.065 Y51.114
N3339 X88.965 Y51.994
N3340 X88.852 Y52.873
N3341 X88.725 Y53.75
N3342 X88.585 Y54.625
N3343 X88.429 Y55.497
N3344 X88.255 Y56.366
N3345 X88.06 Y57.231
N3346 X87.84 Y58.089
N3347 X87.584 Y58.937
N3348 X87.335 Y59.607
N3349 X87.108 Y60.095
N3350 X87.047 Y60.203
N3351 X86.875 Y60.443
N3352 X86.657 Y60.641
N3353 X86.402 Y60.79
N3354 X86.122 Y60.881
N3355 X85.829 Y60.912
N3356 X83.433 Y60.913
N3357 G3 X83.205 Y60.859 I0.021 J-0.6 F1000
N3358 G1 X83.134 Y60.827 Z-2.989
N3359 X83.066 Y60.795 Z-2.967
N3360 X83.003 Y60.767 Z-2.93
N3361 X82.948 Y60.742 Z-2.88
N3362 X82.902 Y60.721 Z-2.819
N3363 X82.869 Y60.706 Z-2.75
N3364 X82.848 Y60.696 Z-2.675
N3365 X82.841 Y60.693 Z-2.597
N3366 G0 Z5
N3367 X81.237 Y24.478
N3368 Z-2.197
N3369 G1 Z-2.597 F500
N3370 X81.238 Y24.47 Z-2.675
N3371 X81.242 Y24.448 Z-2.75
N3372 X81.249 Y24.411 Z-2.819
N3373 X81.257 Y24.362 Z-2.88
N3374 X81.268 Y24.303 Z-2.93
N3375 X81.28 Y24.235 Z-2.967
N3376 X81.294 Y24.161 Z-2.989
N3377 X81.307 Y24.084 Z-2.997
N3378 G3 X81.485 Y23.93 I0.185 J0.033
N3379 G1 X83.9 F1016
N3380 X84.097 Y23.94
N3381 X84.326 Y23.97
N3382 X84.598 Y24.028
N3383 X84.875 Y24.111
N3384 X85.191 Y24.234
N3385 X85.537 Y24.402
N3386 X85.895 Y24.613
N3387 X86.298 Y24.896
N3388 X86.712 Y25.239
N3389 X87.157 Y25.674
N3390 X87.637 Y26.224
N3391 X88.142 Y26.906
N3392 X88.61 Y27.659
N3393 X89.024 Y28.442
N3394 X89.391 Y29.249
N3395 X89.718 Y30.072
N3396 X90.009 Y30.909
N3397 X90.268 Y31.757
N3398 X90.5 Y32.612
N3399 X90.707 Y33.474
N3400 X90.89 Y34.341
N3401 X91.053 Y35.212
N3402 X91.197 Y36.086
N3403 X91.322 Y36.963
N3404 X91.431 Y37.843
N3405 X91.524 Y38.724
N3406 X91.602 Y39.607
N3407 X91.665 Y40.49
N3408 X91.714 Y41.375
N3409 X91.75 Y42.261
N3410 X91.773 Y43.146
N3411 X91.784 Y44.032
N3412 X91.782 Y44.919
N3413 X91.767 Y45.805
N3414 X91.741 Y46.69
N3415 X91.703 Y47.576
N3416 X91.654 Y48.46
N3417 X91.592 Y49.344
N3418 X91.519 Y50.227
N3419 X91.433 Y51.109
N3420 X91.336 Y51.99
N3421 X91.226 Y52.869
N3422 X91.102 Y53.747
N3423 X90.965 Y54.622
N3424 X90.812 Y55.495
N3425 X90.641 Y56.364
N3426 X90.448 Y57.23
N3427 X90.23 Y58.088
N3428 X89.975 Y58.937
N3429 X89.729 Y59.605
N3430 X89.503 Y60.092
N3431 X89.441 Y60.201
N3432 X89.269 Y60.442
N3433 X89.051 Y60.64
N3434 X88.796 Y60.789
N3435 X88.516 Y60.881
N3436 X88.222 Y60.912
N3437 X85.829
N3438 G3 X85.601 Y60.859 I0.021 J-0.6 F1000
N3439 G1 X85.53 Y60.826 Z-2.989
N3440 X85.462 Y60.795 Z-2.967
N3441 X85.399 Y60.767 Z-2.93
N3442 X85.344 Y60.741 Z-2.88
N3443 X85.299 Y60.721 Z-2.819
N3444 X85.265 Y60.706 Z-2.75
N3445 X85.244 Y60.696 Z-2.675
N3446 X85.237 Y60.693 Z-2.597
N3447 G0 Z5
N3448 X83.652 Y24.478
N3449 Z-2.197
N3450 G1 Z-2.597 F500
N3451 X83.653 Y24.47 Z-2.675
N3452 X83.657 Y24.448 Z-2.75
N3453 X83.664 Y24.412 Z-2.819
N3454 X83.672 Y24.363 Z-2.88
N3455 X83.683 Y24.303 Z-2.93
N3456 X83.695 Y24.235 Z-2.967
N3457 X83.709 Y24.161 Z-2.989
N3458 X83.722 Y24.084 Z-2.997
N3459 G3 X83.9 Y23.93 I0.185 J0.033
N3460 G1 X86.114 F1016
N3461 X86.454 Y23.947
N3462 X86.683 Y23.977
N3463 X86.954 Y24.035
N3464 X87.229 Y24.118
N3465 X87.545 Y24.241
N3466 X87.889 Y24.408
N3467 X88.248 Y24.619
N3468 X88.649 Y24.9
N3469 X89.062 Y25.244
N3470 X89.506 Y25.677
N3471 X89.985 Y26.226
N3472 X90.488 Y26.906
N3473 X90.956 Y27.659
N3474 X91.37 Y28.442
N3475 X91.737 Y29.249
N3476 X92.064 Y30.073
N3477 X92.354 Y30.91
N3478 X92.614 Y31.757
N3479 X92.845 Y32.613
N3480 X93.052 Y33.474
N3481 X93.235 Y34.341
N3482 X93.398 Y35.212
N3483 X93.541 Y36.087
N3484 X93.667 Y36.964
N3485 X93.776 Y37.843
N3486 X93.869 Y38.724
N3487 X93.947 Y39.607
N3488 X94.011 Y40.491
N3489 X94.061 Y41.376
N3490 X94.098 Y42.261
N3491 X94.122 Y43.147
N3492 X94.134 Y44.033
N3493 X94.133 Y44.919
N3494 X94.121 Y45.805
N3495 X94.096 Y46.691
N3496 X94.061 Y47.576
N3497 X94.013 Y48.461
N3498 X93.954 Y49.345
N3499 X93.883 Y50.228
N3500 X93.801 Y51.111
N3501 X93.706 Y51.992
N3502 X93.598 Y52.871
N3503 X93.478 Y53.749
N3504 X93.343 Y54.625
N3505 X93.192 Y55.498
N3506 X93.023 Y56.368
N3507 X92.833 Y57.234
N3508 X92.616 Y58.093
N3509 X92.363 Y58.942
N3510 X92.118 Y59.607
N3511 X91.893 Y60.092
N3512 X91.832 Y60.201
N3513 X91.66 Y60.441
N3514 X91.442 Y60.64
N3515 X91.187 Y60.789
N3516 X90.906 Y60.881
N3517 X90.613 Y60.912
N3518 X88.222
N3519 G3 X87.994 Y60.859 I0.021 J-0.6 F1000
N3520 G1 X87.923 Y60.826 Z-2.989
N3521 X87.855 Y60.795 Z-2.967
N3522 X87.792 Y60.766 Z-2.93
N3523 X87.737 Y60.741 Z-2.88
N3524 X87.692 Y60.721 Z-2.819
N3525 X87.658 Y60.705 Z-2.75
N3526 X87.637 Y60.696 Z-2.675
N3527 X87.63 Y60.693 Z-2.597
N3528 G0 Z5
N3529 X85.865 Y24.478
N3530 Z-2.197
N3531 G1 Z-2.597 F500
N3532 X85.867 Y24.471 Z-2.675
N3533 X85.871 Y24.448 Z-2.75
N3534 X85.877 Y24.412 Z-2.819
N3535 X85.886 Y24.363 Z-2.88
N3536 X85.897 Y24.303 Z-2.93
N3537 X85.909 Y24.235 Z-2.967
N3538 X85.922 Y24.161 Z-2.989
N3539 X85.936 Y24.084 Z-2.997
N3540 G3 X86.114 Y23.93 I0.185 J0.033
N3541 G1 X88.529 F1016
N3542 X88.797 Y23.944
N3543 X89.026 Y23.974
N3544 X89.298 Y24.032
N3545 X89.574 Y24.114
N3546 X89.889 Y24.237
N3547 X90.234 Y24.405
N3548 X90.592 Y24.616
N3549 X90.994 Y24.898
N3550 X91.407 Y25.241
N3551 X91.851 Y25.674
N3552 X92.33 Y26.223
N3553 X92.833 Y26.904
N3554 X93.301 Y27.656
N3555 X93.715 Y28.439
N3556 X94.082 Y29.246
N3557 X94.408 Y30.07
N3558 X94.699 Y30.907
N3559 X94.958 Y31.754
N3560 X95.189 Y32.61
N3561 X95.396 Y33.472
N3562 X95.579 Y34.339
N3563 X95.742 Y35.21
N3564 X95.886 Y36.084
N3565 X96.012 Y36.961
N3566 X96.121 Y37.84
N3567 X96.214 Y38.722
N3568 X96.293 Y39.604
N3569 X96.358 Y40.488
N3570 X96.408 Y41.373
N3571 X96.446 Y42.258
N3572 X96.472 Y43.144
N3573 X96.485 Y44.03
N3574 Y44.916
N3575 X96.475 Y45.802
N3576 X96.452 Y46.688
N3577 X96.418 Y47.573
N3578 X96.373 Y48.458
N3579 X96.316 Y49.343
N3580 X96.248 Y50.226
N3581 X96.168 Y51.109
N3582 X96.075 Y51.99
N3583 X95.971 Y52.87
N3584 X95.852 Y53.748
N3585 X95.72 Y54.624
N3586 X95.572 Y55.498
N3587 X95.405 Y56.368
N3588 X95.217 Y57.234
N3589 X95.001 Y58.094
N3590 X94.749 Y58.943
N3591 X94.506 Y59.606
N3592 X94.282 Y60.09
N3593 X94.22 Y60.199
N3594 X94.049 Y60.44
N3595 X93.831 Y60.639
N3596 X93.575 Y60.788
N3597 X93.295 Y60.881
N3598 X93.001 Y60.912
N3599 X90.613
N3600 G3 X90.385 Y60.858 I0.021 J-0.6 F1000
N3601 G1 X90.314 Y60.826 Z-2.989
N3602 X90.246 Y60.795 Z-2.967
N3603 X90.183 Y60.766 Z-2.93
N3604 X90.127 Y60.741 Z-2.88
N3605 X90.082 Y60.721 Z-2.819
N3606 X90.049 Y60.705 Z-2.75
N3607 X90.028 Y60.696 Z-2.675
N3608 X90.021 Y60.693 Z-2.597
N3609 G0 Z5
N3610 X88.28 Y24.478
N3611 Z-2.197
N3612 G1 Z-2.597 F500
N3613 X88.282 Y24.471 Z-2.675
N3614 X88.286 Y24.448 Z-2.75
N3615 X88.292 Y24.412 Z-2.819
N3616 X88.301 Y24.363 Z-2.88
N3617 X88.312 Y24.303 Z-2.93
N3618 X88.324 Y24.235 Z-2.967
N3619 X88.337 Y24.161 Z-2.989
N3620 X88.351 Y24.085 Z-2.997
N3621 G3 X88.529 Y23.93 I0.185 J0.033
N3622 G1 X90.944 F1016
N3623 X91.142 Y23.94
N3624 X91.371 Y23.97
N3625 X91.642 Y24.028
N3626 X91.918 Y24.111
N3627 X92.234 Y24.234
N3628 X92.579 Y24.401
N3629 X92.937 Y24.612
N3630 X93.339 Y24.895
N3631 X93.752 Y25.237
N3632 X94.196 Y25.671
N3633 X94.674 Y26.22
N3634 X95.177 Y26.9
N3635 X95.646 Y27.652
N3636 X96.06 Y28.436
N3637 X96.426 Y29.242
N3638 X96.752 Y30.066
N3639 X97.043 Y30.903
N3640 X97.302 Y31.751
N3641 X97.533 Y32.606
N3642 X97.74 Y33.468
N3643 X97.923 Y34.335
N3644 X98.086 Y35.206
N3645 X98.23 Y36.08
N3646 X98.356 Y36.957
N3647 X98.466 Y37.837
N3648 X98.56 Y38.718
N3649 X98.639 Y39.6
N3650 X98.705 Y40.484
N3651 X98.756 Y41.369
N3652 X98.795 Y42.254
N3653 X98.822 Y43.14
N3654 X98.836 Y44.026
N3655 X98.838 Y44.912
N3656 X98.829 Y45.798
N3657 X98.808 Y46.684
N3658 X98.776 Y47.569
N3659 X98.733 Y48.454
N3660 X98.679 Y49.339
N3661 X98.613 Y50.222
N3662 X98.535 Y51.105
N3663 X98.445 Y51.987
N3664 X98.342 Y52.867
N3665 X98.227 Y53.745
N3666 X98.096 Y54.622
N3667 X97.95 Y55.496
N3668 X97.785 Y56.366
N3669 X97.599 Y57.233
N3670 X97.385 Y58.093
N3671 X97.134 Y58.943
N3672 X96.892 Y59.604
N3673 X96.669 Y60.088
N3674 X96.607 Y60.198
N3675 X96.435 Y60.439
N3676 X96.217 Y60.639
N3677 X95.962 Y60.788
N3678 X95.681 Y60.88
N3679 X95.387 Y60.912
N3680 X93.001
N3681 G3 X92.773 Y60.858 I0.021 J-0.6 F1000
N3682 G1 X92.702 Y60.826 Z-2.989
N3683 X92.634 Y60.795 Z-2.967
N3684 X92.571 Y60.766 Z-2.93
N3685 X92.515 Y60.741 Z-2.88
N3686 X92.47 Y60.72 Z-2.819
N3687 X92.437 Y60.705 Z-2.75
N3688 X92.416 Y60.696 Z-2.675
N3689 X92.409 Y60.692 Z-2.597
N3690 G0 Z5
N3691 X90.695 Y24.478
N3692 Z-2.197
N3693 G1 Z-2.597 F500
N3694 X90.697 Y24.471 Z-2.675
N3695 X90.701 Y24.448 Z-2.75
N3696 X90.707 Y24.412 Z-2.819
N3697 X90.716 Y24.363 Z-2.88
N3698 X90.727 Y24.303 Z-2.93
N3699 X90.739 Y24.235 Z-2.967
N3700 X90.752 Y24.162 Z-2.989
N3701 X90.766 Y24.085 Z-2.997
N3702 G3 X90.944 Y23.93 I0.185 J0.033
N3703 G1 X93.158 Y23.931 F1016
N3704 X93.495 Y23.948
N3705 X93.724 Y23.978
N3706 X93.996 Y24.036
N3707 X94.27 Y24.118
N3708 X94.586 Y24.241
N3709 X94.929 Y24.407
N3710 X95.287 Y24.618
N3711 X95.687 Y24.899
N3712 X96.1 Y25.242
N3713 X96.543 Y25.674
N3714 X97.021 Y26.222
N3715 X97.523 Y26.901
N3716 X97.992 Y27.654
N3717 X98.405 Y28.437
N3718 X98.772 Y29.244
N3719 X99.098 Y30.068
N3720 X99.389 Y30.905
N3721 X99.648 Y31.753
N3722 X99.879 Y32.608
N3723 X100.085 Y33.47
N3724 X100.269 Y34.337
N3725 X100.432 Y35.208
N3726 X100.576 Y36.082
N3727 X100.702 Y36.959
N3728 X100.812 Y37.838
N3729 X100.907 Y38.719
N3730 X100.986 Y39.602
N3731 X101.052 Y40.486
N3732 X101.105 Y41.37
N3733 X101.145 Y42.255
N3734 X101.172 Y43.141
N3735 X101.188 Y44.027
N3736 X101.192 Y44.913
N3737 X101.184 Y45.799
N3738 X101.165 Y46.685
N3739 X101.135 Y47.571
N3740 X101.093 Y48.456
N3741 X101.041 Y49.341
N3742 X100.977 Y50.224
N3743 X100.901 Y51.107
N3744 X100.813 Y51.989
N3745 X100.713 Y52.869
N3746 X100.599 Y53.748
N3747 X100.471 Y54.625
N3748 X100.326 Y55.499
N3749 X100.163 Y56.37
N3750 X99.978 Y57.237
N3751 X99.766 Y58.097
N3752 X99.516 Y58.947
N3753 X99.274 Y59.606
N3754 X99.052 Y60.089
N3755 X98.991 Y60.197
N3756 X98.82 Y60.439
N3757 X98.601 Y60.638
N3758 X98.346 Y60.788
N3759 X98.065 Y60.88
N3760 X97.771 Y60.912
N3761 X95.387
N3762 G3 X95.159 Y60.858 I0.021 J-0.6 F1000
N3763 G1 X95.088 Y60.826 Z-2.989
N3764 X95.019 Y60.795 Z-2.967
N3765 X94.956 Y60.766 Z-2.93
N3766 X94.901 Y60.741 Z-2.88
N3767 X94.856 Y60.72 Z-2.819
N3768 X94.822 Y60.705 Z-2.75
N3769 X94.802 Y60.695 Z-2.675
N3770 X94.795 Y60.692 Z-2.597
N3771 G0 Z5
N3772 X92.909 Y24.479
N3773 Z-2.197
N3774 G1 Z-2.597 F500
N3775 X92.91 Y24.471 Z-2.675
N3776 X92.914 Y24.449 Z-2.75
N3777 X92.921 Y24.412 Z-2.819
N3778 X92.93 Y24.363 Z-2.88
N3779 X92.94 Y24.304 Z-2.93
N3780 X92.953 Y24.236 Z-2.967
N3781 X92.966 Y24.162 Z-2.989
N3782 X92.98 Y24.085 Z-2.997
N3783 G3 X93.158 Y23.931 I0.185 J0.033
N3784 G1 X95.573 F1016
N3785 X95.837 Y23.944
N3786 X96.066 Y23.974
N3787 X96.337 Y24.032
N3788 X96.613 Y24.115
N3789 X96.928 Y24.238
N3790 X97.272 Y24.404
N3791 X97.63 Y24.615
N3792 X98.031 Y24.897
N3793 X98.444 Y25.24
N3794 X98.887 Y25.672
N3795 X99.366 Y26.221
N3796 X99.868 Y26.9
N3797 X100.336 Y27.652
N3798 X100.75 Y28.436
N3799 X101.117 Y29.242
N3800 X101.443 Y30.066
N3801 X101.733 Y30.904
N3802 X101.992 Y31.751
N3803 X102.224 Y32.606
N3804 X102.43 Y33.468
N3805 X102.614 Y34.335
N3806 X102.777 Y35.206
N3807 X102.921 Y36.08
N3808 X103.048 Y36.957
N3809 X103.158 Y37.837
N3810 X103.253 Y38.718
N3811 X103.334 Y39.6
N3812 X103.401 Y40.484
N3813 X103.454 Y41.368
N3814 X103.495 Y42.253
N3815 X103.524 Y43.139
N3816 X103.54 Y44.025
N3817 X103.545 Y44.911
N3818 X103.539 Y45.797
N3819 X103.522 Y46.683
N3820 X103.493 Y47.569
N3821 X103.454 Y48.454
N3822 X103.403 Y49.339
N3823 X103.341 Y50.223
N3824 X103.267 Y51.106
N3825 X103.181 Y51.988
N3826 X103.083 Y52.868
N3827 X102.971 Y53.747
N3828 X102.845 Y54.624
N3829 X102.702 Y55.499
N3830 X102.541 Y56.37
N3831 X102.357 Y57.237
N3832 X102.146 Y58.098
N3833 X101.897 Y58.948
N3834 X101.656 Y59.605
N3835 X101.435 Y60.088
N3836 X101.374 Y60.196
N3837 X101.202 Y60.438
N3838 X100.984 Y60.638
N3839 X100.728 Y60.787
N3840 X100.447 Y60.88
N3841 X100.153 Y60.911
N3842 X97.771 Y60.912
N3843 G3 X97.543 Y60.858 I0.021 J-0.6 F1000
N3844 G1 X97.472 Y60.826 Z-2.989
N3845 X97.403 Y60.794 Z-2.967
N3846 X97.34 Y60.766 Z-2.93
N3847 X97.285 Y60.741 Z-2.88
N3848 X97.24 Y60.72 Z-2.819
N3849 X97.206 Y60.705 Z-2.75
N3850 X97.186 Y60.695 Z-2.675
N3851 X97.179 Y60.692 Z-2.597
N3852 G0 Z5
N3853 X95.324 Y24.479
N3854 Z-2.197
N3855 G1 Z-2.597 F500
N3856 X95.325 Y24.471 Z-2.675
N3857 X95.329 Y24.449 Z-2.75
N3858 X95.336 Y24.412 Z-2.819
N3859 X95.345 Y24.363 Z-2.88
N3860 X95.355 Y24.304 Z-2.93
N3861 X95.368 Y24.236 Z-2.967
N3862 X95.381 Y24.162 Z-2.989
N3863 X95.395 Y24.085 Z-2.997
N3864 G3 X95.573 Y23.931 I0.185 J0.033
N3865 G1 X97.988 F1016
N3866 X98.18 Y23.941
N3867 X98.409 Y23.971
N3868 X98.68 Y24.029
N3869 X98.956 Y24.111
N3870 X99.271 Y24.234
N3871 X99.616 Y24.401
N3872 X99.974 Y24.612
N3873 X100.375 Y24.894
N3874 X100.788 Y25.237
N3875 X101.231 Y25.669
N3876 X101.71 Y26.218
N3877 X102.212 Y26.897
N3878 X102.68 Y27.65
N3879 X103.094 Y28.433
N3880 X103.461 Y29.24
N3881 X103.787 Y30.064
N3882 X104.077 Y30.901
N3883 X104.337 Y31.748
N3884 X104.568 Y32.604
N3885 X104.775 Y33.465
N3886 X104.959 Y34.332
N3887 X105.122 Y35.203
N3888 X105.267 Y36.077
N3889 X105.394 Y36.954
N3890 X105.505 Y37.833
N3891 X105.601 Y38.714
N3892 X105.682 Y39.597
N3893 X105.749 Y40.48
N3894 X105.804 Y41.365
N3895 X105.845 Y42.25
N3896 X105.875 Y43.136
N3897 X105.893 Y44.021
N3898 X105.899 Y44.908
N3899 X105.895 Y45.794
N3900 X105.879 Y46.68
N3901 X105.852 Y47.565
N3902 X105.814 Y48.451
N3903 X105.765 Y49.335
N3904 X105.705 Y50.22
N3905 X105.633 Y51.103
N3906 X105.549 Y51.985
N3907 X105.453 Y52.866
N3908 X105.343 Y53.745
N3909 X105.218 Y54.622
N3910 X105.077 Y55.497
N3911 X104.917 Y56.369
N3912 X104.735 Y57.236
N3913 X104.525 Y58.097
N3914 X104.276 Y58.947
N3915 X104.037 Y59.603
N3916 X103.816 Y60.086
N3917 X103.755 Y60.195
N3918 X103.583 Y60.437
N3919 X103.365 Y60.637
N3920 X103.109 Y60.787
N3921 X102.828 Y60.88
N3922 X102.533 Y60.911
N3923 X100.153
N3924 G3 X99.925 Y60.858 I0.021 J-0.6 F1000
N3925 G1 X99.854 Y60.825 Z-2.989
N3926 X99.785 Y60.794 Z-2.967
N3927 X99.723 Y60.766 Z-2.93
N3928 X99.667 Y60.74 Z-2.88
N3929 X99.622 Y60.72 Z-2.819
N3930 X99.588 Y60.705 Z-2.75
N3931 X99.568 Y60.695 Z-2.675
N3932 X99.561 Y60.692 Z-2.597
N3933 G0 Z5
N3934 X97.739 Y24.479
N3935 Z-2.197
N3936 G1 Z-2.597 F500
N3937 X97.74 Y24.471 Z-2.675
N3938 X97.744 Y24.449 Z-2.75
N3939 X97.751 Y24.413 Z-2.819
N3940 X97.76 Y24.364 Z-2.88
N3941 X97.77 Y24.304 Z-2.93
N3942 X97.782 Y24.236 Z-2.967
N3943 X97.796 Y24.162 Z-2.989
N3944 X97.809 Y24.085 Z-2.997
N3945 G3 X97.988 Y23.931 I0.185 J0.033
N3946 G1 X100.201 F1016
N3947 X100.532 Y23.948
N3948 X100.761 Y23.978
N3949 X101.032 Y24.036
N3950 X101.307 Y24.118
N3951 X101.622 Y24.241
N3952 X101.965 Y24.407
N3953 X102.323 Y24.618
N3954 X102.723 Y24.899
N3955 X103.136 Y25.242
N3956 X103.579 Y25.674
N3957 X104.056 Y26.221
N3958 X104.558 Y26.9
N3959 X105.026 Y27.652
N3960 X105.44 Y28.436
N3961 X105.807 Y29.243
N3962 X106.133 Y30.066
N3963 X106.424 Y30.904
N3964 X106.683 Y31.751
N3965 X106.914 Y32.606
N3966 X107.121 Y33.468
N3967 X107.305 Y34.335
N3968 X107.469 Y35.206
N3969 X107.614 Y36.08
N3970 X107.741 Y36.957
N3971 X107.853 Y37.836
N3972 X107.949 Y38.717
N3973 X108.031 Y39.599
N3974 X108.099 Y40.483
N3975 X108.154 Y41.367
N3976 X108.197 Y42.252
N3977 X108.227 Y43.138
N3978 X108.246 Y44.024
N3979 X108.254 Y44.91
N3980 X108.251 Y45.796
N3981 X108.236 Y46.682
N3982 X108.211 Y47.568
N3983 X108.174 Y48.453
N3984 X108.127 Y49.338
N3985 X108.069 Y50.222
N3986 X107.998 Y51.105
N3987 X107.916 Y51.988
N3988 X107.821 Y52.869
N3989 X107.713 Y53.748
N3990 X107.59 Y54.626
N3991 X107.45 Y55.501
N3992 X107.292 Y56.373
N3993 X107.11 Y57.24
N3994 X106.901 Y58.101
N3995 X106.653 Y58.952
N3996 X106.415 Y59.606
N3997 X106.194 Y60.087
N3998 X106.134 Y60.195
N3999 X105.962 Y60.437
N4000 X105.744 Y60.637
N4001 X105.488 Y60.787
N4002 X105.207 Y60.88
N4003 X104.912 Y60.911
N4004 X102.533
N4005 G3 X102.305 Y60.858 I0.021 J-0.6 F1000
N4006 G1 X102.234 Y60.825 Z-2.989
N4007 X102.166 Y60.794 Z-2.967
N4008 X102.103 Y60.765 Z-2.93
N4009 X102.048 Y60.74 Z-2.88
N4010 X102.003 Y60.72 Z-2.819
N4011 X101.969 Y60.704 Z-2.75
N4012 X101.948 Y60.695 Z-2.675
N4013 X101.941 Y60.692 Z-2.597
N4014 G0 Z5
N4015 X99.953 Y24.479
N4016 Z-2.197
N4017 G1 Z-2.597 F500
N4018 X99.954 Y24.472 Z-2.675
N4019 X99.958 Y24.449 Z-2.75
N4020 X99.964 Y24.413 Z-2.819
N4021 X99.973 Y24.364 Z-2.88
N4022 X99.984 Y24.304 Z-2.93
N4023 X99.996 Y24.236 Z-2.967
N4024 X100.009 Y24.162 Z-2.989
N4025 X100.023 Y24.085 Z-2.997
N4026 G3 X100.201 Y23.931 I0.185 J0.033
N4027 G1 X102.616 F1016
N4028 X102.873 Y23.944
N4029 X103.102 Y23.974
N4030 X103.373 Y24.032
N4031 X103.649 Y24.115
N4032 X103.964 Y24.238
N4033 X104.308 Y24.404
N4034 X104.666 Y24.615
N4035 X105.067 Y24.897
N4036 X105.48 Y25.24
N4037 X105.923 Y25.672
N4038 X106.401 Y26.22
N4039 X106.903 Y26.899
N4040 X107.371 Y27.652
N4041 X107.785 Y28.435
N4042 X108.152 Y29.242
N4043 X108.478 Y30.066
N4044 X108.769 Y30.903
N4045 X109.028 Y31.75
N4046 X109.26 Y32.606
N4047 X109.467 Y33.467
N4048 X109.651 Y34.334
N4049 X109.815 Y35.205
N4050 X109.96 Y36.079
N4051 X110.088 Y36.956
N4052 X110.2 Y37.835
N4053 X110.297 Y38.716
N4054 X110.379 Y39.598
N4055 X110.448 Y40.481
N4056 X110.504 Y41.366
N4057 X110.548 Y42.251
N4058 X110.58 Y43.136
N4059 X110.6 Y44.022
N4060 X110.609 Y44.908
N4061 X110.607 Y45.794
N4062 X110.594 Y46.68
N4063 X110.57 Y47.566
N4064 X110.535 Y48.452
N4065 X110.489 Y49.336
N4066 X110.432 Y50.221
N4067 X110.364 Y51.104
N4068 X110.283 Y51.987
N4069 X110.19 Y52.868
N4070 X110.083 Y53.748
N4071 X109.961 Y54.625
N4072 X109.823 Y55.501
N4073 X109.666 Y56.373
N4074 X109.486 Y57.24
N4075 X109.277 Y58.101
N4076 X109.03 Y58.952
N4077 X108.792 Y59.605
N4078 X108.572 Y60.086
N4079 X108.512 Y60.194
N4080 X108.34 Y60.436
N4081 X108.122 Y60.637
N4082 X107.866 Y60.787
N4083 X107.585 Y60.879
N4084 X107.29 Y60.911
N4085 X104.912
N4086 G3 X104.684 Y60.857 I0.021 J-0.6 F1000
N4087 G1 X104.613 Y60.825 Z-2.989
N4088 X104.545 Y60.794 Z-2.967
N4089 X104.482 Y60.765 Z-2.93
N4090 X104.427 Y60.74 Z-2.88
N4091 X104.382 Y60.72 Z-2.819
N4092 X104.348 Y60.704 Z-2.75
N4093 X104.327 Y60.695 Z-2.675
N4094 X104.32 Y60.692 Z-2.597
N4095 G0 Z5
N4096 X102.368 Y24.479
N4097 Z-2.197
N4098 G1 Z-2.597 F500
N4099 X102.369 Y24.472 Z-2.675
N4100 X102.373 Y24.449 Z-2.75
N4101 X102.379 Y24.413 Z-2.819
N4102 X102.388 Y24.364 Z-2.88
N4103 X102.399 Y24.304 Z-2.93
N4104 X102.411 Y24.236 Z-2.967
N4105 X102.424 Y24.162 Z-2.989
N4106 X102.438 Y24.086 Z-2.997
N4107 G3 X102.616 Y23.931 I0.185 J0.033
N4108 G1 X105.031 F1016
N4109 X105.216 Y23.941
N4110 X105.444 Y23.971
N4111 X105.716 Y24.029
N4112 X105.991 Y24.111
N4113 X106.307 Y24.234
N4114 X106.651 Y24.401
N4115 X107.01 Y24.612
N4116 X107.41 Y24.894
N4117 X107.823 Y25.237
N4118 X108.267 Y25.669
N4119 X108.745 Y26.218
N4120 X109.248 Y26.897
N4121 X109.716 Y27.65
N4122 X110.13 Y28.433
N4123 X110.497 Y29.24
N4124 X110.823 Y30.064
N4125 X111.114 Y30.901
N4126 X111.373 Y31.748
N4127 X111.605 Y32.603
N4128 X111.812 Y33.465
N4129 X111.997 Y34.332
N4130 X112.161 Y35.202
N4131 X112.307 Y36.076
N4132 X112.436 Y36.953
N4133 X112.548 Y37.832
N4134 X112.646 Y38.713
N4135 X112.729 Y39.595
N4136 X112.798 Y40.478
N4137 X112.855 Y41.363
N4138 X112.9 Y42.248
N4139 X112.933 Y43.133
N4140 X112.954 Y44.019
N4141 X112.964 Y44.905
N4142 X112.963 Y45.791
N4143 X112.951 Y46.677
N4144 X112.929 Y47.563
N4145 X112.895 Y48.449
N4146 X112.851 Y49.334
N4147 X112.796 Y50.218
N4148 X112.729 Y51.102
N4149 X112.65 Y51.984
N4150 X112.558 Y52.866
N4151 X112.453 Y53.745
N4152 X112.332 Y54.623
N4153 X112.195 Y55.499
N4154 X112.039 Y56.371
N4155 X111.86 Y57.239
N4156 X111.652 Y58.1
N4157 X111.406 Y58.952
N4158 X111.169 Y59.604
N4159 X110.949 Y60.084
N4160 X110.889 Y60.193
N4161 X110.717 Y60.435
N4162 X110.499 Y60.636
N4163 X110.243 Y60.786
N4164 X109.961 Y60.879
N4165 X109.666 Y60.911
N4166 X107.29
N4167 G3 X107.062 Y60.857 I0.021 J-0.6 F1000
N4168 G1 X106.991 Y60.825 Z-2.989
N4169 X106.923 Y60.794 Z-2.967
N4170 X106.86 Y60.765 Z-2.93
N4171 X106.805 Y60.74 Z-2.88
N4172 X106.759 Y60.719 Z-2.819
N4173 X106.726 Y60.704 Z-2.75
N4174 X106.705 Y60.695 Z-2.675
N4175 X106.698 Y60.691 Z-2.597
N4176 G0 Z5
N4177 X104.782 Y24.479
N4178 Z-2.197
N4179 G1 Z-2.597 F500
N4180 X104.784 Y24.472 Z-2.675
N4181 X104.788 Y24.449 Z-2.75
N4182 X104.794 Y24.413 Z-2.819
N4183 X104.803 Y24.364 Z-2.88
N4184 X104.814 Y24.304 Z-2.93
N4185 X104.826 Y24.236 Z-2.967
N4186 X104.839 Y24.163 Z-2.989
N4187 X104.853 Y24.086 Z-2.997
N4188 G3 X105.031 Y23.931 I0.185 J0.033
N4189 G1 X107.245 Y23.932 F1016
N4190 X107.568 Y23.948
N4191 X107.797 Y23.978
N4192 X108.068 Y24.036
N4193 X108.342 Y24.118
N4194 X108.658 Y24.241
N4195 X109.001 Y24.407
N4196 X109.359 Y24.618
N4197 X109.759 Y24.899
N4198 X110.172 Y25.242
N4199 X110.614 Y25.674
N4200 X111.092 Y26.222
N4201 X111.595 Y26.901
N4202 X112.063 Y27.653
N4203 X112.477 Y28.437
N4204 X112.844 Y29.243
N4205 X113.17 Y30.067
N4206 X113.461 Y30.904
N4207 X113.72 Y31.751
N4208 X113.952 Y32.607
N4209 X114.159 Y33.468
N4210 X114.344 Y34.335
N4211 X114.509 Y35.205
N4212 X114.655 Y36.079
N4213 X114.784 Y36.956
N4214 X114.897 Y37.835
N4215 X114.995 Y38.716
N4216 X115.079 Y39.598
N4217 X115.149 Y40.481
N4218 X115.207 Y41.365
N4219 X115.253 Y42.25
N4220 X115.286 Y43.136
N4221 X115.308 Y44.022
N4222 X115.32 Y44.908
N4223 Y45.794
N4224 X115.309 Y46.68
N4225 X115.288 Y47.566
N4226 X115.256 Y48.451
N4227 X115.213 Y49.336
N4228 X115.159 Y50.221
N4229 X115.093 Y51.105
N4230 X115.016 Y51.987
N4231 X114.925 Y52.869
N4232 X114.821 Y53.749
N4233 X114.702 Y54.627
N4234 X114.566 Y55.503
N4235 X114.411 Y56.375
N4236 X114.232 Y57.243
N4237 X114.025 Y58.105
N4238 X113.78 Y58.956
N4239 X113.543 Y59.606
N4240 X113.324 Y60.086
N4241 X113.264 Y60.193
N4242 X113.093 Y60.435
N4243 X112.874 Y60.636
N4244 X112.618 Y60.786
N4245 X112.337 Y60.879
N4246 X112.042 Y60.911
N4247 X109.666
N4248 G3 X109.438 Y60.857 I0.021 J-0.6 F1000
N4249 G1 X109.367 Y60.825 Z-2.989
N4250 X109.299 Y60.794 Z-2.967
N4251 X109.236 Y60.765 Z-2.93
N4252 X109.181 Y60.74 Z-2.88
N4253 X109.136 Y60.719 Z-2.819
N4254 X109.102 Y60.704 Z-2.75
N4255 X109.081 Y60.694 Z-2.675
N4256 X109.074 Y60.691 Z-2.597
N4257 G0 Z5
N4258 X106.996 Y24.48
N4259 Z-2.197
N4260 G1 Z-2.597 F500
N4261 X106.998 Y24.472 Z-2.675
N4262 X107.002 Y24.45 Z-2.75
N4263 X107.008 Y24.413 Z-2.819
N4264 X107.017 Y24.364 Z-2.88
N4265 X107.028 Y24.305 Z-2.93
N4266 X107.04 Y24.237 Z-2.967
N4267 X107.053 Y24.163 Z-2.989
N4268 X107.067 Y24.086 Z-2.997
N4269 G3 X107.245 Y23.932 I0.185 J0.033
N4270 G1 X109.66 F1016
N4271 X109.909 Y23.944
N4272 X110.138 Y23.974
N4273 X110.409 Y24.032
N4274 X110.684 Y24.115
N4275 X111 Y24.238
N4276 X111.344 Y24.405
N4277 X111.702 Y24.616
N4278 X112.103 Y24.897
N4279 X112.516 Y25.24
N4280 X112.959 Y25.673
N4281 X113.437 Y26.221
N4282 X113.94 Y26.901
N4283 X114.408 Y27.653
N4284 X114.822 Y28.437
N4285 X115.189 Y29.243
N4286 X115.516 Y30.067
N4287 X115.806 Y30.904
N4288 X116.066 Y31.751
N4289 X116.299 Y32.606
N4290 X116.506 Y33.468
N4291 X116.692 Y34.334
N4292 X116.857 Y35.205
N4293 X117.003 Y36.079
N4294 X117.133 Y36.955
N4295 X117.246 Y37.834
N4296 X117.345 Y38.715
N4297 X117.429 Y39.597
N4298 X117.5 Y40.48
N4299 X117.559 Y41.364
N4300 X117.605 Y42.249
N4301 X117.64 Y43.135
N4302 X117.663 Y44.021
N4303 X117.675 Y44.907
N4304 X117.677 Y45.793
N4305 X117.667 Y46.679
N4306 X117.647 Y47.565
N4307 X117.616 Y48.45
N4308 X117.575 Y49.335
N4309 X117.522 Y50.22
N4310 X117.458 Y51.104
N4311 X117.382 Y51.987
N4312 X117.292 Y52.868
N4313 X117.189 Y53.748
N4314 X117.071 Y54.627
N4315 X116.937 Y55.502
N4316 X116.782 Y56.375
N4317 X116.605 Y57.243
N4318 X116.398 Y58.105
N4319 X116.153 Y58.956
N4320 X115.917 Y59.606
N4321 X115.698 Y60.085
N4322 X115.638 Y60.192
N4323 X115.467 Y60.435
N4324 X115.249 Y60.636
N4325 X114.993 Y60.786
N4326 X114.711 Y60.879
N4327 X114.416 Y60.91
N4328 X112.042 Y60.911
N4329 G3 X111.814 Y60.857 I0.021 J-0.6 F1000
N4330 G1 X111.743 Y60.825 Z-2.989
N4331 X111.675 Y60.793 Z-2.967
N4332 X111.612 Y60.765 Z-2.93
N4333 X111.556 Y60.74 Z-2.88
N4334 X111.511 Y60.719 Z-2.819
N4335 X111.478 Y60.704 Z-2.75
N4336 X111.457 Y60.694 Z-2.675
N4337 X111.45 Y60.691 Z-2.597
N4338 G0 Z5
N4339 X109.411 Y24.48
N4340 Z-2.197
N4341 G1 Z-2.597 F500
N4342 X109.412 Y24.472 Z-2.675
N4343 X109.416 Y24.45 Z-2.75
N4344 X109.423 Y24.413 Z-2.819
N4345 X109.432 Y24.364 Z-2.88
N4346 X109.442 Y24.305 Z-2.93
N4347 X109.455 Y24.237 Z-2.967
N4348 X109.468 Y24.163 Z-2.989
N4349 X109.482 Y24.086 Z-2.997
N4350 G3 X109.66 Y23.932 I0.185 J0.033
N4351 G1 X112.075 F1016
N4352 X112.251 Y23.941
N4353 X112.48 Y23.971
N4354 X112.752 Y24.029
N4355 X113.027 Y24.111
N4356 X113.343 Y24.234
N4357 X113.687 Y24.402
N4358 X114.046 Y24.613
N4359 X114.447 Y24.894
N4360 X114.86 Y25.237
N4361 X115.304 Y25.67
N4362 X115.782 Y26.219
N4363 X116.286 Y26.899
N4364 X116.754 Y27.652
N4365 X117.168 Y28.435
N4366 X117.535 Y29.242
N4367 X117.861 Y30.065
N4368 X118.152 Y30.902
N4369 X118.412 Y31.75
N4370 X118.645 Y32.605
N4371 X118.853 Y33.466
N4372 X119.039 Y34.332
N4373 X119.204 Y35.203
N4374 X119.351 Y36.077
N4375 X119.481 Y36.953
N4376 X119.595 Y37.832
N4377 X119.694 Y38.713
N4378 X119.78 Y39.595
N4379 X119.852 Y40.478
N4380 X119.911 Y41.362
N4381 X119.958 Y42.247
