%
(PrimaryCode)
(T3  D=6.35 CR=0 - ZMIN=-11.8 - ball end mill)
N0 G90
N1 G17
(Adaptive3)
N2 T3 M6
N3 S10000 M3
N5 G0 X101.037 Y43.062
N6 Z15
N7 Z5
N8 Z2.902
N9 G1 Z2.502 F1524
N10 G3 X100.105 Y41.777 Z2.415 I-0.466 J-0.643
N11 X101.037 Y43.062 Z2.328 I0.466 J0.643
N12 X100.105 Y41.777 Z2.241 I-0.466 J-0.643
N13 X101.037 Y43.062 Z2.154 I0.466 J0.643
N14 X100.105 Y41.777 Z2.067 I-0.466 J-0.643
N15 X101.037 Y43.062 Z1.98 I0.466 J0.643
N16 X100.105 Y41.777 Z1.892 I-0.466 J-0.643
N17 X101.037 Y43.062 Z1.805 I0.466 J0.643
N18 X100.105 Y41.777 Z1.718 I-0.466 J-0.643
N19 X101.037 Y43.062 Z1.631 I0.466 J0.643
N20 X100.105 Y41.777 Z1.544 I-0.466 J-0.643
N21 X101.037 Y43.062 Z1.457 I0.466 J0.643
N22 X100.105 Y41.777 Z1.37 I-0.466 J-0.643
N23 X101.037 Y43.062 Z1.283 I0.466 J0.643
N24 X100.105 Y41.777 Z1.196 I-0.466 J-0.643
N25 X101.037 Y43.062 Z1.109 I0.466 J0.643
N26 X100.105 Y41.777 Z1.022 I-0.466 J-0.643
N27 X101.037 Y43.062 Z0.935 I0.466 J0.643
N28 X100.105 Y41.777 Z0.847 I-0.466 J-0.643
N29 X101.037 Y43.062 Z0.76 I0.466 J0.643
N30 X100.105 Y41.777 Z0.673 I-0.466 J-0.643
N31 X101.037 Y43.062 Z0.586 I0.466 J0.643
N32 X100.105 Y41.777 Z0.499 I-0.466 J-0.643
N33 X101.037 Y43.062 Z0.412 I0.466 J0.643
N34 X100.105 Y41.777 Z0.325 I-0.466 J-0.643
N35 X101.037 Y43.062 Z0.238 I0.466 J0.643
N36 X100.105 Y41.777 Z0.151 I-0.466 J-0.643
N37 X101.037 Y43.062 Z0.064 I0.466 J0.643
N38 X100.105 Y41.777 Z-0.023 I-0.466 J-0.643
N39 X101.037 Y43.062 Z-0.11 I0.466 J0.643
N40 X100.105 Y41.777 Z-0.197 I-0.466 J-0.643
N41 X101.037 Y43.062 Z-0.285 I0.466 J0.643
N42 X100.105 Y41.777 Z-0.372 I-0.466 J-0.643
N43 X101.037 Y43.062 Z-0.459 I0.466 J0.643
N44 X100.105 Y41.777 Z-0.546 I-0.466 J-0.643
N45 X101.037 Y43.062 Z-0.633 I0.466 J0.643
N46 X100.105 Y41.777 Z-0.72 I-0.466 J-0.643
N47 X101.037 Y43.062 Z-0.807 I0.466 J0.643
N48 X100.105 Y41.777 Z-0.894 I-0.466 J-0.643
N49 X101.037 Y43.062 Z-0.981 I0.466 J0.643
N50 X100.105 Y41.777 Z-1.068 I-0.466 J-0.643
N51 X101.037 Y43.062 Z-1.155 I0.466 J0.643
N52 X100.105 Y41.777 Z-1.242 I-0.466 J-0.643
N53 X101.037 Y43.062 Z-1.33 I0.466 J0.643
N54 X100.105 Y41.777 Z-1.417 I-0.466 J-0.643
N55 X101.037 Y43.062 Z-1.504 I0.466 J0.643
N56 X100.105 Y41.777 Z-1.591 I-0.466 J-0.643
N57 X101.037 Y43.062 Z-1.678 I0.466 J0.643
N58 X100.105 Y41.777 Z-1.765 I-0.466 J-0.643
N59 X101.037 Y43.062 Z-1.852 I0.466 J0.643
N60 X100.105 Y41.777 Z-1.939 I-0.466 J-0.643
N61 X101.365 Y42.42 Z-2 I0.466 J0.643
N62 X99.777 I-0.794 J0
N63 X101.365 I0.794 J0
N64 G1 X101.4 Y42.874
N65 X101.418 Y43.023
N66 X101.396 Y43.171
N67 X101.343 Y43.312
N68 X101.265 Y43.44
N69 X101.166 Y43.553
N70 X101.052 Y43.65
N71 X100.925 Y43.729
N72 X100.788 Y43.791
N73 X100.644 Y43.834
N74 X100.496 Y43.859
N75 X100.347 Y43.867
N76 X100.197 Y43.857
N77 X100.049 Y43.829
N78 X99.906 Y43.786
N79 X99.768 Y43.728
N80 X99.637 Y43.655
N81 X99.514 Y43.568
N82 X99.401 Y43.47
N83 X99.298 Y43.361
N84 X99.207 Y43.241
N85 X99.128 Y43.114
N86 X99.062 Y42.979
N87 X99.01 Y42.838
N88 X98.972 Y42.693
N89 X98.947 Y42.545
N90 X98.937 Y42.396
N91 X98.941 Y42.246
N92 X98.959 Y42.097
N93 X98.991 Y41.95
N94 X99.036 Y41.807
N95 X99.095 Y41.669
N96 X99.166 Y41.537
N97 X99.249 Y41.412
N98 X99.343 Y41.295
N99 X99.447 Y41.188
N100 X99.561 Y41.09
N101 X99.683 Y41.003
N102 X99.813 Y40.927
N103 X99.949 Y40.864
N104 X100.09 Y40.813
N105 X100.235 Y40.775
N106 X100.383 Y40.75
N107 X100.532 Y40.738
N108 X100.682 Y40.74
N109 X100.831 Y40.756
N110 X100.979 Y40.785
N111 X101.123 Y40.826
N112 X101.262 Y40.881
N113 X101.397 Y40.948
N114 X101.525 Y41.026
N115 X101.645 Y41.116
N116 X101.757 Y41.215
N117 X101.862 Y41.322
N118 X101.962 Y41.435
N119 X102.054 Y41.553
N120 X102.138 Y41.677
N121 X102.215 Y41.806
N122 X102.282 Y41.94
N123 X102.34 Y42.078
N124 X102.389 Y42.22
N125 X102.427 Y42.365
N126 X102.455 Y42.513
N127 X102.472 Y42.662
N128 X102.477 Y42.812
N129 X102.472 Y42.962
N130 X102.456 Y43.111
N131 X102.429 Y43.258
N132 X102.391 Y43.403
N133 X102.343 Y43.545
N134 X102.284 Y43.683
N135 X102.215 Y43.817
N136 X102.137 Y43.945
N137 X102.05 Y44.067
N138 X101.954 Y44.182
N139 X101.851 Y44.291
N140 X101.74 Y44.392
N141 X101.622 Y44.484
N142 X101.498 Y44.569
N143 X101.369 Y44.645
N144 X101.234 Y44.712
N145 X101.096 Y44.769
N146 X100.954 Y44.817
N147 X100.809 Y44.856
N148 X100.662 Y44.885
N149 X100.513 Y44.905
N150 X100.363 Y44.915
N151 X100.213
N152 X100.064 Y44.905
N153 X99.915 Y44.886
N154 X99.767 Y44.858
N155 X99.622 Y44.821
N156 X99.479 Y44.775
N157 X99.34 Y44.72
N158 X99.204 Y44.657
N159 X99.072 Y44.586
N160 X98.944 Y44.507
N161 X98.822 Y44.42
N162 X98.705 Y44.326
N163 X98.593 Y44.226
N164 X98.488 Y44.119
N165 X98.389 Y44.006
N166 X98.297 Y43.888
N167 X98.212 Y43.764
N168 X98.134 Y43.636
N169 X98.064 Y43.504
N170 X98.001 Y43.367
N171 X97.946 Y43.228
N172 X97.899 Y43.085
N173 X97.861 Y42.94
N174 X97.83 Y42.794
N175 X97.808 Y42.645
N176 X97.794 Y42.496
N177 X97.788 Y42.346
N178 X97.791 Y42.196
N179 X97.802 Y42.046
N180 X97.821 Y41.898
N181 X97.848 Y41.75
N182 X97.884 Y41.604
N183 X97.927 Y41.461
N184 X97.978 Y41.32
N185 X98.037 Y41.182
N186 X98.103 Y41.047
N187 X98.176 Y40.916
N188 X98.257 Y40.789
N189 X98.344 Y40.667
N190 X98.437 Y40.55
N191 X98.537 Y40.438
N192 X98.642 Y40.331
N193 X98.753 Y40.23
N194 X98.87 Y40.136
N195 X98.991 Y40.047
N196 X99.117 Y39.965
N197 X99.246 Y39.89
N198 X99.38 Y39.822
N199 X99.517 Y39.762
N200 X99.657 Y39.708
N201 X99.8 Y39.662
N202 X99.945 Y39.624
N203 X100.092 Y39.593
N204 X100.24 Y39.571
N205 X100.39 Y39.556
N206 X100.539 Y39.549
N207 X100.689 Y39.55
N208 X100.839 Y39.558
N209 X100.988 Y39.575
N210 X101.136 Y39.599
N211 X101.283 Y39.631
N212 X101.428 Y39.67
N213 X101.571 Y39.716
N214 X101.711 Y39.769
N215 X101.849 Y39.828
N216 X101.983 Y39.894
N217 X102.115 Y39.966
N218 X102.243 Y40.044
N219 X102.367 Y40.128
N220 X102.488 Y40.218
N221 X102.604 Y40.313
N222 X102.715 Y40.413
N223 X102.822 Y40.518
N224 X102.924 Y40.628
N225 X103.021 Y40.743
N226 X103.113 Y40.861
N227 X103.199 Y40.984
N228 X103.279 Y41.111
N229 X103.354 Y41.241
N230 X103.422 Y41.375
N231 X103.485 Y41.511
N232 X103.541 Y41.65
N233 X103.591 Y41.791
N234 X103.634 Y41.935
N235 X103.671 Y42.08
N236 X103.701 Y42.227
N237 X103.725 Y42.375
N238 X103.742 Y42.525
N239 X103.752 Y42.674
N240 X103.755 Y42.824
N241 X103.751 Y42.974
N242 X103.741 Y43.124
N243 X103.724 Y43.273
N244 X103.7 Y43.421
N245 X103.67 Y43.568
N246 X103.633 Y43.713
N247 X103.589 Y43.857
N248 X103.54 Y43.998
N249 X103.483 Y44.137
N250 X103.421 Y44.274
N251 X103.353 Y44.407
N252 X103.279 Y44.538
N253 X103.199 Y44.665
N254 X103.114 Y44.788
N255 X103.023 Y44.908
N256 X102.928 Y45.023
N257 X102.827 Y45.135
N258 X102.722 Y45.241
N259 X102.612 Y45.343
N260 X102.497 Y45.44
N261 X102.379 Y45.533
N262 X102.257 Y45.619
N263 X102.131 Y45.701
N264 X102.002 Y45.777
N265 X101.869 Y45.848
N266 X101.734 Y45.913
N267 X101.596 Y45.972
N268 X101.456 Y46.025
N269 X101.314 Y46.073
N270 X101.17 Y46.114
N271 X101.024 Y46.149
N272 X100.877 Y46.178
N273 X100.728 Y46.202
N274 X100.579 Y46.218
N275 X100.43 Y46.229
N276 X100.28 Y46.234
N277 X100.13 Y46.232
N278 X99.98 Y46.225
N279 X99.831 Y46.211
N280 X99.682 Y46.191
N281 X99.534 Y46.166
N282 X99.387 Y46.134
N283 X99.242 Y46.097
N284 X99.099 Y46.053
N285 X98.957 Y46.005
N286 X98.817 Y45.95
N287 X98.68 Y45.89
N288 X98.545 Y45.825
N289 X98.412 Y45.754
N290 X98.283 Y45.678
N291 X98.156 Y45.597
N292 X98.033 Y45.511
N293 X97.913 Y45.421
N294 X97.797 Y45.326
N295 X97.683 Y45.225
N296 X97.575 Y45.121
N297 X97.47 Y45.013
N298 X97.368 Y44.899
N299 X97.271 Y44.782
N300 X97.18 Y44.663
N301 X97.092 Y44.537
N302 X97.008 Y44.409
N303 X96.931 Y44.279
N304 X96.857 Y44.143
N305 X96.788 Y44.004
N306 X96.726 Y43.865
N307 X96.669 Y43.721
N308 X96.616 Y43.574
N309 X96.57 Y43.427
N310 X96.529 Y43.278
N311 X96.494 Y43.125
N312 X96.465 Y42.972
N313 X96.441 Y42.819
N314 X96.424 Y42.662
N315 X96.412 Y42.505
N316 X96.407 Y42.349
N317 X96.408 Y42.191
N318 X96.415 Y42.032
N319 X96.428 Y41.876
N320 X96.447 Y41.72
N321 X96.472 Y41.562
N322 X96.503 Y41.406
N323 X96.54 Y41.253
N324 X96.584 Y41.099
N325 X96.633 Y40.947
N326 X96.688 Y40.798
N327 X96.749 Y40.651
N328 X96.816 Y40.504
N329 X96.889 Y40.361
N330 X96.966 Y40.222
N331 X97.05 Y40.084
N332 X97.139 Y39.949
N333 X97.233 Y39.819
N334 X97.331 Y39.692
N335 X97.437 Y39.568
N336 X97.545 Y39.449
N337 X97.658 Y39.335
N338 X97.776 Y39.223
N339 X97.9 Y39.116
N340 X98.025 Y39.015
N341 X98.155 Y38.919
N342 X98.29 Y38.827
N343 X98.429 Y38.74
N344 X98.569 Y38.659
N345 X98.713 Y38.584
N346 X98.861 Y38.513
N347 X99.011 Y38.448
N348 X99.162 Y38.39
N349 X99.318 Y38.337
N350 X99.477 Y38.29
N351 X99.636 Y38.249
N352 X99.797 Y38.214
N353 X99.96 Y38.186
N354 X100.127 Y38.163
N355 X100.294 Y38.147
N356 X100.461 Y38.137
N357 X100.63 Y38.134
N358 X100.8 Y38.137
N359 X100.972 Y38.147
N360 X101.143 Y38.164
N361 X101.312 Y38.187
N362 X101.482 Y38.217
N363 X101.652 Y38.253
N364 X101.822 Y38.297
N365 X101.99 Y38.347
N366 X102.156 Y38.404
N367 X102.32 Y38.467
N368 X102.482 Y38.537
N369 X102.643 Y38.613
N370 X102.801 Y38.696
N371 X102.956 Y38.785
N372 X103.107 Y38.88
N373 X103.254 Y38.981
N374 X103.398 Y39.088
N375 X103.539 Y39.201
N376 X103.676 Y39.32
N377 X103.808 Y39.443
N378 X103.934 Y39.572
N379 X104.056 Y39.705
N380 X104.173 Y39.844
N381 X104.285 Y39.988
N382 X104.391 Y40.136
N383 X104.492 Y40.288
N384 X104.587 Y40.444
N385 X104.675 Y40.603
N386 X104.757 Y40.766
N387 X104.805 Y40.869
N388 X104.877 Y41.037
N389 X104.943 Y41.208
N390 X105.002 Y41.38
N391 X105.055 Y41.556
N392 X105.101 Y41.735
N393 X105.14 Y41.915
N394 X105.172 Y42.097
N395 X105.197 Y42.28
N396 X105.215 Y42.463
N397 X105.225 Y42.647
N398 X105.229 Y42.832
N399 X105.226 Y43.018
N400 X105.215 Y43.204
N401 X105.197 Y43.389
N402 X105.172 Y43.573
N403 X105.14 Y43.756
N404 X105.101 Y43.938
N405 X105.055 Y44.119
N406 X105.001 Y44.298
N407 X104.941 Y44.476
N408 X104.873 Y44.652
N409 X104.799 Y44.825
N410 X104.718 Y44.995
N411 X104.63 Y45.162
N412 X104.537 Y45.325
N413 X104.436 Y45.485
N414 X104.329 Y45.642
N415 X104.216 Y45.795
N416 X104.097 Y45.944
N417 X103.971 Y46.088
N418 X103.84 Y46.228
N419 X103.704 Y46.363
N420 X103.562 Y46.492
N421 X103.415 Y46.616
N422 X103.264 Y46.734
N423 X103.107 Y46.847
N424 X102.946 Y46.954
N425 X102.78 Y47.054
N426 X102.61 Y47.149
N427 X102.436 Y47.237
N428 X102.258 Y47.319
N429 X102.077 Y47.394
N430 X101.893 Y47.462
N431 X101.706 Y47.523
N432 X101.516 Y47.577
N433 X101.324 Y47.623
N434 X101.13 Y47.662
N435 X100.934 Y47.694
N436 X100.737 Y47.718
N437 X100.538 Y47.734
N438 X100.339 Y47.743
N439 X100.138 Y47.744
N440 X99.938 Y47.738
N441 X99.737 Y47.723
N442 X99.536 Y47.701
N443 X99.336 Y47.671
N444 X99.137 Y47.633
N445 X98.939 Y47.587
N446 X98.742 Y47.534
N447 X98.547 Y47.473
N448 X98.355 Y47.404
N449 X98.164 Y47.327
N450 X97.976 Y47.244
N451 X97.792 Y47.152
N452 X97.61 Y47.054
N453 X97.432 Y46.948
N454 X97.258 Y46.835
N455 X97.088 Y46.716
N456 X96.922 Y46.589
N457 X96.761 Y46.456
N458 X96.605 Y46.317
N459 X96.455 Y46.171
N460 X96.309 Y46.019
N461 X96.17 Y45.862
N462 X96.036 Y45.699
N463 X95.908 Y45.531
N464 X95.787 Y45.357
N465 X95.673 Y45.179
N466 X95.565 Y44.996
N467 X95.464 Y44.808
N468 X95.371 Y44.617
N469 X95.284 Y44.422
N470 X95.206 Y44.223
N471 X95.134 Y44.021
N472 X95.071 Y43.816
N473 X95.016 Y43.608
N474 X94.968 Y43.398
N475 X94.929 Y43.186
N476 X94.897 Y42.973
N477 X94.874 Y42.758
N478 X94.86 Y42.542
N479 X94.853 Y42.325
N480 X94.855 Y42.108
N481 X94.866 Y41.891
N482 X94.884 Y41.674
N483 X94.912 Y41.458
N484 X94.947 Y41.242
N485 X94.991 Y41.028
N486 X95.044 Y40.816
N487 X95.104 Y40.605
N488 X95.173 Y40.397
N489 X95.25 Y40.191
N490 X95.334 Y39.989
N491 X95.427 Y39.789
N492 X95.528 Y39.593
N493 X95.636 Y39.401
N494 X95.751 Y39.212
N495 X95.874 Y39.029
N496 X96.004 Y38.85
N497 X96.141 Y38.676
N498 X96.284 Y38.507
N499 X96.435 Y38.344
N500 X96.591 Y38.186
N501 X96.754 Y38.035
N502 X96.923 Y37.89
N503 X97.097 Y37.751
N504 X97.277 Y37.619
N505 X97.461 Y37.494
N506 X97.651 Y37.376
N507 X97.846 Y37.265
N508 X98.045 Y37.162
N509 X98.249 Y37.066
N510 X98.456 Y36.978
N511 X98.667 Y36.897
N512 X98.882 Y36.825
N513 X99.1 Y36.761
N514 X99.321 Y36.706
N515 X99.544 Y36.659
N516 X99.77 Y36.62
N517 X99.997 Y36.59
N518 X100.227 Y36.569
N519 X100.457 Y36.557
N520 X100.689 Y36.553
N521 X100.921 Y36.559
N522 X101.153 Y36.573
N523 X101.385 Y36.597
N524 X101.617 Y36.629
N525 X101.848 Y36.671
N526 X102.078 Y36.722
N527 X102.306 Y36.781
N528 X102.532 Y36.85
N529 X102.756 Y36.928
N530 X102.977 Y37.014
N531 X103.195 Y37.109
N532 X103.41 Y37.212
N533 X103.621 Y37.324
N534 X103.828 Y37.445
N535 X104.03 Y37.573
N536 X104.228 Y37.71
N537 X104.421 Y37.854
N538 X104.608 Y38.006
N539 X104.789 Y38.165
N540 X104.962 Y38.328
N541 X105.131 Y38.502
N542 X105.294 Y38.682
N543 X105.45 Y38.868
N544 X105.599 Y39.061
N545 X105.74 Y39.26
N546 X105.874 Y39.464
N547 X106 Y39.673
N548 X106.118 Y39.887
N549 X106.227 Y40.106
N550 X106.329 Y40.329
N551 X106.421 Y40.556
N552 X106.505 Y40.787
N553 X106.58 Y41.021
N554 X106.646 Y41.258
N555 X106.702 Y41.498
N556 X106.75 Y41.74
N557 X106.788 Y41.984
N558 X106.816 Y42.229
N559 X106.835 Y42.476
N560 X106.845 Y42.723
N561 Y42.971
N562 X106.836 Y43.219
N563 X106.816 Y43.467
N564 X106.788 Y43.714
N565 X106.749 Y43.96
N566 X106.702 Y44.204
N567 X106.644 Y44.447
N568 X106.577 Y44.688
N569 X106.501 Y44.926
N570 X106.416 Y45.162
N571 X106.321 Y45.394
N572 X106.218 Y45.623
N573 X106.105 Y45.848
N574 X105.984 Y46.069
N575 X105.854 Y46.285
N576 X105.715 Y46.497
N577 X105.569 Y46.703
N578 X105.414 Y46.903
N579 X105.251 Y47.098
N580 X105.081 Y47.287
N581 X104.903 Y47.469
N582 X104.718 Y47.644
N583 X104.526 Y47.813
N584 X104.327 Y47.974
N585 X104.122 Y48.128
N586 X103.911 Y48.274
N587 X103.694 Y48.412
N588 X103.471 Y48.541
N589 X103.243 Y48.662
N590 X103.01 Y48.775
N591 X102.773 Y48.878
N592 X102.531 Y48.972
N593 X102.286 Y49.057
N594 X102.037 Y49.133
N595 X101.785 Y49.199
N596 X101.529 Y49.256
N597 X101.272 Y49.302
N598 X101.012 Y49.339
N599 X100.751 Y49.365
N600 X100.488 Y49.382
N601 X100.225 Y49.388
N602 X99.96 Y49.385
N603 X99.696 Y49.37
N604 X99.432 Y49.346
N605 X99.168 Y49.312
N606 X98.906 Y49.267
N607 X98.645 Y49.212
N608 X98.386 Y49.147
N609 X98.129 Y49.071
N610 X97.874 Y48.986
N611 X97.661 Y48.905
N612 X97.413 Y48.802
N613 X97.169 Y48.688
N614 X96.928 Y48.566
N615 X96.692 Y48.433
N616 X96.461 Y48.292
N617 X96.235 Y48.141
N618 X96.015 Y47.982
N619 X95.801 Y47.813
N620 X95.593 Y47.637
N621 X95.392 Y47.452
N622 X95.198 Y47.259
N623 X95.011 Y47.059
N624 X94.831 Y46.851
N625 X94.66 Y46.636
N626 X94.497 Y46.414
N627 X94.342 Y46.186
N628 X94.196 Y45.951
N629 X94.059 Y45.711
N630 X93.931 Y45.465
N631 X93.813 Y45.214
N632 X93.704 Y44.959
N633 X93.605 Y44.699
N634 X93.516 Y44.435
N635 X93.437 Y44.167
N636 X93.369 Y43.896
N637 X93.311 Y43.623
N638 X93.263 Y43.347
N639 X93.226 Y43.069
N640 X93.2 Y42.79
N641 X93.185 Y42.509
N642 X93.181 Y42.228
N643 X93.187 Y41.946
N644 X93.204 Y41.665
N645 X93.233 Y41.384
N646 X93.272 Y41.104
N647 X93.322 Y40.826
N648 X93.382 Y40.549
N649 X93.454 Y40.275
N650 X93.536 Y40.004
N651 X93.629 Y39.735
N652 X93.732 Y39.47
N653 X93.845 Y39.209
N654 X93.968 Y38.953
N655 X94.102 Y38.701
N656 X94.245 Y38.454
N657 X94.398 Y38.213
N658 X94.56 Y37.977
N659 X94.731 Y37.748
N660 X94.911 Y37.525
N661 X95.1 Y37.31
N662 X95.297 Y37.101
N663 X95.502 Y36.9
N664 X95.715 Y36.707
N665 X95.936 Y36.523
N666 X96.164 Y36.346
N667 X96.399 Y36.178
N668 X96.641 Y36.02
N669 X96.889 Y35.87
N670 X97.143 Y35.73
N671 X97.402 Y35.6
N672 X97.667 Y35.48
N673 X97.937 Y35.369
N674 X98.211 Y35.27
N675 X98.49 Y35.18
N676 X98.772 Y35.101
N677 X99.058 Y35.034
N678 X99.347 Y34.977
N679 X99.638 Y34.931
N680 X99.932 Y34.896
N681 X100.227 Y34.873
N682 X100.524 Y34.861
N683 X100.821
N684 X101.119 Y34.872
N685 X101.417 Y34.895
N686 X101.714 Y34.929
N687 X102.01 Y34.975
N688 X102.305 Y35.033
N689 X102.598 Y35.101
N690 X102.889 Y35.182
N691 X103.176 Y35.273
N692 X103.461 Y35.376
N693 X103.742 Y35.49
N694 X104.018 Y35.615
N695 X104.29 Y35.751
N696 X104.557 Y35.897
N697 X104.818 Y36.054
N698 X105.073 Y36.221
N699 X105.323 Y36.398
N700 X105.565 Y36.584
N701 X105.801 Y36.781
N702 X106.029 Y36.986
N703 X106.249 Y37.201
N704 X106.461 Y37.424
N705 X106.665 Y37.656
N706 X106.859 Y37.895
N707 X107.045 Y38.142
N708 X107.221 Y38.397
N709 X107.387 Y38.658
N710 X107.543 Y38.926
N711 X107.689 Y39.2
N712 X107.824 Y39.479
N713 X107.949 Y39.764
N714 X108.062 Y40.054
N715 X108.165 Y40.349
N716 X108.256 Y40.647
N717 X108.335 Y40.949
N718 X108.403 Y41.254
N719 X108.459 Y41.562
N720 X108.503 Y41.872
N721 X108.535 Y42.183
N722 X108.555 Y42.497
N723 X108.563 Y42.81
N724 X108.559 Y43.125
N725 X108.542 Y43.439
N726 X108.514 Y43.753
N727 X108.473 Y44.065
N728 X108.42 Y44.377
N729 X108.355 Y44.686
N730 X108.278 Y44.993
N731 X108.19 Y45.297
N732 X108.089 Y45.597
N733 X107.977 Y45.894
N734 X107.853 Y46.187
N735 X107.718 Y46.475
N736 X107.572 Y46.757
N737 X107.414 Y47.035
N738 X107.246 Y47.306
N739 X107.067 Y47.571
N740 X106.878 Y47.829
N741 X106.679 Y48.08
N742 X106.47 Y48.324
N743 X106.251 Y48.559
N744 X106.024 Y48.786
N745 X105.787 Y49.005
N746 X105.542 Y49.214
N747 X105.288 Y49.414
N748 X105.026 Y49.604
N749 X104.757 Y49.785
N750 X104.481 Y49.955
N751 X104.198 Y50.114
N752 X103.909 Y50.263
N753 X103.614 Y50.4
N754 X103.313 Y50.527
N755 X103.008 Y50.641
N756 X102.697 Y50.744
N757 X102.382 Y50.835
N758 X102.064 Y50.914
N759 X101.742 Y50.98
N760 X101.418 Y51.034
N761 X101.091 Y51.076
N762 X100.762 Y51.105
N763 X100.432 Y51.121
N764 X100.101 Y51.125
N765 X99.77 Y51.115
N766 X99.441 Y51.093
N767 X99.11 Y51.058
N768 X98.779 Y51.011
N769 X98.451 Y50.95
N770 X98.124 Y50.876
N771 X97.801 Y50.79
N772 X97.48 Y50.691
N773 X97.163 Y50.58
N774 X96.85 Y50.457
N775 X96.542 Y50.321
N776 X96.239 Y50.173
N777 X96.038 Y50.066
N778 X95.745 Y49.898
N779 X95.458 Y49.72
N780 X95.177 Y49.53
N781 X94.904 Y49.329
N782 X94.638 Y49.117
N783 X94.381 Y48.895
N784 X94.131 Y48.663
N785 X93.891 Y48.421
N786 X93.66 Y48.169
N787 X93.438 Y47.909
N788 X93.227 Y47.639
N789 X93.025 Y47.362
N790 X92.835 Y47.076
N791 X92.655 Y46.783
N792 X92.486 Y46.483
N793 X92.33 Y46.176
N794 X92.185 Y45.863
N795 X92.051 Y45.544
N796 X91.931 Y45.22
N797 X91.822 Y44.891
N798 X91.727 Y44.558
N799 X91.644 Y44.221
N800 X91.575 Y43.881
N801 X91.518 Y43.538
N802 X91.475 Y43.193
N803 X91.445 Y42.846
N804 X91.428 Y42.497
N805 X91.425 Y42.148
N806 X91.436 Y41.799
N807 X91.46 Y41.45
N808 X91.497 Y41.102
N809 X91.548 Y40.755
N810 X91.613 Y40.41
N811 X91.69 Y40.068
N812 X91.781 Y39.729
N813 X91.886 Y39.393
N814 X92.003 Y39.061
N815 X92.133 Y38.734
N816 X92.275 Y38.412
N817 X92.43 Y38.095
N818 X92.598 Y37.784
N819 X92.777 Y37.48
N820 X92.969 Y37.182
N821 X93.171 Y36.892
N822 X93.385 Y36.61
N823 X93.61 Y36.336
N824 X93.846 Y36.07
N825 X94.092 Y35.814
N826 X94.348 Y35.567
N827 X94.614 Y35.33
N828 X94.889 Y35.103
N829 X95.172 Y34.886
N830 X95.465 Y34.681
N831 X95.765 Y34.487
N832 X96.073 Y34.304
N833 X96.389 Y34.133
N834 X96.711 Y33.974
N835 X97.039 Y33.827
N836 X97.374 Y33.693
N837 X97.714 Y33.572
N838 X98.059 Y33.464
N839 X98.408 Y33.37
N840 X98.762 Y33.288
N841 X99.118 Y33.221
N842 X99.478 Y33.167
N843 X99.84 Y33.127
N844 X100.204 Y33.101
N845 X100.57 Y33.089
N846 X100.936 Y33.091
N847 X101.302 Y33.107
N848 X101.668 Y33.138
N849 X102.033 Y33.183
N850 X102.397 Y33.242
N851 X102.759 Y33.315
N852 X103.118 Y33.402
N853 X103.474 Y33.503
N854 X103.826 Y33.618
N855 X104.174 Y33.746
N856 X104.517 Y33.888
N857 X104.855 Y34.044
N858 X105.187 Y34.212
N859 X105.513 Y34.394
N860 X105.832 Y34.588
N861 X106.143 Y34.795
N862 X106.447 Y35.014
N863 X106.742 Y35.245
N864 X107.029 Y35.487
N865 X107.306 Y35.741
N866 X107.574 Y36.005
N867 X107.831 Y36.28
N868 X108.078 Y36.565
N869 X108.314 Y36.859
N870 X108.539 Y37.163
N871 X108.752 Y37.476
N872 X108.952 Y37.796
N873 X109.141 Y38.125
N874 X109.317 Y38.461
N875 X109.48 Y38.804
N876 X109.629 Y39.153
N877 X109.765 Y39.508
N878 X109.888 Y39.868
N879 X109.996 Y40.233
N880 X110.091 Y40.603
N881 X110.171 Y40.976
N882 X110.236 Y41.352
N883 X110.287 Y41.731
N884 X110.324 Y42.112
N885 X110.346 Y42.494
N886 X110.353 Y42.877
N887 X110.345 Y43.261
N888 X110.322 Y43.644
N889 X110.284 Y44.026
N890 X110.232 Y44.407
N891 X110.165 Y44.786
N892 X110.083 Y45.163
N893 X109.987 Y45.536
N894 X109.876 Y45.906
N895 X109.751 Y46.272
N896 X109.611 Y46.632
N897 X109.458 Y46.988
N898 X109.291 Y47.338
N899 X109.11 Y47.681
N900 X108.916 Y48.017
N901 X108.709 Y48.346
N902 X108.489 Y48.667
N903 X108.257 Y48.98
N904 X108.012 Y49.284
N905 X107.756 Y49.578
N906 X107.488 Y49.863
N907 X107.209 Y50.137
N908 X106.919 Y50.401
N909 X106.619 Y50.653
N910 X106.309 Y50.894
N911 X105.99 Y51.123
N912 X105.661 Y51.34
N913 X105.324 Y51.544
N914 X104.979 Y51.735
N915 X104.776 Y51.838
N916 X104.42 Y52.008
N917 X104.058 Y52.165
N918 X103.689 Y52.307
N919 X103.314 Y52.435
N920 X102.934 Y52.549
N921 X102.549 Y52.649
N922 X102.161 Y52.733
N923 X101.769 Y52.802
N924 X101.374 Y52.857
N925 X100.976 Y52.896
N926 X100.577 Y52.919
N927 X100.177 Y52.928
N928 X99.776 Y52.92
N929 X99.375 Y52.897
N930 X98.974 Y52.859
N931 X98.575 Y52.805
N932 X98.178 Y52.736
N933 X97.783 Y52.651
N934 X97.4 Y52.553
N935 X97.011 Y52.438
N936 X96.626 Y52.307
N937 X96.246 Y52.161
N938 X95.872 Y52.001
N939 X95.504 Y51.826
N940 X95.142 Y51.637
N941 X94.788 Y51.434
N942 X94.442 Y51.217
N943 X94.104 Y50.986
N944 X93.775 Y50.743
N945 X93.455 Y50.487
N946 X93.144 Y50.218
N947 X92.845 Y49.937
N948 X92.556 Y49.644
N949 X92.278 Y49.34
N950 X92.012 Y49.026
N951 X91.758 Y48.701
N952 X91.516 Y48.366
N953 X91.287 Y48.021
N954 X91.072 Y47.668
N955 X90.87 Y47.306
N956 X90.683 Y46.936
N957 X90.509 Y46.559
N958 X90.35 Y46.175
N959 X90.206 Y45.785
N960 X90.077 Y45.389
N961 X89.963 Y44.988
N962 X89.865 Y44.583
N963 X89.782 Y44.174
N964 X89.715 Y43.761
N965 X89.664 Y43.346
N966 X89.63 Y42.929
N967 X89.611 Y42.511
N968 X89.608 Y42.092
N969 X89.622 Y41.672
N970 X89.652 Y41.253
N971 X89.698 Y40.836
N972 X89.761 Y40.42
N973 X89.839 Y40.006
N974 X89.933 Y39.596
N975 X90.044 Y39.189
N976 X90.17 Y38.786
N977 X90.311 Y38.388
N978 X90.468 Y37.996
N979 X90.641 Y37.61
N980 X90.828 Y37.23
N981 X91.03 Y36.858
N982 X91.246 Y36.494
N983 X91.476 Y36.137
N984 X91.72 Y35.79
N985 X91.978 Y35.452
N986 X92.249 Y35.124
N987 X92.532 Y34.807
N988 X92.828 Y34.5
N989 X93.136 Y34.205
N990 X93.455 Y33.922
N991 X93.785 Y33.651
N992 X94.126 Y33.392
N993 X94.477 Y33.147
N994 X94.837 Y32.915
N995 X95.207 Y32.697
N996 X95.585 Y32.493
N997 X95.972 Y32.304
N998 X96.366 Y32.13
N999 X96.766 Y31.971
N1000 X97.173 Y31.827
N1001 X97.586 Y31.699
N1002 X98.005 Y31.587
N1003 X98.427 Y31.491
N1004 X98.854 Y31.411
N1005 X99.284 Y31.348
N1006 X99.717 Y31.301
N1007 X100.151 Y31.271
N1008 X100.587 Y31.258
N1009 X101.024 Y31.262
N1010 X101.461 Y31.283
N1011 X101.898 Y31.32
N1012 X102.333 Y31.375
N1013 X102.766 Y31.446
N1014 X103.197 Y31.535
N1015 X103.624 Y31.639
N1016 X104.048 Y31.761
N1017 X104.467 Y31.899
N1018 X104.881 Y32.053
N1019 X105.289 Y32.224
N1020 X105.691 Y32.41
N1021 X106.085 Y32.612
N1022 X106.472 Y32.829
N1023 X106.851 Y33.061
N1024 X107.221 Y33.308
N1025 X107.581 Y33.569
N1026 X107.932 Y33.845
N1027 X108.272 Y34.134
N1028 X108.6 Y34.436
N1029 X108.918 Y34.751
N1030 X109.223 Y35.078
N1031 X109.515 Y35.417
N1032 X109.794 Y35.768
N1033 X110.06 Y36.13
N1034 X110.312 Y36.501
N1035 X110.433 Y36.695
N1036 X110.662 Y37.081
N1037 X110.878 Y37.476
N1038 X111.077 Y37.879
N1039 X111.262 Y38.29
N1040 X111.43 Y38.708
N1041 X111.582 Y39.133
N1042 X111.718 Y39.564
N1043 X111.837 Y40
N1044 X111.94 Y40.441
N1045 X112.025 Y40.885
N1046 X112.093 Y41.333
N1047 X112.144 Y41.784
N1048 X112.177 Y42.236
N1049 X112.193 Y42.69
N1050 X112.191 Y43.145
N1051 X112.171 Y43.6
N1052 X112.134 Y44.053
N1053 X112.08 Y44.506
N1054 X112.008 Y44.956
N1055 X111.918 Y45.404
N1056 X111.812 Y45.848
N1057 X111.688 Y46.288
N1058 X111.547 Y46.723
N1059 X111.389 Y47.153
N1060 X111.214 Y47.577
N1061 X111.023 Y47.994
N1062 X110.816 Y48.404
N1063 X110.593 Y48.806
N1064 X110.355 Y49.199
N1065 X110.101 Y49.583
N1066 X109.832 Y49.957
N1067 X109.549 Y50.322
N1068 X109.251 Y50.675
N1069 X108.94 Y51.016
N1070 X108.616 Y51.346
N1071 X108.279 Y51.663
N1072 X107.929 Y51.968
N1073 X107.575 Y52.252
N1074 X107.2 Y52.531
N1075 X106.815 Y52.794
N1076 X106.42 Y53.043
N1077 X106.015 Y53.276
N1078 X105.602 Y53.493
N1079 X105.18 Y53.695
N1080 X104.751 Y53.88
N1081 X104.314 Y54.048
N1082 X103.871 Y54.2
N1083 X103.422 Y54.334
N1084 X102.967 Y54.451
N1085 X102.508 Y54.551
N1086 X102.045 Y54.633
N1087 X101.579 Y54.697
N1088 X101.109 Y54.742
N1089 X100.638 Y54.77
N1090 X100.166 Y54.78
N1091 X99.693 Y54.771
N1092 X99.222 Y54.744
N1093 X98.752 Y54.699
N1094 X98.282 Y54.635
N1095 X97.815 Y54.553
N1096 X97.35 Y54.453
N1097 X96.889 Y54.335
N1098 X96.432 Y54.199
N1099 X95.981 Y54.046
N1100 X95.535 Y53.875
N1101 X95.095 Y53.686
N1102 X94.663 Y53.48
N1103 X94.238 Y53.258
N1104 X93.822 Y53.019
N1105 X93.415 Y52.764
N1106 X93.018 Y52.493
N1107 X92.632 Y52.207
N1108 X92.256 Y51.906
N1109 X91.892 Y51.59
N1110 X91.54 Y51.26
N1111 X91.2 Y50.916
N1112 X90.874 Y50.559
N1113 X90.562 Y50.189
N1114 X90.264 Y49.807
N1115 X89.98 Y49.414
N1116 X89.712 Y49.009
N1117 X89.459 Y48.595
N1118 X89.223 Y48.17
N1119 X89.003 Y47.736
N1120 X88.799 Y47.293
N1121 X88.613 Y46.843
N1122 X88.444 Y46.385
N1123 X88.293 Y45.921
N1124 X88.16 Y45.451
N1125 X88.045 Y44.976
N1126 X87.948 Y44.496
N1127 X87.87 Y44.013
N1128 X87.81 Y43.526
N1129 X87.77 Y43.037
N1130 X87.748 Y42.547
N1131 X87.745 Y42.056
N1132 X87.762 Y41.564
N1133 X87.797 Y41.074
N1134 X87.851 Y40.585
N1135 X87.925 Y40.097
N1136 X88.017 Y39.613
N1137 X88.127 Y39.132
N1138 X88.257 Y38.656
N1139 X88.404 Y38.185
N1140 X88.57 Y37.719
N1141 X88.754 Y37.26
N1142 X88.94 Y36.844
N1143 X89.158 Y36.4
N1144 X89.392 Y35.964
N1145 X89.644 Y35.537
N1146 X89.912 Y35.12
N1147 X90.196 Y34.713
N1148 X90.496 Y34.317
N1149 X90.811 Y33.932
N1150 X91.142 Y33.56
N1151 X91.486 Y33.201
N1152 X91.845 Y32.854
N1153 X92.217 Y32.522
N1154 X92.603 Y32.204
N1155 X93 Y31.9
N1156 X93.409 Y31.612
N1157 X93.83 Y31.34
N1158 X94.261 Y31.084
N1159 X94.703 Y30.845
N1160 X95.153 Y30.622
N1161 X95.613 Y30.417
N1162 X96.08 Y30.23
N1163 X96.555 Y30.061
N1164 X97.037 Y29.91
N1165 X97.525 Y29.778
N1166 X98.018 Y29.664
N1167 X98.515 Y29.57
N1168 X99.017 Y29.494
N1169 X99.521 Y29.438
N1170 X100.028 Y29.402
N1171 X100.536 Y29.385
N1172 X101.046 Y29.388
N1173 X101.555 Y29.411
N1174 X102.064 Y29.453
N1175 X102.571 Y29.515
N1176 X103.076 Y29.597
N1177 X103.578 Y29.698
N1178 X104.076 Y29.819
N1179 X104.569 Y29.958
N1180 X105.058 Y30.118
N1181 X105.54 Y30.296
N1182 X106.016 Y30.492
N1183 X106.484 Y30.708
N1184 X106.944 Y30.941
N1185 X107.395 Y31.192
N1186 X107.836 Y31.461
N1187 X108.267 Y31.747
N1188 X108.687 Y32.05
N1189 X109.095 Y32.369
N1190 X109.491 Y32.703
N1191 X109.875 Y33.053
N1192 X110.244 Y33.418
N1193 X110.586 Y33.783
N1194 X110.93 Y34.179
N1195 X111.258 Y34.588
N1196 X111.569 Y35.009
N1197 X111.864 Y35.442
N1198 X112.142 Y35.886
N1199 X112.403 Y36.34
N1200 X112.646 Y36.804
N1201 X112.871 Y37.277
N1202 X113.078 Y37.759
N1203 X113.266 Y38.249
N1204 X113.434 Y38.745
N1205 X113.584 Y39.249
N1206 X113.714 Y39.758
N1207 X113.825 Y40.271
N1208 X113.915 Y40.789
N1209 X113.986 Y41.311
N1210 X114.036 Y41.835
N1211 X114.066 Y42.361
N1212 X114.076 Y42.888
N1213 X114.065 Y43.416
N1214 X114.034 Y43.943
N1215 X113.983 Y44.469
N1216 X113.911 Y44.992
N1217 X113.819 Y45.513
N1218 X113.707 Y46.031
N1219 X113.574 Y46.544
N1220 X113.422 Y47.052
N1221 X113.25 Y47.554
N1222 X113.059 Y48.049
N1223 X112.849 Y48.537
N1224 X112.62 Y49.017
N1225 X112.372 Y49.488
N1226 X112.106 Y49.95
N1227 X111.822 Y50.401
N1228 X111.521 Y50.841
N1229 X111.202 Y51.27
N1230 X110.867 Y51.686
N1231 X110.517 Y52.088
N1232 X110.151 Y52.477
N1233 X109.769 Y52.853
N1234 X109.373 Y53.214
N1235 X108.962 Y53.559
N1236 X108.538 Y53.889
N1237 X108.101 Y54.203
N1238 X107.652 Y54.5
N1239 X107.262 Y54.736
N1240 X106.794 Y55
N1241 X106.315 Y55.246
N1242 X105.827 Y55.474
N1243 X105.329 Y55.682
N1244 X104.823 Y55.872
N1245 X104.31 Y56.042
N1246 X103.79 Y56.192
N1247 X103.264 Y56.322
N1248 X102.732 Y56.432
N1249 X102.196 Y56.522
N1250 X101.657 Y56.59
N1251 X101.115 Y56.638
N1252 X100.572 Y56.665
N1253 X100.027 Y56.671
N1254 X99.481 Y56.655
N1255 X98.936 Y56.619
N1256 X98.392 Y56.561
N1257 X97.85 Y56.483
N1258 X97.312 Y56.383
N1259 X96.776 Y56.263
N1260 X96.246 Y56.121
N1261 X95.72 Y55.959
N1262 X95.201 Y55.777
N1263 X94.688 Y55.575
N1264 X94.184 Y55.353
N1265 X93.688 Y55.111
N1266 X93.201 Y54.85
N1267 X92.724 Y54.57
N1268 X92.258 Y54.271
N1269 X91.803 Y53.955
N1270 X91.36 Y53.621
N1271 X90.931 Y53.269
N1272 X90.515 Y52.901
N1273 X90.113 Y52.517
N1274 X89.726 Y52.118
N1275 X89.354 Y51.703
N1276 X88.998 Y51.274
N1277 X88.659 Y50.831
N1278 X88.338 Y50.375
N1279 X88.033 Y49.906
N1280 X87.747 Y49.426
N1281 X87.479 Y48.934
N1282 X87.231 Y48.433
N1283 X87.002 Y47.921
N1284 X86.792 Y47.401
N1285 X86.603 Y46.873
N1286 X86.434 Y46.337
N1287 X86.286 Y45.795
N1288 X86.159 Y45.247
N1289 X86.053 Y44.694
N1290 X85.969 Y44.137
N1291 X85.906 Y43.577
N1292 X85.864 Y43.014
N1293 X85.845 Y42.45
N1294 X85.847 Y41.886
N1295 X85.871 Y41.321
N1296 X85.917 Y40.758
N1297 X85.985 Y40.196
N1298 X86.074 Y39.637
N1299 X86.185 Y39.081
N1300 X86.317 Y38.533
N1301 X86.472 Y37.986
N1302 X86.647 Y37.445
N1303 X86.843 Y36.911
N1304 X87.06 Y36.385
N1305 X87.297 Y35.868
N1306 X87.553 Y35.36
N1307 X87.83 Y34.862
N1308 X88.125 Y34.375
N1309 X88.44 Y33.899
N1310 X88.772 Y33.436
N1311 X89.123 Y32.985
N1312 X89.491 Y32.548
N1313 X89.876 Y32.125
N1314 X90.277 Y31.718
N1315 X90.694 Y31.325
N1316 X91.127 Y30.949
N1317 X91.574 Y30.59
N1318 X92.034 Y30.248
N1319 X92.509 Y29.923
N1320 X92.995 Y29.617
N1321 X93.494 Y29.33
N1322 X94.004 Y29.062
N1323 X94.524 Y28.814
N1324 X95.054 Y28.585
N1325 X95.593 Y28.378
N1326 X96.14 Y28.191
N1327 X96.694 Y28.025
N1328 X97.255 Y27.88
N1329 X97.701 Y27.784
N1330 X98.271 Y27.678
N1331 X98.846 Y27.595
N1332 X99.424 Y27.533
N1333 X100.004 Y27.494
N1334 X100.586 Y27.478
N1335 X101.169 Y27.484
N1336 X101.752 Y27.512
N1337 X102.334 Y27.564
N1338 X102.914 Y27.637
N1339 X103.491 Y27.733
N1340 X104.065 Y27.852
N1341 X104.634 Y27.993
N1342 X105.198 Y28.155
N1343 X105.756 Y28.34
N1344 X106.307 Y28.546
N1345 X106.849 Y28.774
N1346 X107.383 Y29.022
N1347 X107.908 Y29.291
N1348 X108.422 Y29.581
N1349 X108.925 Y29.891
N1350 X109.416 Y30.22
N1351 X109.894 Y30.568
N1352 X110.356 Y30.932
N1353 X110.805 Y31.315
N1354 X111.239 Y31.716
N1355 X111.659 Y32.134
N1356 X112.063 Y32.569
N1357 X112.451 Y33.02
N1358 X112.821 Y33.486
N1359 X113.173 Y33.967
N1360 X113.507 Y34.461
N1361 X113.821 Y34.968
N1362 X114.116 Y35.487
N1363 X114.391 Y36.018
N1364 X114.645 Y36.559
N1365 X114.878 Y37.109
N1366 X115.09 Y37.669
N1367 X115.28 Y38.237
N1368 X115.448 Y38.811
N1369 X115.594 Y39.393
N1370 X115.717 Y39.98
N1371 X115.817 Y40.571
N1372 X115.895 Y41.166
N1373 X115.95 Y41.764
N1374 X115.981 Y42.365
N1375 X115.99 Y42.966
N1376 X115.975 Y43.567
N1377 X115.936 Y44.168
N1378 X115.875 Y44.767
N1379 X115.79 Y45.364
N1380 X115.682 Y45.958
N1381 X115.552 Y46.547
N1382 X115.398 Y47.131
N1383 X115.222 Y47.709
N1384 X115.024 Y48.281
N1385 X114.803 Y48.844
N1386 X114.561 Y49.399
N1387 X114.297 Y49.945
N1388 X114.012 Y50.48
N1389 X113.707 Y51.004
N1390 X113.381 Y51.517
N1391 X113.036 Y52.016
N1392 X112.671 Y52.502
N1393 X112.288 Y52.974
N1394 X111.886 Y53.432
N1395 X111.466 Y53.873
N1396 X111.03 Y54.299
N1397 X110.576 Y54.708
N1398 X110.11 Y55.097
N1399 X109.624 Y55.471
N1400 X109.123 Y55.827
N1401 X108.61 Y56.163
N1402 X108.083 Y56.479
N1403 X107.545 Y56.774
N1404 X106.996 Y57.048
N1405 X106.436 Y57.301
N1406 X105.866 Y57.533
N1407 X105.288 Y57.742
N1408 X104.701 Y57.929
N1409 X104.107 Y58.093
N1410 X103.507 Y58.235
N1411 X102.901 Y58.353
N1412 X102.291 Y58.447
N1413 X101.838 Y58.5
N1414 X101.225 Y58.553
N1415 X100.609 Y58.583
N1416 X99.991 Y58.59
N1417 X99.372 Y58.572
N1418 X98.754 Y58.53
N1419 X98.137 Y58.465
N1420 X97.523 Y58.375
N1421 X96.911 Y58.262
N1422 X96.304 Y58.125
N1423 X95.702 Y57.965
N1424 X95.106 Y57.781
N1425 X94.517 Y57.574
N1426 X93.935 Y57.344
N1427 X93.363 Y57.092
N1428 X92.8 Y56.817
N1429 X92.248 Y56.521
N1430 X91.707 Y56.203
N1431 X91.179 Y55.864
N1432 X90.663 Y55.505
N1433 X90.162 Y55.126
N1434 X89.675 Y54.727
N1435 X89.203 Y54.31
N1436 X88.748 Y53.874
N1437 X88.309 Y53.421
N1438 X87.888 Y52.951
N1439 X87.485 Y52.464
N1440 X87.101 Y51.962
N1441 X86.737 Y51.445
N1442 X86.392 Y50.914
N1443 X86.068 Y50.369
N1444 X85.765 Y49.812
N1445 X85.484 Y49.244
N1446 X85.224 Y48.664
N1447 X84.987 Y48.075
N1448 X84.773 Y47.476
N1449 X84.582 Y46.869
N1450 X84.415 Y46.255
N1451 X84.271 Y45.635
N1452 X84.151 Y45.009
N1453 X84.056 Y44.378
N1454 X83.985 Y43.744
N1455 X83.938 Y43.107
N1456 X83.917 Y42.469
N1457 X83.92 Y41.83
N1458 X83.947 Y41.191
N1459 X83.999 Y40.553
N1460 X84.076 Y39.918
N1461 X84.178 Y39.285
N1462 X84.304 Y38.656
N1463 X84.454 Y38.033
N1464 X84.629 Y37.415
N1465 X84.827 Y36.804
N1466 X85.049 Y36.2
N1467 X85.294 Y35.606
N1468 X85.562 Y35.021
N1469 X85.853 Y34.446
N1470 X86.166 Y33.883
N1471 X86.5 Y33.332
N1472 X86.856 Y32.795
N1473 X87.233 Y32.271
N1474 X87.63 Y31.761
N1475 X88.046 Y31.267
N1476 X88.482 Y30.79
N1477 X88.936 Y30.329
N1478 X89.407 Y29.886
N1479 X89.896 Y29.461
N1480 X90.402 Y29.054
N1481 X90.923 Y28.668
N1482 X91.459 Y28.301
N1483 X92.009 Y27.956
N1484 X92.572 Y27.631
N1485 X93.149 Y27.329
N1486 X93.737 Y27.048
N1487 X94.335 Y26.791
N1488 X94.927 Y26.563
N1489 X95.549 Y26.351
N1490 X96.178 Y26.163
N1491 X96.814 Y25.999
N1492 X97.259 Y25.903
N1493 X97.897 Y25.782
N1494 X98.542 Y25.685
N1495 X99.19 Y25.613
N1496 X99.843 Y25.566
N1497 X100.497 Y25.544
N1498 X101.153 Y25.548
N1499 X101.81 Y25.576
N1500 X102.465 Y25.631
N1501 X103.119 Y25.711
N1502 X103.77 Y25.816
N1503 X104.417 Y25.946
N1504 X105.059 Y26.101
N1505 X105.696 Y26.282
N1506 X106.325 Y26.487
N1507 X106.947 Y26.716
N1508 X107.559 Y26.969
N1509 X108.162 Y27.246
N1510 X108.755 Y27.547
N1511 X109.336 Y27.87
N1512 X109.903 Y28.216
N1513 X110.457 Y28.583
N1514 X110.997 Y28.971
N1515 X111.521 Y29.381
N1516 X112.03 Y29.811
N1517 X112.523 Y30.261
N1518 X112.998 Y30.73
N1519 X113.456 Y31.218
N1520 X113.894 Y31.723
N1521 X114.314 Y32.246
N1522 X114.712 Y32.784
N1523 X115.09 Y33.339
N1524 X115.447 Y33.907
N1525 X115.782 Y34.49
N1526 X116.094 Y35.085
N1527 X116.382 Y35.692
N1528 X116.648 Y36.311
N1529 X116.889 Y36.939
N1530 X117.106 Y37.577
N1531 X117.298 Y38.223
N1532 X117.466 Y38.876
N1533 X117.608 Y39.535
N1534 X117.724 Y40.2
N1535 X117.815 Y40.869
N1536 X117.879 Y41.542
N1537 X117.918 Y42.217
N1538 X117.931 Y42.893
N1539 X117.917 Y43.569
N1540 X117.878 Y44.245
N1541 X117.812 Y44.92
N1542 X117.72 Y45.591
N1543 X117.602 Y46.259
N1544 X117.458 Y46.922
N1545 X117.289 Y47.58
N1546 X117.094 Y48.231
N1547 X116.874 Y48.874
N1548 X116.63 Y49.509
N1549 X116.36 Y50.134
N1550 X116.067 Y50.749
N1551 X115.75 Y51.352
N1552 X115.41 Y51.942
N1553 X115.047 Y52.52
N1554 X114.661 Y53.083
N1555 X114.254 Y53.631
N1556 X113.826 Y54.164
N1557 X113.377 Y54.68
N1558 X112.909 Y55.178
N1559 X112.42 Y55.658
N1560 X111.913 Y56.12
N1561 X111.388 Y56.562
N1562 X110.846 Y56.985
N1563 X110.287 Y57.386
N1564 X109.713 Y57.765
N1565 X109.125 Y58.122
N1566 X108.523 Y58.456
N1567 X108.116 Y58.662
N1568 X107.495 Y58.957
N1569 X106.863 Y59.227
N1570 X106.22 Y59.474
N1571 X105.567 Y59.695
N1572 X104.905 Y59.892
N1573 X104.245 Y60.06
N1574 X103.564 Y60.206
N1575 X102.879 Y60.325
N1576 X102.191 Y60.418
N1577 X101.499 Y60.484
N1578 X100.806 Y60.523
N1579 X100.111 Y60.536
N1580 X99.416 Y60.521
N1581 X98.722 Y60.48
N1582 X98.029 Y60.412
N1583 X97.339 Y60.317
N1584 X96.652 Y60.195
N1585 X95.97 Y60.046
N1586 X95.294 Y59.872
N1587 X94.625 Y59.671
N1588 X93.963 Y59.444
N1589 X93.31 Y59.192
N1590 X92.667 Y58.914
N1591 X92.034 Y58.611
N1592 X91.413 Y58.284
N1593 X90.805 Y57.933
N1594 X90.21 Y57.558
N1595 X89.63 Y57.161
N1596 X89.065 Y56.74
N1597 X88.517 Y56.298
N1598 X87.985 Y55.835
N1599 X87.472 Y55.352
N1600 X86.977 Y54.848
N1601 X86.502 Y54.325
N1602 X86.047 Y53.784
N1603 X85.613 Y53.226
N1604 X85.2 Y52.65
N1605 X84.81 Y52.059
N1606 X84.443 Y51.453
N1607 X84.099 Y50.833
N1608 X83.78 Y50.199
N1609 X83.485 Y49.553
N1610 X83.215 Y48.896
N1611 X82.97 Y48.228
N1612 X82.751 Y47.551
N1613 X82.559 Y46.866
N1614 X82.393 Y46.174
N1615 X82.254 Y45.475
N1616 X82.141 Y44.771
N1617 X82.057 Y44.062
N1618 X81.999 Y43.351
N1619 X81.969 Y42.637
N1620 X81.967 Y41.923
N1621 X81.992 Y41.209
N1622 X82.045 Y40.495
N1623 X82.126 Y39.784
N1624 X82.234 Y39.076
N1625 X82.369 Y38.373
N1626 X82.532 Y37.674
N1627 X82.722 Y36.982
N1628 X82.938 Y36.298
N1629 X83.181 Y35.622
N1630 X83.449 Y34.956
N1631 X83.744 Y34.3
N1632 X84.064 Y33.656
N1633 X84.408 Y33.025
N1634 X84.777 Y32.406
N1635 X85.17 Y31.803
N1636 X85.586 Y31.214
N1637 X86.025 Y30.642
N1638 X86.486 Y30.087
N1639 X86.79 Y29.747
N1640 X87.28 Y29.226
N1641 X87.791 Y28.723
N1642 X88.322 Y28.238
N1643 X88.873 Y27.774
N1644 X89.442 Y27.331
N1645 X90.029 Y26.909
N1646 X90.632 Y26.51
N1647 X91.251 Y26.133
N1648 X91.882 Y25.783
N1649 X92.527 Y25.456
N1650 X93.187 Y25.154
N1651 X93.859 Y24.877
N1652 X94.517 Y24.634
N1653 X95.221 Y24.406
N1654 X95.931 Y24.205
N1655 X96.646 Y24.033
N1656 X97.366 Y23.889
N1657 X98.09 Y23.772
N1658 X98.817 Y23.684
N1659 X99.548 Y23.624
N1660 X100.28 Y23.592
N1661 X101.013 Y23.589
N1662 X101.746 Y23.614
N1663 X102.479 Y23.667
N1664 X103.209 Y23.749
N1665 X103.936 Y23.859
N1666 X104.658 Y23.997
N1667 X105.376 Y24.163
N1668 X106.087 Y24.357
N1669 X106.79 Y24.578
N1670 X107.485 Y24.827
N1671 X108.17 Y25.102
N1672 X108.845 Y25.404
N1673 X109.507 Y25.732
N1674 X110.157 Y26.085
N1675 X110.793 Y26.464
N1676 X111.414 Y26.866
N1677 X112.02 Y27.294
N1678 X112.609 Y27.744
N1679 X113.181 Y28.217
N1680 X113.734 Y28.713
N1681 X114.269 Y29.23
N1682 X114.783 Y29.767
N1683 X115.277 Y30.325
N1684 X115.749 Y30.902
N1685 X116.199 Y31.496
N1686 X116.625 Y32.109
N1687 X117.028 Y32.737
N1688 X117.407 Y33.381
N1689 X117.76 Y34.04
N1690 X118.088 Y34.712
N1691 X118.39 Y35.397
N1692 X118.666 Y36.093
N1693 X118.914 Y36.8
N1694 X119.135 Y37.516
N1695 X119.328 Y38.241
N1696 X119.494 Y38.973
N1697 X119.63 Y39.711
N1698 X119.739 Y40.454
N1699 X119.818 Y41.201
N1700 X119.869 Y41.951
N1701 X119.89 Y42.703
N1702 X119.883 Y43.455
N1703 X119.846 Y44.207
N1704 X119.78 Y44.957
N1705 X119.686 Y45.705
N1706 X119.562 Y46.449
N1707 X119.41 Y47.188
N1708 X119.3 Y47.63
N1709 X119.107 Y48.348
N1710 X118.885 Y49.061
N1711 X118.635 Y49.767
N1712 X118.357 Y50.465
N1713 X118.051 Y51.153
N1714 X117.718 Y51.831
N1715 X117.359 Y52.495
N1716 X116.975 Y53.147
N1717 X116.564 Y53.783
N1718 X116.129 Y54.404
N1719 X115.671 Y55.007
N1720 X115.188 Y55.594
N1721 X114.683 Y56.161
N1722 X114.156 Y56.709
N1723 X113.608 Y57.237
N1724 X113.039 Y57.744
N1725 X112.45 Y58.229
N1726 X111.843 Y58.691
N1727 X111.233 Y59.118
N1728 X110.586 Y59.536
N1729 X109.924 Y59.927
N1730 X109.248 Y60.293
N1731 X108.559 Y60.631
N1732 X107.858 Y60.943
N1733 X107.148 Y61.226
N1734 X106.425 Y61.482
N1735 X105.693 Y61.711
N1736 X104.951 Y61.911
N1737 X104.201 Y62.083
N1738 X103.445 Y62.225
N1739 X102.684 Y62.338
N1740 X101.919 Y62.422
N1741 X101.15 Y62.476
N1742 X100.38 Y62.5
N1743 X99.609 Y62.495
N1744 X98.838 Y62.46
N1745 X98.068 Y62.394
N1746 X97.301 Y62.3
N1747 X96.538 Y62.175
N1748 X95.78 Y62.021
N1749 X95.028 Y61.838
N1750 X94.282 Y61.625
N1751 X93.545 Y61.384
N1752 X92.818 Y61.114
N1753 X92.101 Y60.816
N1754 X91.395 Y60.49
N1755 X90.702 Y60.137
N1756 X90.023 Y59.758
N1757 X89.358 Y59.351
N1758 X88.71 Y58.92
N1759 X88.077 Y58.463
N1760 X87.463 Y57.982
N1761 X86.867 Y57.477
N1762 X86.291 Y56.949
N1763 X85.736 Y56.399
N1764 X85.202 Y55.827
N1765 X84.69 Y55.235
N1766 X84.2 Y54.623
N1767 X83.735 Y53.993
N1768 X83.294 Y53.344
N1769 X82.879 Y52.678
N1770 X82.489 Y51.997
N1771 X82.125 Y51.3
N1772 X81.789 Y50.59
N1773 X81.48 Y49.867
N1774 X81.317 Y49.441
N1775 X81.053 Y48.703
N1776 X80.818 Y47.954
N1777 X80.612 Y47.196
N1778 X80.434 Y46.429
N1779 X80.287 Y45.655
N1780 X80.169 Y44.876
N1781 X80.081 Y44.092
N1782 X80.024 Y43.304
N1783 X79.997 Y42.515
N1784 X80.001 Y41.724
N1785 X80.036 Y40.934
N1786 X80.101 Y40.145
N1787 X80.196 Y39.359
N1788 X80.322 Y38.577
N1789 X80.478 Y37.8
N1790 X80.664 Y37.029
N1791 X80.88 Y36.265
N1792 X81.125 Y35.51
N1793 X81.4 Y34.765
N1794 X81.703 Y34.03
N1795 X82.035 Y33.307
N1796 X82.394 Y32.598
N1797 X82.781 Y31.902
N1798 X83.194 Y31.222
N1799 X83.634 Y30.558
N1800 X84.104 Y29.905
N1801 X84.596 Y29.273
N1802 X85.112 Y28.662
N1803 X85.65 Y28.072
N1804 X86.211 Y27.503
N1805 X86.793 Y26.957
N1806 X87.396 Y26.433
N1807 X88.019 Y25.932
N1808 X88.661 Y25.457
N1809 X89.321 Y25.006
N1810 X89.998 Y24.581
N1811 X90.692 Y24.182
N1812 X91.397 Y23.812
N1813 X92.118 Y23.468
N1814 X92.856 Y23.151
N1815 X93.607 Y22.862
N1816 X94.37 Y22.602
N1817 X95.144 Y22.371
N1818 X95.926 Y22.17
N1819 X96.716 Y22
N1820 X97.513 Y21.86
N1821 X98.314 Y21.751
N1822 X99.119 Y21.673
N1823 X99.927 Y21.626
N1824 X100.737 Y21.61
N1825 X101.547 Y21.626
N1826 X102.356 Y21.673
N1827 X103.164 Y21.751
N1828 X103.968 Y21.861
N1829 X104.768 Y22.002
N1830 X105.562 Y22.173
N1831 X106.35 Y22.376
N1832 X107.129 Y22.608
N1833 X107.9 Y22.871
N1834 X108.66 Y23.164
N1835 X109.409 Y23.486
N1836 X110.145 Y23.837
N1837 X110.549 Y24.049
N1838 X111.262 Y24.443
N1839 X111.96 Y24.865
N1840 X112.643 Y25.314
N1841 X113.307 Y25.79
N1842 X113.954 Y26.291
N1843 X114.581 Y26.817
N1844 X115.187 Y27.368
N1845 X115.773 Y27.942
N1846 X116.336 Y28.538
N1847 X116.876 Y29.157
N1848 X117.392 Y29.796
N1849 X117.884 Y30.455
N1850 X118.349 Y31.133
N1851 X118.789 Y31.829
N1852 X119.201 Y32.542
N1853 X119.586 Y33.271
N1854 X119.942 Y34.014
N1855 X120.27 Y34.771
N1856 X120.568 Y35.54
N1857 X120.837 Y36.321
N1858 X121.075 Y37.112
N1859 X121.283 Y37.911
N1860 X121.459 Y38.719
N1861 X121.604 Y39.533
N1862 X121.718 Y40.353
N1863 X121.8 Y41.177
N1864 X121.85 Y42.003
N1865 X121.868 Y42.832
N1866 X121.854 Y43.661
N1867 X121.808 Y44.489
N1868 X121.73 Y45.315
N1869 X121.62 Y46.139
N1870 X121.477 Y46.966
N1871 X121.303 Y47.782
N1872 X121.098 Y48.589
N1873 X120.862 Y49.385
N1874 X120.596 Y50.172
N1875 X120.3 Y50.948
N1876 X119.973 Y51.713
N1877 X119.618 Y52.464
N1878 X119.233 Y53.202
N1879 X118.819 Y53.925
N1880 X118.378 Y54.632
N1881 X117.909 Y55.322
N1882 X117.413 Y55.994
N1883 X116.892 Y56.647
N1884 X116.345 Y57.279
N1885 X115.773 Y57.891
N1886 X115.178 Y58.48
N1887 X114.561 Y59.047
N1888 X113.925 Y59.585
N1889 X113.266 Y60.102
N1890 X112.586 Y60.594
N1891 X111.885 Y61.06
N1892 X111.167 Y61.499
N1893 X110.431 Y61.91
N1894 X109.681 Y62.293
N1895 X108.916 Y62.646
N1896 X108.137 Y62.969
N1897 X107.346 Y63.263
N1898 X106.913 Y63.405
N1899 X106.109 Y63.65
N1900 X105.295 Y63.865
N1901 X104.472 Y64.048
N1902 X103.642 Y64.2
N1903 X102.805 Y64.319
N1904 X101.964 Y64.406
N1905 X101.119 Y64.461
N1906 X100.273 Y64.482
N1907 X99.425 Y64.471
N1908 X98.578 Y64.428
N1909 X97.733 Y64.351
N1910 X96.89 Y64.242
N1911 X96.052 Y64.1
N1912 X95.22 Y63.926
N1913 X94.394 Y63.72
N1914 X93.577 Y63.481
N1915 X92.768 Y63.212
N1916 X91.971 Y62.91
N1917 X91.185 Y62.578
N1918 X90.411 Y62.216
N1919 X89.652 Y61.824
N1920 X88.909 Y61.402
N1921 X88.181 Y60.952
N1922 X87.471 Y60.474
N1923 X86.78 Y59.968
N1924 X86.108 Y59.436
N1925 X85.457 Y58.877
N1926 X84.828 Y58.294
N1927 X84.222 Y57.686
N1928 X83.639 Y57.055
N1929 X83.08 Y56.402
N1930 X82.547 Y55.727
N1931 X82.04 Y55.031
N1932 X81.56 Y54.316
N1933 X81.108 Y53.583
N1934 X80.684 Y52.833
N1935 X80.3 Y52.085
N1936 X79.932 Y51.295
N1937 X79.595 Y50.494
N1938 X79.29 Y49.683
N1939 X79.017 Y48.861
N1940 X78.777 Y48.029
N1941 X78.568 Y47.189
N1942 X78.393 Y46.342
N1943 X78.25 Y45.488
N1944 X78.14 Y44.629
N1945 X78.063 Y43.766
N1946 X78.02 Y42.9
N1947 X78.01 Y42.033
N1948 X78.034 Y41.166
N1949 X78.092 Y40.299
N1950 X78.183 Y39.436
N1951 X78.307 Y38.576
N1952 X78.464 Y37.721
N1953 X78.655 Y36.872
N1954 X78.878 Y36.031
N1955 X79.134 Y35.199
N1956 X79.422 Y34.377
N1957 X79.589 Y33.953
N1958 X79.92 Y33.157
N1959 X80.283 Y32.372
N1960 X80.677 Y31.599
N1961 X81.102 Y30.839
N1962 X81.557 Y30.095
N1963 X82.041 Y29.368
N1964 X82.554 Y28.66
N1965 X83.093 Y27.971
N1966 X83.659 Y27.304
N1967 X84.25 Y26.66
N1968 X84.866 Y26.038
N1969 X85.506 Y25.441
N1970 X86.168 Y24.868
N1971 X86.852 Y24.322
N1972 X87.558 Y23.802
N1973 X88.282 Y23.31
N1974 X89.025 Y22.846
N1975 X89.786 Y22.411
N1976 X90.564 Y22.005
N1977 X91.359 Y21.629
N1978 X92.169 Y21.284
N1979 X92.992 Y20.969
N1980 X93.828 Y20.687
N1981 X94.675 Y20.437
N1982 X95.002 Y20.354
N1983 X95.13 Y20.327
N1984 X95.261 Y20.31
N1985 X95.392 Y20.305
N1986 X104.141
N1987 X105.016 Y20.349
N1988 X105.455 Y20.388
N1989 X105.959 Y20.453
N1990 X106.467 Y20.539
N1991 X107.041 Y20.658
N1992 X107.662 Y20.813
N1993 X108.284 Y20.994
N1994 X108.951 Y21.216
N1995 X109.637 Y21.474
N1996 X110.351 Y21.775
N1997 X111.082 Y22.117
N1998 X111.819 Y22.497
N1999 X112.556 Y22.914
N2000 X113.287 Y23.365
N2001 X114.009 Y23.851
N2002 X114.716 Y24.367
N2003 X115.408 Y24.915
N2004 X116.081 Y25.491
N2005 X116.733 Y26.095
N2006 X117.364 Y26.725
N2007 X117.971 Y27.381
N2008 X118.553 Y28.061
N2009 X119.109 Y28.764
N2010 X119.639 Y29.489
N2011 X120.14 Y30.235
N2012 X120.613 Y31
N2013 X121.056 Y31.783
N2014 X121.468 Y32.584
N2015 X121.85 Y33.4
N2016 X122.2 Y34.231
N2017 X122.518 Y35.075
N2018 X122.803 Y35.931
N2019 X123.055 Y36.798
N2020 X123.273 Y37.675
N2021 X123.457 Y38.56
N2022 X123.607 Y39.451
N2023 X123.723 Y40.348
N2024 X123.803 Y41.25
N2025 X123.849 Y42.154
N2026 X123.86 Y43.06
N2027 X123.836 Y43.966
N2028 X123.777 Y44.873
N2029 X123.682 Y45.778
N2030 X123.553 Y46.678
N2031 X123.389 Y47.572
N2032 X123.19 Y48.459
N2033 X122.958 Y49.338
N2034 X122.692 Y50.206
N2035 X122.392 Y51.064
N2036 X122.06 Y51.909
N2037 X121.695 Y52.742
N2038 X121.297 Y53.56
N2039 X120.869 Y54.363
N2040 X120.409 Y55.149
N2041 X119.919 Y55.917
N2042 X119.399 Y56.665
N2043 X118.851 Y57.394
N2044 X118.274 Y58.101
N2045 X117.671 Y58.785
N2046 X117.042 Y59.445
N2047 X116.388 Y60.08
N2048 X115.71 Y60.69
N2049 X115.009 Y61.273
N2050 X114.286 Y61.828
N2051 X113.543 Y62.356
N2052 X112.779 Y62.854
N2053 X111.997 Y63.323
N2054 X111.198 Y63.762
N2055 X110.382 Y64.169
N2056 X109.887 Y64.393
N2057 X109.677 Y64.471
N2058 X109.457 Y64.518
N2059 X109.233 Y64.534
N2060 X92.96
N2061 X92.504 Y64.511
N2062 X92.234 Y64.487
N2063 X91.939 Y64.45
N2064 X91.631 Y64.398
N2065 X91.276 Y64.324
N2066 X90.91 Y64.233
N2067 X90.495 Y64.113
N2068 X90.06 Y63.968
N2069 X89.567 Y63.783
N2070 X89.069 Y63.574
N2071 X88.51 Y63.313
N2072 X87.916 Y63.007
N2073 X87.322 Y62.671
N2074 X86.688 Y62.28
N2075 X86.031 Y61.839
N2076 X85.363 Y61.351
N2077 X84.693 Y60.822
N2078 X84.028 Y60.254
N2079 X83.375 Y59.65
N2080 X82.74 Y59.015
N2081 X82.124 Y58.351
N2082 X81.531 Y57.658
N2083 X80.964 Y56.944
N2084 X80.426 Y56.208
N2085 X79.916 Y55.452
N2086 X79.435 Y54.678
N2087 X78.983 Y53.885
N2088 X78.562 Y53.077
N2089 X78.172 Y52.253
N2090 X77.812 Y51.415
N2091 X77.484 Y50.564
N2092 X77.189 Y49.701
N2093 X76.925 Y48.828
N2094 X76.695 Y47.946
N2095 X76.498 Y47.056
N2096 X76.334 Y46.159
N2097 X76.203 Y45.257
N2098 X76.107 Y44.35
N2099 X76.044 Y43.44
N2100 X76.015 Y42.529
N2101 X76.021 Y41.617
N2102 X76.06 Y40.706
N2103 X76.133 Y39.797
N2104 X76.24 Y38.892
N2105 X76.38 Y37.991
N2106 X76.554 Y37.096
N2107 X76.761 Y36.208
N2108 X76.995 Y35.35
N2109 X77.269 Y34.48
N2110 X77.574 Y33.621
N2111 X77.91 Y32.774
N2112 X78.277 Y31.939
N2113 X78.675 Y31.118
N2114 X79.103 Y30.313
N2115 X79.56 Y29.524
N2116 X80.046 Y28.753
N2117 X80.561 Y28
N2118 X81.102 Y27.267
N2119 X81.671 Y26.554
N2120 X82.265 Y25.863
N2121 X82.885 Y25.194
N2122 X83.529 Y24.548
N2123 X84.197 Y23.927
N2124 X84.887 Y23.331
N2125 X85.599 Y22.762
N2126 X86.332 Y22.219
N2127 X87.084 Y21.704
N2128 X87.855 Y21.217
N2129 X88.643 Y20.759
N2130 X89.145 Y20.491
N2131 X89.382 Y20.389
N2132 X89.633 Y20.326
N2133 X89.891 Y20.305
N2134 X95.392
N2135 G3 X95.633 Y20.362 I-0.022 J0.635
N2136 G1 X95.704 Y20.394 Z-1.992
N2137 X95.773 Y20.425 Z-1.97
N2138 X95.836 Y20.454 Z-1.933
N2139 X95.891 Y20.479 Z-1.883
N2140 X95.936 Y20.5 Z-1.822
N2141 X95.97 Y20.515 Z-1.753
N2142 X95.99 Y20.524 Z-1.678
N2143 X95.997 Y20.528 Z-1.6
N2144 G0 Z5
N2145 X93.219 Y63.977
N2146 Z-1.2
N2147 G1 Z-1.6 F1524
N2148 X93.217 Y63.985 Z-1.678
N2149 X93.213 Y64.007 Z-1.753
N2150 X93.207 Y64.044 Z-1.822
N2151 X93.198 Y64.093 Z-1.883
N2152 X93.187 Y64.152 Z-1.933
N2153 X93.175 Y64.22 Z-1.97
N2154 X93.162 Y64.294 Z-1.992
N2155 X93.148 Y64.371 Z-2
N2156 G3 X92.96 Y64.534 I-0.195 J-0.035
N2157 G1 X88.818
N2158 X88.591 Y64.523
N2159 X88.408 Y64.508
N2160 X88.203 Y64.484
N2161 X87.98 Y64.449
N2162 X87.752 Y64.404
N2163 X87.496 Y64.343
N2164 X87.216 Y64.265
N2165 X86.929 Y64.173
N2166 X86.599 Y64.053
N2167 X86.261 Y63.915
N2168 X85.884 Y63.743
N2169 X85.484 Y63.542
N2170 X85.044 Y63.3
N2171 X84.588 Y63.025
N2172 X84.074 Y62.687
N2173 X83.561 Y62.321
N2174 X83.011 Y61.895
N2175 X82.426 Y61.405
N2176 X81.822 Y60.857
N2177 X81.224 Y60.272
N2178 X80.629 Y59.643
N2179 X80.032 Y58.96
N2180 X79.458 Y58.251
N2181 X78.912 Y57.521
N2182 X78.393 Y56.772
N2183 X77.901 Y56.004
N2184 X77.436 Y55.22
N2185 X77 Y54.419
N2186 X76.591 Y53.604
N2187 X76.211 Y52.775
N2188 X75.86 Y51.933
N2189 X75.539 Y51.08
N2190 X75.247 Y50.216
N2191 X74.986 Y49.343
N2192 X74.755 Y48.461
N2193 X74.556 Y47.571
N2194 X74.387 Y46.675
N2195 X74.249 Y45.774
N2196 X74.142 Y44.868
N2197 X74.066 Y43.959
N2198 X74.022 Y43.049
N2199 X74.009 Y42.137
N2200 X74.027 Y41.225
N2201 X74.076 Y40.315
N2202 X74.156 Y39.406
N2203 X74.268 Y38.502
N2204 X74.411 Y37.601
N2205 X74.585 Y36.706
N2206 X74.791 Y35.818
N2207 X75.027 Y34.937
N2208 X75.294 Y34.065
N2209 X75.59 Y33.203
N2210 X75.916 Y32.351
N2211 X76.27 Y31.511
N2212 X76.653 Y30.683
N2213 X77.063 Y29.869
N2214 X77.501 Y29.069
N2215 X77.966 Y28.285
N2216 X78.457 Y27.517
N2217 X78.975 Y26.766
N2218 X79.518 Y26.034
N2219 X80.086 Y25.321
N2220 X80.678 Y24.627
N2221 X81.294 Y23.955
N2222 X81.933 Y23.304
N2223 X82.593 Y22.675
N2224 X83.275 Y22.069
N2225 X83.976 Y21.487
N2226 X84.698 Y20.929
N2227 X85.149 Y20.604
N2228 X85.435 Y20.44
N2229 X85.749 Y20.339
N2230 X86.077 Y20.305
N2231 X89.891
N2232 G3 X90.133 Y20.362 I-0.022 J0.635
N2233 G1 X90.204 Y20.394 Z-1.992
N2234 X90.272 Y20.425 Z-1.97
N2235 X90.335 Y20.454 Z-1.933
N2236 X90.39 Y20.479 Z-1.883
N2237 X90.435 Y20.5 Z-1.822
N2238 X90.469 Y20.515 Z-1.753
N2239 X90.49 Y20.524 Z-1.678
N2240 X90.497 Y20.528 Z-1.6
N2241 G0 Z5
N2242 X89.077 Y63.977
N2243 Z-1.2
N2244 G1 Z-1.6 F1524
N2245 X89.076 Y63.985 Z-1.678
N2246 X89.072 Y64.007 Z-1.753
N2247 X89.066 Y64.044 Z-1.822
N2248 X89.057 Y64.093 Z-1.883
N2249 X89.046 Y64.152 Z-1.933
N2250 X89.034 Y64.22 Z-1.97
N2251 X89.021 Y64.294 Z-1.992
N2252 X89.007 Y64.371 Z-2
N2253 G3 X88.818 Y64.534 I-0.195 J-0.035
N2254 G1 X85.505
N2255 X85.392 Y64.529
N2256 X85.236 Y64.519
N2257 X85.075 Y64.503
N2258 X84.897 Y64.478
N2259 X84.703 Y64.443
N2260 X84.506 Y64.399
N2261 X84.286 Y64.342
N2262 X84.047 Y64.27
N2263 X83.804 Y64.186
N2264 X83.529 Y64.079
N2265 X83.243 Y63.954
N2266 X82.935 Y63.806
N2267 X82.594 Y63.625
N2268 X82.246 Y63.423
N2269 X81.852 Y63.173
N2270 X81.453 Y62.898
N2271 X81.013 Y62.569
N2272 X80.543 Y62.188
N2273 X80.065 Y61.77
N2274 X79.545 Y61.277
N2275 X78.999 Y60.719
N2276 X78.453 Y60.115
N2277 X77.901 Y59.456
N2278 X77.344 Y58.734
N2279 X76.814 Y57.992
N2280 X76.312 Y57.231
N2281 X75.837 Y56.453
N2282 X75.389 Y55.659
N2283 X74.967 Y54.85
N2284 X74.573 Y54.028
N2285 X74.205 Y53.194
N2286 X73.865 Y52.348
N2287 X73.552 Y51.491
N2288 X73.267 Y50.625
N2289 X73.011 Y49.75
N2290 X72.783 Y48.867
N2291 X72.584 Y47.977
N2292 X72.414 Y47.081
N2293 X72.273 Y46.181
N2294 X72.161 Y45.276
N2295 X72.078 Y44.368
N2296 X72.024 Y43.458
N2297 X71.999 Y42.546
N2298 X72.002 Y41.634
N2299 X72.035 Y40.723
N2300 X72.096 Y39.813
N2301 X72.187 Y38.906
N2302 X72.307 Y38.002
N2303 X72.455 Y37.102
N2304 X72.633 Y36.208
N2305 X72.84 Y35.32
N2306 X73.076 Y34.439
N2307 X73.34 Y33.567
N2308 X73.631 Y32.703
N2309 X73.95 Y31.848
N2310 X74.296 Y31.004
N2311 X74.668 Y30.172
N2312 X75.066 Y29.352
N2313 X75.489 Y28.544
N2314 X75.938 Y27.751
N2315 X76.412 Y26.972
N2316 X76.911 Y26.208
N2317 X77.433 Y25.461
N2318 X77.979 Y24.731
N2319 X78.549 Y24.019
N2320 X79.141 Y23.325
N2321 X79.755 Y22.652
N2322 X80.391 Y21.998
N2323 X81.047 Y21.364
N2324 X81.722 Y20.752
N2325 X81.803 Y20.683
N2326 X82.031 Y20.521
N2327 X82.284 Y20.402
N2328 X82.554 Y20.329
N2329 X82.832 Y20.305
N2330 X86.077
N2331 G3 X86.318 Y20.362 I-0.022 J0.635
N2332 G1 X86.389 Y20.394 Z-1.992
N2333 X86.457 Y20.425 Z-1.97
N2334 X86.52 Y20.454 Z-1.933
N2335 X86.575 Y20.479 Z-1.883
N2336 X86.621 Y20.5 Z-1.822
N2337 X86.654 Y20.515 Z-1.753
N2338 X86.675 Y20.524 Z-1.678
N2339 X86.682 Y20.528 Z-1.6
N2340 G0 Z5
N2341 X85.764 Y63.977
N2342 Z-1.2
N2343 G1 Z-1.6 F1524
N2344 X85.763 Y63.985 Z-1.678
N2345 X85.759 Y64.007 Z-1.753
N2346 X85.753 Y64.044 Z-1.822
N2347 X85.744 Y64.093 Z-1.883
N2348 X85.733 Y64.152 Z-1.933
N2349 X85.721 Y64.22 Z-1.97
N2350 X85.708 Y64.294 Z-1.992
N2351 X85.694 Y64.371 Z-2
N2352 G3 X85.505 Y64.534 I-0.195 J-0.035
N2353 G1 X82.606
N2354 X82.379 Y64.523
N2355 X82.229 Y64.51
N2356 X82.072 Y64.489
N2357 X81.91 Y64.462
N2358 X81.731 Y64.425
N2359 X81.539 Y64.377
N2360 X81.342 Y64.32
N2361 X81.123 Y64.247
N2362 X80.895 Y64.161
N2363 X80.653 Y64.06
N2364 X80.382 Y63.933
N2365 X80.113 Y63.795
N2366 X79.81 Y63.623
N2367 X79.495 Y63.428
N2368 X79.153 Y63.199
N2369 X78.792 Y62.936
N2370 X78.402 Y62.627
N2371 X78 Y62.283
N2372 X77.548 Y61.865
N2373 X77.106 Y61.423
N2374 X76.627 Y60.905
N2375 X76.12 Y60.313
N2376 X75.596 Y59.653
N2377 X75.067 Y58.927
N2378 X74.558 Y58.171
N2379 X74.077 Y57.396
N2380 X73.624 Y56.605
N2381 X73.197 Y55.799
N2382 X72.797 Y54.979
N2383 X72.424 Y54.148
N2384 X72.076 Y53.305
N2385 X71.754 Y52.452
N2386 X71.459 Y51.589
N2387 X71.19 Y50.718
N2388 X70.948 Y49.839
N2389 X70.732 Y48.953
N2390 X70.544 Y48.061
N2391 X70.382 Y47.163
N2392 X70.247 Y46.262
N2393 X70.139 Y45.356
N2394 X70.058 Y44.448
N2395 X70.005 Y43.538
N2396 X69.979 Y42.626
N2397 X69.981 Y41.714
N2398 X70.009 Y40.803
N2399 X70.065 Y39.893
N2400 X70.147 Y38.985
N2401 X70.257 Y38.08
N2402 X70.394 Y37.178
N2403 X70.558 Y36.281
N2404 X70.749 Y35.39
N2405 X70.967 Y34.504
N2406 X71.211 Y33.626
N2407 X71.481 Y32.755
N2408 X71.776 Y31.892
N2409 X72.097 Y31.039
N2410 X72.444 Y30.195
N2411 X72.815 Y29.363
N2412 X73.212 Y28.541
N2413 X73.632 Y27.732
N2414 X74.076 Y26.936
N2415 X74.543 Y26.153
N2416 X75.034 Y25.384
N2417 X75.547 Y24.63
N2418 X76.082 Y23.892
N2419 X76.639 Y23.17
N2420 X77.218 Y22.466
N2421 X77.817 Y21.778
N2422 X78.436 Y21.109
N2423 X78.755 Y20.784
N2424 X78.785 Y20.755
N2425 X79.024 Y20.563
N2426 X79.295 Y20.422
N2427 X79.588 Y20.334
N2428 X79.892 Y20.305
N2429 X82.832
N2430 G3 X83.073 Y20.362 I-0.022 J0.635
N2431 G1 X83.144 Y20.394 Z-1.992
N2432 X83.212 Y20.425 Z-1.97
N2433 X83.275 Y20.454 Z-1.933
N2434 X83.33 Y20.479 Z-1.883
N2435 X83.376 Y20.5 Z-1.822
N2436 X83.409 Y20.515 Z-1.753
N2437 X83.43 Y20.524 Z-1.678
N2438 X83.437 Y20.528 Z-1.6
N2439 G0 Z5
N2440 X82.865 Y63.977
N2441 Z-1.2
N2442 G1 Z-1.6 F1524
N2443 X82.864 Y63.985 Z-1.678
N2444 X82.86 Y64.007 Z-1.753
N2445 X82.854 Y64.044 Z-1.822
N2446 X82.845 Y64.093 Z-1.883
N2447 X82.834 Y64.152 Z-1.933
N2448 X82.822 Y64.22 Z-1.97
N2449 X82.809 Y64.294 Z-1.992
N2450 X82.795 Y64.371 Z-2
N2451 G3 X82.606 Y64.534 I-0.195 J-0.035
N2452 G1 X79.915
N2453 X79.687 Y64.523
N2454 X79.537 Y64.51
N2455 X79.389 Y64.491
N2456 X79.238 Y64.465
N2457 X79.071 Y64.43
N2458 X78.897 Y64.386
N2459 X78.715 Y64.333
N2460 X78.512 Y64.265
N2461 X78.305 Y64.187
N2462 X78.083 Y64.093
N2463 X77.84 Y63.979
N2464 X77.597 Y63.853
N2465 X77.322 Y63.697
N2466 X77.046 Y63.526
N2467 X76.74 Y63.32
N2468 X76.421 Y63.086
N2469 X76.078 Y62.813
N2470 X75.717 Y62.504
N2471 X75.324 Y62.139
N2472 X74.926 Y61.739
N2473 X74.485 Y61.261
N2474 X74.036 Y60.736
N2475 X73.575 Y60.151
N2476 X73.089 Y59.484
N2477 X72.59 Y58.739
N2478 X72.112 Y57.962
N2479 X71.663 Y57.169
N2480 X71.24 Y56.361
N2481 X70.844 Y55.54
N2482 X70.474 Y54.706
N2483 X70.129 Y53.862
N2484 X69.809 Y53.008
N2485 X69.515 Y52.145
N2486 X69.246 Y51.274
N2487 X69.003 Y50.395
N2488 X68.785 Y49.51
N2489 X68.592 Y48.619
N2490 X68.425 Y47.722
N2491 X68.282 Y46.822
N2492 X68.166 Y45.918
N2493 X68.074 Y45.01
N2494 X68.009 Y44.101
N2495 X67.968 Y43.19
N2496 X67.953 Y42.278
N2497 X67.964 Y41.366
N2498 X68 Y40.455
N2499 X68.062 Y39.546
N2500 X68.148 Y38.638
N2501 X68.261 Y37.733
N2502 X68.399 Y36.832
N2503 X68.563 Y35.935
N2504 X68.752 Y35.043
N2505 X68.966 Y34.156
N2506 X69.204 Y33.276
N2507 X69.467 Y32.403
N2508 X69.755 Y31.538
N2509 X70.066 Y30.681
N2510 X70.402 Y29.833
N2511 X70.76 Y28.995
N2512 X71.142 Y28.167
N2513 X71.547 Y27.35
N2514 X71.974 Y26.544
N2515 X72.423 Y25.751
N2516 X72.894 Y24.97
N2517 X73.387 Y24.203
N2518 X73.901 Y23.45
N2519 X74.436 Y22.711
N2520 X74.992 Y21.989
N2521 X75.568 Y21.282
N2522 X75.957 Y20.831
N2523 X76.203 Y20.568
N2524 X76.389 Y20.425
N2525 X76.607 Y20.336
N2526 X76.84 Y20.305
N2527 X79.892
N2528 G3 X80.133 Y20.362 I-0.022 J0.635
N2529 G1 X80.204 Y20.394 Z-1.992
N2530 X80.273 Y20.425 Z-1.97
N2531 X80.336 Y20.454 Z-1.933
N2532 X80.391 Y20.479 Z-1.883
N2533 X80.436 Y20.5 Z-1.822
N2534 X80.47 Y20.515 Z-1.753
N2535 X80.49 Y20.524 Z-1.678
N2536 X80.497 Y20.528 Z-1.6
N2537 G0 Z5
N2538 X80.174 Y63.977
N2539 Z-1.2
N2540 G1 Z-1.6 F1524
N2541 X80.172 Y63.985 Z-1.678
N2542 X80.168 Y64.007 Z-1.753
N2543 X80.162 Y64.044 Z-1.822
N2544 X80.153 Y64.093 Z-1.883
N2545 X80.142 Y64.152 Z-1.933
N2546 X80.13 Y64.22 Z-1.97
N2547 X80.117 Y64.294 Z-1.992
N2548 X80.103 Y64.371 Z-2
N2549 G3 X79.915 Y64.534 I-0.195 J-0.035
N2550 G1 X77.316
N2551 X77.202 Y64.529
N2552 X77.052 Y64.519
N2553 X76.903 Y64.503
N2554 X76.755 Y64.48
N2555 X76.604 Y64.45
N2556 X76.445 Y64.412
N2557 X76.27 Y64.364
N2558 X76.091 Y64.306
N2559 X75.9 Y64.237
N2560 X75.691 Y64.152
N2561 X75.482 Y64.057
N2562 X75.249 Y63.94
N2563 X75.008 Y63.807
N2564 X74.752 Y63.653
N2565 X74.476 Y63.472
N2566 X74.194 Y63.271
N2567 X73.881 Y63.029
N2568 X73.567 Y62.767
N2569 X73.217 Y62.45
N2570 X72.863 Y62.105
N2571 X72.477 Y61.696
N2572 X72.069 Y61.231
N2573 X71.657 Y60.723
N2574 X71.213 Y60.129
N2575 X70.749 Y59.456
N2576 X70.274 Y58.706
N2577 X69.816 Y57.918
N2578 X69.387 Y57.113
N2579 X68.985 Y56.295
N2580 X68.61 Y55.463
N2581 X68.261 Y54.621
N2582 X67.937 Y53.769
N2583 X67.638 Y52.907
N2584 X67.363 Y52.038
N2585 X67.112 Y51.161
N2586 X66.886 Y50.278
N2587 X66.683 Y49.389
N2588 X66.505 Y48.495
N2589 X66.35 Y47.596
N2590 X66.219 Y46.694
N2591 X66.112 Y45.789
N2592 X66.029 Y44.881
N2593 X65.97 Y43.971
N2594 X65.935 Y43.059
N2595 X65.924 Y42.148
N2596 X65.937 Y41.236
N2597 X65.974 Y40.325
N2598 X66.035 Y39.415
N2599 X66.121 Y38.507
N2600 X66.231 Y37.602
N2601 X66.365 Y36.7
N2602 X66.523 Y35.802
N2603 X66.704 Y34.909
N2604 X66.909 Y34.02
N2605 X67.138 Y33.138
N2606 X67.389 Y32.261
N2607 X67.663 Y31.391
N2608 X67.96 Y30.529
N2609 X68.28 Y29.675
N2610 X68.621 Y28.83
N2611 X68.985 Y27.994
N2612 X69.37 Y27.167
N2613 X69.777 Y26.351
N2614 X70.205 Y25.546
N2615 X70.654 Y24.753
N2616 X71.124 Y23.971
N2617 X71.615 Y23.203
N2618 X72.126 Y22.448
N2619 X72.656 Y21.706
N2620 X73.17 Y21.026
N2621 X73.448 Y20.687
N2622 X73.667 Y20.441
N2623 X73.759 Y20.367
N2624 X73.868 Y20.321
N2625 X73.985 Y20.305
N2626 X76.84
N2627 G3 X77.081 Y20.362 I-0.022 J0.635
N2628 G1 X77.152 Y20.394 Z-1.992
N2629 X77.22 Y20.425 Z-1.97
N2630 X77.283 Y20.454 Z-1.933
N2631 X77.338 Y20.479 Z-1.883
N2632 X77.383 Y20.5 Z-1.822
N2633 X77.417 Y20.515 Z-1.753
N2634 X77.438 Y20.524 Z-1.678
N2635 X77.445 Y20.528 Z-1.6
N2636 G0 Z5
N2637 X77.575 Y63.977
N2638 Z-1.2
N2639 G1 Z-1.6 F1524
N2640 X77.574 Y63.985 Z-1.678
N2641 X77.57 Y64.007 Z-1.753
N2642 X77.563 Y64.044 Z-1.822
N2643 X77.554 Y64.093 Z-1.883
N2644 X77.544 Y64.152 Z-1.933
N2645 X77.531 Y64.22 Z-1.97
N2646 X77.518 Y64.294 Z-1.992
N2647 X77.504 Y64.371 Z-2
N2648 G3 X77.316 Y64.534 I-0.195 J-0.035
N2649 G1 X74.831
N2650 X74.717 Y64.529
N2651 X74.568 Y64.518
N2652 X74.419 Y64.5
N2653 X74.271 Y64.475
N2654 X74.119 Y64.444
N2655 X73.966 Y64.406
N2656 X73.798 Y64.357
N2657 X73.622 Y64.298
N2658 X73.439 Y64.229
N2659 X73.236 Y64.143
N2660 X73.034 Y64.048
N2661 X72.812 Y63.934
N2662 X72.578 Y63.802
N2663 X72.337 Y63.652
N2664 X72.071 Y63.473
N2665 X71.806 Y63.28
N2666 X71.507 Y63.042
N2667 X71.213 Y62.791
N2668 X70.877 Y62.48
N2669 X70.55 Y62.152
N2670 X70.179 Y61.75
N2671 X69.809 Y61.318
N2672 X69.412 Y60.815
N2673 X68.987 Y60.233
N2674 X68.555 Y59.59
N2675 X68.115 Y58.877
N2676 X67.667 Y58.083
N2677 X67.249 Y57.273
N2678 X66.859 Y56.449
N2679 X66.496 Y55.612
N2680 X66.159 Y54.765
N2681 X65.846 Y53.909
N2682 X65.558 Y53.044
N2683 X65.293 Y52.171
N2684 X65.051 Y51.292
N2685 X64.832 Y50.407
N2686 X64.637 Y49.516
N2687 X64.464 Y48.621
N2688 X64.313 Y47.722
N2689 X64.186 Y46.819
N2690 X64.081 Y45.913
N2691 X63.999 Y45.005
N2692 X63.94 Y44.095
N2693 X63.904 Y43.184
N2694 X63.89 Y42.272
N2695 X63.9 Y41.36
N2696 X63.932 Y40.449
N2697 X63.988 Y39.539
N2698 X64.066 Y38.631
N2699 X64.167 Y37.724
N2700 X64.29 Y36.821
N2701 X64.436 Y35.921
N2702 X64.604 Y35.025
N2703 X64.795 Y34.133
N2704 X65.007 Y33.246
N2705 X65.242 Y32.365
N2706 X65.498 Y31.49
N2707 X65.776 Y30.622
N2708 X66.075 Y29.76
N2709 X66.395 Y28.907
N2710 X66.737 Y28.061
N2711 X67.1 Y27.225
N2712 X67.483 Y26.397
N2713 X67.887 Y25.58
N2714 X68.311 Y24.773
N2715 X68.755 Y23.976
N2716 X69.218 Y23.191
N2717 X69.701 Y22.418
N2718 X70.204 Y21.657
N2719 X70.659 Y21.007
N2720 X70.715 Y20.933
N2721 X70.912 Y20.717
N2722 X71.145 Y20.541
N2723 X71.407 Y20.412
N2724 X71.688 Y20.332
N2725 X71.979 Y20.305
N2726 X73.985
N2727 G3 X74.226 Y20.362 I-0.022 J0.635
N2728 G1 X74.297 Y20.394 Z-1.992
N2729 X74.365 Y20.425 Z-1.97
N2730 X74.428 Y20.454 Z-1.933
N2731 X74.483 Y20.479 Z-1.883
N2732 X74.529 Y20.5 Z-1.822
N2733 X74.562 Y20.515 Z-1.753
N2734 X74.583 Y20.524 Z-1.678
N2735 X74.59 Y20.528 Z-1.6
N2736 G0 Z5
N2737 X75.09 Y63.977
N2738 Z-1.2
N2739 G1 Z-1.6 F1524
N2740 X75.089 Y63.985 Z-1.678
N2741 X75.085 Y64.007 Z-1.753
N2742 X75.078 Y64.044 Z-1.822
N2743 X75.069 Y64.093 Z-1.883
N2744 X75.059 Y64.152 Z-1.933
N2745 X75.047 Y64.22 Z-1.97
N2746 X75.033 Y64.294 Z-1.992
N2747 X75.02 Y64.371 Z-2
N2748 G3 X74.831 Y64.534 I-0.195 J-0.035
N2749 G1 X72.46
N2750 X72.346 Y64.529
N2751 X72.197 Y64.519
N2752 X72.048 Y64.501
N2753 X71.9 Y64.477
N2754 X71.753 Y64.446
N2755 X71.605 Y64.41
N2756 X71.442 Y64.362
N2757 X71.274 Y64.306
N2758 X71.097 Y64.24
N2759 X70.903 Y64.157
N2760 X70.709 Y64.067
N2761 X70.496 Y63.957
N2762 X70.275 Y63.832
N2763 X70.044 Y63.689
N2764 X69.793 Y63.52
N2765 X69.54 Y63.335
N2766 X69.256 Y63.111
N2767 X68.978 Y62.872
N2768 X68.662 Y62.58
N2769 X68.354 Y62.272
N2770 X68.007 Y61.896
N2771 X67.662 Y61.494
N2772 X67.288 Y61.02
N2773 X66.89 Y60.475
N2774 X66.499 Y59.893
N2775 X66.081 Y59.217
N2776 X65.648 Y58.451
N2777 X65.231 Y57.64
N2778 X64.843 Y56.815
N2779 X64.482 Y55.978
N2780 X64.148 Y55.13
N2781 X63.838 Y54.272
N2782 X63.552 Y53.406
N2783 X63.289 Y52.533
N2784 X63.049 Y51.654
N2785 X62.831 Y50.768
N2786 X62.635 Y49.878
N2787 X62.461 Y48.982
N2788 X62.31 Y48.083
N2789 X62.18 Y47.181
N2790 X62.072 Y46.275
N2791 X61.986 Y45.368
N2792 X61.921 Y44.458
N2793 X61.878 Y43.547
N2794 X61.857 Y42.636
N2795 X61.858 Y41.724
N2796 X61.88 Y40.812
N2797 X61.923 Y39.902
N2798 X61.989 Y38.992
N2799 X62.075 Y38.085
N2800 X62.184 Y37.179
N2801 X62.313 Y36.277
N2802 X62.464 Y35.377
N2803 X62.636 Y34.482
N2804 X62.828 Y33.591
N2805 X63.042 Y32.704
N2806 X63.277 Y31.823
N2807 X63.532 Y30.948
N2808 X63.808 Y30.079
N2809 X64.105 Y29.217
N2810 X64.422 Y28.362
N2811 X64.759 Y27.514
N2812 X65.115 Y26.675
N2813 X65.492 Y25.845
N2814 X65.887 Y25.023
N2815 X66.302 Y24.211
N2816 X66.736 Y23.409
N2817 X67.189 Y22.618
N2818 X67.66 Y21.837
N2819 X67.967 Y21.361
N2820 X68.174 Y21.065
N2821 X68.275 Y20.932
N2822 X68.472 Y20.717
N2823 X68.706 Y20.541
N2824 X68.967 Y20.411
N2825 X69.248 Y20.332
N2826 X69.539 Y20.305
N2827 X71.979
N2828 G3 X72.22 Y20.362 I-0.022 J0.635
N2829 G1 X72.291 Y20.394 Z-1.992
N2830 X72.36 Y20.425 Z-1.97
N2831 X72.423 Y20.454 Z-1.933
N2832 X72.478 Y20.479 Z-1.883
N2833 X72.523 Y20.5 Z-1.822
N2834 X72.557 Y20.515 Z-1.753
N2835 X72.577 Y20.524 Z-1.678
N2836 X72.584 Y20.528 Z-1.6
N2837 G0 Z5
N2838 X72.719 Y63.977
N2839 Z-1.2
N2840 G1 Z-1.6 F1524
N2841 X72.718 Y63.985 Z-1.678
N2842 X72.714 Y64.007 Z-1.753
N2843 X72.707 Y64.044 Z-1.822
N2844 X72.699 Y64.093 Z-1.883
N2845 X72.688 Y64.152 Z-1.933
N2846 X72.676 Y64.22 Z-1.97
N2847 X72.662 Y64.294 Z-1.992
N2848 X72.649 Y64.371 Z-2
N2849 G3 X72.46 Y64.534 I-0.195 J-0.035
N2850 G1 X70.183
N2851 X69.955 Y64.523
N2852 X69.805 Y64.51
N2853 X69.657 Y64.49
N2854 X69.509 Y64.462
N2855 X69.363 Y64.429
N2856 X69.208 Y64.387
N2857 X69.051 Y64.338
N2858 X68.882 Y64.278
N2859 X68.699 Y64.205
N2860 X68.516 Y64.123
N2861 X68.314 Y64.023
N2862 X68.109 Y63.913
N2863 X67.889 Y63.782
N2864 X67.657 Y63.632
N2865 X67.418 Y63.464
N2866 X67.155 Y63.264
N2867 X66.894 Y63.049
N2868 X66.604 Y62.79
N2869 X66.317 Y62.513
N2870 X65.997 Y62.181
N2871 X65.678 Y61.821
N2872 X65.331 Y61.398
N2873 X64.97 Y60.922
N2874 X64.602 Y60.397
N2875 X64.208 Y59.785
N2876 X63.798 Y59.09
N2877 X63.379 Y58.312
N2878 X62.978 Y57.493
N2879 X62.606 Y56.661
N2880 X62.262 Y55.816
N2881 X61.945 Y54.961
N2882 X61.651 Y54.098
N2883 X61.381 Y53.227
N2884 X61.134 Y52.35
N2885 X60.908 Y51.466
N2886 X60.705 Y50.577
N2887 X60.522 Y49.684
N2888 X60.361 Y48.786
N2889 X60.221 Y47.886
N2890 X60.102 Y46.982
N2891 X60.003 Y46.075
N2892 X59.926 Y45.167
N2893 X59.868 Y44.257
N2894 X59.832 Y43.345
N2895 X59.816 Y42.434
N2896 X59.82 Y41.522
N2897 X59.846 Y40.611
N2898 X59.891 Y39.7
N2899 X59.957 Y38.79
N2900 X60.044 Y37.883
N2901 X60.151 Y36.977
N2902 X60.279 Y36.074
N2903 X60.427 Y35.175
N2904 X60.595 Y34.279
N2905 X60.783 Y33.386
N2906 X60.991 Y32.499
N2907 X61.219 Y31.616
N2908 X61.466 Y30.738
N2909 X61.733 Y29.866
N2910 X62.02 Y29.001
N2911 X62.325 Y28.142
N2912 X62.65 Y27.29
N2913 X62.994 Y26.445
N2914 X63.357 Y25.608
N2915 X63.738 Y24.78
N2916 X64.137 Y23.96
N2917 X64.555 Y23.15
N2918 X64.99 Y22.349
N2919 X65.364 Y21.707
N2920 X65.621 Y21.3
N2921 X65.805 Y21.034
N2922 X65.874 Y20.941
N2923 X66.072 Y20.723
N2924 X66.306 Y20.545
N2925 X66.569 Y20.413
N2926 X66.852 Y20.332
N2927 X67.145 Y20.305
N2928 X69.539
N2929 G3 X69.78 Y20.362 I-0.022 J0.635
N2930 G1 X69.851 Y20.394 Z-1.992
N2931 X69.92 Y20.425 Z-1.97
N2932 X69.983 Y20.454 Z-1.933
N2933 X70.038 Y20.479 Z-1.883
N2934 X70.083 Y20.5 Z-1.822
N2935 X70.117 Y20.515 Z-1.753
N2936 X70.137 Y20.524 Z-1.678
N2937 X70.144 Y20.528 Z-1.6
N2938 G0 Z5
N2939 X70.442 Y63.977
N2940 Z-1.2
N2941 G1 Z-1.6 F1524
N2942 X70.44 Y63.985 Z-1.678
N2943 X70.436 Y64.007 Z-1.753
N2944 X70.43 Y64.044 Z-1.822
N2945 X70.421 Y64.093 Z-1.883
N2946 X70.41 Y64.152 Z-1.933
N2947 X70.398 Y64.22 Z-1.97
N2948 X70.385 Y64.294 Z-1.992
N2949 X70.371 Y64.371 Z-2
N2950 G3 X70.183 Y64.534 I-0.195 J-0.035
N2951 G1 X67.905
N2952 X67.677 Y64.523
N2953 X67.528 Y64.51
N2954 X67.379 Y64.49
N2955 X67.231 Y64.463
N2956 X67.085 Y64.43
N2957 X66.938 Y64.39
N2958 X66.777 Y64.339
N2959 X66.616 Y64.282
N2960 X66.44 Y64.211
N2961 X66.257 Y64.129
N2962 X66.066 Y64.035
N2963 X65.858 Y63.922
N2964 X65.651 Y63.799
N2965 X65.422 Y63.651
N2966 X65.192 Y63.489
N2967 X64.942 Y63.298
N2968 X64.687 Y63.087
N2969 X64.413 Y62.843
N2970 X64.13 Y62.569
N2971 X63.828 Y62.254
N2972 X63.517 Y61.904
N2973 X63.179 Y61.491
N2974 X62.845 Y61.05
N2975 X62.478 Y60.524
N2976 X62.105 Y59.943
N2977 X61.725 Y59.298
N2978 X61.327 Y58.557
N2979 X60.926 Y57.738
N2980 X60.557 Y56.904
N2981 X60.216 Y56.059
N2982 X59.901 Y55.203
N2983 X59.611 Y54.339
N2984 X59.344 Y53.467
N2985 X59.099 Y52.588
N2986 X58.877 Y51.704
N2987 X58.675 Y50.815
N2988 X58.494 Y49.921
N2989 X58.334 Y49.024
N2990 X58.194 Y48.123
N2991 X58.074 Y47.219
N2992 X57.975 Y46.312
N2993 X57.895 Y45.404
N2994 X57.835 Y44.494
N2995 X57.795 Y43.583
N2996 X57.775 Y42.672
N2997 X57.774 Y41.76
N2998 X57.793 Y40.848
N2999 X57.832 Y39.937
N3000 X57.89 Y39.027
N3001 X57.967 Y38.119
N3002 X58.064 Y37.212
N3003 X58.181 Y36.308
N3004 X58.316 Y35.406
N3005 X58.471 Y34.507
N3006 X58.645 Y33.612
N3007 X58.838 Y32.721
N3008 X59.05 Y31.834
N3009 X59.281 Y30.952
N3010 X59.53 Y30.075
N3011 X59.798 Y29.204
N3012 X60.085 Y28.338
N3013 X60.391 Y27.479
N3014 X60.714 Y26.626
N3015 X61.056 Y25.781
N3016 X61.415 Y24.943
N3017 X61.793 Y24.113
N3018 X62.188 Y23.291
N3019 X62.601 Y22.478
N3020 X62.956 Y21.827
N3021 X63.201 Y21.416
N3022 X63.382 Y21.139
N3023 X63.497 Y20.976
N3024 X63.695 Y20.746
N3025 X63.932 Y20.559
N3026 X64.201 Y20.419
N3027 X64.492 Y20.334
N3028 X64.793 Y20.305
N3029 X67.145
N3030 G3 X67.386 Y20.362 I-0.022 J0.635
N3031 G1 X67.457 Y20.394 Z-1.992
N3032 X67.526 Y20.425 Z-1.97
N3033 X67.589 Y20.454 Z-1.933
N3034 X67.644 Y20.479 Z-1.883
N3035 X67.689 Y20.5 Z-1.822
N3036 X67.723 Y20.515 Z-1.753
N3037 X67.743 Y20.524 Z-1.678
N3038 X67.75 Y20.528 Z-1.6
N3039 G0 Z5
N3040 X68.164 Y63.977
N3041 Z-1.2
N3042 G1 Z-1.6 F1524
N3043 X68.162 Y63.985 Z-1.678
N3044 X68.158 Y64.007 Z-1.753
N3045 X68.152 Y64.044 Z-1.822
N3046 X68.143 Y64.093 Z-1.883
N3047 X68.132 Y64.152 Z-1.933
N3048 X68.12 Y64.22 Z-1.97
N3049 X68.107 Y64.294 Z-1.992
N3050 X68.093 Y64.371 Z-2
N3051 G3 X67.905 Y64.534 I-0.195 J-0.035
N3052 G1 X65.627
N3053 X65.363 Y64.521
N3054 X65.214 Y64.505
N3055 X65.066 Y64.481
N3056 X64.919 Y64.451
N3057 X64.774 Y64.414
N3058 X64.62 Y64.369
N3059 X64.465 Y64.317
N3060 X64.297 Y64.253
N3061 X64.122 Y64.179
N3062 X63.94 Y64.093
N3063 X63.74 Y63.99
N3064 X63.543 Y63.877
N3065 X63.325 Y63.742
N3066 X63.105 Y63.593
N3067 X62.869 Y63.42
N3068 X62.623 Y63.223
N3069 X62.366 Y63.002
N3070 X62.094 Y62.749
N3071 X61.812 Y62.466
N3072 X61.516 Y62.144
N3073 X61.204 Y61.778
N3074 X60.885 Y61.371
N3075 X60.534 Y60.888
N3076 X60.196 Y60.382
N3077 X59.829 Y59.785
N3078 X59.446 Y59.103
N3079 X59.053 Y58.336
N3080 X58.67 Y57.509
N3081 X58.316 Y56.668
N3082 X57.992 Y55.816
N3083 X57.693 Y54.954
N3084 X57.418 Y54.085
N3085 X57.167 Y53.208
N3086 X56.937 Y52.326
N3087 X56.728 Y51.438
N3088 X56.54 Y50.546
N3089 X56.373 Y49.65
N3090 X56.225 Y48.75
N3091 X56.096 Y47.848
N3092 X55.987 Y46.942
N3093 X55.897 Y46.035
N3094 X55.827 Y45.126
N3095 X55.775 Y44.215
N3096 X55.742 Y43.304
N3097 X55.728 Y42.393
N3098 X55.733 Y41.481
N3099 X55.756 Y40.569
N3100 X55.798 Y39.658
N3101 X55.859 Y38.749
N3102 X55.938 Y37.84
N3103 X56.036 Y36.934
N3104 X56.153 Y36.029
N3105 X56.288 Y35.128
N3106 X56.441 Y34.229
N3107 X56.613 Y33.333
N3108 X56.803 Y32.442
N3109 X57.011 Y31.554
N3110 X57.237 Y30.67
N3111 X57.481 Y29.792
N3112 X57.743 Y28.919
N3113 X58.023 Y28.051
N3114 X58.32 Y27.189
N3115 X58.635 Y26.333
N3116 X58.967 Y25.484
N3117 X59.316 Y24.641
N3118 X59.682 Y23.806
N3119 X60.066 Y22.979
N3120 X60.471 Y22.163
N3121 X60.734 Y21.682
N3122 X60.94 Y21.336
N3123 X61.105 Y21.082
N3124 X61.18 Y20.976
N3125 X61.378 Y20.747
N3126 X61.615 Y20.559
N3127 X61.884 Y20.419
N3128 X62.175 Y20.334
N3129 X62.477 Y20.305
N3130 X64.793
N3131 G3 X65.035 Y20.362 I-0.022 J0.635
N3132 G1 X65.106 Y20.394 Z-1.992
N3133 X65.174 Y20.425 Z-1.97
N3134 X65.237 Y20.454 Z-1.933
N3135 X65.292 Y20.479 Z-1.883
N3136 X65.337 Y20.5 Z-1.822
N3137 X65.371 Y20.515 Z-1.753
N3138 X65.391 Y20.524 Z-1.678
N3139 X65.398 Y20.528 Z-1.6
N3140 G0 Z5
N3141 X65.886 Y63.977
N3142 Z-1.2
N3143 G1 Z-1.6 F1524
N3144 X65.885 Y63.985 Z-1.678
N3145 X65.881 Y64.007 Z-1.753
N3146 X65.874 Y64.044 Z-1.822
N3147 X65.865 Y64.093 Z-1.883
N3148 X65.855 Y64.152 Z-1.933
N3149 X65.842 Y64.22 Z-1.97
N3150 X65.829 Y64.294 Z-1.992
N3151 X65.815 Y64.371 Z-2
N3152 G3 X65.627 Y64.534 I-0.195 J-0.035
N3153 G1 X63.349
N3154 X63.235 Y64.529
N3155 X63.086 Y64.517
N3156 X62.937 Y64.498
N3157 X62.789 Y64.472
N3158 X62.643 Y64.439
N3159 X62.498 Y64.4
N3160 X62.346 Y64.353
N3161 X62.186 Y64.296
N3162 X62.02 Y64.23
N3163 X61.839 Y64.149
N3164 X61.659 Y64.061
N3165 X61.463 Y63.954
N3166 X61.261 Y63.835
N3167 X61.048 Y63.697
N3168 X60.821 Y63.538
N3169 X60.59 Y63.363
N3170 X60.34 Y63.157
N3171 X60.091 Y62.934
N3172 X59.815 Y62.669
N3173 X59.543 Y62.385
N3174 X59.242 Y62.047
N3175 X58.942 Y61.682
N3176 X58.618 Y61.255
N3177 X58.281 Y60.775
N3178 X57.941 Y60.247
N3179 X57.578 Y59.631
N3180 X57.201 Y58.934
N3181 X56.821 Y58.159
N3182 X56.451 Y57.326
N3183 X56.112 Y56.479
N3184 X55.801 Y55.622
N3185 X55.516 Y54.756
N3186 X55.255 Y53.882
N3187 X55.016 Y53.002
N3188 X54.798 Y52.117
N3189 X54.601 Y51.227
N3190 X54.424 Y50.332
N3191 X54.267 Y49.434
N3192 X54.129 Y48.533
N3193 X54.01 Y47.629
N3194 X53.909 Y46.723
N3195 X53.827 Y45.814
N3196 X53.763 Y44.905
N3197 X53.717 Y43.994
N3198 X53.689 Y43.083
N3199 X53.68 Y42.171
N3200 X53.688 Y41.259
N3201 X53.715 Y40.348
N3202 X53.759 Y39.437
N3203 X53.821 Y38.527
N3204 X53.9 Y37.619
N3205 X53.998 Y36.713
N3206 X54.114 Y35.808
N3207 X54.248 Y34.906
N3208 X54.399 Y34.007
N3209 X54.568 Y33.111
N3210 X54.754 Y32.218
N3211 X54.957 Y31.33
N3212 X55.178 Y30.445
N3213 X55.416 Y29.565
N3214 X55.671 Y28.689
N3215 X55.943 Y27.819
N3216 X56.232 Y26.954
N3217 X56.538 Y26.095
N3218 X56.86 Y25.242
N3219 X57.198 Y24.395
N3220 X57.554 Y23.556
N3221 X57.928 Y22.724
N3222 X58.258 Y22.05
N3223 X58.485 Y21.629
N3224 X58.668 Y21.317
N3225 X58.826 Y21.071
N3226 X58.887 Y20.984
N3227 X59.085 Y20.752
N3228 X59.323 Y20.562
N3229 X59.593 Y20.421
N3230 X59.885 Y20.334
N3231 X60.189 Y20.305
N3232 X62.477
N3233 G3 X62.718 Y20.362 I-0.022 J0.635
N3234 G1 X62.789 Y20.394 Z-1.992
N3235 X62.857 Y20.425 Z-1.97
N3236 X62.92 Y20.454 Z-1.933
N3237 X62.975 Y20.479 Z-1.883
N3238 X63.02 Y20.5 Z-1.822
N3239 X63.054 Y20.515 Z-1.753
N3240 X63.075 Y20.524 Z-1.678
N3241 X63.082 Y20.528 Z-1.6
N3242 G0 Z5
N3243 X63.608 Y63.977
N3244 Z-1.2
N3245 G1 Z-1.6 F1524
N3246 X63.607 Y63.985 Z-1.678
N3247 X63.603 Y64.007 Z-1.753
N3248 X63.596 Y64.044 Z-1.822
N3249 X63.588 Y64.093 Z-1.883
N3250 X63.577 Y64.152 Z-1.933
N3251 X63.565 Y64.22 Z-1.97
N3252 X63.552 Y64.294 Z-1.992
N3253 X63.538 Y64.371 Z-2
N3254 G3 X63.349 Y64.534 I-0.195 J-0.035
N3255 G1 X61.165
N3256 X61.051 Y64.529
N3257 X60.901 Y64.518
N3258 X60.752 Y64.5
N3259 X60.605 Y64.474
N3260 X60.458 Y64.442
N3261 X60.313 Y64.403
N3262 X60.168 Y64.358
N3263 X60.01 Y64.303
N3264 X59.845 Y64.238
N3265 X59.674 Y64.162
N3266 X59.489 Y64.071
N3267 X59.303 Y63.972
N3268 X59.099 Y63.851
N3269 X58.895 Y63.72
N3270 X58.673 Y63.566
N3271 X58.446 Y63.394
N3272 X58.206 Y63.197
N3273 X57.956 Y62.976
N3274 X57.695 Y62.726
N3275 X57.421 Y62.443
N3276 X57.135 Y62.123
N3277 X56.838 Y61.764
N3278 X56.521 Y61.348
N3279 X56.205 Y60.9
N3280 X55.86 Y60.367
N3281 X55.517 Y59.791
N3282 X55.164 Y59.14
N3283 X54.794 Y58.393
N3284 X54.422 Y57.56
N3285 X54.082 Y56.714
N3286 X53.77 Y55.857
N3287 X53.485 Y54.991
N3288 X53.223 Y54.118
N3289 X52.985 Y53.238
N3290 X52.767 Y52.352
N3291 X52.571 Y51.462
N3292 X52.394 Y50.567
N3293 X52.236 Y49.669
N3294 X52.097 Y48.768
N3295 X51.977 Y47.864
N3296 X51.875 Y46.958
N3297 X51.791 Y46.05
N3298 X51.724 Y45.141
N3299 X51.676 Y44.23
N3300 X51.644 Y43.319
N3301 X51.631 Y42.407
N3302 X51.634 Y41.496
N3303 X51.655 Y40.584
N3304 X51.692 Y39.673
N3305 X51.747 Y38.763
N3306 X51.82 Y37.854
N3307 X51.909 Y36.946
N3308 X52.015 Y36.041
N3309 X52.139 Y35.137
N3310 X52.279 Y34.237
N3311 X52.436 Y33.338
N3312 X52.61 Y32.443
N3313 X52.801 Y31.552
N3314 X53.008 Y30.664
N3315 X53.232 Y29.78
N3316 X53.472 Y28.9
N3317 X53.728 Y28.025
N3318 X54.001 Y27.155
N3319 X54.29 Y26.29
N3320 X54.595 Y25.431
N3321 X54.916 Y24.578
N3322 X55.254 Y23.731
N3323 X55.611 Y22.892
N3324 X55.941 Y22.18
N3325 X56.162 Y21.748
N3326 X56.354 Y21.406
N3327 X56.505 Y21.161
N3328 X56.606 Y21.011
N3329 X56.803 Y20.77
N3330 X57.044 Y20.572
N3331 X57.318 Y20.426
N3332 X57.616 Y20.335
N3333 X57.926 Y20.305
N3334 X60.189
N3335 G3 X60.43 Y20.362 I-0.022 J0.635
N3336 G1 X60.501 Y20.394 Z-1.992
N3337 X60.569 Y20.425 Z-1.97
N3338 X60.632 Y20.454 Z-1.933
N3339 X60.687 Y20.479 Z-1.883
N3340 X60.733 Y20.5 Z-1.822
N3341 X60.766 Y20.515 Z-1.753
N3342 X60.787 Y20.524 Z-1.678
N3343 X60.794 Y20.528 Z-1.6
N3344 G0 Z5
N3345 X61.424 Y63.977
N3346 Z-1.2
N3347 G1 Z-1.6 F1524
N3348 X61.422 Y63.985 Z-1.678
N3349 X61.418 Y64.007 Z-1.753
N3350 X61.412 Y64.044 Z-1.822
N3351 X61.403 Y64.093 Z-1.883
N3352 X61.392 Y64.152 Z-1.933
N3353 X61.38 Y64.22 Z-1.97
N3354 X61.367 Y64.294 Z-1.992
N3355 X61.353 Y64.371 Z-2
N3356 G3 X61.165 Y64.534 I-0.195 J-0.035
N3357 G1 X59.001
N3358 X58.887 Y64.529
N3359 X58.737 Y64.519
N3360 X58.588 Y64.502
N3361 X58.441 Y64.477
N3362 X58.294 Y64.445
N3363 X58.149 Y64.407
N3364 X58.004 Y64.362
N3365 X57.846 Y64.307
N3366 X57.687 Y64.245
N3367 X57.515 Y64.169
N3368 X57.337 Y64.082
N3369 X57.151 Y63.983
N3370 X56.95 Y63.865
N3371 X56.749 Y63.737
N3372 X56.528 Y63.584
N3373 X56.311 Y63.42
N3374 X56.07 Y63.223
N3375 X55.83 Y63.011
N3376 X55.567 Y62.761
N3377 X55.307 Y62.492
N3378 X55.019 Y62.172
N3379 X54.739 Y61.835
N3380 X54.426 Y61.426
N3381 X54.122 Y60.998
N3382 X53.791 Y60.488
N3383 X53.448 Y59.914
N3384 X53.108 Y59.292
N3385 X52.75 Y58.57
N3386 X52.38 Y57.747
N3387 X52.038 Y56.902
N3388 X51.727 Y56.045
N3389 X51.441 Y55.179
N3390 X51.181 Y54.305
N3391 X50.943 Y53.425
N3392 X50.726 Y52.539
N3393 X50.53 Y51.648
N3394 X50.354 Y50.754
N3395 X50.197 Y49.856
N3396 X50.058 Y48.954
N3397 X49.937 Y48.051
N3398 X49.834 Y47.145
N3399 X49.749 Y46.237
N3400 X49.681 Y45.328
N3401 X49.63 Y44.417
N3402 X49.597 Y43.506
N3403 X49.58 Y42.594
N3404 X49.579 Y41.683
N3405 X49.596 Y40.771
N3406 X49.629 Y39.86
N3407 X49.678 Y38.949
N3408 X49.744 Y38.04
N3409 X49.826 Y37.132
N3410 X49.925 Y36.225
N3411 X50.04 Y35.321
N3412 X50.171 Y34.418
N3413 X50.319 Y33.519
N3414 X50.482 Y32.622
N3415 X50.662 Y31.728
N3416 X50.858 Y30.837
N3417 X51.069 Y29.95
N3418 X51.296 Y29.067
N3419 X51.539 Y28.188
N3420 X51.798 Y27.314
N3421 X52.072 Y26.444
N3422 X52.362 Y25.58
N3423 X52.668 Y24.721
N3424 X52.99 Y23.868
N3425 X53.332 Y23.023
N3426 X53.652 Y22.301
N3427 X53.875 Y21.845
N3428 X54.069 Y21.486
N3429 X54.216 Y21.236
N3430 X54.38 Y20.982
N3431 X54.577 Y20.751
N3432 X54.816 Y20.561
N3433 X55.086 Y20.421
N3434 X55.378 Y20.334
N3435 X55.681 Y20.305
N3436 X57.926
N3437 G3 X58.167 Y20.362 I-0.022 J0.635
N3438 G1 X58.238 Y20.394 Z-1.992
N3439 X58.306 Y20.425 Z-1.97
N3440 X58.369 Y20.454 Z-1.933
N3441 X58.424 Y20.479 Z-1.883
N3442 X58.469 Y20.5 Z-1.822
N3443 X58.503 Y20.515 Z-1.753
N3444 X58.524 Y20.524 Z-1.678
N3445 X58.531 Y20.528 Z-1.6
N3446 G0 Z5
N3447 X59.26 Y63.977
N3448 Z-1.2
N3449 G1 Z-1.6 F1524
N3450 X59.259 Y63.985 Z-1.678
N3451 X59.255 Y64.007 Z-1.753
N3452 X59.248 Y64.044 Z-1.822
N3453 X59.239 Y64.093 Z-1.883
N3454 X59.229 Y64.152 Z-1.933
N3455 X59.216 Y64.22 Z-1.97
N3456 X59.203 Y64.294 Z-1.992
N3457 X59.189 Y64.371 Z-2
N3458 G3 X59.001 Y64.534 I-0.195 J-0.035
N3459 G1 X56.816
N3460 X56.703 Y64.529
N3461 X56.553 Y64.518
N3462 X56.404 Y64.5
N3463 X56.256 Y64.474
N3464 X56.11 Y64.441
N3465 X55.965 Y64.401
N3466 X55.817 Y64.355
N3467 X55.662 Y64.299
N3468 X55.501 Y64.235
N3469 X55.327 Y64.157
N3470 X55.153 Y64.071
N3471 X54.963 Y63.967
N3472 X54.769 Y63.852
N3473 X54.564 Y63.718
N3474 X54.351 Y63.568
N3475 X54.128 Y63.398
N3476 X53.893 Y63.203
N3477 X53.652 Y62.988
N3478 X53.394 Y62.737
N3479 X53.133 Y62.465
N3480 X52.855 Y62.15
N3481 X52.57 Y61.802
N3482 X52.272 Y61.408
N3483 X51.956 Y60.954
N3484 X51.642 Y60.464
N3485 X51.303 Y59.887
N3486 X50.957 Y59.242
N3487 X50.611 Y58.532
N3488 X50.249 Y57.712
N3489 X49.914 Y56.864
N3490 X49.609 Y56.005
N3491 X49.33 Y55.137
N3492 X49.075 Y54.261
N3493 X48.844 Y53.379
N3494 X48.633 Y52.492
N3495 X48.443 Y51.6
N3496 X48.272 Y50.704
N3497 X48.12 Y49.805
N3498 X47.986 Y48.904
N3499 X47.869 Y47.999
N3500 X47.77 Y47.093
N3501 X47.688 Y46.185
N3502 X47.623 Y45.275
N3503 X47.574 Y44.365
N3504 X47.541 Y43.453
N3505 X47.525 Y42.542
N3506 Y41.63
N3507 X47.541 Y40.718
N3508 X47.573 Y39.807
N3509 X47.622 Y38.897
N3510 X47.686 Y37.987
N3511 X47.766 Y37.079
N3512 X47.862 Y36.172
N3513 X47.974 Y35.267
N3514 X48.101 Y34.364
N3515 X48.243 Y33.464
N3516 X48.402 Y32.566
N3517 X48.575 Y31.67
N3518 X48.764 Y30.778
N3519 X48.969 Y29.89
N3520 X49.188 Y29.005
N3521 X49.423 Y28.124
N3522 X49.673 Y27.247
N3523 X49.937 Y26.374
N3524 X50.218 Y25.507
N3525 X50.513 Y24.644
N3526 X50.826 Y23.788
N3527 X51.16 Y22.939
N3528 X51.452 Y22.268
N3529 X51.657 Y21.843
N3530 X51.843 Y21.492
N3531 X51.986 Y21.245
N3532 X52.138 Y21.006
N3533 X52.147 Y20.992
N3534 X52.345 Y20.757
N3535 X52.584 Y20.565
N3536 X52.855 Y20.422
N3537 X53.149 Y20.335
N3538 X53.455 Y20.305
N3539 X55.681
N3540 G3 X55.922 Y20.362 I-0.022 J0.635
N3541 G1 X55.993 Y20.394 Z-1.992
N3542 X56.061 Y20.425 Z-1.97
N3543 X56.124 Y20.454 Z-1.933
N3544 X56.179 Y20.479 Z-1.883
N3545 X56.224 Y20.5 Z-1.822
N3546 X56.258 Y20.515 Z-1.753
N3547 X56.279 Y20.524 Z-1.678
N3548 X56.286 Y20.528 Z-1.6
N3549 G0 Z5
N3550 X57.075 Y63.977
N3551 Z-1.2
N3552 G1 Z-1.6 F1524
N3553 X57.074 Y63.985 Z-1.678
N3554 X57.07 Y64.007 Z-1.753
N3555 X57.064 Y64.044 Z-1.822
N3556 X57.055 Y64.093 Z-1.883
N3557 X57.044 Y64.152 Z-1.933
N3558 X57.032 Y64.22 Z-1.97
N3559 X57.019 Y64.294 Z-1.992
N3560 X57.005 Y64.371 Z-2
N3561 G3 X56.816 Y64.534 I-0.195 J-0.035
N3562 G1 X54.653
N3563 X54.539 Y64.529
N3564 X54.389 Y64.518
N3565 X54.24 Y64.498
N3566 X54.093 Y64.471
N3567 X53.947 Y64.438
N3568 X53.802 Y64.398
N3569 X53.655 Y64.351
N3570 X53.499 Y64.294
N3571 X53.34 Y64.23
N3572 X53.166 Y64.151
N3573 X52.993 Y64.064
N3574 X52.804 Y63.96
N3575 X52.611 Y63.844
N3576 X52.408 Y63.711
N3577 X52.193 Y63.558
N3578 X51.974 Y63.389
N3579 X51.739 Y63.192
N3580 X51.503 Y62.978
N3581 X51.245 Y62.727
N3582 X50.989 Y62.456
N3583 X50.71 Y62.138
N3584 X50.43 Y61.793
N3585 X50.134 Y61.397
N3586 X49.825 Y60.949
N3587 X49.513 Y60.457
N3588 X49.178 Y59.881
N3589 X48.842 Y59.248
N3590 X48.501 Y58.539
N3591 X48.145 Y57.722
N3592 X47.814 Y56.873
N3593 X47.512 Y56.012
N3594 X47.238 Y55.143
N3595 X46.988 Y54.266
N3596 X46.76 Y53.383
N3597 X46.554 Y52.495
N3598 X46.368 Y51.602
N3599 X46.2 Y50.706
N3600 X46.052 Y49.806
N3601 X45.921 Y48.904
N3602 X45.807 Y47.999
N3603 X45.71 Y47.092
N3604 X45.63 Y46.184
N3605 X45.566 Y45.274
N3606 X45.518 Y44.364
N3607 X45.485 Y43.453
N3608 X45.469 Y42.541
N3609 Y41.629
N3610 X45.484 Y40.717
N3611 X45.515 Y39.806
N3612 X45.561 Y38.896
N3613 X45.623 Y37.986
N3614 X45.7 Y37.077
N3615 X45.792 Y36.17
N3616 X45.9 Y35.265
N3617 X46.022 Y34.361
N3618 X46.16 Y33.46
N3619 X46.312 Y32.561
N3620 X46.479 Y31.664
N3621 X46.661 Y30.771
N3622 X46.858 Y29.881
N3623 X47.07 Y28.994
N3624 X47.296 Y28.11
N3625 X47.536 Y27.231
N3626 X47.792 Y26.356
N3627 X48.062 Y25.485
N3628 X48.348 Y24.619
N3629 X48.652 Y23.759
N3630 X48.978 Y22.908
N3631 X49.255 Y22.258
N3632 X49.447 Y21.851
N3633 X49.627 Y21.506
N3634 X49.767 Y21.261
N3635 X49.915 Y21.023
N3636 X49.931 Y21.001
N3637 X50.128 Y20.763
N3638 X50.368 Y20.569
N3639 X50.641 Y20.424
N3640 X50.937 Y20.335
N3641 X51.244 Y20.305
N3642 X53.455
N3643 G3 X53.696 Y20.362 I-0.022 J0.635
N3644 G1 X53.767 Y20.394 Z-1.992
N3645 X53.835 Y20.425 Z-1.97
N3646 X53.898 Y20.454 Z-1.933
N3647 X53.953 Y20.479 Z-1.883
N3648 X53.998 Y20.5 Z-1.822
N3649 X54.032 Y20.515 Z-1.753
N3650 X54.053 Y20.524 Z-1.678
N3651 X54.06 Y20.528 Z-1.6
N3652 G0 Z5
N3653 X54.912 Y63.977
N3654 Z-1.2
N3655 G1 Z-1.6 F1524
N3656 X54.91 Y63.985 Z-1.678
N3657 X54.906 Y64.007 Z-1.753
N3658 X54.9 Y64.044 Z-1.822
N3659 X54.891 Y64.093 Z-1.883
N3660 X54.88 Y64.152 Z-1.933
N3661 X54.868 Y64.22 Z-1.97
N3662 X54.855 Y64.294 Z-1.992
N3663 X54.841 Y64.371 Z-2
N3664 G3 X54.653 Y64.534 I-0.195 J-0.035
N3665 G1 X52.582
N3666 X52.318 Y64.522
N3667 X52.169 Y64.506
N3668 X52.021 Y64.483
N3669 X51.874 Y64.452
N3670 X51.729 Y64.415
N3671 X51.585 Y64.372
N3672 X51.432 Y64.319
N3673 X51.277 Y64.259
N3674 X51.112 Y64.188
N3675 X50.938 Y64.104
N3676 X50.76 Y64.01
N3677 X50.566 Y63.898
N3678 X50.374 Y63.776
N3679 X50.162 Y63.631
N3680 X49.951 Y63.474
N3681 X49.722 Y63.289
N3682 X49.493 Y63.088
N3683 X49.245 Y62.854
N3684 X48.994 Y62.598
N3685 X48.724 Y62.301
N3686 X48.454 Y61.98
N3687 X48.158 Y61.598
N3688 X47.873 Y61.2
N3689 X47.557 Y60.718
N3690 X47.245 Y60.202
N3691 X46.92 Y59.614
N3692 X46.579 Y58.937
N3693 X46.23 Y58.172
N3694 X45.885 Y57.328
N3695 X45.571 Y56.472
N3696 X45.286 Y55.606
N3697 X45.027 Y54.731
N3698 X44.791 Y53.851
N3699 X44.578 Y52.964
N3700 X44.385 Y52.073
N3701 X44.212 Y51.178
N3702 X44.057 Y50.279
N3703 X43.92 Y49.378
N3704 X43.8 Y48.474
N3705 X43.697 Y47.568
N3706 X43.61 Y46.66
N3707 X43.539 Y45.751
N3708 X43.484 Y44.841
N3709 X43.444 Y43.93
N3710 X43.42 Y43.018
N3711 X43.411 Y42.107
N3712 X43.417 Y41.195
N3713 X43.439 Y40.283
N3714 X43.475 Y39.372
N3715 X43.527 Y38.462
N3716 X43.593 Y37.553
N3717 X43.674 Y36.644
N3718 X43.769 Y35.738
N3719 X43.88 Y34.832
N3720 X44.004 Y33.929
N3721 X44.143 Y33.028
N3722 X44.297 Y32.129
N3723 X44.465 Y31.233
N3724 X44.647 Y30.34
N3725 X44.843 Y29.449
N3726 X45.054 Y28.562
N3727 X45.279 Y27.678
N3728 X45.518 Y26.799
N3729 X45.772 Y25.923
N3730 X46.041 Y25.052
N3731 X46.327 Y24.186
N3732 X46.633 Y23.327
N3733 X46.922 Y22.592
N3734 X47.153 Y22.066
N3735 X47.332 Y21.696
N3736 X47.487 Y21.408
N3737 X47.622 Y21.177
N3738 X47.71 Y21.038
N3739 X47.907 Y20.789
N3740 X48.15 Y20.584
N3741 X48.428 Y20.431
N3742 X48.732 Y20.337
N3743 X49.048 Y20.305
N3744 X51.244
N3745 G3 X51.485 Y20.362 I-0.022 J0.635
N3746 G1 X51.556 Y20.394 Z-1.992
N3747 X51.625 Y20.425 Z-1.97
N3748 X51.687 Y20.454 Z-1.933
N3749 X51.743 Y20.479 Z-1.883
N3750 X51.788 Y20.5 Z-1.822
N3751 X51.822 Y20.515 Z-1.753
N3752 X51.842 Y20.524 Z-1.678
N3753 X51.849 Y20.528 Z-1.6
N3754 G0 Z5
N3755 X52.841 Y63.977
N3756 Z-1.2
N3757 G1 Z-1.6 F1524
N3758 X52.84 Y63.985 Z-1.678
N3759 X52.836 Y64.007 Z-1.753
N3760 X52.829 Y64.044 Z-1.822
N3761 X52.82 Y64.093 Z-1.883
N3762 X52.81 Y64.152 Z-1.933
N3763 X52.797 Y64.22 Z-1.97
N3764 X52.784 Y64.294 Z-1.992
N3765 X52.77 Y64.371 Z-2
N3766 G3 X52.582 Y64.534 I-0.195 J-0.035
N3767 G1 X50.397
N3768 X50.284 Y64.529
N3769 X50.134 Y64.518
N3770 X49.985 Y64.5
N3771 X49.837 Y64.473
N3772 X49.691 Y64.44
N3773 X49.546 Y64.401
N3774 X49.4 Y64.354
N3775 X49.251 Y64.3
N3776 X49.088 Y64.234
N3777 X48.925 Y64.161
N3778 X48.748 Y64.072
N3779 X48.565 Y63.972
N3780 X48.375 Y63.858
N3781 X48.174 Y63.727
N3782 X47.968 Y63.581
N3783 X47.745 Y63.409
N3784 X47.524 Y63.225
N3785 X47.282 Y63.007
N3786 X47.044 Y62.775
N3787 X46.781 Y62.499
N3788 X46.523 Y62.206
N3789 X46.241 Y61.859
N3790 X45.96 Y61.484
N3791 X45.659 Y61.05
N3792 X45.348 Y60.561
N3793 X45.036 Y60.027
N3794 X44.705 Y59.405
N3795 X44.363 Y58.7
N3796 X44.022 Y57.919
N3797 X43.689 Y57.07
N3798 X43.388 Y56.209
N3799 X43.115 Y55.34
N3800 X42.867 Y54.462
N3801 X42.642 Y53.578
N3802 X42.438 Y52.69
N3803 X42.255 Y51.796
N3804 X42.09 Y50.9
N3805 X41.944 Y50
N3806 X41.815 Y49.097
N3807 X41.703 Y48.192
N3808 X41.606 Y47.285
N3809 X41.526 Y46.377
N3810 X41.461 Y45.468
N3811 X41.412 Y44.557
N3812 X41.378 Y43.646
N3813 X41.358 Y42.734
N3814 X41.354 Y41.823
N3815 X41.364 Y40.911
N3816 X41.389 Y39.999
N3817 X41.428 Y39.088
N3818 X41.481 Y38.178
N3819 X41.549 Y37.269
N3820 X41.631 Y36.361
N3821 X41.728 Y35.454
N3822 X41.838 Y34.549
N3823 X41.962 Y33.646
N3824 X42.101 Y32.744
N3825 X42.253 Y31.845
N3826 X42.42 Y30.949
N3827 X42.6 Y30.055
N3828 X42.794 Y29.164
N3829 X43.002 Y28.276
N3830 X43.224 Y27.392
N3831 X43.46 Y26.511
N3832 X43.711 Y25.635
N3833 X43.977 Y24.762
N3834 X44.261 Y23.896
N3835 X44.569 Y23.038
N3836 X44.828 Y22.392
N3837 X45.021 Y21.961
N3838 X45.198 Y21.602
N3839 X45.335 Y21.352
N3840 X45.48 Y21.107
N3841 X45.531 Y21.029
N3842 X45.728 Y20.782
N3843 X45.97 Y20.58
N3844 X46.247 Y20.429
N3845 X46.549 Y20.336
N3846 X46.863 Y20.305
N3847 X49.048
N3848 G3 X49.289 Y20.362 I-0.022 J0.635
N3849 G1 X49.36 Y20.394 Z-1.992
N3850 X49.429 Y20.425 Z-1.97
N3851 X49.492 Y20.454 Z-1.933
N3852 X49.547 Y20.479 Z-1.883
N3853 X49.592 Y20.5 Z-1.822
N3854 X49.626 Y20.515 Z-1.753
N3855 X49.646 Y20.524 Z-1.678
N3856 X49.653 Y20.528 Z-1.6
N3857 G0 Z5
N3858 X50.656 Y63.977
N3859 Z-1.2
N3860 G1 Z-1.6 F1524
N3861 X50.655 Y63.985 Z-1.678
N3862 X50.651 Y64.007 Z-1.753
N3863 X50.644 Y64.044 Z-1.822
N3864 X50.636 Y64.093 Z-1.883
N3865 X50.625 Y64.152 Z-1.933
N3866 X50.613 Y64.22 Z-1.97
N3867 X50.6 Y64.294 Z-1.992
N3868 X50.586 Y64.371 Z-2
N3869 G3 X50.397 Y64.534 I-0.195 J-0.035
N3870 G1 X48.327
N3871 X48.063 Y64.521
N3872 X47.914 Y64.506
N3873 X47.766 Y64.482
N3874 X47.619 Y64.451
N3875 X47.474 Y64.414
N3876 X47.33 Y64.37
N3877 X47.179 Y64.318
N3878 X47.027 Y64.258
N3879 X46.86 Y64.185
N3880 X46.692 Y64.104
N3881 X46.511 Y64.008
N3882 X46.324 Y63.899
N3883 X46.13 Y63.776
N3884 X45.923 Y63.633
N3885 X45.714 Y63.476
N3886 X45.486 Y63.291
N3887 X45.262 Y63.094
N3888 X45.014 Y62.859
N3889 X44.772 Y62.61
N3890 X44.504 Y62.314
N3891 X44.242 Y61.999
N3892 X43.954 Y61.626
N3893 X43.667 Y61.222
N3894 X43.365 Y60.761
N3895 X43.046 Y60.229
N3896 X42.736 Y59.665
N3897 X42.407 Y59.007
N3898 X42.069 Y58.258
N3899 X41.725 Y57.413
N3900 X41.415 Y56.556
N3901 X41.133 Y55.688
N3902 X40.878 Y54.813
N3903 X40.647 Y53.931
N3904 X40.438 Y53.043
N3905 X40.25 Y52.151
N3906 X40.08 Y51.255
N3907 X39.929 Y50.356
N3908 X39.796 Y49.454
N3909 X39.679 Y48.55
N3910 X39.579 Y47.643
N3911 X39.494 Y46.736
N3912 X39.424 Y45.826
N3913 X39.37 Y44.916
N3914 X39.33 Y44.005
N3915 X39.305 Y43.094
N3916 X39.295 Y42.182
N3917 X39.299 Y41.27
N3918 X39.317 Y40.359
N3919 X39.349 Y39.447
N3920 X39.395 Y38.537
N3921 X39.454 Y37.627
N3922 X39.528 Y36.718
N3923 X39.615 Y35.81
N3924 X39.716 Y34.904
N3925 X39.831 Y34
N3926 X39.96 Y33.097
N3927 X40.101 Y32.196
N3928 X40.257 Y31.298
N3929 X40.426 Y30.402
N3930 X40.608 Y29.508
N3931 X40.804 Y28.618
N3932 X41.013 Y27.73
N3933 X41.236 Y26.846
N3934 X41.473 Y25.966
N3935 X41.725 Y25.089
N3936 X41.995 Y24.218
N3937 X42.286 Y23.354
N3938 X42.555 Y22.644
N3939 X42.773 Y22.126
N3940 X42.95 Y21.749
N3941 X43.099 Y21.46
N3942 X43.231 Y21.227
N3943 X43.336 Y21.057
N3944 X43.533 Y20.802
N3945 X43.777 Y20.591
N3946 X44.058 Y20.434
N3947 X44.366 Y20.338
N3948 X44.686 Y20.305
N3949 X46.863
N3950 G3 X47.104 Y20.362 I-0.022 J0.635
N3951 G1 X47.175 Y20.394 Z-1.992
N3952 X47.243 Y20.425 Z-1.97
N3953 X47.306 Y20.454 Z-1.933
N3954 X47.361 Y20.479 Z-1.883
N3955 X47.407 Y20.5 Z-1.822
N3956 X47.44 Y20.515 Z-1.753
N3957 X47.461 Y20.524 Z-1.678
N3958 X47.468 Y20.528 Z-1.6
N3959 G0 Z5
N3960 X48.586 Y63.977
N3961 Z-1.2
N3962 G1 Z-1.6 F1524
N3963 X48.584 Y63.985 Z-1.678
N3964 X48.58 Y64.007 Z-1.753
N3965 X48.574 Y64.044 Z-1.822
N3966 X48.565 Y64.093 Z-1.883
N3967 X48.554 Y64.152 Z-1.933
N3968 X48.542 Y64.22 Z-1.97
N3969 X48.529 Y64.294 Z-1.992
N3970 X48.515 Y64.371 Z-2
N3971 G3 X48.327 Y64.534 I-0.195 J-0.035
N3972 G1 X46.163
N3973 X46.049 Y64.529
N3974 X45.899 Y64.518
N3975 X45.751 Y64.5
N3976 X45.603 Y64.473
N3977 X45.457 Y64.44
N3978 X45.312 Y64.401
N3979 X45.167 Y64.354
N3980 X45.019 Y64.301
N3981 X44.857 Y64.235
N3982 X44.696 Y64.162
N3983 X44.52 Y64.074
N3984 X44.341 Y63.975
N3985 X44.151 Y63.861
N3986 X43.953 Y63.732
N3987 X43.749 Y63.586
N3988 X43.53 Y63.418
N3989 X43.311 Y63.235
N3990 X43.071 Y63.019
N3991 X42.835 Y62.788
N3992 X42.578 Y62.517
N3993 X42.322 Y62.226
N3994 X42.047 Y61.887
N3995 X41.768 Y61.515
N3996 X41.477 Y61.093
N3997 X41.169 Y60.608
N3998 X40.866 Y60.087
N3999 X40.542 Y59.478
N4000 X40.209 Y58.788
N4001 X39.879 Y58.03
N4002 X39.547 Y57.181
N4003 X39.247 Y56.32
N4004 X38.976 Y55.449
N4005 X38.731 Y54.571
N4006 X38.509 Y53.687
N4007 X38.309 Y52.797
N4008 X38.128 Y51.903
N4009 X37.967 Y51.006
N4010 X37.823 Y50.105
N4011 X37.696 Y49.202
N4012 X37.586 Y48.297
N4013 X37.491 Y47.39
N4014 X37.412 Y46.482
N4015 X37.347 Y45.573
N4016 X37.298 Y44.662
N4017 X37.262 Y43.751
N4018 X37.241 Y42.839
N4019 X37.234 Y41.928
N4020 X37.241 Y41.016
N4021 X37.262 Y40.104
N4022 X37.296 Y39.193
N4023 X37.344 Y38.283
N4024 X37.405 Y37.373
N4025 X37.479 Y36.464
N4026 X37.567 Y35.556
N4027 X37.668 Y34.65
N4028 X37.783 Y33.746
N4029 X37.91 Y32.843
N4030 X38.051 Y31.942
N4031 X38.205 Y31.043
N4032 X38.372 Y30.147
N4033 X38.553 Y29.253
N4034 X38.746 Y28.362
N4035 X38.952 Y27.474
N4036 X39.172 Y26.589
N4037 X39.407 Y25.708
N4038 X39.658 Y24.831
N4039 X39.928 Y23.96
N4040 X40.215 Y23.117
N4041 X40.46 Y22.477
N4042 X40.65 Y22.035
N4043 X40.825 Y21.667
N4044 X40.959 Y21.412
N4045 X41.099 Y21.168
N4046 X41.174 Y21.049
N4047 X41.371 Y20.796
N4048 X41.614 Y20.588
N4049 X41.895 Y20.433
N4050 X42.2 Y20.337
N4051 X42.519 Y20.305
N4052 X44.686
N4053 G3 X44.927 Y20.362 I-0.022 J0.635
N4054 G1 X44.998 Y20.394 Z-1.992
N4055 X45.067 Y20.425 Z-1.97
N4056 X45.13 Y20.454 Z-1.933
N4057 X45.185 Y20.479 Z-1.883
N4058 X45.23 Y20.5 Z-1.822
N4059 X45.264 Y20.515 Z-1.753
N4060 X45.284 Y20.524 Z-1.678
N4061 X45.291 Y20.528 Z-1.6
N4062 G0 Z5
N4063 X46.422 Y63.977
N4064 Z-1.2
N4065 G1 Z-1.6 F1524
N4066 X46.421 Y63.985 Z-1.678
N4067 X46.416 Y64.007 Z-1.753
N4068 X46.41 Y64.044 Z-1.822
N4069 X46.401 Y64.093 Z-1.883
N4070 X46.39 Y64.152 Z-1.933
N4071 X46.378 Y64.22 Z-1.97
N4072 X46.365 Y64.294 Z-1.992
N4073 X46.351 Y64.371 Z-2
N4074 G3 X46.163 Y64.534 I-0.195 J-0.035
N4075 G1 X44.092
N4076 X43.829 Y64.521
N4077 X43.679 Y64.504
N4078 X43.531 Y64.48
N4079 X43.385 Y64.448
N4080 X43.24 Y64.41
N4081 X43.096 Y64.366
N4082 X42.948 Y64.314
N4083 X42.794 Y64.253
N4084 X42.627 Y64.179
N4085 X42.461 Y64.098
N4086 X42.279 Y64
N4087 X42.096 Y63.893
N4088 X41.9 Y63.767
N4089 X41.698 Y63.626
N4090 X41.487 Y63.467
N4091 X41.264 Y63.284
N4092 X41.038 Y63.083
N4093 X40.797 Y62.853
N4094 X40.552 Y62.6
N4095 X40.292 Y62.309
N4096 X40.027 Y61.988
N4097 X39.749 Y61.624
N4098 X39.458 Y61.212
N4099 X39.168 Y60.764
N4100 X38.851 Y60.231
N4101 X38.546 Y59.67
N4102 X38.226 Y59.023
N4103 X37.895 Y58.282
N4104 X37.558 Y57.442
N4105 X37.251 Y56.583
N4106 X36.974 Y55.715
N4107 X36.723 Y54.838
N4108 X36.496 Y53.955
N4109 X36.292 Y53.066
N4110 X36.107 Y52.173
N4111 X35.942 Y51.277
N4112 X35.795 Y50.377
N4113 X35.665 Y49.474
N4114 X35.551 Y48.57
N4115 X35.453 Y47.663
N4116 X35.37 Y46.755
N4117 X35.303 Y45.846
N4118 X35.249 Y44.935
N4119 X35.21 Y44.024
N4120 X35.185 Y43.113
N4121 X35.173 Y42.201
N4122 X35.175 Y41.289
N4123 X35.191 Y40.378
N4124 X35.22 Y39.466
N4125 X35.262 Y38.556
N4126 X35.317 Y37.645
N4127 X35.385 Y36.736
N4128 X35.466 Y35.828
N4129 X35.56 Y34.921
N4130 X35.667 Y34.015
N4131 X35.786 Y33.112
N4132 X35.919 Y32.209
N4133 X36.064 Y31.309
N4134 X36.222 Y30.411
N4135 X36.393 Y29.515
N4136 X36.576 Y28.622
N4137 X36.772 Y27.732
N4138 X36.982 Y26.844
N4139 X37.206 Y25.961
N4140 X37.445 Y25.081
N4141 X37.702 Y24.206
N4142 X37.984 Y23.339
N4143 X38.232 Y22.661
N4144 X38.437 Y22.161
N4145 X38.611 Y21.78
N4146 X38.755 Y21.495
N4147 X38.885 Y21.261
N4148 X39.031 Y21.019
N4149 X39.229 Y20.775
N4150 X39.47 Y20.576
N4151 X39.746 Y20.427
N4152 X40.045 Y20.336
N4153 X40.357 Y20.305
N4154 X42.519
N4155 G3 X42.76 Y20.362 I-0.022 J0.635
N4156 G1 X42.831 Y20.394 Z-1.992
N4157 X42.9 Y20.425 Z-1.97
N4158 X42.962 Y20.454 Z-1.933
N4159 X43.018 Y20.479 Z-1.883
N4160 X43.063 Y20.5 Z-1.822
N4161 X43.097 Y20.515 Z-1.753
N4162 X43.117 Y20.524 Z-1.678
N4163 X43.124 Y20.528 Z-1.6
N4164 G0 Z5
N4165 X44.351 Y63.977
N4166 Z-1.2
N4167 G1 Z-1.6 F1524
N4168 X44.35 Y63.985 Z-1.678
N4169 X44.346 Y64.007 Z-1.753
N4170 X44.339 Y64.044 Z-1.822
N4171 X44.331 Y64.093 Z-1.883
N4172 X44.32 Y64.152 Z-1.933
N4173 X44.308 Y64.22 Z-1.97
N4174 X44.294 Y64.294 Z-1.992
N4175 X44.281 Y64.371 Z-2
N4176 G3 X44.092 Y64.534 I-0.195 J-0.035
N4177 G1 X41.959
N4178 X41.845 Y64.529
N4179 X41.695 Y64.519
N4180 X41.546 Y64.501
N4181 X41.399 Y64.475
N4182 X41.252 Y64.442
N4183 X41.108 Y64.402
N4184 X40.963 Y64.356
N4185 X40.817 Y64.303
N4186 X40.656 Y64.238
N4187 X40.496 Y64.166
N4188 X40.323 Y64.079
N4189 X40.144 Y63.982
N4190 X39.957 Y63.87
N4191 X39.759 Y63.74
N4192 X39.558 Y63.598
N4193 X39.342 Y63.431
N4194 X39.126 Y63.251
N4195 X38.888 Y63.037
N4196 X38.656 Y62.811
N4197 X38.401 Y62.542
N4198 X38.151 Y62.258
N4199 X37.878 Y61.923
N4200 X37.606 Y61.561
N4201 X37.318 Y61.144
N4202 X37.019 Y60.674
N4203 X36.719 Y60.16
N4204 X36.399 Y59.56
N4205 X36.077 Y58.894
N4206 X35.755 Y58.156
N4207 X35.422 Y57.307
N4208 X35.122 Y56.446
N4209 X34.852 Y55.575
N4210 X34.607 Y54.697
N4211 X34.386 Y53.812
N4212 X34.187 Y52.922
N4213 X34.008 Y52.028
N4214 X33.848 Y51.131
N4215 X33.705 Y50.23
N4216 X33.579 Y49.327
N4217 X33.47 Y48.422
N4218 X33.375 Y47.515
N4219 X33.296 Y46.607
N4220 X33.231 Y45.697
N4221 X33.18 Y44.787
N4222 X33.143 Y43.876
N4223 X33.12 Y42.964
N4224 X33.11 Y42.052
N4225 X33.114 Y41.14
N4226 X33.13 Y40.229
N4227 X33.159 Y39.317
N4228 X33.202 Y38.407
N4229 X33.256 Y37.496
N4230 X33.324 Y36.587
N4231 X33.404 Y35.679
N4232 X33.497 Y34.772
N4233 X33.603 Y33.866
N4234 X33.721 Y32.962
N4235 X33.851 Y32.06
N4236 X33.994 Y31.159
N4237 X34.149 Y30.261
N4238 X34.317 Y29.364
N4239 X34.497 Y28.47
N4240 X34.69 Y27.579
N4241 X34.897 Y26.691
N4242 X35.117 Y25.806
N4243 X35.354 Y24.926
N4244 X35.611 Y24.051
N4245 X35.884 Y23.212
N4246 X36.12 Y22.571
N4247 X36.316 Y22.095
N4248 X36.479 Y21.74
N4249 X36.621 Y21.46
N4250 X36.746 Y21.235
N4251 X36.848 Y21.068
N4252 X37.044 Y20.809
N4253 X37.289 Y20.596
N4254 X37.572 Y20.436
N4255 X37.881 Y20.338
N4256 X38.204 Y20.305
N4257 X40.357
N4258 G3 X40.598 Y20.362 I-0.022 J0.635
N4259 G1 X40.669 Y20.394 Z-1.992
N4260 X40.737 Y20.425 Z-1.97
N4261 X40.8 Y20.454 Z-1.933
N4262 X40.855 Y20.479 Z-1.883
N4263 X40.901 Y20.5 Z-1.822
N4264 X40.934 Y20.515 Z-1.753
N4265 X40.955 Y20.524 Z-1.678
N4266 X40.962 Y20.528 Z-1.6
N4267 G0 Z5
N4268 X42.218 Y63.977
N4269 Z-1.2
N4270 G1 Z-1.6 F1524
N4271 X42.217 Y63.985 Z-1.678
N4272 X42.213 Y64.007 Z-1.753
N4273 X42.206 Y64.044 Z-1.822
N4274 X42.197 Y64.093 Z-1.883
N4275 X42.187 Y64.152 Z-1.933
N4276 X42.174 Y64.22 Z-1.97
N4277 X42.161 Y64.294 Z-1.992
N4278 X42.147 Y64.371 Z-2
N4279 G3 X41.959 Y64.534 I-0.195 J-0.035
N4280 G1 X39.837
N4281 X39.723 Y64.529
N4282 X39.574 Y64.518
N4283 X39.425 Y64.498
N4284 X39.277 Y64.471
N4285 X39.131 Y64.437
N4286 X38.987 Y64.396
N4287 X38.84 Y64.349
N4288 X38.694 Y64.295
N4289 X38.534 Y64.229
N4290 X38.37 Y64.153
N4291 X38.198 Y64.066
N4292 X38.016 Y63.965
N4293 X37.831 Y63.852
N4294 X37.63 Y63.719
N4295 X37.431 Y63.575
N4296 X37.212 Y63.404
N4297 X36.997 Y63.222
N4298 X36.76 Y63.006
N4299 X36.528 Y62.777
N4300 X36.271 Y62.503
N4301 X36.021 Y62.215
N4302 X35.744 Y61.869
N4303 X35.476 Y61.508
N4304 X35.185 Y61.08
N4305 X34.892 Y60.613
N4306 X34.589 Y60.085
N4307 X34.269 Y59.476
N4308 X33.954 Y58.812
N4309 X33.631 Y58.06
N4310 X33.304 Y57.209
N4311 X33.01 Y56.346
N4312 X32.744 Y55.473
N4313 X32.504 Y54.594
N4314 X32.288 Y53.708
N4315 X32.093 Y52.817
N4316 X31.918 Y51.922
N4317 X31.761 Y51.024
N4318 X31.622 Y50.123
N4319 X31.5 Y49.219
N4320 X31.393 Y48.314
N4321 X31.301 Y47.407
N4322 X31.224 Y46.498
N4323 X31.162 Y45.588
N4324 X31.113 Y44.678
N4325 X31.077 Y43.767
N4326 X31.055 Y42.855
N4327 X31.046 Y41.944
N4328 X31.05 Y41.032
N4329 X31.067 Y40.12
N4330 X31.096 Y39.209
N4331 X31.138 Y38.298
N4332 X31.192 Y37.388
N4333 X31.259 Y36.478
N4334 X31.339 Y35.57
N4335 X31.43 Y34.663
N4336 X31.534 Y33.757
N4337 X31.65 Y32.852
N4338 X31.778 Y31.95
N4339 X31.918 Y31.049
N4340 X32.07 Y30.15
N4341 X32.234 Y29.253
N4342 X32.411 Y28.358
N4343 X32.6 Y27.466
N4344 X32.803 Y26.577
N4345 X33.021 Y25.692
N4346 X33.256 Y24.811
N4347 X33.511 Y23.935
N4348 X33.77 Y23.138
N4349 X33.997 Y22.521
N4350 X34.177 Y22.084
N4351 X34.346 Y21.717
N4352 X34.476 Y21.459
N4353 X34.609 Y21.219
N4354 X34.701 Y21.068
N4355 X34.898 Y20.809
N4356 X35.142 Y20.596
N4357 X35.425 Y20.436
N4358 X35.735 Y20.338
N4359 X36.058 Y20.305
N4360 X38.204
N4361 G3 X38.445 Y20.362 I-0.022 J0.635
N4362 G1 X38.516 Y20.394 Z-1.992
N4363 X38.585 Y20.425 Z-1.97
N4364 X38.648 Y20.454 Z-1.933
N4365 X38.703 Y20.479 Z-1.883
N4366 X38.748 Y20.5 Z-1.822
N4367 X38.782 Y20.515 Z-1.753
N4368 X38.802 Y20.524 Z-1.678
N4369 X38.809 Y20.528 Z-1.6
N4370 G0 Z5
N4371 X40.096 Y63.977
N4372 Z-1.2
N4373 G1 Z-1.6 F1524
N4374 X40.095 Y63.985 Z-1.678
N4375 X40.091 Y64.007 Z-1.753
N4376 X40.084 Y64.044 Z-1.822
N4377 X40.075 Y64.093 Z-1.883
N4378 X40.065 Y64.152 Z-1.933
N4379 X40.052 Y64.22 Z-1.97
N4380 X40.039 Y64.294 Z-1.992
N4381 X40.025 Y64.371 Z-2
N4382 G3 X39.837 Y64.534 I-0.195 J-0.035
N4383 G1 X37.766
N4384 X37.652 Y64.529
N4385 X37.503 Y64.519
N4386 X37.354 Y64.501
N4387 X37.206 Y64.475
N4388 X37.06 Y64.442
N4389 X36.915 Y64.403
N4390 X36.772 Y64.357
N4391 X36.624 Y64.303
N4392 X36.469 Y64.241
N4393 X36.302 Y64.165
N4394 X36.135 Y64.082
N4395 X35.953 Y63.982
N4396 X35.771 Y63.873
N4397 X35.575 Y63.744
N4398 X35.374 Y63.602
N4399 X35.163 Y63.439
N4400 X34.943 Y63.256
N4401 X34.716 Y63.051
N4402 X34.479 Y62.82
N4403 X34.234 Y62.561
N4404 X33.977 Y62.27
N4405 X33.711 Y61.943
N4406 X33.441 Y61.582
N4407 X33.149 Y61.16
N4408 X32.868 Y60.718
