%
(SlotlessMachineCode)
(T2  D=6 CR=0 - ZMIN=-10.99 - flat end mill)
N0 G90
N1 G17
(Adaptive3)
N2 T2 M6
N3 S10000 M3
N5 G0 X30.503 Y204.356
N6 Z15
N7 Z5
N8 Z-8.794
N9 G1 Z-9.394 F1440
N10 X30.51 Y204.354 Z-9.487
N11 X30.531 Y204.347 Z-9.579
N12 X30.565 Y204.336 Z-9.666
N13 X30.612 Y204.32 Z-9.746
N14 X30.67 Y204.301 Z-9.818
N15 X30.738 Y204.279 Z-9.879
N16 X30.814 Y204.254 Z-9.928
N17 X30.896 Y204.226 Z-9.964
N18 X30.983 Y204.198 Z-9.986
N19 X31.073 Y204.168 Z-9.994
N20 G3 X34.299 Y203.478 I4.801 J14.546
N21 G1 X34.343 Y203.475
N22 X34.561 Y203.456
N23 X34.778 Y203.432
N24 X34.996 Y203.4
N25 X35.213 Y203.363
N26 X35.431 Y203.319
N27 X35.648 Y203.265
N28 X35.866 Y203.204
N29 X36.084 Y203.132
N30 X36.301 Y203.049
N31 X36.519 Y202.943
N32 X36.736 Y202.836
N33 X36.954 Y202.685
N34 X37.042 Y202.621
N35 X37.421 Y202.381
N36 X37.783 Y202.188
N37 X38.255 Y201.985
N38 X38.885 Y201.772
N39 X39.767 Y201.551
N40 X40.711 Y201.393
N41 X41.663 Y201.288
N42 X42.618 Y201.218
N43 X43.575 Y201.171
N44 X44.532 Y201.14
N45 X45.49 Y201.119
N46 X46.39 Y201.105
N47 X46.69 Y201.132
N48 X46.979 Y201.221
N49 X47.242 Y201.367
N50 X47.47 Y201.565
N51 X47.652 Y201.805
N52 X47.668 Y201.833
N53 X47.689 Y201.86
N54 X48.191 Y202.404
N55 X48.264 Y202.471
N56 X48.49 Y202.621
N57 X48.916 Y202.895
N58 X49.134 Y203.003
N59 X49.262 Y203.057
N60 X49.569 Y203.171
N61 X49.787 Y203.236
N62 X49.924 Y203.274
N63 X50.222 Y203.343
N64 X50.439 Y203.382
N65 X50.657 Y203.416
N66 X50.874 Y203.445
N67 G3 X50.733 Y204.635 I-0.1 J0.592
N68 G1 X37.365 Y203.697
N69 G3 X36.888 Y202.797 I0.042 J-0.599
N70 X37.042 Y202.621 I0.519 J0.301
N71 G1 X37.36 Y202.396
N72 X37.824 Y201.869
N73 X37.921 Y201.751
N74 X38.041 Y201.542
N75 X38.045 Y201.533
N76 X38.145 Y201.358
N77 X38.25 Y201.202
N78 X38.393 Y201.025
N79 X38.577 Y200.829
N80 X38.794 Y200.633
N81 X39.076 Y200.418
N82 X39.42 Y200.196
N83 X39.855 Y199.962
N84 X40.4 Y199.723
N85 X41.116 Y199.476
N86 X42.044 Y199.237
N87 X42.987 Y199.07
N88 X43.937 Y198.952
N89 X44.758 Y198.89
N90 X45.356 Y198.893
N91 X45.84 Y198.934
N92 X45.974 Y198.957
N93 X46.267 Y199.041
N94 X46.533 Y199.189
N95 X46.759 Y199.393
N96 X46.932 Y199.643
N97 X47.044 Y199.926
N98 X47.09 Y200.227
N99 X47.118 Y200.445
N100 X47.162 Y200.663
N101 X47.226 Y200.88
N102 G3 X46.701 Y201.627 I-0.581 J0.15
N103 G1 X38.646 Y202.381
N104 G3 X38.045 Y201.533 I-0.056 J-0.597
N105 G1 X38.216 Y201.193
N106 X38.396 Y200.581
N107 X38.409 Y200.445
N108 X38.43 Y200.293
N109 X38.462 Y200.147
N110 X38.513 Y199.986
N111 X38.586 Y199.804
N112 X38.678 Y199.62
N113 X38.807 Y199.408
N114 X38.968 Y199.185
N115 X39.162 Y198.957
N116 X39.419 Y198.7
N117 X39.716 Y198.448
N118 X40.085 Y198.181
N119 X40.535 Y197.91
N120 X41.1 Y197.627
N121 X41.764 Y197.359
N122 X42.507 Y197.127
N123 X43.263 Y196.955
N124 X43.927 Y196.86
N125 X44.49 Y196.825
N126 X44.933 Y196.833
N127 X45.36 Y196.876
N128 X45.716 Y196.94
N129 X46.071 Y197.034
N130 X46.148 Y197.061
N131 X46.407 Y197.184
N132 X46.636 Y197.357
N133 X46.825 Y197.573
N134 X46.965 Y197.823
N135 X47.052 Y198.097
N136 X47.081 Y198.382
N137 X47.08 Y199.792
N138 X47.082 Y200.01
N139 X47.09 Y200.227
N140 G3 X46.51 Y200.827 I-0.6 J0
N141 G1 X39.028 Y201.077
N142 G3 X38.409 Y200.445 I-0.02 J-0.6
N143 G1 X38.447 Y200.01
N144 X38.453 Y199.792
N145 Y198.921
N146 X38.46 Y198.772
N147 X38.486 Y198.599
N148 X38.528 Y198.412
N149 X38.596 Y198.199
N150 X38.683 Y197.984
N151 X38.808 Y197.735
N152 X38.958 Y197.488
N153 X39.158 Y197.213
N154 X39.394 Y196.937
N155 X39.69 Y196.642
N156 X40.035 Y196.35
N157 X40.459 Y196.046
N158 X40.919 Y195.768
N159 X41.452 Y195.504
N160 X42.028 Y195.272
N161 X42.618 Y195.089
N162 X43.215 Y194.955
N163 X43.802 Y194.873
N164 X44.366 Y194.839
N165 X44.852 Y194.849
N166 X45.268 Y194.891
N167 X45.666 Y194.963
N168 X46.003 Y195.054
N169 X46.152 Y195.106
N170 X46.41 Y195.23
N171 X46.639 Y195.403
N172 X46.827 Y195.619
N173 X46.967 Y195.868
N174 X47.053 Y196.141
N175 X47.083 Y196.426
N176 X47.081 Y198.382
N177 G3 X46.525 Y198.959 I-0.6 J-0.021
N178 G1 X39.096 Y199.499
N179 G3 X38.453 Y198.921 I-0.043 J-0.598
N180 G1 X38.452 Y197.18
N181 X38.464 Y196.931
N182 X38.488 Y196.748
N183 X38.534 Y196.533
N184 X38.599 Y196.316
N185 X38.696 Y196.067
N186 X38.817 Y195.818
N187 X38.981 Y195.538
N188 X39.174 Y195.263
N189 X39.424 Y194.961
N190 X39.705 Y194.673
N191 X40.049 Y194.373
N192 X40.448 Y194.078
N193 X40.881 Y193.808
N194 X41.374 Y193.553
N195 X41.917 Y193.325
N196 X42.487 Y193.139
N197 X43.065 Y193
N198 X43.647 Y192.909
N199 X44.218 Y192.866
N200 X44.722 Y192.868
N201 X45.173 Y192.907
N202 X45.575 Y192.975
N203 X45.929 Y193.063
N204 X46.133 Y193.132
N205 X46.396 Y193.253
N206 X46.629 Y193.426
N207 X46.822 Y193.643
N208 X46.965 Y193.895
N209 X47.054 Y194.171
N210 X47.084 Y194.459
N211 X47.083 Y196.426
N212 G3 X46.544 Y197.002 I-0.6 J-0.021
N213 G1 X39.112 Y197.756
N214 G3 X38.452 Y197.18 I-0.061 J-0.597
N215 G1 X38.451 Y195.221
N216 X38.464 Y194.965
N217 X38.488 Y194.776
N218 X38.535 Y194.557
N219 X38.601 Y194.335
N220 X38.7 Y194.082
N221 X38.822 Y193.83
N222 X38.987 Y193.55
N223 X39.182 Y193.272
N224 X39.426 Y192.977
N225 X39.717 Y192.679
N226 X40.048 Y192.39
N227 X40.444 Y192.097
N228 X40.885 Y191.821
N229 X41.364 Y191.574
N230 X41.896 Y191.352
N231 X42.46 Y191.167
N232 X43.042 Y191.027
N233 X43.626 Y190.936
N234 X44.201 Y190.892
N235 X44.714 Y190.895
N236 X45.163 Y190.933
N237 X45.571 Y191.002
N238 X45.924 Y191.09
N239 X46.134 Y191.162
N240 X46.398 Y191.283
N241 X46.631 Y191.455
N242 X46.823 Y191.672
N243 X46.967 Y191.924
N244 X47.055 Y192.2
N245 X47.085 Y192.489
N246 X47.084 Y194.459
N247 G3 X46.545 Y195.035 I-0.6 J-0.021
N248 G1 X39.112 Y195.797
N249 G3 X38.505 Y195.449 I-0.061 J-0.597
N250 X38.451 Y195.221 I0.546 J-0.249
N251 G1 X38.45 Y193.263
N252 X38.464 Y192.981
N253 X38.489 Y192.792
N254 X38.535 Y192.574
N255 X38.602 Y192.351
N256 X38.7 Y192.098
N257 X38.822 Y191.846
N258 X38.986 Y191.567
N259 X39.181 Y191.289
N260 X39.424 Y190.997
N261 X39.714 Y190.699
N262 X40.042 Y190.412
N263 X40.435 Y190.121
N264 X40.876 Y189.846
N265 X41.353 Y189.6
N266 X41.884 Y189.378
N267 X42.449 Y189.193
N268 X43.03 Y189.053
N269 X43.616 Y188.962
N270 X44.192 Y188.918
N271 X44.708 Y188.921
N272 X45.16 Y188.96
N273 X45.568 Y189.028
N274 X45.922 Y189.117
N275 X46.135 Y189.189
N276 X46.399 Y189.31
N277 X46.632 Y189.483
N278 X46.824 Y189.7
N279 X46.968 Y189.952
N280 X47.056 Y190.228
N281 X47.086 Y190.516
N282 X47.085 Y192.489
N283 G3 X46.548 Y193.064 I-0.6 J-0.021
N284 G1 X39.112 Y193.838
N285 G3 X38.45 Y193.263 I-0.062 J-0.597
N286 G1 X38.449 Y191.184
N287 X38.458 Y191.004
N288 X38.482 Y190.815
N289 X38.529 Y190.597
N290 X38.595 Y190.375
N291 X38.694 Y190.122
N292 X38.816 Y189.87
N293 X38.98 Y189.591
N294 X39.174 Y189.314
N295 X39.416 Y189.022
N296 X39.707 Y188.724
N297 X40.034 Y188.438
N298 X40.427 Y188.147
N299 X40.868 Y187.872
N300 X41.344 Y187.626
N301 X41.875 Y187.404
N302 X42.441 Y187.219
N303 X43.023 Y187.079
N304 X43.61 Y186.987
N305 X44.187 Y186.943
N306 X44.704 Y186.946
N307 X45.158 Y186.985
N308 X45.567 Y187.053
N309 X45.922 Y187.143
N310 X46.137 Y187.215
N311 X46.4 Y187.336
N312 X46.633 Y187.509
N313 X46.826 Y187.726
N314 X46.969 Y187.978
N315 X47.058 Y188.254
N316 X47.088 Y188.542
N317 X47.086 Y190.516
N318 G3 X46.54 Y191.092 I-0.6 J-0.021
N319 G1 X39.102 Y191.76
N320 G3 X38.503 Y191.412 I-0.054 J-0.598
N321 X38.449 Y191.184 I0.546 J-0.249
N322 G1 X38.448 Y189.225
N323 X38.458 Y189.023
N324 X38.482 Y188.834
N325 X38.529 Y188.617
N326 X38.595 Y188.395
N327 X38.693 Y188.143
N328 X38.815 Y187.891
N329 X38.978 Y187.614
N330 X39.173 Y187.336
N331 X39.414 Y187.046
N332 X39.704 Y186.748
N333 X40.031 Y186.462
N334 X40.423 Y186.172
N335 X40.865 Y185.897
N336 X41.341 Y185.651
N337 X41.871 Y185.429
N338 X42.437 Y185.244
N339 X43.02 Y185.104
N340 X43.607 Y185.012
N341 X44.185 Y184.968
N342 X44.703 Y184.971
N343 X45.158 Y185.01
N344 X45.567 Y185.079
N345 X45.923 Y185.168
N346 X46.138 Y185.241
N347 X46.401 Y185.362
N348 X46.634 Y185.534
N349 X46.827 Y185.751
N350 X46.97 Y186.003
N351 X47.059 Y186.279
N352 X47.089 Y186.568
N353 X47.088 Y188.542
N354 G3 X46.543 Y189.118 I-0.6 J-0.021
N355 G1 X39.102 Y189.801
N356 G3 X38.502 Y189.453 I-0.055 J-0.597
N357 X38.448 Y189.225 I0.546 J-0.249
N358 G1 X38.447 Y187.168
N359 X38.455 Y187.019
N360 X38.483 Y186.823
N361 X38.533 Y186.606
N362 X38.605 Y186.378
N363 X38.707 Y186.126
N364 X38.836 Y185.868
N365 X39.004 Y185.593
N366 X39.21 Y185.308
N367 X39.455 Y185.021
N368 X39.758 Y184.719
N369 X40.092 Y184.435
N370 X40.489 Y184.15
N371 X40.944 Y183.875
N372 X41.434 Y183.631
N373 X41.967 Y183.417
N374 X42.536 Y183.24
N375 X43.122 Y183.108
N376 X43.711 Y183.024
N377 X44.281 Y182.99
N378 X44.793 Y183
N379 X45.227 Y183.043
N380 X45.636 Y183.118
N381 X45.982 Y183.21
N382 X46.158 Y183.272
N383 X46.417 Y183.395
N384 X46.645 Y183.569
N385 X46.834 Y183.785
N386 X46.974 Y184.034
N387 X47.061 Y184.308
N388 X47.09 Y184.593
N389 X47.089 Y186.568
N390 G3 X46.538 Y187.144 I-0.6 J-0.021
N391 G1 X39.095 Y187.746
N392 G3 X38.447 Y187.168 I-0.048 J-0.598
N393 G1 X38.449 Y185.21
N394 X38.456 Y185.06
N395 X38.481 Y184.873
N396 X38.529 Y184.655
N397 X38.595 Y184.434
N398 X38.694 Y184.182
N399 X38.817 Y183.93
N400 X38.983 Y183.649
N401 X39.177 Y183.375
N402 X39.424 Y183.078
N403 X39.707 Y182.79
N404 X40.042 Y182.499
N405 X40.439 Y182.207
N406 X40.87 Y181.94
N407 X41.353 Y181.692
N408 X41.889 Y181.47
N409 X42.458 Y181.286
N410 X43.039 Y181.148
N411 X43.626 Y181.058
N412 X44.202 Y181.016
N413 X44.716 Y181.02
N414 X45.175 Y181.061
N415 X45.581 Y181.13
N416 X45.937 Y181.221
N417 X46.144 Y181.291
N418 X46.407 Y181.413
N419 X46.639 Y181.586
N420 X46.83 Y181.802
N421 X46.973 Y182.054
N422 X47.062 Y182.329
N423 X47.091 Y182.617
N424 X47.09 Y184.593
N425 G3 X46.54 Y185.169 I-0.6 J-0.021
N426 G1 X39.098 Y185.787
N427 G3 X38.449 Y185.21 I-0.05 J-0.598
N428 G1 X38.45 Y183.251
N429 X38.458 Y183.087
N430 X38.483 Y182.899
N431 X38.53 Y182.681
N432 X38.597 Y182.46
N433 X38.695 Y182.209
N434 X38.817 Y181.958
N435 X38.98 Y181.68
N436 X39.175 Y181.404
N437 X39.417 Y181.112
N438 X39.706 Y180.816
N439 X40.035 Y180.53
N440 X40.428 Y180.24
N441 X40.868 Y179.966
N442 X41.345 Y179.721
N443 X41.876 Y179.499
N444 X42.442 Y179.315
N445 X43.026 Y179.175
N446 X43.614 Y179.084
N447 X44.192 Y179.041
N448 X44.71 Y179.044
N449 X45.166 Y179.084
N450 X45.575 Y179.153
N451 X45.93 Y179.243
N452 X46.143 Y179.315
N453 X46.406 Y179.436
N454 X46.639 Y179.609
N455 X46.831 Y179.826
N456 X46.974 Y180.077
N457 X47.063 Y180.353
N458 X47.093 Y180.641
N459 X47.091 Y182.617
N460 G3 X47.038 Y182.845 I-0.6 J-0.021
N461 X46.543 Y183.193 I-0.546 J-0.249
N462 G1 X39.101 Y183.828
N463 G3 X38.45 Y183.251 I-0.051 J-0.598
N464 G1 X38.452 Y181.292
N465 X38.461 Y181.111
N466 X38.486 Y180.922
N467 X38.532 Y180.706
N468 X38.599 Y180.484
N469 X38.697 Y180.233
N470 X38.819 Y179.981
N471 X38.983 Y179.704
N472 X39.177 Y179.427
N473 X39.419 Y179.137
N474 X39.709 Y178.839
N475 X40.036 Y178.555
N476 X40.428 Y178.265
N477 X40.87 Y177.99
N478 X41.346 Y177.745
N479 X41.877 Y177.524
N480 X42.444 Y177.339
N481 X43.027 Y177.2
N482 X43.615 Y177.108
N483 X44.194 Y177.065
N484 X44.712 Y177.069
N485 X45.167 Y177.108
N486 X45.576 Y177.177
N487 X45.931 Y177.267
N488 X46.145 Y177.34
N489 X46.408 Y177.461
N490 X46.64 Y177.633
N491 X46.832 Y177.85
N492 X46.976 Y178.102
N493 X47.064 Y178.378
N494 X47.094 Y178.666
N495 X47.093 Y180.641
N496 G3 X47.039 Y180.869 I-0.6 J-0.021
N497 X46.545 Y181.218 I-0.546 J-0.249
N498 G1 X39.104 Y181.869
N499 G3 X38.452 Y181.292 I-0.052 J-0.598
N500 G1 X38.453 Y179.333
N501 X38.463 Y179.135
N502 X38.488 Y178.946
N503 X38.534 Y178.73
N504 X38.601 Y178.508
N505 X38.699 Y178.257
N506 X38.821 Y178.005
N507 X38.985 Y177.728
N508 X39.18 Y177.451
N509 X39.421 Y177.161
N510 X39.711 Y176.864
N511 X40.038 Y176.579
N512 X40.43 Y176.289
N513 X40.872 Y176.015
N514 X41.348 Y175.77
N515 X41.879 Y175.548
N516 X42.445 Y175.364
N517 X43.029 Y175.224
N518 X43.617 Y175.133
N519 X44.195 Y175.09
N520 X44.713 Y175.093
N521 X45.168 Y175.133
N522 X45.578 Y175.202
N523 X45.933 Y175.292
N524 X46.146 Y175.364
N525 X46.409 Y175.485
N526 X46.641 Y175.658
N527 X46.834 Y175.875
N528 X46.977 Y176.127
N529 X47.065 Y176.402
N530 X47.095 Y176.69
N531 X47.094 Y178.666
N532 G3 X47.04 Y178.894 I-0.6 J-0.021
N533 X46.548 Y179.242 I-0.546 J-0.249
N534 G1 X39.106 Y179.91
N535 G3 X38.507 Y179.561 I-0.054 J-0.598
N536 X38.453 Y179.333 I0.546 J-0.248
N537 G1 X38.454 Y177.374
N538 X38.465 Y177.159
N539 X38.49 Y176.97
N540 X38.537 Y176.754
N541 X38.603 Y176.532
N542 X38.701 Y176.281
N543 X38.824 Y176.029
N544 X38.987 Y175.752
N545 X39.182 Y175.475
N546 X39.423 Y175.185
N547 X39.713 Y174.888
N548 X40.04 Y174.603
N549 X40.432 Y174.314
N550 X40.874 Y174.039
N551 X41.35 Y173.794
N552 X41.881 Y173.573
N553 X42.447 Y173.388
N554 X43.031 Y173.249
N555 X43.618 Y173.157
N556 X44.197 Y173.115
N557 X44.715 Y173.118
N558 X45.169 Y173.158
N559 X45.579 Y173.227
N560 X45.934 Y173.316
N561 X46.147 Y173.389
N562 X46.41 Y173.51
N563 X46.643 Y173.683
N564 X46.835 Y173.899
N565 X46.978 Y174.151
N566 X47.067 Y174.427
N567 X47.096 Y174.715
N568 X47.095 Y176.69
N569 G3 X46.55 Y177.267 I-0.6 J-0.021
N570 G1 X39.109 Y177.951
N571 G3 X38.508 Y177.602 I-0.055 J-0.597
N572 X38.454 Y177.374 I0.546 J-0.248
N573 G1 X38.456 Y175.415
N574 X38.468 Y175.183
N575 X38.493 Y174.994
N576 X38.539 Y174.778
N577 X38.606 Y174.556
N578 X38.704 Y174.305
N579 X38.826 Y174.054
N580 X38.989 Y173.777
N581 X39.184 Y173.5
N582 X39.425 Y173.21
N583 X39.716 Y172.912
N584 X40.042 Y172.628
N585 X40.434 Y172.338
N586 X40.876 Y172.064
N587 X41.352 Y171.819
N588 X41.883 Y171.597
N589 X42.449 Y171.413
N590 X43.032 Y171.273
N591 X43.62 Y171.182
N592 X44.198 Y171.139
N593 X44.716 Y171.143
N594 X45.171 Y171.182
N595 X45.58 Y171.251
N596 X45.935 Y171.341
N597 X46.147 Y171.413
N598 X46.41 Y171.534
N599 X46.642 Y171.706
N600 X46.834 Y171.923
N601 X46.978 Y172.174
N602 X47.066 Y172.449
N603 X47.096 Y172.737
N604 Y174.638
N605 Y174.715
N606 G3 X46.553 Y175.291 I-0.6 J-0.021
N607 G1 X39.112 Y175.992
N608 G3 X38.456 Y175.415 I-0.056 J-0.597
N609 G1 X38.457 Y173.457
N610 X38.47 Y173.208
N611 X38.495 Y173.019
N612 X38.541 Y172.802
N613 X38.608 Y172.581
N614 X38.706 Y172.33
N615 X38.828 Y172.078
N616 X38.991 Y171.801
N617 X39.186 Y171.524
N618 X39.427 Y171.234
N619 X39.718 Y170.937
N620 X40.044 Y170.652
N621 X40.436 Y170.363
N622 X40.878 Y170.089
N623 X41.354 Y169.843
N624 X41.884 Y169.622
N625 X42.451 Y169.438
N626 X43.034 Y169.298
N627 X43.621 Y169.207
N628 X44.2 Y169.164
N629 X44.718 Y169.167
N630 X45.171 Y169.207
N631 X45.581 Y169.276
N632 X45.936 Y169.366
N633 X46.145 Y169.437
N634 X46.408 Y169.558
N635 X46.641 Y169.73
N636 X46.832 Y169.947
N637 X46.976 Y170.198
N638 X47.064 Y170.473
N639 X47.095 Y170.761
N640 X47.096 Y172.737
N641 G3 X46.554 Y173.314 I-0.6 J-0.02
N642 G1 X39.115 Y174.033
N643 G3 X38.511 Y173.684 I-0.058 J-0.597
N644 X38.457 Y173.457 I0.546 J-0.248
N645 G1 X38.459 Y171.498
N646 X38.472 Y171.232
N647 X38.497 Y171.043
N648 X38.543 Y170.827
N649 X38.61 Y170.605
N650 X38.708 Y170.354
N651 X38.83 Y170.103
N652 X38.994 Y169.826
N653 X39.188 Y169.549
N654 X39.429 Y169.259
N655 X39.72 Y168.962
N656 X40.047 Y168.677
N657 X40.438 Y168.388
N658 X40.88 Y168.113
N659 X41.356 Y167.868
N660 X41.886 Y167.647
N661 X42.453 Y167.462
N662 X43.036 Y167.323
N663 X43.623 Y167.232
N664 X44.201 Y167.189
N665 X44.718 Y167.192
N666 X45.171 Y167.232
N667 X45.58 Y167.301
N668 X45.935 Y167.39
N669 X46.144 Y167.461
N670 X46.406 Y167.582
N671 X46.639 Y167.755
N672 X46.831 Y167.971
N673 X46.974 Y168.223
N674 X47.063 Y168.498
N675 X47.093 Y168.786
N676 X47.095 Y170.761
N677 G3 X46.554 Y171.338 I-0.6 J-0.02
N678 G1 X39.117 Y172.074
N679 G3 X38.459 Y171.498 I-0.059 J-0.597
N680 G1 X38.46 Y169.539
N681 X38.474 Y169.257
N682 X38.499 Y169.068
N683 X38.546 Y168.852
N684 X38.612 Y168.63
N685 X38.71 Y168.379
N686 X38.833 Y168.127
N687 X38.996 Y167.851
N688 X39.191 Y167.574
N689 X39.432 Y167.284
N690 X39.722 Y166.986
N691 X40.049 Y166.702
N692 X40.44 Y166.412
N693 X40.882 Y166.138
N694 X41.358 Y165.893
N695 X41.888 Y165.672
N696 X42.454 Y165.487
N697 X43.037 Y165.348
N698 X43.624 Y165.257
N699 X44.201 Y165.214
N700 X44.718 Y165.218
N701 X45.17 Y165.257
N702 X45.579 Y165.326
N703 X45.933 Y165.415
N704 X46.142 Y165.486
N705 X46.405 Y165.607
N706 X46.637 Y165.78
N707 X46.829 Y165.996
N708 X46.972 Y166.247
N709 X47.061 Y166.523
N710 X47.091 Y166.811
N711 X47.093 Y168.786
N712 G3 X46.554 Y169.362 I-0.6 J-0.02
N713 G1 X39.12 Y170.115
N714 G3 X38.514 Y169.767 I-0.06 J-0.597
N715 X38.46 Y169.539 I0.546 J-0.248
N716 G1 X38.462 Y167.46
N717 X38.47 Y167.286
N718 X38.495 Y167.097
N719 X38.542 Y166.88
N720 X38.608 Y166.658
N721 X38.707 Y166.407
N722 X38.829 Y166.155
N723 X38.993 Y165.877
N724 X39.188 Y165.6
N725 X39.429 Y165.31
N726 X39.72 Y165.013
N727 X40.047 Y164.728
N728 X40.439 Y164.438
N729 X40.88 Y164.164
N730 X41.357 Y163.918
N731 X41.887 Y163.697
N732 X42.453 Y163.513
N733 X43.036 Y163.373
N734 X43.623 Y163.282
N735 X44.2 Y163.239
N736 X44.717 Y163.243
N737 X45.169 Y163.282
N738 X45.578 Y163.351
N739 X45.932 Y163.441
N740 X46.14 Y163.511
N741 X46.403 Y163.632
N742 X46.635 Y163.805
N743 X46.827 Y164.021
N744 X46.971 Y164.273
N745 X47.059 Y164.548
N746 X47.089 Y164.836
N747 X47.091 Y166.811
N748 G3 X46.544 Y167.388 I-0.6 J-0.02
N749 G1 X39.113 Y168.038
N750 G3 X38.462 Y167.46 I-0.052 J-0.598
N751 G1 X38.463 Y165.501
N752 X38.473 Y165.309
N753 X38.498 Y165.12
N754 X38.544 Y164.903
N755 X38.611 Y164.682
N756 X38.709 Y164.43
N757 X38.831 Y164.179
N758 X38.994 Y163.902
N759 X39.189 Y163.625
N760 X39.431 Y163.334
N761 X39.721 Y163.037
N762 X40.048 Y162.752
N763 X40.44 Y162.463
N764 X40.881 Y162.189
N765 X41.357 Y161.943
N766 X41.888 Y161.722
N767 X42.453 Y161.538
N768 X43.036 Y161.399
N769 X43.622 Y161.308
N770 X44.199 Y161.265
N771 X44.716 Y161.268
N772 X45.168 Y161.307
N773 X45.577 Y161.376
N774 X45.931 Y161.466
N775 X46.139 Y161.537
N776 X46.401 Y161.658
N777 X46.634 Y161.83
N778 X46.826 Y162.046
N779 X46.969 Y162.298
N780 X47.058 Y162.573
N781 X47.088 Y162.861
N782 X47.089 Y164.836
N783 G3 X46.543 Y165.413 I-0.6 J-0.02
N784 G1 X39.116 Y166.079
N785 G3 X38.463 Y165.501 I-0.054 J-0.598
N786 G1 X38.464 Y163.445
N787 X38.472 Y163.295
N788 X38.502 Y163.097
N789 X38.553 Y162.88
N790 X38.627 Y162.65
N791 X38.731 Y162.399
N792 X38.864 Y162.138
N793 X39.033 Y161.864
N794 X39.244 Y161.577
N795 X39.491 Y161.291
N796 X39.797 Y160.99
N797 X40.136 Y160.706
N798 X40.535 Y160.424
N799 X40.994 Y160.151
N800 X41.49 Y159.907
N801 X42.024 Y159.697
N802 X42.594 Y159.524
N803 X43.179 Y159.396
N804 X43.767 Y159.317
N805 X44.328 Y159.286
N806 X44.835 Y159.299
N807 X45.261 Y159.345
N808 X45.668 Y159.422
N809 X46.011 Y159.516
N810 X46.163 Y159.571
N811 X46.419 Y159.694
N812 X46.646 Y159.868
N813 X46.832 Y160.083
N814 X46.971 Y160.331
N815 X47.057 Y160.603
N816 X47.086 Y160.886
N817 X47.088 Y162.861
N818 G3 X46.535 Y163.439 I-0.6 J-0.02
N819 G1 X39.111 Y164.022
N820 G3 X38.464 Y163.445 I-0.047 J-0.598
N821 G1 X38.466 Y161.486
N822 X38.473 Y161.336
N823 X38.5 Y161.148
N824 X38.549 Y160.929
N825 X38.618 Y160.706
N826 X38.719 Y160.454
N827 X38.846 Y160.2
N828 X39.015 Y159.919
N829 X39.212 Y159.644
N830 X39.464 Y159.346
N831 X39.75 Y159.059
N832 X40.09 Y158.768
N833 X40.491 Y158.477
N834 X40.925 Y158.213
N835 X41.412 Y157.967
N836 X41.95 Y157.749
N837 X42.52 Y157.569
N838 X43.1 Y157.436
N839 X43.685 Y157.35
N840 X44.259 Y157.313
N841 X44.765 Y157.321
N842 X45.212 Y157.364
N843 X45.615 Y157.436
N844 X45.966 Y157.528
N845 X46.147 Y157.591
N846 X46.407 Y157.713
N847 X46.637 Y157.886
N848 X46.826 Y158.102
N849 X46.967 Y158.352
N850 X47.055 Y158.625
N851 X47.084 Y158.911
N852 X47.086 Y160.886
N853 G3 X46.535 Y161.464 I-0.6 J-0.02
N854 G1 X39.114 Y162.063
N855 G3 X38.466 Y161.486 I-0.048 J-0.598
N856 G1 X38.467 Y159.527
N857 X38.475 Y159.377
N858 X38.5 Y159.19
N859 X38.547 Y158.972
N860 X38.614 Y158.751
N861 X38.712 Y158.499
N862 X38.834 Y158.249
N863 X39 Y157.969
N864 X39.193 Y157.696
N865 X39.438 Y157.401
N866 X39.723 Y157.11
N867 X40.056 Y156.822
N868 X40.451 Y156.53
N869 X40.884 Y156.262
N870 X41.364 Y156.016
N871 X41.897 Y155.794
N872 X42.463 Y155.61
N873 X43.044 Y155.472
N874 X43.629 Y155.382
N875 X44.205 Y155.34
N876 X44.718 Y155.344
N877 X45.171 Y155.384
N878 X45.578 Y155.453
N879 X45.932 Y155.544
N880 X46.135 Y155.613
N881 X46.398 Y155.734
N882 X46.63 Y155.906
N883 X46.821 Y156.123
N884 X46.964 Y156.374
N885 X47.053 Y156.649
N886 X47.083 Y156.937
N887 X47.084 Y158.911
N888 G3 X46.534 Y159.489 I-0.6 J-0.02
N889 G1 X39.117 Y160.104
N890 G3 X38.467 Y159.527 I-0.05 J-0.598
N891 G1 X38.469 Y157.568
N892 X38.477 Y157.406
N893 X38.502 Y157.218
N894 X38.548 Y157.001
N895 X38.615 Y156.779
N896 X38.713 Y156.528
N897 X38.835 Y156.277
N898 X38.998 Y156
N899 X39.192 Y155.724
N900 X39.434 Y155.434
N901 X39.723 Y155.137
N902 X40.051 Y154.852
N903 X40.442 Y154.563
N904 X40.883 Y154.289
N905 X41.358 Y154.044
N906 X41.888 Y153.823
N907 X42.452 Y153.639
N908 X43.034 Y153.501
N909 X43.619 Y153.409
N910 X44.196 Y153.367
N911 X44.711 Y153.37
N912 X45.163 Y153.409
N913 X45.571 Y153.478
N914 X45.925 Y153.568
N915 X46.132 Y153.638
N916 X46.395 Y153.759
N917 X46.627 Y153.932
N918 X46.819 Y154.148
N919 X46.962 Y154.399
N920 X47.051 Y154.675
N921 X47.081 Y154.962
N922 X47.083 Y156.937
N923 G3 X46.534 Y157.514 I-0.6 J-0.02
N924 G1 X39.119 Y158.145
N925 G3 X38.469 Y157.568 I-0.051 J-0.598
N926 G1 X38.47 Y155.609
N927 X38.479 Y155.432
N928 X38.504 Y155.242
N929 X38.55 Y155.026
N930 X38.617 Y154.805
N931 X38.715 Y154.554
N932 X38.837 Y154.302
N933 X39 Y154.026
N934 X39.195 Y153.749
N935 X39.436 Y153.459
N936 X39.726 Y153.162
N937 X40.052 Y152.878
N938 X40.443 Y152.589
N939 X40.884 Y152.315
N940 X41.359 Y152.07
N941 X41.889 Y151.85
N942 X42.453 Y151.666
N943 X43.034 Y151.527
N944 X43.62 Y151.436
N945 X44.196 Y151.393
N946 X44.711 Y151.397
N947 X45.161 Y151.436
N948 X45.57 Y151.505
N949 X45.923 Y151.594
N950 X46.13 Y151.664
N951 X46.393 Y151.785
N952 X46.625 Y151.958
N953 X46.817 Y152.174
N954 X46.961 Y152.425
N955 X47.049 Y152.701
N956 X47.079 Y152.989
N957 X47.081 Y154.962
N958 G3 X46.534 Y155.54 I-0.6 J-0.02
N959 G1 X39.122 Y156.187
N960 G3 X38.47 Y155.609 I-0.052 J-0.598
N961 G1 X38.471 Y153.65
N962 X38.481 Y153.457
N963 X38.506 Y153.268
N964 X38.553 Y153.052
N965 X38.619 Y152.83
N966 X38.717 Y152.579
N967 X38.839 Y152.328
N968 X39.002 Y152.051
N969 X39.197 Y151.775
N970 X39.438 Y151.485
N971 X39.728 Y151.188
N972 X40.054 Y150.904
N973 X40.445 Y150.615
N974 X40.886 Y150.341
N975 X41.361 Y150.097
N976 X41.89 Y149.876
N977 X42.454 Y149.692
N978 X43.035 Y149.553
N979 X43.62 Y149.462
N980 X44.195 Y149.42
N981 X44.71 Y149.423
N982 X45.16 Y149.462
N983 X45.569 Y149.531
N984 X45.922 Y149.621
N985 X46.128 Y149.691
N986 X46.391 Y149.812
N987 X46.624 Y149.984
N988 X46.816 Y150.201
N989 X46.959 Y150.452
N990 X47.047 Y150.727
N991 X47.078 Y151.015
N992 X47.079 Y152.989
N993 G3 X46.533 Y153.566 I-0.6 J-0.02
N994 G1 X39.124 Y154.228
N995 G3 X38.471 Y153.65 I-0.053 J-0.598
N996 G1 X38.473 Y151.692
N997 X38.483 Y151.483
N998 X38.508 Y151.294
N999 X38.555 Y151.078
N1000 X38.621 Y150.856
N1001 X38.719 Y150.605
N1002 X38.841 Y150.354
N1003 X39.004 Y150.077
N1004 X39.199 Y149.8
N1005 X39.44 Y149.511
N1006 X39.73 Y149.214
N1007 X40.056 Y148.93
N1008 X40.446 Y148.642
N1009 X40.887 Y148.368
N1010 X41.362 Y148.123
N1011 X41.891 Y147.903
N1012 X42.455 Y147.719
N1013 X43.035 Y147.58
N1014 X43.62 Y147.489
N1015 X44.195 Y147.447
N1016 X44.709 Y147.45
N1017 X45.159 Y147.489
N1018 X45.568 Y147.558
N1019 X45.921 Y147.647
N1020 X46.127 Y147.718
N1021 X46.39 Y147.839
N1022 X46.623 Y148.011
N1023 X46.815 Y148.228
N1024 X46.958 Y148.48
N1025 X47.047 Y148.755
N1026 X47.076 Y149.043
N1027 X47.078 Y151.015
N1028 G3 X46.533 Y151.592 I-0.6 J-0.02
N1029 G1 X39.127 Y152.269
N1030 G3 X38.526 Y151.92 I-0.055 J-0.598
N1031 X38.473 Y151.692 I0.546 J-0.248
N1032 G1 X38.474 Y149.733
N1033 X38.485 Y149.509
N1034 X38.51 Y149.32
N1035 X38.557 Y149.104
N1036 X38.623 Y148.883
N1037 X38.721 Y148.632
N1038 X38.843 Y148.381
N1039 X39.006 Y148.105
N1040 X39.2 Y147.828
N1041 X39.44 Y147.539
N1042 X39.731 Y147.242
N1043 X40.056 Y146.958
N1044 X40.446 Y146.669
N1045 X40.887 Y146.395
N1046 X41.361 Y146.151
N1047 X41.89 Y145.93
N1048 X42.453 Y145.747
N1049 X43.033 Y145.608
N1050 X43.618 Y145.517
N1051 X44.193 Y145.474
N1052 X44.707 Y145.477
N1053 X45.157 Y145.516
N1054 X45.565 Y145.585
N1055 X45.918 Y145.674
N1056 X46.127 Y145.745
N1057 X46.39 Y145.866
N1058 X46.623 Y146.039
N1059 X46.815 Y146.256
N1060 X46.958 Y146.507
N1061 X47.047 Y146.783
N1062 X47.077 Y147.071
N1063 X47.076 Y149.043
N1064 G3 X46.532 Y149.62 I-0.6 J-0.021
N1065 G1 X39.129 Y150.31
N1066 G3 X38.528 Y149.961 I-0.056 J-0.597
N1067 X38.474 Y149.733 I0.546 J-0.249
N1068 G1 Y147.774
N1069 X38.486 Y147.538
N1070 X38.51 Y147.349
N1071 X38.557 Y147.134
N1072 X38.623 Y146.912
N1073 X38.72 Y146.662
N1074 X38.842 Y146.41
N1075 X39.005 Y146.134
N1076 X39.199 Y145.857
N1077 X39.439 Y145.568
N1078 X39.729 Y145.271
N1079 X40.054 Y144.987
N1080 X40.444 Y144.699
N1081 X40.884 Y144.425
N1082 X41.358 Y144.18
N1083 X41.885 Y143.959
N1084 X42.448 Y143.775
N1085 X43.028 Y143.636
N1086 X43.613 Y143.545
N1087 X44.188 Y143.502
N1088 X44.702 Y143.504
N1089 X45.154 Y143.543
N1090 X45.562 Y143.612
N1091 X45.916 Y143.701
N1092 X46.127 Y143.772
N1093 X46.39 Y143.893
N1094 X46.623 Y144.066
N1095 X46.815 Y144.283
N1096 X46.959 Y144.534
N1097 X47.047 Y144.81
N1098 X47.077 Y145.099
N1099 Y147.071
N1100 G3 X46.534 Y147.647 I-0.6 J-0.021
N1101 G1 X39.13 Y148.35
N1102 G3 X38.474 Y147.774 I-0.057 J-0.597
N1103 G1 Y145.815
N1104 X38.486 Y145.566
N1105 X38.511 Y145.377
N1106 X38.557 Y145.161
N1107 X38.623 Y144.94
N1108 X38.721 Y144.689
N1109 X38.843 Y144.437
N1110 X39.005 Y144.162
N1111 X39.199 Y143.884
N1112 X39.439 Y143.596
N1113 X39.729 Y143.298
N1114 X40.054 Y143.015
N1115 X40.444 Y142.726
N1116 X40.884 Y142.452
N1117 X41.358 Y142.207
N1118 X41.885 Y141.987
N1119 X42.448 Y141.803
N1120 X43.028 Y141.664
N1121 X43.613 Y141.572
N1122 X44.188 Y141.529
N1123 X44.703 Y141.532
N1124 X45.154 Y141.571
N1125 X45.563 Y141.639
N1126 X45.916 Y141.728
N1127 X46.127 Y141.8
N1128 X46.391 Y141.921
N1129 X46.624 Y142.093
N1130 X46.816 Y142.31
N1131 X46.959 Y142.562
N1132 X47.048 Y142.838
N1133 X47.078 Y143.126
N1134 X47.077 Y145.099
N1135 G3 X46.536 Y145.675 I-0.6 J-0.021
N1136 G1 X39.131 Y146.391
N1137 G3 X38.527 Y146.043 I-0.058 J-0.597
N1138 X38.474 Y145.815 I0.546 J-0.249
N1139 G1 X38.473 Y143.856
N1140 X38.486 Y143.593
N1141 X38.511 Y143.404
N1142 X38.557 Y143.188
N1143 X38.623 Y142.967
N1144 X38.721 Y142.716
N1145 X38.843 Y142.465
N1146 X39.005 Y142.189
N1147 X39.2 Y141.912
N1148 X39.439 Y141.623
N1149 X39.729 Y141.325
N1150 X40.054 Y141.042
N1151 X40.444 Y140.754
N1152 X40.884 Y140.479
N1153 X41.358 Y140.235
N1154 X41.885 Y140.014
N1155 X42.449 Y139.83
N1156 X43.028 Y139.691
N1157 X43.613 Y139.599
N1158 X44.188 Y139.556
N1159 X44.703 Y139.559
N1160 X45.154 Y139.598
N1161 X45.563 Y139.667
N1162 X45.917 Y139.756
N1163 X46.128 Y139.827
N1164 X46.391 Y139.948
N1165 X46.624 Y140.121
N1166 X46.816 Y140.337
N1167 X46.96 Y140.589
N1168 X47.048 Y140.865
N1169 X47.078 Y141.153
N1170 Y143.126
N1171 G3 X47.024 Y143.354 I-0.6 J-0.021
N1172 X46.537 Y143.702 I-0.546 J-0.249
N1173 G1 X39.132 Y144.432
N1174 G3 X38.527 Y144.084 I-0.059 J-0.597
N1175 X38.473 Y143.856 I0.546 J-0.249
N1176 G1 Y141.897
N1177 X38.486 Y141.62
N1178 X38.511 Y141.431
N1179 X38.557 Y141.216
N1180 X38.623 Y140.994
N1181 X38.721 Y140.744
N1182 X38.843 Y140.492
N1183 X39.005 Y140.216
N1184 X39.2 Y139.939
N1185 X39.439 Y139.65
N1186 X39.73 Y139.353
N1187 X40.054 Y139.069
N1188 X40.444 Y138.781
N1189 X40.884 Y138.507
N1190 X41.358 Y138.262
N1191 X41.886 Y138.041
N1192 X42.449 Y137.857
N1193 X43.029 Y137.718
N1194 X43.613 Y137.627
N1195 X44.188 Y137.584
N1196 X44.703 Y137.586
N1197 X45.155 Y137.625
N1198 X45.563 Y137.694
N1199 X45.917 Y137.783
N1200 X46.128 Y137.854
N1201 X46.392 Y137.975
N1202 X46.624 Y138.148
N1203 X46.817 Y138.365
N1204 X46.96 Y138.617
N1205 X47.049 Y138.892
N1206 X47.079 Y139.181
N1207 X47.078 Y141.153
N1208 G3 X46.539 Y141.729 I-0.6 J-0.021
N1209 G1 X39.132 Y142.473
N1210 G3 X38.526 Y142.125 I-0.06 J-0.597
N1211 X38.473 Y141.897 I0.546 J-0.249
N1212 G1 X38.472 Y139.819
N1213 X38.48 Y139.652
N1214 X38.505 Y139.463
N1215 X38.551 Y139.247
N1216 X38.618 Y139.025
N1217 X38.715 Y138.774
N1218 X38.838 Y138.522
N1219 X39 Y138.246
N1220 X39.195 Y137.969
N1221 X39.435 Y137.679
N1222 X39.725 Y137.382
N1223 X40.051 Y137.098
N1224 X40.441 Y136.809
N1225 X40.881 Y136.534
N1226 X41.356 Y136.29
N1227 X41.884 Y136.069
N1228 X42.447 Y135.884
N1229 X43.027 Y135.745
N1230 X43.612 Y135.654
N1231 X44.188 Y135.611
N1232 X44.703 Y135.613
N1233 X45.155 Y135.652
N1234 X45.564 Y135.721
N1235 X45.917 Y135.81
N1236 X46.129 Y135.882
N1237 X46.392 Y136.002
N1238 X46.625 Y136.175
N1239 X46.817 Y136.392
N1240 X46.961 Y136.644
N1241 X47.049 Y136.92
N1242 X47.079 Y137.208
N1243 Y139.181
N1244 G3 X47.025 Y139.408 I-0.6 J-0.021
N1245 X46.531 Y139.757 I-0.546 J-0.249
N1246 G1 X39.123 Y140.396
N1247 G3 X38.472 Y139.819 I-0.052 J-0.598
N1248 G1 Y137.86
N1249 X38.481 Y137.678
N1250 X38.505 Y137.488
N1251 X38.552 Y137.272
N1252 X38.618 Y137.051
N1253 X38.715 Y136.8
N1254 X38.838 Y136.548
N1255 X39 Y136.272
N1256 X39.195 Y135.995
N1257 X39.435 Y135.706
N1258 X39.725 Y135.408
N1259 X40.05 Y135.124
N1260 X40.44 Y134.836
N1261 X40.881 Y134.561
N1262 X41.355 Y134.317
N1263 X41.883 Y134.096
N1264 X42.447 Y133.911
N1265 X43.027 Y133.772
N1266 X43.612 Y133.681
N1267 X44.188 Y133.637
N1268 X44.703 Y133.64
N1269 X45.155 Y133.679
N1270 X45.564 Y133.748
N1271 X45.918 Y133.837
N1272 X46.129 Y133.909
N1273 X46.393 Y134.029
N1274 X46.625 Y134.202
N1275 X46.818 Y134.419
N1276 X46.961 Y134.671
N1277 X47.05 Y134.947
N1278 X47.08 Y135.235
N1279 X47.079 Y137.208
N1280 G3 X46.532 Y137.784 I-0.6 J-0.021
N1281 G1 X39.124 Y138.437
N1282 G3 X38.472 Y137.86 I-0.053 J-0.598
N1283 G1 X38.471 Y135.901
N1284 X38.481 Y135.704
N1285 X38.506 Y135.515
N1286 X38.552 Y135.299
N1287 X38.618 Y135.077
N1288 X38.716 Y134.827
N1289 X38.838 Y134.575
N1290 X39 Y134.299
N1291 X39.195 Y134.022
N1292 X39.435 Y133.733
N1293 X39.725 Y133.435
N1294 X40.05 Y133.151
N1295 X40.44 Y132.863
N1296 X40.881 Y132.588
N1297 X41.355 Y132.343
N1298 X41.883 Y132.122
N1299 X42.446 Y131.938
N1300 X43.027 Y131.799
N1301 X43.612 Y131.707
N1302 X44.188 Y131.664
N1303 X44.703 Y131.667
N1304 X45.155 Y131.706
N1305 X45.564 Y131.775
N1306 X45.918 Y131.864
N1307 X46.13 Y131.935
N1308 X46.393 Y132.056
N1309 X46.626 Y132.229
N1310 X46.818 Y132.446
N1311 X46.962 Y132.698
N1312 X47.05 Y132.973
N1313 X47.08 Y133.262
N1314 Y135.235
N1315 G3 X47.026 Y135.463 I-0.6 J-0.021
N1316 X46.534 Y135.811 I-0.546 J-0.249
N1317 G1 X39.125 Y136.478
N1318 G3 X38.471 Y135.901 I-0.054 J-0.598
N1319 G1 Y133.844
N1320 X38.478 Y133.695
N1321 X38.508 Y133.497
N1322 X38.558 Y133.281
N1323 X38.632 Y133.051
N1324 X38.735 Y132.801
N1325 X38.867 Y132.54
N1326 X39.035 Y132.267
N1327 X39.244 Y131.98
N1328 X39.49 Y131.695
N1329 X39.795 Y131.394
N1330 X40.132 Y131.11
N1331 X40.529 Y130.828
N1332 X40.985 Y130.556
N1333 X41.481 Y130.312
N1334 X42.012 Y130.101
N1335 X42.579 Y129.927
N1336 X43.163 Y129.799
N1337 X43.75 Y129.718
N1338 X44.311 Y129.687
N1339 X44.819 Y129.699
N1340 X45.245 Y129.744
N1341 X45.653 Y129.82
N1342 X45.996 Y129.913
N1343 X46.155 Y129.971
N1344 X46.412 Y130.094
N1345 X46.639 Y130.267
N1346 X46.826 Y130.483
N1347 X46.966 Y130.732
N1348 X47.052 Y131.004
N1349 X47.081 Y131.288
N1350 X47.08 Y133.262
N1351 G3 X46.528 Y133.839 I-0.6 J-0.021
N1352 G1 X39.117 Y134.421
N1353 G3 X38.524 Y134.072 I-0.047 J-0.598
N1354 X38.471 Y133.844 I0.546 J-0.249
N1355 G1 X38.47 Y131.886
N1356 X38.478 Y131.736
N1357 X38.504 Y131.548
N1358 X38.553 Y131.329
N1359 X38.622 Y131.106
N1360 X38.723 Y130.854
N1361 X38.848 Y130.601
N1362 X39.017 Y130.319
N1363 X39.213 Y130.045
N1364 X39.464 Y129.748
N1365 X39.75 Y129.46
N1366 X40.088 Y129.171
N1367 X40.488 Y128.88
N1368 X40.923 Y128.615
N1369 X41.408 Y128.37
N1370 X41.944 Y128.152
N1371 X42.513 Y127.972
N1372 X43.092 Y127.838
N1373 X43.676 Y127.752
N1374 X44.25 Y127.714
N1375 X44.756 Y127.722
N1376 X45.203 Y127.764
N1377 X45.607 Y127.836
N1378 X45.958 Y127.928
N1379 X46.143 Y127.992
N1380 X46.403 Y128.115
N1381 X46.633 Y128.288
N1382 X46.823 Y128.504
N1383 X46.964 Y128.754
N1384 X47.052 Y129.028
N1385 X47.081 Y129.314
N1386 Y131.288
N1387 G3 X46.529 Y131.865 I-0.6 J-0.021
N1388 G1 X39.118 Y132.463
N1389 G3 X38.47 Y131.886 I-0.048 J-0.598
N1390 G1 Y129.927
N1391 X38.477 Y129.777
N1392 X38.502 Y129.59
N1393 X38.549 Y129.371
N1394 X38.616 Y129.15
N1395 X38.715 Y128.898
N1396 X38.837 Y128.648
N1397 X39.002 Y128.369
N1398 X39.195 Y128.095
N1399 X39.44 Y127.801
N1400 X39.726 Y127.51
N1401 X40.057 Y127.222
N1402 X40.452 Y126.931
N1403 X40.887 Y126.662
N1404 X41.365 Y126.416
N1405 X41.897 Y126.195
N1406 X42.462 Y126.012
N1407 X43.043 Y125.874
N1408 X43.627 Y125.784
N1409 X44.203 Y125.742
N1410 X44.715 Y125.746
N1411 X45.169 Y125.786
N1412 X45.575 Y125.856
N1413 X45.93 Y125.946
N1414 X46.134 Y126.016
N1415 X46.397 Y126.137
N1416 X46.629 Y126.31
N1417 X46.821 Y126.526
N1418 X46.964 Y126.778
N1419 X47.052 Y127.053
N1420 X47.082 Y127.341
N1421 X47.081 Y129.314
N1422 G3 X46.531 Y129.891 I-0.6 J-0.021
N1423 G1 X39.119 Y130.504
N1424 G3 X38.47 Y129.927 I-0.049 J-0.598
N1425 G1 X38.469 Y127.968
N1426 X38.477 Y127.81
N1427 X38.502 Y127.621
N1428 X38.548 Y127.404
N1429 X38.614 Y127.183
N1430 X38.712 Y126.932
N1431 X38.834 Y126.682
N1432 X38.997 Y126.404
N1433 X39.19 Y126.129
N1434 X39.431 Y125.838
N1435 X39.72 Y125.542
N1436 X40.046 Y125.257
N1437 X40.438 Y124.967
N1438 X40.876 Y124.694
N1439 X41.351 Y124.449
N1440 X41.88 Y124.228
N1441 X42.444 Y124.044
N1442 X43.025 Y123.904
N1443 X43.611 Y123.813
N1444 X44.187 Y123.769
N1445 X44.703 Y123.772
N1446 X45.156 Y123.811
N1447 X45.565 Y123.88
N1448 X45.92 Y123.969
N1449 X46.132 Y124.041
N1450 X46.395 Y124.162
N1451 X46.628 Y124.334
N1452 X46.82 Y124.551
N1453 X46.964 Y124.803
N1454 X47.052 Y125.079
N1455 X47.082 Y125.367
N1456 Y127.341
N1457 G3 X46.533 Y127.918 I-0.6 J-0.021
N1458 G1 X39.119 Y128.545
N1459 G3 X38.469 Y127.968 I-0.051 J-0.598
N1460 G1 Y126.009
N1461 X38.477 Y125.837
N1462 X38.502 Y125.647
N1463 X38.548 Y125.431
N1464 X38.615 Y125.21
N1465 X38.712 Y124.959
N1466 X38.834 Y124.708
N1467 X38.997 Y124.432
N1468 X39.191 Y124.154
N1469 X39.431 Y123.865
N1470 X39.721 Y123.568
N1471 X40.047 Y123.284
N1472 X40.437 Y122.995
N1473 X40.878 Y122.72
N1474 X41.352 Y122.475
N1475 X41.88 Y122.254
N1476 X42.444 Y122.07
N1477 X43.026 Y121.931
N1478 X43.611 Y121.839
N1479 X44.187 Y121.796
N1480 X44.704 Y121.799
N1481 X45.156 Y121.838
N1482 X45.566 Y121.906
N1483 X45.92 Y121.995
N1484 X46.132 Y122.067
N1485 X46.396 Y122.188
N1486 X46.628 Y122.361
N1487 X46.821 Y122.578
N1488 X46.964 Y122.829
N1489 X47.053 Y123.105
N1490 X47.083 Y123.393
N1491 X47.082 Y125.367
N1492 G3 X46.534 Y125.944 I-0.6 J-0.021
N1493 G1 X39.12 Y126.586
N1494 G3 X38.469 Y126.009 I-0.052 J-0.598
N1495 G1 X38.468 Y124.05
N1496 X38.478 Y123.863
N1497 X38.502 Y123.674
N1498 X38.548 Y123.458
N1499 X38.615 Y123.236
N1500 X38.712 Y122.986
N1501 X38.834 Y122.734
N1502 X38.997 Y122.458
N1503 X39.191 Y122.181
N1504 X39.431 Y121.892
N1505 X39.722 Y121.594
N1506 X40.047 Y121.31
N1507 X40.437 Y121.021
N1508 X40.878 Y120.747
N1509 X41.352 Y120.502
N1510 X41.881 Y120.281
N1511 X42.445 Y120.096
N1512 X43.026 Y119.957
N1513 X43.612 Y119.865
N1514 X44.188 Y119.822
N1515 X44.704 Y119.825
N1516 X45.157 Y119.864
N1517 X45.566 Y119.933
N1518 X45.92 Y120.022
N1519 X46.133 Y120.094
N1520 X46.396 Y120.215
N1521 X46.629 Y120.387
N1522 X46.821 Y120.604
N1523 X46.965 Y120.856
N1524 X47.053 Y121.132
N1525 X47.083 Y121.42
N1526 Y123.393
N1527 G3 X46.536 Y123.97 I-0.6 J-0.021
N1528 G1 X39.121 Y124.627
N1529 G3 X38.468 Y124.05 I-0.053 J-0.598
N1530 G1 Y122.091
N1531 X38.478 Y121.889
N1532 X38.503 Y121.7
N1533 X38.549 Y121.484
N1534 X38.615 Y121.263
N1535 X38.713 Y121.012
N1536 X38.835 Y120.76
N1537 X38.997 Y120.484
N1538 X39.192 Y120.207
N1539 X39.432 Y119.918
N1540 X39.722 Y119.62
N1541 X40.047 Y119.336
N1542 X40.437 Y119.048
N1543 X40.878 Y118.773
N1544 X41.353 Y118.528
N1545 X41.881 Y118.307
N1546 X42.445 Y118.123
N1547 X43.026 Y117.983
N1548 X43.612 Y117.892
N1549 X44.188 Y117.848
N1550 X44.705 Y117.851
N1551 X45.157 Y117.89
N1552 X45.567 Y117.959
N1553 X45.921 Y118.048
N1554 X46.133 Y118.12
N1555 X46.396 Y118.241
N1556 X46.629 Y118.414
N1557 X46.822 Y118.63
N1558 X46.965 Y118.882
N1559 X47.054 Y119.158
N1560 X47.084 Y119.446
N1561 X47.083 Y121.42
N1562 G3 X46.538 Y121.996 I-0.6 J-0.021
N1563 G1 X39.122 Y122.668
N1564 G3 X38.468 Y122.091 I-0.054 J-0.598
N1565 G1 X38.467 Y120.133
N1566 X38.478 Y119.916
N1567 X38.503 Y119.727
N1568 X38.549 Y119.511
N1569 X38.615 Y119.289
N1570 X38.713 Y119.039
N1571 X38.835 Y118.787
N1572 X38.997 Y118.511
N1573 X39.192 Y118.234
N1574 X39.432 Y117.944
N1575 X39.722 Y117.647
N1576 X40.047 Y117.363
N1577 X40.438 Y117.074
N1578 X40.878 Y116.8
N1579 X41.353 Y116.555
N1580 X41.881 Y116.334
N1581 X42.446 Y116.149
N1582 X43.027 Y116.01
N1583 X43.612 Y115.918
N1584 X44.189 Y115.875
N1585 X44.705 Y115.878
N1586 X45.158 Y115.917
N1587 X45.567 Y115.985
N1588 X45.921 Y116.074
N1589 X46.134 Y116.146
N1590 X46.397 Y116.267
N1591 X46.63 Y116.44
N1592 X46.822 Y116.657
N1593 X46.966 Y116.908
N1594 X47.054 Y117.184
N1595 X47.084 Y117.473
N1596 Y119.446
N1597 G3 X46.539 Y120.023 I-0.6 J-0.021
N1598 G1 X39.122 Y120.709
N1599 G3 X38.467 Y120.133 I-0.055 J-0.597
N1600 G1 Y118.174
N1601 X38.478 Y117.942
N1602 X38.503 Y117.753
N1603 X38.549 Y117.537
N1604 X38.616 Y117.316
N1605 X38.713 Y117.065
N1606 X38.835 Y116.813
N1607 X38.998 Y116.537
N1608 X39.192 Y116.26
N1609 X39.432 Y115.971
N1610 X39.722 Y115.673
N1611 X40.048 Y115.389
N1612 X40.438 Y115.1
N1613 X40.879 Y114.826
N1614 X41.353 Y114.581
N1615 X41.882 Y114.36
N1616 X42.446 Y114.175
N1617 X43.027 Y114.036
N1618 X43.613 Y113.944
N1619 X44.189 Y113.901
N1620 X44.706 Y113.904
N1621 X45.158 Y113.943
N1622 X45.567 Y114.012
N1623 X45.922 Y114.101
N1624 X46.134 Y114.173
N1625 X46.397 Y114.294
N1626 X46.63 Y114.466
N1627 X46.823 Y114.683
N1628 X46.966 Y114.935
N1629 X47.055 Y115.211
N1630 X47.085 Y115.499
N1631 X47.084 Y117.473
N1632 G3 X46.541 Y118.049 I-0.6 J-0.021
N1633 G1 X39.123 Y118.75
N1634 G3 X38.467 Y118.174 I-0.056 J-0.597
N1635 G1 X38.466 Y116.215
N1636 X38.479 Y115.969
N1637 X38.503 Y115.78
N1638 X38.549 Y115.564
N1639 X38.616 Y115.342
N1640 X38.713 Y115.091
N1641 X38.835 Y114.84
N1642 X38.998 Y114.564
N1643 X39.193 Y114.286
N1644 X39.432 Y113.997
N1645 X39.723 Y113.7
N1646 X40.048 Y113.416
N1647 X40.438 Y113.127
N1648 X40.879 Y112.852
N1649 X41.354 Y112.607
N1650 X41.882 Y112.386
N1651 X42.446 Y112.202
N1652 X43.028 Y112.062
N1653 X43.613 Y111.971
N1654 X44.19 Y111.927
N1655 X44.706 Y111.93
N1656 X45.159 Y111.969
N1657 X45.568 Y112.038
N1658 X45.922 Y112.127
N1659 X46.135 Y112.199
N1660 X46.398 Y112.32
N1661 X46.631 Y112.493
N1662 X46.823 Y112.709
N1663 X46.967 Y112.961
N1664 X47.055 Y113.237
N1665 X47.085 Y113.525
N1666 Y115.499
N1667 G3 X46.543 Y116.075 I-0.6 J-0.021
N1668 G1 X39.124 Y116.791
N1669 G3 X38.466 Y116.215 I-0.058 J-0.597
N1670 G1 Y114.256
N1671 X38.479 Y113.995
N1672 X38.504 Y113.806
N1673 X38.55 Y113.59
N1674 X38.616 Y113.369
N1675 X38.714 Y113.118
N1676 X38.836 Y112.866
N1677 X38.998 Y112.59
N1678 X39.193 Y112.313
N1679 X39.433 Y112.023
N1680 X39.723 Y111.726
N1681 X40.048 Y111.442
N1682 X40.438 Y111.153
N1683 X40.879 Y110.879
N1684 X41.354 Y110.634
N1685 X41.882 Y110.412
N1686 X42.447 Y110.228
N1687 X43.028 Y110.089
N1688 X43.614 Y109.997
N1689 X44.19 Y109.954
N1690 X44.706 Y109.957
N1691 X45.159 Y109.996
N1692 X45.568 Y110.064
N1693 X45.923 Y110.153
N1694 X46.135 Y110.225
N1695 X46.398 Y110.346
N1696 X46.631 Y110.519
N1697 X46.823 Y110.736
N1698 X46.967 Y110.987
N1699 X47.056 Y111.263
N1700 X47.086 Y111.552
N1701 X47.085 Y113.525
N1702 G3 X46.544 Y114.101 I-0.6 J-0.021
N1703 G1 X39.124 Y114.832
N1704 G3 X38.466 Y114.256 I-0.059 J-0.597
N1705 G1 X38.465 Y112.297
N1706 X38.479 Y112.021
N1707 X38.504 Y111.832
N1708 X38.55 Y111.616
N1709 X38.616 Y111.395
N1710 X38.714 Y111.144
N1711 X38.836 Y110.892
N1712 X38.998 Y110.616
N1713 X39.193 Y110.339
N1714 X39.433 Y110.05
N1715 X39.723 Y109.752
N1716 X40.049 Y109.468
N1717 X40.439 Y109.179
N1718 X40.88 Y108.905
N1719 X41.354 Y108.66
N1720 X41.883 Y108.439
N1721 X42.447 Y108.254
N1722 X43.028 Y108.115
N1723 X43.614 Y108.023
N1724 X44.19 Y107.98
N1725 X44.707 Y107.983
N1726 X45.16 Y108.022
N1727 X45.569 Y108.09
N1728 X45.923 Y108.18
N1729 X46.136 Y108.252
N1730 X46.399 Y108.373
N1731 X46.632 Y108.545
N1732 X46.824 Y108.762
N1733 X46.967 Y109.014
N1734 X47.056 Y109.29
N1735 X47.086 Y109.578
N1736 Y111.552
N1737 G3 X46.546 Y112.127 I-0.6 J-0.021
N1738 G1 X39.125 Y112.873
N1739 G3 X38.465 Y112.297 I-0.06 J-0.597
N1740 G1 Y110.219
N1741 X38.473 Y110.052
N1742 X38.498 Y109.863
N1743 X38.544 Y109.647
N1744 X38.611 Y109.425
N1745 X38.708 Y109.174
N1746 X38.831 Y108.922
N1747 X38.993 Y108.645
N1748 X39.188 Y108.368
N1749 X39.429 Y108.078
N1750 X39.719 Y107.78
N1751 X40.045 Y107.496
N1752 X40.436 Y107.206
N1753 X40.877 Y106.932
N1754 X41.352 Y106.686
N1755 X41.881 Y106.465
N1756 X42.446 Y106.28
N1757 X43.027 Y106.141
N1758 X43.613 Y106.049
N1759 X44.19 Y106.006
N1760 X44.707 Y106.009
N1761 X45.16 Y106.048
N1762 X45.569 Y106.116
N1763 X45.923 Y106.206
N1764 X46.136 Y106.278
N1765 X46.399 Y106.399
N1766 X46.632 Y106.571
N1767 X46.824 Y106.788
N1768 X46.968 Y107.04
N1769 X47.057 Y107.316
N1770 X47.087 Y107.604
N1771 X47.086 Y109.578
N1772 G3 X46.538 Y110.155 I-0.6 J-0.021
N1773 G1 X39.116 Y110.795
N1774 G3 X38.465 Y110.219 I-0.052 J-0.598
N1775 G1 X38.464 Y108.26
N1776 X38.474 Y108.077
N1777 X38.498 Y107.887
N1778 X38.544 Y107.671
N1779 X38.611 Y107.45
N1780 X38.708 Y107.199
N1781 X38.831 Y106.947
N1782 X38.993 Y106.67
N1783 X39.188 Y106.393
N1784 X39.428 Y106.103
N1785 X39.718 Y105.806
N1786 X40.044 Y105.521
N1787 X40.435 Y105.232
N1788 X40.876 Y104.958
N1789 X41.351 Y104.712
N1790 X41.88 Y104.491
N1791 X42.445 Y104.306
N1792 X43.027 Y104.167
N1793 X43.613 Y104.075
N1794 X44.19 Y104.032
N1795 X44.707 Y104.035
N1796 X45.16 Y104.074
N1797 X45.569 Y104.142
N1798 X45.924 Y104.232
N1799 X46.137 Y104.304
N1800 X46.4 Y104.425
N1801 X46.633 Y104.597
N1802 X46.825 Y104.814
N1803 X46.968 Y105.066
N1804 X47.057 Y105.342
N1805 X47.087 Y105.63
N1806 Y107.604
N1807 G3 X46.54 Y108.181 I-0.6 J-0.021
N1808 G1 X39.117 Y108.836
N1809 G3 X38.464 Y108.26 I-0.053 J-0.598
N1810 G1 Y106.301
N1811 X38.474 Y106.102
N1812 X38.499 Y105.913
N1813 X38.545 Y105.697
N1814 X38.611 Y105.475
N1815 X38.709 Y105.224
N1816 X38.831 Y104.972
N1817 X38.993 Y104.696
N1818 X39.188 Y104.419
N1819 X39.428 Y104.129
N1820 X39.719 Y103.832
N1821 X40.044 Y103.547
N1822 X40.435 Y103.258
N1823 X40.876 Y102.983
N1824 X41.351 Y102.738
N1825 X41.88 Y102.517
N1826 X42.445 Y102.332
N1827 X43.027 Y102.193
N1828 X43.613 Y102.101
N1829 X44.19 Y102.058
N1830 X44.707 Y102.061
N1831 X45.16 Y102.1
N1832 X45.569 Y102.168
N1833 X45.924 Y102.257
N1834 X46.137 Y102.33
N1835 X46.4 Y102.451
N1836 X46.633 Y102.623
N1837 X46.825 Y102.84
N1838 X46.969 Y103.092
N1839 X47.058 Y103.368
N1840 X47.087 Y103.656
N1841 Y105.63
N1842 G3 X47.033 Y105.858 I-0.6 J-0.021
N1843 X46.541 Y106.206 I-0.546 J-0.249
N1844 G1 X39.118 Y106.877
N1845 G3 X38.464 Y106.301 I-0.054 J-0.598
N1846 G1 X38.463 Y104.244
N1847 X38.471 Y104.094
N1848 X38.5 Y103.898
N1849 X38.55 Y103.681
N1850 X38.623 Y103.452
N1851 X38.726 Y103.201
N1852 X38.858 Y102.941
N1853 X39.026 Y102.667
N1854 X39.234 Y102.381
N1855 X39.48 Y102.095
N1856 X39.784 Y101.793
N1857 X40.121 Y101.51
N1858 X40.517 Y101.227
N1859 X40.974 Y100.953
N1860 X41.468 Y100.709
N1861 X42 Y100.498
N1862 X42.569 Y100.323
N1863 X43.153 Y100.193
N1864 X43.741 Y100.112
N1865 X44.306 Y100.079
N1866 X44.815 Y100.091
N1867 X45.244 Y100.136
N1868 X45.653 Y100.212
N1869 X45.996 Y100.304
N1870 X46.161 Y100.363
N1871 X46.418 Y100.487
N1872 X46.646 Y100.66
N1873 X46.833 Y100.876
N1874 X46.973 Y101.125
N1875 X47.059 Y101.397
N1876 X47.088 Y101.681
N1877 X47.087 Y103.656
N1878 G3 X46.535 Y104.233 I-0.6 J-0.021
N1879 G1 X39.11 Y104.821
N1880 G3 X38.463 Y104.244 I-0.047 J-0.598
N1881 G1 Y102.285
N1882 X38.47 Y102.135
N1883 X38.496 Y101.948
N1884 X38.545 Y101.729
N1885 X38.613 Y101.507
N1886 X38.714 Y101.254
N1887 X38.839 Y101.001
N1888 X39.007 Y100.72
N1889 X39.203 Y100.446
N1890 X39.453 Y100.149
N1891 X39.738 Y99.861
N1892 X40.076 Y99.57
N1893 X40.475 Y99.279
N1894 X40.909 Y99.014
N1895 X41.394 Y98.768
N1896 X41.931 Y98.548
N1897 X42.5 Y98.367
N1898 X43.08 Y98.232
N1899 X43.666 Y98.145
N1900 X44.24 Y98.106
N1901 X44.749 Y98.113
N1902 X45.2 Y98.155
N1903 X45.604 Y98.226
N1904 X45.957 Y98.318
N1905 X46.148 Y98.384
N1906 X46.409 Y98.506
N1907 X46.639 Y98.679
N1908 X46.829 Y98.895
N1909 X46.971 Y99.146
N1910 X47.059 Y99.42
N1911 X47.088 Y99.707
N1912 Y101.681
N1913 G3 X47.034 Y101.909 I-0.6 J-0.021
N1914 X46.537 Y102.258 I-0.546 J-0.249
N1915 G1 X39.111 Y102.862
N1916 G3 X38.463 Y102.285 I-0.049 J-0.598
N1917 G1 X38.462 Y100.326
N1918 X38.47 Y100.177
N1919 X38.494 Y99.99
N1920 X38.541 Y99.772
N1921 X38.607 Y99.551
N1922 X38.705 Y99.299
N1923 X38.827 Y99.049
N1924 X38.991 Y98.77
N1925 X39.183 Y98.496
N1926 X39.427 Y98.203
N1927 X39.712 Y97.91
N1928 X40.043 Y97.622
N1929 X40.437 Y97.33
N1930 X40.871 Y97.061
N1931 X41.349 Y96.814
N1932 X41.881 Y96.592
N1933 X42.446 Y96.407
N1934 X43.028 Y96.268
N1935 X43.614 Y96.176
N1936 X44.191 Y96.133
N1937 X44.706 Y96.136
N1938 X45.163 Y96.176
N1939 X45.571 Y96.244
N1940 X45.927 Y96.334
N1941 X46.138 Y96.406
N1942 X46.402 Y96.527
N1943 X46.634 Y96.699
N1944 X46.826 Y96.916
N1945 X46.97 Y97.168
N1946 X47.058 Y97.443
N1947 X47.088 Y97.731
N1948 Y99.707
N1949 G3 X46.539 Y100.284 I-0.6 J-0.021
N1950 G1 X39.112 Y100.903
N1951 G3 X38.462 Y100.326 I-0.05 J-0.598
N1952 G1 Y98.368
N1953 X38.47 Y98.203
N1954 X38.495 Y98.014
N1955 X38.542 Y97.798
N1956 X38.608 Y97.576
N1957 X38.706 Y97.325
N1958 X38.828 Y97.074
N1959 X38.991 Y96.797
N1960 X39.185 Y96.52
N1961 X39.426 Y96.23
N1962 X39.716 Y95.932
N1963 X40.043 Y95.648
N1964 X40.434 Y95.358
N1965 X40.875 Y95.084
N1966 X41.351 Y94.839
N1967 X41.88 Y94.617
N1968 X42.445 Y94.433
N1969 X43.028 Y94.293
N1970 X43.614 Y94.202
N1971 X44.192 Y94.159
N1972 X44.709 Y94.162
N1973 X45.163 Y94.201
N1974 X45.572 Y94.27
N1975 X45.926 Y94.359
N1976 X46.138 Y94.431
N1977 X46.401 Y94.552
N1978 X46.634 Y94.725
N1979 X46.826 Y94.941
N1980 X46.97 Y95.193
N1981 X47.058 Y95.469
N1982 X47.088 Y95.757
N1983 Y97.731
N1984 G3 X46.54 Y98.308 I-0.6 J-0.021
N1985 G1 X39.113 Y98.945
N1986 G3 X38.462 Y98.368 I-0.051 J-0.598
N1987 G1 Y96.409
N1988 X38.471 Y96.228
N1989 X38.496 Y96.039
N1990 X38.543 Y95.823
N1991 X38.609 Y95.601
N1992 X38.707 Y95.35
N1993 X38.829 Y95.099
N1994 X38.992 Y94.822
N1995 X39.187 Y94.545
N1996 X39.427 Y94.255
N1997 X39.717 Y93.958
N1998 X40.043 Y93.673
N1999 X40.434 Y93.384
N2000 X40.876 Y93.11
N2001 X41.351 Y92.864
N2002 X41.881 Y92.643
N2003 X42.446 Y92.458
N2004 X43.028 Y92.319
N2005 X43.615 Y92.227
N2006 X44.192 Y92.184
N2007 X44.709 Y92.187
N2008 X45.163 Y92.226
N2009 X45.572 Y92.295
N2010 X45.926 Y92.385
N2011 X46.138 Y92.456
N2012 X46.401 Y92.577
N2013 X46.634 Y92.75
N2014 X46.826 Y92.967
N2015 X46.969 Y93.218
N2016 X47.058 Y93.494
N2017 X47.088 Y93.782
N2018 Y95.757
N2019 G3 X46.541 Y96.333 I-0.6 J-0.021
N2020 G1 X39.115 Y96.986
N2021 G3 X38.462 Y96.409 I-0.052 J-0.598
N2022 G1 X38.463 Y94.45
N2023 X38.472 Y94.253
N2024 X38.497 Y94.064
N2025 X38.544 Y93.848
N2026 X38.61 Y93.627
N2027 X38.708 Y93.376
N2028 X38.83 Y93.124
N2029 X38.993 Y92.847
N2030 X39.187 Y92.57
N2031 X39.428 Y92.28
N2032 X39.718 Y91.983
N2033 X40.044 Y91.699
N2034 X40.435 Y91.409
N2035 X40.877 Y91.135
N2036 X41.352 Y90.89
N2037 X41.881 Y90.668
N2038 X42.447 Y90.484
N2039 X43.029 Y90.344
N2040 X43.615 Y90.253
N2041 X44.192 Y90.21
N2042 X44.709 Y90.213
N2043 X45.163 Y90.252
N2044 X45.572 Y90.321
N2045 X45.926 Y90.41
N2046 X46.138 Y90.482
N2047 X46.401 Y90.603
N2048 X46.634 Y90.775
N2049 X46.826 Y90.992
N2050 X46.969 Y91.244
N2051 X47.058 Y91.519
N2052 X47.088 Y91.807
N2053 Y93.782
N2054 G3 X46.542 Y94.359 I-0.6 J-0.021
N2055 G1 X39.116 Y95.027
N2056 G3 X38.463 Y94.45 I-0.054 J-0.598
N2057 G1 Y92.491
N2058 X38.474 Y92.279
N2059 X38.498 Y92.09
N2060 X38.545 Y91.873
N2061 X38.611 Y91.652
N2062 X38.709 Y91.401
N2063 X38.831 Y91.149
N2064 X38.994 Y90.873
N2065 X39.188 Y90.596
N2066 X39.429 Y90.306
N2067 X39.719 Y90.008
N2068 X40.045 Y89.724
N2069 X40.436 Y89.435
N2070 X40.877 Y89.16
N2071 X41.353 Y88.915
N2072 X41.882 Y88.694
N2073 X42.447 Y88.51
N2074 X43.029 Y88.37
N2075 X43.616 Y88.279
N2076 X44.193 Y88.236
N2077 X44.71 Y88.239
N2078 X45.163 Y88.278
N2079 X45.572 Y88.347
N2080 X45.926 Y88.436
N2081 X46.137 Y88.508
N2082 X46.401 Y88.628
N2083 X46.633 Y88.801
N2084 X46.825 Y89.018
N2085 X46.969 Y89.269
N2086 X47.057 Y89.545
N2087 X47.087 Y89.833
N2088 X47.088 Y91.807
N2089 G3 X46.543 Y92.384 I-0.6 J-0.021
N2090 G1 X39.118 Y93.068
N2091 G3 X38.463 Y92.491 I-0.055 J-0.597
N2092 G1 Y90.532
N2093 X38.475 Y90.304
N2094 X38.499 Y90.115
N2095 X38.546 Y89.899
N2096 X38.612 Y89.677
N2097 X38.71 Y89.426
N2098 X38.832 Y89.175
N2099 X38.995 Y88.898
N2100 X39.189 Y88.621
N2101 X39.43 Y88.331
N2102 X39.72 Y88.034
N2103 X40.046 Y87.75
N2104 X40.437 Y87.46
N2105 X40.878 Y87.186
N2106 X41.353 Y86.941
N2107 X41.883 Y86.72
N2108 X42.448 Y86.535
N2109 X43.03 Y86.396
N2110 X43.616 Y86.304
N2111 X44.193 Y86.261
N2112 X44.71 Y86.264
N2113 X45.162 Y86.303
N2114 X45.572 Y86.372
N2115 X45.926 Y86.462
N2116 X46.137 Y86.533
N2117 X46.4 Y86.654
N2118 X46.633 Y86.827
N2119 X46.825 Y87.043
N2120 X46.969 Y87.295
N2121 X47.057 Y87.571
N2122 X47.087 Y87.859
N2123 Y89.833
N2124 G3 X46.544 Y90.41 I-0.6 J-0.021
N2125 G1 X39.119 Y91.109
N2126 G3 X38.463 Y90.532 I-0.056 J-0.597
N2127 G1 Y88.573
N2128 X38.476 Y88.329
N2129 X38.5 Y88.14
N2130 X38.547 Y87.924
N2131 X38.613 Y87.703
N2132 X38.711 Y87.452
N2133 X38.833 Y87.2
N2134 X38.996 Y86.924
N2135 X39.19 Y86.647
N2136 X39.431 Y86.357
N2137 X39.721 Y86.06
N2138 X40.047 Y85.775
N2139 X40.438 Y85.486
N2140 X40.879 Y85.212
N2141 X41.354 Y84.967
N2142 X41.883 Y84.745
N2143 X42.448 Y84.561
N2144 X43.03 Y84.422
N2145 X43.616 Y84.33
N2146 X44.193 Y84.287
N2147 X44.71 Y84.29
N2148 X45.162 Y84.329
N2149 X45.572 Y84.398
N2150 X45.926 Y84.487
N2151 X46.137 Y84.559
N2152 X46.4 Y84.68
N2153 X46.633 Y84.852
N2154 X46.825 Y85.069
N2155 X46.968 Y85.321
N2156 X47.057 Y85.596
N2157 X47.087 Y85.885
N2158 Y87.859
N2159 G3 X46.545 Y88.435 I-0.6 J-0.021
N2160 G1 X39.12 Y89.15
N2161 G3 X38.463 Y88.573 I-0.057 J-0.597
N2162 G1 X38.464 Y86.615
N2163 X38.477 Y86.355
N2164 X38.501 Y86.166
N2165 X38.548 Y85.95
N2166 X38.614 Y85.728
N2167 X38.712 Y85.477
N2168 X38.834 Y85.226
N2169 X38.997 Y84.949
N2170 X39.191 Y84.672
N2171 X39.432 Y84.383
N2172 X39.722 Y84.085
N2173 X40.048 Y83.801
N2174 X40.439 Y83.512
N2175 X40.88 Y83.238
N2176 X41.355 Y82.993
N2177 X41.884 Y82.771
N2178 X42.449 Y82.587
N2179 X43.031 Y82.448
N2180 X43.617 Y82.356
N2181 X44.193 Y82.313
N2182 X44.71 Y82.316
N2183 X45.162 Y82.355
N2184 X45.572 Y82.424
N2185 X45.926 Y82.513
N2186 X46.137 Y82.585
N2187 X46.4 Y82.706
N2188 X46.633 Y82.878
N2189 X46.825 Y83.095
N2190 X46.968 Y83.347
N2191 X47.057 Y83.622
N2192 X47.087 Y83.91
N2193 Y85.885
N2194 G3 X47.033 Y86.112 I-0.6 J-0.021
N2195 X46.546 Y86.461 I-0.546 J-0.249
N2196 G1 X39.122 Y87.191
N2197 G3 X38.464 Y86.615 I-0.059 J-0.597
N2198 G1 Y84.656
N2199 X38.478 Y84.381
N2200 X38.502 Y84.192
N2201 X38.549 Y83.975
N2202 X38.615 Y83.754
N2203 X38.713 Y83.503
N2204 X38.835 Y83.251
N2205 X38.998 Y82.975
N2206 X39.192 Y82.698
N2207 X39.433 Y82.408
N2208 X39.723 Y82.111
N2209 X40.049 Y81.827
N2210 X40.44 Y81.538
N2211 X40.881 Y81.263
N2212 X41.356 Y81.018
N2213 X41.885 Y80.797
N2214 X42.45 Y80.613
N2215 X43.031 Y80.474
N2216 X43.617 Y80.382
N2217 X44.194 Y80.339
N2218 X44.71 Y80.342
N2219 X45.162 Y80.381
N2220 X45.572 Y80.45
N2221 X45.926 Y80.539
N2222 X46.137 Y80.611
N2223 X46.4 Y80.732
N2224 X46.632 Y80.904
N2225 X46.824 Y81.121
N2226 X46.968 Y81.373
N2227 X47.057 Y81.648
N2228 X47.087 Y81.936
N2229 Y83.91
N2230 G3 X46.547 Y84.487 I-0.6 J-0.021
N2231 G1 X39.123 Y85.232
N2232 G3 X38.464 Y84.656 I-0.06 J-0.597
N2233 G1 Y82.577
N2234 X38.472 Y82.411
N2235 X38.497 Y82.222
N2236 X38.544 Y82.005
N2237 X38.61 Y81.783
N2238 X38.708 Y81.532
N2239 X38.83 Y81.28
N2240 X38.993 Y81.003
N2241 X39.188 Y80.726
N2242 X39.429 Y80.436
N2243 X39.719 Y80.138
N2244 X40.046 Y79.854
N2245 X40.437 Y79.564
N2246 X40.878 Y79.29
N2247 X41.353 Y79.045
N2248 X41.883 Y78.823
N2249 X42.448 Y78.639
N2250 X43.03 Y78.499
N2251 X43.616 Y78.408
N2252 X44.193 Y78.365
N2253 X44.709 Y78.368
N2254 X45.162 Y78.407
N2255 X45.571 Y78.476
N2256 X45.925 Y78.565
N2257 X46.136 Y78.637
N2258 X46.399 Y78.758
N2259 X46.632 Y78.93
N2260 X46.824 Y79.147
N2261 X46.968 Y79.398
N2262 X47.056 Y79.674
N2263 X47.086 Y79.962
N2264 X47.087 Y81.936
N2265 G3 X46.538 Y82.513 I-0.6 J-0.021
N2266 G1 X39.115 Y83.154
N2267 G3 X38.464 Y82.577 I-0.052 J-0.598
N2268 G1 Y80.618
N2269 X38.474 Y80.435
N2270 X38.498 Y80.246
N2271 X38.545 Y80.029
N2272 X38.611 Y79.808
N2273 X38.709 Y79.556
N2274 X38.831 Y79.305
N2275 X38.994 Y79.028
N2276 X39.189 Y78.751
N2277 X39.429 Y78.461
N2278 X39.72 Y78.164
N2279 X40.046 Y77.879
N2280 X40.437 Y77.59
N2281 X40.878 Y77.315
N2282 X41.353 Y77.07
N2283 X41.883 Y76.849
N2284 X42.448 Y76.665
N2285 X43.03 Y76.525
N2286 X43.616 Y76.434
N2287 X44.193 Y76.391
N2288 X44.709 Y76.394
N2289 X45.162 Y76.433
N2290 X45.571 Y76.502
N2291 X45.925 Y76.591
N2292 X46.136 Y76.663
N2293 X46.399 Y76.783
N2294 X46.632 Y76.956
N2295 X46.824 Y77.173
N2296 X46.967 Y77.424
N2297 X47.056 Y77.7
N2298 X47.086 Y77.988
N2299 Y79.962
N2300 G3 X46.539 Y80.539 I-0.6 J-0.021
N2301 G1 X39.117 Y81.195
N2302 G3 X38.464 Y80.618 I-0.053 J-0.598
N2303 G1 X38.465 Y78.66
N2304 X38.475 Y78.459
N2305 X38.499 Y78.27
N2306 X38.546 Y78.054
N2307 X38.612 Y77.833
N2308 X38.71 Y77.582
N2309 X38.832 Y77.33
N2310 X38.995 Y77.053
N2311 X39.19 Y76.776
N2312 X39.43 Y76.487
N2313 X39.72 Y76.189
N2314 X40.046 Y75.905
N2315 X40.437 Y75.616
N2316 X40.878 Y75.341
N2317 X41.354 Y75.096
N2318 X41.883 Y74.875
N2319 X42.448 Y74.69
N2320 X43.03 Y74.551
N2321 X43.616 Y74.46
N2322 X44.192 Y74.417
N2323 X44.709 Y74.42
N2324 X45.161 Y74.459
N2325 X45.571 Y74.528
N2326 X45.925 Y74.617
N2327 X46.136 Y74.688
N2328 X46.399 Y74.809
N2329 X46.632 Y74.982
N2330 X46.824 Y75.199
N2331 X46.967 Y75.45
N2332 X47.056 Y75.726
N2333 X47.086 Y76.014
N2334 Y77.988
N2335 G3 X46.54 Y78.565 I-0.6 J-0.021
N2336 G1 X39.118 Y79.236
N2337 G3 X38.465 Y78.66 I-0.054 J-0.598
N2338 G1 Y76.603
N2339 X38.472 Y76.453
N2340 X38.501 Y76.256
N2341 X38.552 Y76.04
N2342 X38.625 Y75.811
N2343 X38.727 Y75.56
N2344 X38.859 Y75.301
N2345 X39.027 Y75.026
N2346 X39.234 Y74.74
N2347 X39.48 Y74.454
N2348 X39.785 Y74.153
N2349 X40.121 Y73.87
N2350 X40.517 Y73.586
N2351 X40.974 Y73.313
N2352 X41.467 Y73.069
N2353 X41.999 Y72.857
N2354 X42.567 Y72.682
N2355 X43.152 Y72.553
N2356 X43.739 Y72.471
N2357 X44.304 Y72.439
N2358 X44.813 Y72.45
N2359 X45.242 Y72.495
N2360 X45.65 Y72.57
N2361 X45.994 Y72.663
N2362 X46.158 Y72.722
N2363 X46.416 Y72.845
N2364 X46.643 Y73.018
N2365 X46.83 Y73.234
N2366 X46.97 Y73.483
N2367 X47.056 Y73.755
N2368 X47.086 Y74.04
N2369 Y76.014
N2370 G3 X46.534 Y76.591 I-0.6 J-0.021
N2371 G1 X39.112 Y77.18
N2372 G3 X38.465 Y76.603 I-0.047 J-0.598
N2373 G1 Y74.644
N2374 X38.473 Y74.494
N2375 X38.499 Y74.306
N2376 X38.547 Y74.088
N2377 X38.615 Y73.866
N2378 X38.715 Y73.613
N2379 X38.84 Y73.36
N2380 X39.008 Y73.079
N2381 X39.204 Y72.805
N2382 X39.454 Y72.508
N2383 X39.739 Y72.22
N2384 X40.076 Y71.93
N2385 X40.475 Y71.639
N2386 X40.908 Y71.374
N2387 X41.393 Y71.128
N2388 X41.93 Y70.908
N2389 X42.499 Y70.727
N2390 X43.079 Y70.592
N2391 X43.664 Y70.505
N2392 X44.238 Y70.466
N2393 X44.746 Y70.472
N2394 X45.197 Y70.514
N2395 X45.601 Y70.585
N2396 X45.954 Y70.676
N2397 X46.144 Y70.743
N2398 X46.405 Y70.865
N2399 X46.636 Y71.037
N2400 X46.826 Y71.254
N2401 X46.968 Y71.504
N2402 X47.056 Y71.779
N2403 X47.085 Y72.065
N2404 X47.086 Y74.04
N2405 G3 X46.535 Y74.617 I-0.6 J-0.021
N2406 G1 X39.113 Y75.221
N2407 G3 X38.519 Y74.872 I-0.049 J-0.598
N2408 X38.465 Y74.644 I0.546 J-0.249
N2409 G1 Y72.685
N2410 X38.473 Y72.535
N2411 X38.497 Y72.348
N2412 X38.544 Y72.13
N2413 X38.61 Y71.909
N2414 X38.708 Y71.658
N2415 X38.83 Y71.407
N2416 X38.994 Y71.128
N2417 X39.186 Y70.855
N2418 X39.43 Y70.561
N2419 X39.715 Y70.269
N2420 X40.045 Y69.981
N2421 X40.439 Y69.69
N2422 X40.873 Y69.42
N2423 X41.35 Y69.173
N2424 X41.882 Y68.951
N2425 X42.447 Y68.767
N2426 X43.029 Y68.627
N2427 X43.614 Y68.536
N2428 X44.19 Y68.493
N2429 X44.705 Y68.496
N2430 X45.162 Y68.536
N2431 X45.569 Y68.604
N2432 X45.925 Y68.694
N2433 X46.135 Y68.765
N2434 X46.398 Y68.886
N2435 X46.631 Y69.059
N2436 X46.823 Y69.275
N2437 X46.966 Y69.527
N2438 X47.055 Y69.803
N2439 X47.085 Y70.091
N2440 Y72.065
N2441 G3 X46.536 Y72.642 I-0.6 J-0.021
N2442 G1 X39.115 Y73.262
N2443 G3 X38.519 Y72.913 I-0.05 J-0.598
N2444 X38.465 Y72.685 I0.546 J-0.249
N2445 G1 X38.466 Y70.726
N2446 X38.474 Y70.561
N2447 X38.499 Y70.372
N2448 X38.545 Y70.156
N2449 X38.611 Y69.934
N2450 X38.709 Y69.684
N2451 X38.831 Y69.432
N2452 X38.994 Y69.156
N2453 X39.189 Y68.879
N2454 X39.429 Y68.589
N2455 X39.719 Y68.291
N2456 X40.045 Y68.007
N2457 X40.436 Y67.718
N2458 X40.877 Y67.443
N2459 X41.353 Y67.198
N2460 X41.882 Y66.977
N2461 X42.446 Y66.793
N2462 X43.028 Y66.654
N2463 X43.614 Y66.562
N2464 X44.191 Y66.519
N2465 X44.708 Y66.522
N2466 X45.16 Y66.561
N2467 X45.57 Y66.63
N2468 X45.924 Y66.719
N2469 X46.135 Y66.791
N2470 X46.398 Y66.912
N2471 X46.631 Y67.084
N2472 X46.823 Y67.301
N2473 X46.966 Y67.553
N2474 X47.055 Y67.828
N2475 X47.085 Y68.116
N2476 Y70.091
N2477 G3 X46.537 Y70.668 I-0.6 J-0.021
N2478 G1 X39.116 Y71.303
N2479 G3 X38.466 Y70.726 I-0.051 J-0.598
N2480 G1 Y68.767
N2481 X38.475 Y68.587
N2482 X38.5 Y68.398
N2483 X38.546 Y68.182
N2484 X38.612 Y67.96
N2485 X38.71 Y67.709
N2486 X38.832 Y67.457
N2487 X38.995 Y67.181
N2488 X39.19 Y66.904
N2489 X39.43 Y66.614
N2490 X39.72 Y66.317
N2491 X40.046 Y66.033
N2492 X40.437 Y65.744
N2493 X40.878 Y65.469
N2494 X41.353 Y65.224
N2495 X41.882 Y65.003
N2496 X42.447 Y64.819
N2497 X43.029 Y64.679
N2498 X43.615 Y64.588
N2499 X44.191 Y64.545
N2500 X44.708 Y64.548
N2501 X45.16 Y64.587
N2502 X45.569 Y64.656
N2503 X45.924 Y64.745
N2504 X46.135 Y64.817
N2505 X46.398 Y64.938
N2506 X46.63 Y65.11
N2507 X46.823 Y65.327
N2508 X46.966 Y65.579
N2509 X47.055 Y65.854
N2510 X47.085 Y66.142
N2511 Y68.116
N2512 G3 X46.538 Y68.693 I-0.6 J-0.021
N2513 G1 X39.118 Y69.344
N2514 G3 X38.466 Y68.767 I-0.052 J-0.598
N2515 G1 Y66.809
N2516 X38.476 Y66.612
N2517 X38.501 Y66.423
N2518 X38.547 Y66.207
N2519 X38.613 Y65.986
N2520 X38.711 Y65.735
N2521 X38.833 Y65.483
N2522 X38.996 Y65.207
N2523 X39.191 Y64.93
N2524 X39.431 Y64.64
N2525 X39.721 Y64.343
N2526 X40.047 Y64.059
N2527 X40.438 Y63.77
N2528 X40.879 Y63.495
N2529 X41.354 Y63.25
N2530 X41.883 Y63.029
N2531 X42.448 Y62.845
N2532 X43.029 Y62.706
N2533 X43.615 Y62.614
N2534 X44.192 Y62.571
N2535 X44.708 Y62.574
N2536 X45.16 Y62.613
N2537 X45.569 Y62.682
N2538 X45.924 Y62.771
N2539 X46.134 Y62.843
N2540 X46.397 Y62.964
N2541 X46.63 Y63.136
N2542 X46.822 Y63.353
N2543 X46.966 Y63.605
N2544 X47.054 Y63.88
N2545 X47.084 Y64.168
N2546 X47.085 Y66.142
N2547 G3 X46.539 Y66.719 I-0.6 J-0.021
N2548 G1 X39.119 Y67.385
N2549 G3 X38.466 Y66.809 I-0.054 J-0.598
N2550 G1 Y64.85
N2551 X38.477 Y64.638
N2552 X38.502 Y64.449
N2553 X38.548 Y64.233
N2554 X38.614 Y64.012
N2555 X38.712 Y63.761
N2556 X38.834 Y63.509
N2557 X38.997 Y63.233
N2558 X39.192 Y62.956
N2559 X39.432 Y62.666
N2560 X39.722 Y62.369
N2561 X40.048 Y62.085
N2562 X40.439 Y61.796
N2563 X40.88 Y61.521
N2564 X41.354 Y61.276
N2565 X41.883 Y61.055
N2566 X42.448 Y60.871
N2567 X43.029 Y60.732
N2568 X43.615 Y60.64
N2569 X44.192 Y60.597
N2570 X44.708 Y60.6
N2571 X45.16 Y60.639
N2572 X45.569 Y60.708
N2573 X45.923 Y60.797
N2574 X46.134 Y60.869
N2575 X46.397 Y60.99
N2576 X46.63 Y61.162
N2577 X46.822 Y61.379
N2578 X46.965 Y61.631
N2579 X47.054 Y61.906
N2580 X47.084 Y62.194
N2581 Y64.168
N2582 G3 X46.54 Y64.745 I-0.6 J-0.021
N2583 G1 X39.121 Y65.426
N2584 G3 X38.466 Y64.85 I-0.055 J-0.597
N2585 G1 Y62.891
N2586 X38.478 Y62.664
N2587 X38.503 Y62.475
N2588 X38.549 Y62.259
N2589 X38.615 Y62.037
N2590 X38.713 Y61.787
N2591 X38.835 Y61.535
N2592 X38.998 Y61.259
N2593 X39.193 Y60.981
N2594 X39.433 Y60.692
N2595 X39.723 Y60.395
N2596 X40.049 Y60.111
N2597 X40.439 Y59.822
N2598 X40.88 Y59.547
N2599 X41.355 Y59.302
N2600 X41.884 Y59.081
N2601 X42.449 Y58.897
N2602 X43.03 Y58.758
N2603 X43.616 Y58.666
N2604 X44.192 Y58.623
N2605 X44.708 Y58.626
N2606 X45.16 Y58.666
N2607 X45.569 Y58.734
N2608 X45.923 Y58.824
N2609 X46.134 Y58.895
N2610 X46.397 Y59.016
N2611 X46.63 Y59.188
N2612 X46.822 Y59.405
N2613 X46.965 Y59.657
N2614 X47.054 Y59.932
N2615 X47.084 Y60.221
N2616 Y62.194
N2617 G3 X46.541 Y62.771 I-0.6 J-0.021
N2618 G1 X39.122 Y63.467
N2619 G3 X38.466 Y62.891 I-0.056 J-0.597
N2620 G1 X38.467 Y60.932
N2621 X38.479 Y60.69
N2622 X38.504 Y60.501
N2623 X38.55 Y60.285
N2624 X38.616 Y60.063
N2625 X38.714 Y59.812
N2626 X38.836 Y59.561
N2627 X38.999 Y59.285
N2628 X39.194 Y59.007
N2629 X39.434 Y58.718
N2630 X39.724 Y58.421
N2631 X40.05 Y58.137
N2632 X40.44 Y57.848
N2633 X40.881 Y57.574
N2634 X41.356 Y57.329
N2635 X41.885 Y57.108
N2636 X42.449 Y56.923
N2637 X43.03 Y56.784
N2638 X43.616 Y56.693
N2639 X44.192 Y56.65
N2640 X44.708 Y56.653
N2641 X45.16 Y56.692
N2642 X45.569 Y56.761
N2643 X45.923 Y56.85
N2644 X46.134 Y56.921
N2645 X46.397 Y57.042
N2646 X46.629 Y57.215
N2647 X46.822 Y57.431
N2648 X46.965 Y57.683
N2649 X47.054 Y57.959
N2650 X47.084 Y58.247
N2651 Y60.221
N2652 G3 X46.542 Y60.797 I-0.6 J-0.021
N2653 G1 X39.124 Y61.508
N2654 G3 X38.467 Y60.932 I-0.057 J-0.597
N2655 G1 Y58.973
N2656 X38.48 Y58.716
N2657 X38.505 Y58.527
N2658 X38.551 Y58.311
N2659 X38.617 Y58.089
N2660 X38.715 Y57.839
N2661 X38.837 Y57.587
N2662 X39 Y57.311
N2663 X39.195 Y57.034
N2664 X39.435 Y56.744
N2665 X39.725 Y56.447
N2666 X40.051 Y56.163
N2667 X40.441 Y55.874
N2668 X40.882 Y55.6
N2669 X41.357 Y55.355
N2670 X41.885 Y55.134
N2671 X42.45 Y54.95
N2672 X43.031 Y54.811
N2673 X43.616 Y54.719
N2674 X44.192 Y54.676
N2675 X44.708 Y54.679
N2676 X45.16 Y54.718
N2677 X45.569 Y54.787
N2678 X45.923 Y54.876
N2679 X46.133 Y54.948
N2680 X46.397 Y55.069
N2681 X46.629 Y55.241
N2682 X46.821 Y55.458
N2683 X46.965 Y55.709
N2684 X47.053 Y55.985
N2685 X47.083 Y56.273
N2686 X47.084 Y58.247
N2687 G3 X46.542 Y58.823 I-0.6 J-0.021
N2688 G1 X39.125 Y59.549
N2689 G3 X38.467 Y58.973 I-0.058 J-0.597
N2690 G1 Y57.014
N2691 X38.481 Y56.742
N2692 X38.506 Y56.553
N2693 X38.552 Y56.337
N2694 X38.618 Y56.115
N2695 X38.716 Y55.865
N2696 X38.838 Y55.613
N2697 X39.001 Y55.337
N2698 X39.196 Y55.06
N2699 X39.436 Y54.77
N2700 X39.726 Y54.473
N2701 X40.051 Y54.189
N2702 X40.442 Y53.9
N2703 X40.883 Y53.626
N2704 X41.357 Y53.381
N2705 X41.886 Y53.16
N2706 X42.45 Y52.976
N2707 X43.031 Y52.837
N2708 X43.617 Y52.746
N2709 X44.193 Y52.703
N2710 X44.708 Y52.706
N2711 X45.16 Y52.745
N2712 X45.569 Y52.813
N2713 X45.923 Y52.903
N2714 X46.133 Y52.974
N2715 X46.396 Y53.095
N2716 X46.629 Y53.267
N2717 X46.821 Y53.484
N2718 X46.965 Y53.736
N2719 X47.053 Y54.011
N2720 X47.083 Y54.3
N2721 Y56.273
N2722 G3 X46.543 Y56.849 I-0.6 J-0.021
N2723 G1 X39.127 Y57.59
N2724 G3 X38.467 Y57.014 I-0.06 J-0.597
N2725 G1 Y54.936
N2726 X38.476 Y54.773
N2727 X38.5 Y54.584
N2728 X38.547 Y54.367
N2729 X38.613 Y54.145
N2730 X38.711 Y53.894
N2731 X38.833 Y53.642
N2732 X38.996 Y53.365
N2733 X39.191 Y53.088
N2734 X39.432 Y52.798
N2735 X39.722 Y52.501
N2736 X40.048 Y52.216
N2737 X40.439 Y51.927
N2738 X40.88 Y51.653
N2739 X41.355 Y51.408
N2740 X41.884 Y51.187
N2741 X42.449 Y51.003
N2742 X43.03 Y50.863
N2743 X43.616 Y50.772
N2744 X44.192 Y50.729
N2745 X44.708 Y50.732
N2746 X45.16 Y50.771
N2747 X45.569 Y50.84
N2748 X45.923 Y50.929
N2749 X46.133 Y51
N2750 X46.396 Y51.121
N2751 X46.629 Y51.294
N2752 X46.821 Y51.51
N2753 X46.964 Y51.762
N2754 X47.053 Y52.038
N2755 X47.083 Y52.326
N2756 Y54.3
N2757 G3 X46.535 Y54.876 I-0.6 J-0.021
N2758 G1 X39.118 Y55.513
N2759 G3 X38.467 Y54.936 I-0.051 J-0.598
N2760 G1 X38.468 Y52.977
N2761 X38.477 Y52.797
N2762 X38.502 Y52.608
N2763 X38.548 Y52.392
N2764 X38.614 Y52.17
N2765 X38.712 Y51.919
N2766 X38.834 Y51.667
N2767 X38.997 Y51.391
N2768 X39.192 Y51.114
N2769 X39.432 Y50.824
N2770 X39.722 Y50.527
N2771 X40.048 Y50.242
N2772 X40.439 Y49.953
N2773 X40.88 Y49.679
N2774 X41.355 Y49.434
N2775 X41.884 Y49.213
N2776 X42.448 Y49.029
N2777 X43.03 Y48.89
N2778 X43.615 Y48.798
N2779 X44.191 Y48.755
N2780 X44.707 Y48.758
N2781 X45.159 Y48.797
N2782 X45.568 Y48.866
N2783 X45.922 Y48.955
N2784 X46.133 Y49.027
N2785 X46.396 Y49.148
N2786 X46.628 Y49.32
N2787 X46.821 Y49.537
N2788 X46.964 Y49.788
N2789 X47.053 Y50.064
N2790 X47.083 Y50.352
N2791 Y52.326
N2792 G3 X46.536 Y52.903 I-0.6 J-0.021
N2793 G1 X39.12 Y53.554
N2794 G3 X38.468 Y52.977 I-0.052 J-0.598
N2795 G1 Y51.018
N2796 X38.478 Y50.822
N2797 X38.503 Y50.633
N2798 X38.549 Y50.417
N2799 X38.615 Y50.196
N2800 X38.713 Y49.945
N2801 X38.835 Y49.693
N2802 X38.998 Y49.417
N2803 X39.193 Y49.139
N2804 X39.433 Y48.85
N2805 X39.723 Y48.553
N2806 X40.049 Y48.269
N2807 X40.439 Y47.98
N2808 X40.88 Y47.705
N2809 X41.355 Y47.46
N2810 X41.884 Y47.239
N2811 X42.449 Y47.055
N2812 X43.03 Y46.916
N2813 X43.615 Y46.825
N2814 X44.191 Y46.782
N2815 X44.707 Y46.785
N2816 X45.159 Y46.824
N2817 X45.568 Y46.892
N2818 X45.922 Y46.982
N2819 X46.132 Y47.053
N2820 X46.396 Y47.174
N2821 X46.628 Y47.346
N2822 X46.82 Y47.563
N2823 X46.964 Y47.815
N2824 X47.052 Y48.09
N2825 X47.082 Y48.378
N2826 X47.083 Y50.352
N2827 G3 X46.537 Y50.929 I-0.6 J-0.021
N2828 G1 X39.121 Y51.595
N2829 G3 X38.468 Y51.018 I-0.054 J-0.598
N2830 G1 Y48.961
N2831 X38.476 Y48.812
N2832 X38.505 Y48.614
N2833 X38.556 Y48.397
N2834 X38.63 Y48.168
N2835 X38.733 Y47.917
N2836 X38.866 Y47.657
N2837 X39.034 Y47.383
N2838 X39.244 Y47.096
N2839 X39.49 Y46.811
N2840 X39.796 Y46.509
N2841 X40.133 Y46.226
N2842 X40.53 Y45.944
N2843 X40.988 Y45.671
N2844 X41.484 Y45.427
N2845 X42.016 Y45.217
N2846 X42.584 Y45.043
N2847 X43.168 Y44.915
N2848 X43.755 Y44.835
N2849 X44.317 Y44.804
N2850 X44.824 Y44.816
N2851 X45.25 Y44.861
N2852 X45.658 Y44.938
N2853 X46.001 Y45.031
N2854 X46.157 Y45.088
N2855 X46.414 Y45.211
N2856 X46.641 Y45.385
N2857 X46.828 Y45.6
N2858 X46.967 Y45.849
N2859 X47.053 Y46.121
N2860 X47.082 Y46.404
N2861 Y48.378
N2862 G3 X46.53 Y48.956 I-0.6 J-0.021
N2863 G1 X39.115 Y49.539
N2864 G3 X38.468 Y48.961 I-0.047 J-0.598
N2865 G1 Y47.002
N2866 X38.476 Y46.853
N2867 X38.502 Y46.664
N2868 X38.551 Y46.445
N2869 X38.62 Y46.223
N2870 X38.721 Y45.97
N2871 X38.847 Y45.717
N2872 X39.016 Y45.436
N2873 X39.213 Y45.162
N2874 X39.464 Y44.864
N2875 X39.75 Y44.577
N2876 X40.089 Y44.287
N2877 X40.489 Y43.996
N2878 X40.923 Y43.731
N2879 X41.41 Y43.486
N2880 X41.946 Y43.268
N2881 X42.515 Y43.088
N2882 X43.095 Y42.954
N2883 X43.679 Y42.869
N2884 X44.253 Y42.831
N2885 X44.759 Y42.839
N2886 X45.206 Y42.881
N2887 X45.609 Y42.953
N2888 X45.96 Y43.045
N2889 X46.144 Y43.109
N2890 X46.404 Y43.231
N2891 X46.634 Y43.404
N2892 X46.824 Y43.62
N2893 X46.965 Y43.871
N2894 X47.052 Y44.144
N2895 X47.082 Y44.43
N2896 Y46.404
N2897 G3 X46.531 Y46.982 I-0.6 J-0.021
N2898 G1 X39.116 Y47.58
N2899 G3 X38.468 Y47.002 I-0.048 J-0.598
N2900 G1 X38.469 Y45.044
N2901 X38.476 Y44.894
N2902 X38.501 Y44.707
N2903 X38.548 Y44.488
N2904 X38.615 Y44.267
N2905 X38.714 Y44.016
N2906 X38.836 Y43.765
N2907 X39.001 Y43.486
N2908 X39.194 Y43.212
N2909 X39.439 Y42.918
N2910 X39.725 Y42.627
N2911 X40.057 Y42.339
N2912 X40.452 Y42.048
N2913 X40.886 Y41.779
N2914 X41.365 Y41.533
N2915 X41.897 Y41.312
N2916 X42.462 Y41.128
N2917 X43.043 Y40.991
N2918 X43.628 Y40.9
N2919 X44.203 Y40.859
N2920 X44.716 Y40.863
N2921 X45.169 Y40.903
N2922 X45.576 Y40.972
N2923 X45.93 Y41.062
N2924 X46.134 Y41.132
N2925 X46.397 Y41.253
N2926 X46.629 Y41.426
N2927 X46.82 Y41.642
N2928 X46.963 Y41.893
N2929 X47.052 Y42.169
N2930 X47.082 Y42.456
N2931 Y44.43
N2932 G3 X46.532 Y45.007 I-0.6 J-0.021
N2933 G1 X39.118 Y45.621
N2934 G3 X38.469 Y45.044 I-0.049 J-0.598
N2935 G1 Y43.085
N2936 X38.477 Y42.925
N2937 X38.502 Y42.737
N2938 X38.548 Y42.52
N2939 X38.614 Y42.299
N2940 X38.712 Y42.048
N2941 X38.834 Y41.797
N2942 X38.997 Y41.52
N2943 X39.191 Y41.244
N2944 X39.432 Y40.953
N2945 X39.721 Y40.657
N2946 X40.048 Y40.372
N2947 X40.439 Y40.083
N2948 X40.879 Y39.81
N2949 X41.353 Y39.565
N2950 X41.883 Y39.343
N2951 X42.447 Y39.159
N2952 X43.028 Y39.02
N2953 X43.614 Y38.929
N2954 X44.19 Y38.886
N2955 X44.705 Y38.889
N2956 X45.158 Y38.928
N2957 X45.567 Y38.996
N2958 X45.921 Y39.086
N2959 X46.131 Y39.157
N2960 X46.395 Y39.278
N2961 X46.627 Y39.451
N2962 X46.819 Y39.667
N2963 X46.963 Y39.919
N2964 X47.051 Y40.195
N2965 X47.081 Y40.483
N2966 X47.082 Y42.456
N2967 G3 X46.533 Y43.033 I-0.6 J-0.021
N2968 G1 X39.119 Y43.662
N2969 G3 X38.469 Y43.085 I-0.051 J-0.598
N2970 G1 Y41.126
N2971 X38.478 Y40.952
N2972 X38.503 Y40.763
N2973 X38.549 Y40.547
N2974 X38.615 Y40.325
N2975 X38.713 Y40.074
N2976 X38.835 Y39.823
N2977 X38.998 Y39.546
N2978 X39.193 Y39.269
N2979 X39.433 Y38.98
N2980 X39.723 Y38.683
N2981 X40.049 Y38.399
N2982 X40.439 Y38.11
N2983 X40.88 Y37.836
N2984 X41.355 Y37.591
N2985 X41.883 Y37.37
N2986 X42.447 Y37.186
N2987 X43.029 Y37.046
N2988 X43.614 Y36.955
N2989 X44.19 Y36.912
N2990 X44.706 Y36.915
N2991 X45.158 Y36.954
N2992 X45.567 Y37.023
N2993 X45.921 Y37.112
N2994 X46.131 Y37.183
N2995 X46.394 Y37.304
N2996 X46.627 Y37.477
N2997 X46.819 Y37.694
N2998 X46.963 Y37.945
N2999 X47.051 Y38.221
N3000 X47.081 Y38.509
N3001 Y40.483
N3002 G3 X46.534 Y41.06 I-0.6 J-0.021
N3003 G1 X39.121 Y41.703
N3004 G3 X38.469 Y41.126 I-0.052 J-0.598
N3005 G1 Y39.167
N3006 X38.479 Y38.978
N3007 X38.504 Y38.789
N3008 X38.55 Y38.573
N3009 X38.616 Y38.351
N3010 X38.714 Y38.1
N3011 X38.836 Y37.849
N3012 X38.999 Y37.573
N3013 X39.194 Y37.296
N3014 X39.434 Y37.006
N3015 X39.724 Y36.709
N3016 X40.049 Y36.425
N3017 X40.44 Y36.136
N3018 X40.881 Y35.862
N3019 X41.355 Y35.617
N3020 X41.884 Y35.396
N3021 X42.448 Y35.212
N3022 X43.029 Y35.073
N3023 X43.614 Y34.981
N3024 X44.19 Y34.939
N3025 X44.706 Y34.942
N3026 X45.158 Y34.981
N3027 X45.567 Y35.049
N3028 X45.921 Y35.139
N3029 X46.131 Y35.21
N3030 X46.394 Y35.331
N3031 X46.627 Y35.503
N3032 X46.819 Y35.72
N3033 X46.962 Y35.972
N3034 X47.051 Y36.247
N3035 X47.081 Y36.535
N3036 Y38.509
N3037 G3 X46.535 Y39.086 I-0.6 J-0.021
N3038 G1 X39.122 Y39.744
N3039 G3 X38.469 Y39.167 I-0.053 J-0.598
N3040 G1 X38.47 Y37.208
N3041 X38.48 Y37.004
N3042 X38.505 Y36.815
N3043 X38.551 Y36.599
N3044 X38.617 Y36.377
N3045 X38.715 Y36.127
N3046 X38.837 Y35.875
N3047 X39 Y35.599
N3048 X39.194 Y35.322
N3049 X39.435 Y35.033
N3050 X39.725 Y34.735
N3051 X40.05 Y34.451
N3052 X40.441 Y34.163
N3053 X40.881 Y33.888
N3054 X41.356 Y33.644
N3055 X41.885 Y33.423
N3056 X42.449 Y33.239
N3057 X43.029 Y33.099
N3058 X43.615 Y33.008
N3059 X44.191 Y32.965
N3060 X44.706 Y32.968
N3061 X45.158 Y33.007
N3062 X45.567 Y33.076
N3063 X45.921 Y33.165
N3064 X46.131 Y33.236
N3065 X46.394 Y33.357
N3066 X46.626 Y33.53
N3067 X46.819 Y33.747
N3068 X46.962 Y33.998
N3069 X47.051 Y34.274
N3070 X47.081 Y34.562
N3071 Y36.535
N3072 G3 X46.536 Y37.112 I-0.6 J-0.021
N3073 G1 X39.124 Y37.785
N3074 G3 X38.47 Y37.208 I-0.054 J-0.598
N3075 G1 Y35.249
N3076 X38.481 Y35.03
N3077 X38.506 Y34.841
N3078 X38.552 Y34.625
N3079 X38.618 Y34.404
N3080 X38.716 Y34.153
N3081 X38.838 Y33.901
N3082 X39.001 Y33.625
N3083 X39.195 Y33.348
N3084 X39.435 Y33.059
N3085 X39.726 Y32.762
N3086 X40.051 Y32.478
N3087 X40.441 Y32.189
N3088 X40.882 Y31.915
N3089 X41.357 Y31.67
N3090 X41.885 Y31.449
N3091 X42.449 Y31.265
N3092 X43.03 Y31.126
N3093 X43.615 Y31.035
N3094 X44.191 Y30.992
N3095 X44.706 Y30.995
N3096 X45.158 Y31.034
N3097 X45.567 Y31.103
N3098 X45.92 Y31.192
N3099 X46.13 Y31.263
N3100 X46.394 Y31.384
N3101 X46.626 Y31.556
N3102 X46.818 Y31.773
N3103 X46.962 Y32.025
N3104 X47.05 Y32.3
N3105 X47.08 Y32.589
N3106 X47.081 Y34.562
N3107 G3 X46.536 Y35.138 I-0.6 J-0.021
N3108 G1 X39.125 Y35.826
N3109 G3 X38.47 Y35.249 I-0.055 J-0.597
N3110 G1 Y33.291
N3111 X38.482 Y33.057
N3112 X38.507 Y32.868
N3113 X38.553 Y32.652
N3114 X38.619 Y32.43
N3115 X38.717 Y32.179
N3116 X38.839 Y31.928
N3117 X39.002 Y31.652
N3118 X39.196 Y31.375
N3119 X39.436 Y31.086
N3120 X39.727 Y30.788
N3121 X40.052 Y30.504
N3122 X40.442 Y30.216
N3123 X40.883 Y29.941
N3124 X41.357 Y29.697
N3125 X41.886 Y29.476
N3126 X42.45 Y29.292
N3127 X43.03 Y29.153
N3128 X43.615 Y29.062
N3129 X44.191 Y29.019
N3130 X44.706 Y29.022
N3131 X45.158 Y29.061
N3132 X45.567 Y29.129
N3133 X45.92 Y29.218
N3134 X46.13 Y29.29
N3135 X46.393 Y29.411
N3136 X46.626 Y29.583
N3137 X46.818 Y29.8
N3138 X46.962 Y30.051
N3139 X47.05 Y30.327
N3140 X47.08 Y30.615
N3141 Y32.589
N3142 G3 X46.537 Y33.165 I-0.6 J-0.021
N3143 G1 X39.126 Y33.867
N3144 G3 X38.47 Y33.291 I-0.057 J-0.597
N3145 G1 Y31.332
N3146 X38.483 Y31.083
N3147 X38.508 Y30.894
N3148 X38.554 Y30.678
N3149 X38.62 Y30.457
N3150 X38.718 Y30.206
N3151 X38.84 Y29.954
N3152 X39.003 Y29.678
N3153 X39.197 Y29.401
N3154 X39.437 Y29.112
N3155 X39.728 Y28.815
N3156 X40.053 Y28.531
N3157 X40.443 Y28.242
N3158 X40.884 Y27.968
N3159 X41.358 Y27.724
N3160 X41.886 Y27.503
N3161 X42.45 Y27.319
N3162 X43.031 Y27.18
N3163 X43.616 Y27.088
N3164 X44.191 Y27.045
N3165 X44.706 Y27.048
N3166 X45.158 Y27.087
N3167 X45.567 Y27.156
N3168 X45.92 Y27.245
N3169 X46.13 Y27.316
N3170 X46.393 Y27.437
N3171 X46.626 Y27.61
N3172 X46.818 Y27.827
N3173 X46.961 Y28.078
N3174 X47.05 Y28.354
N3175 X47.08 Y28.642
N3176 Y30.615
N3177 G3 X46.538 Y31.192 I-0.6 J-0.021
N3178 G1 X39.128 Y31.908
N3179 G3 X38.47 Y31.332 I-0.058 J-0.597
N3180 G1 X38.471 Y29.373
N3181 X38.484 Y29.11
N3182 X38.509 Y28.921
N3183 X38.555 Y28.705
N3184 X38.621 Y28.483
N3185 X38.719 Y28.233
N3186 X38.841 Y27.981
N3187 X39.004 Y27.705
N3188 X39.198 Y27.428
N3189 X39.438 Y27.139
N3190 X39.728 Y26.841
N3191 X40.054 Y26.558
N3192 X40.444 Y26.269
N3193 X40.885 Y25.995
N3194 X41.359 Y25.75
N3195 X41.887 Y25.53
N3196 X42.451 Y25.346
N3197 X43.031 Y25.207
N3198 X43.616 Y25.115
N3199 X44.191 Y25.072
N3200 X44.707 Y25.075
N3201 X45.158 Y25.114
N3202 X45.566 Y25.183
N3203 X45.92 Y25.272
N3204 X46.13 Y25.343
N3205 X46.393 Y25.464
N3206 X46.626 Y25.637
N3207 X46.818 Y25.854
N3208 X46.961 Y26.105
N3209 X47.05 Y26.381
N3210 X47.08 Y26.669
N3211 Y28.642
N3212 G3 X46.539 Y29.218 I-0.6 J-0.021
N3213 G1 X39.129 Y29.949
N3214 G3 X38.471 Y29.373 I-0.059 J-0.597
N3215 G1 Y27.414
N3216 X38.485 Y27.136
N3217 X38.51 Y26.947
N3218 X38.556 Y26.731
N3219 X38.622 Y26.51
N3220 X38.72 Y26.259
N3221 X38.842 Y26.008
N3222 X39.004 Y25.732
N3223 X39.199 Y25.455
N3224 X39.439 Y25.166
N3225 X39.729 Y24.868
N3226 X40.055 Y24.584
N3227 X40.445 Y24.296
N3228 X40.885 Y24.022
N3229 X41.36 Y23.777
N3230 X41.888 Y23.557
N3231 X42.451 Y23.373
N3232 X43.031 Y23.234
N3233 X43.616 Y23.142
N3234 X44.192 Y23.099
N3235 X44.707 Y23.102
N3236 X45.158 Y23.141
N3237 X45.566 Y23.21
N3238 X45.92 Y23.299
N3239 X46.129 Y23.37
N3240 X46.393 Y23.491
N3241 X46.625 Y23.664
N3242 X46.817 Y23.88
N3243 X46.961 Y24.132
N3244 X47.049 Y24.408
N3245 X47.079 Y24.696
N3246 X47.08 Y26.669
N3247 G3 X46.54 Y27.245 I-0.6 J-0.021
N3248 G1 X39.131 Y27.99
N3249 G3 X38.471 Y27.414 I-0.06 J-0.597
N3250 G1 Y25.336
N3251 X38.48 Y25.168
N3252 X38.504 Y24.979
N3253 X38.551 Y24.762
N3254 X38.617 Y24.54
N3255 X38.715 Y24.289
N3256 X38.837 Y24.037
N3257 X39 Y23.761
N3258 X39.195 Y23.484
N3259 X39.435 Y23.194
N3260 X39.726 Y22.896
N3261 X40.051 Y22.612
N3262 X40.442 Y22.324
N3263 X40.883 Y22.049
N3264 X41.357 Y21.804
N3265 X41.886 Y21.584
N3266 X42.45 Y21.399
N3267 X43.03 Y21.26
N3268 X43.615 Y21.169
N3269 X44.191 Y21.126
N3270 X44.706 Y21.129
N3271 X45.157 Y21.168
N3272 X45.566 Y21.237
N3273 X45.92 Y21.326
N3274 X46.129 Y21.397
N3275 X46.392 Y21.518
N3276 X46.625 Y21.691
N3277 X46.817 Y21.907
N3278 X46.961 Y22.159
N3279 X47.049 Y22.435
N3280 X47.079 Y22.723
N3281 Y24.696
N3282 G3 X46.531 Y25.273 I-0.6 J-0.021
N3283 G1 X39.122 Y25.912
N3284 G3 X38.471 Y25.336 I-0.052 J-0.598
N3285 G1 Y23.377
N3286 X38.481 Y23.192
N3287 X38.505 Y23.003
N3288 X38.552 Y22.787
N3289 X38.618 Y22.566
N3290 X38.716 Y22.315
N3291 X38.838 Y22.063
N3292 X39.001 Y21.787
N3293 X39.195 Y21.51
N3294 X39.436 Y21.22
N3295 X39.726 Y20.923
N3296 X40.051 Y20.639
N3297 X40.442 Y20.35
N3298 X40.883 Y20.076
N3299 X41.357 Y19.831
N3300 X41.886 Y19.61
N3301 X42.449 Y19.426
N3302 X43.03 Y19.287
N3303 X43.615 Y19.196
N3304 X44.19 Y19.153
N3305 X44.706 Y19.156
N3306 X45.157 Y19.195
N3307 X45.566 Y19.264
N3308 X45.919 Y19.353
N3309 X46.129 Y19.424
N3310 X46.392 Y19.545
N3311 X46.625 Y19.717
N3312 X46.817 Y19.934
N3313 X46.96 Y20.186
N3314 X47.049 Y20.461
N3315 X47.079 Y20.75
N3316 Y22.723
N3317 G3 X46.532 Y23.3 I-0.6 J-0.021
N3318 G1 X39.124 Y23.953
N3319 G3 X38.471 Y23.377 I-0.053 J-0.598
N3320 G1 X38.472 Y21.418
N3321 X38.482 Y21.218
N3322 X38.506 Y21.029
N3323 X38.553 Y20.813
N3324 X38.619 Y20.592
N3325 X38.717 Y20.341
N3326 X38.839 Y20.089
N3327 X39.001 Y19.813
N3328 X39.196 Y19.536
N3329 X39.436 Y19.247
N3330 X39.727 Y18.949
N3331 X40.052 Y18.665
N3332 X40.442 Y18.377
N3333 X40.883 Y18.103
N3334 X41.357 Y17.858
N3335 X41.886 Y17.637
N3336 X42.449 Y17.453
N3337 X43.03 Y17.314
N3338 X43.615 Y17.223
N3339 X44.19 Y17.18
N3340 X44.706 Y17.183
N3341 X45.157 Y17.222
N3342 X45.565 Y17.291
N3343 X45.919 Y17.38
N3344 X46.129 Y17.451
N3345 X46.392 Y17.572
N3346 X46.625 Y17.744
N3347 X46.817 Y17.961
N3348 X46.96 Y18.213
N3349 X47.049 Y18.488
N3350 X47.079 Y18.776
N3351 Y20.75
N3352 G3 X46.533 Y21.326 I-0.6 J-0.021
N3353 G1 X39.125 Y21.995
N3354 G3 X38.472 Y21.418 I-0.054 J-0.598
N3355 G1 Y19.361
N3356 X38.479 Y19.211
N3357 X38.509 Y19.014
N3358 X38.559 Y18.798
N3359 X38.632 Y18.569
N3360 X38.735 Y18.318
N3361 X38.866 Y18.059
N3362 X39.034 Y17.785
N3363 X39.243 Y17.499
N3364 X39.488 Y17.213
N3365 X39.793 Y16.912
N3366 X40.129 Y16.629
N3367 X40.525 Y16.347
N3368 X40.982 Y16.074
N3369 X41.475 Y15.83
N3370 X42.006 Y15.619
N3371 X42.573 Y15.445
N3372 X43.157 Y15.316
N3373 X43.743 Y15.235
N3374 X44.306 Y15.203
N3375 X44.813 Y15.215
N3376 X45.24 Y15.259
N3377 X45.648 Y15.335
N3378 X45.991 Y15.428
N3379 X46.152 Y15.486
N3380 X46.409 Y15.609
N3381 X46.636 Y15.782
N3382 X46.824 Y15.998
N3383 X46.963 Y16.247
N3384 X47.049 Y16.519
N3385 X47.079 Y16.803
N3386 Y18.776
N3387 G3 X46.526 Y19.354 I-0.6 J-0.021
N3388 G1 X39.119 Y19.938
N3389 G3 X38.472 Y19.361 I-0.047 J-0.598
N3390 G1 Y17.402
N3391 X38.48 Y17.252
N3392 X38.506 Y17.065
N3393 X38.554 Y16.846
N3394 X38.623 Y16.624
N3395 X38.723 Y16.371
N3396 X38.849 Y16.118
N3397 X39.017 Y15.838
N3398 X39.213 Y15.564
N3399 X39.463 Y15.267
N3400 X39.749 Y14.979
N3401 X40.086 Y14.689
N3402 X40.485 Y14.399
N3403 X40.919 Y14.134
N3404 X41.404 Y13.889
N3405 X41.939 Y13.67
N3406 X42.507 Y13.489
N3407 X43.086 Y13.355
N3408 X43.67 Y13.269
N3409 X44.243 Y13.231
N3410 X44.749 Y13.238
N3411 X45.197 Y13.28
N3412 X45.601 Y13.351
N3413 X45.952 Y13.442
N3414 X46.139 Y13.507
N3415 X46.399 Y13.63
N3416 X46.629 Y13.802
N3417 X46.819 Y14.019
N3418 X46.961 Y14.269
N3419 X47.049 Y14.543
N3420 X47.078 Y14.829
N3421 X47.079 Y16.803
N3422 G3 X46.527 Y17.38 I-0.6 J-0.021
N3423 G1 X39.12 Y17.979
N3424 G3 X38.472 Y17.402 I-0.048 J-0.598
N3425 G1 Y15.443
N3426 X38.48 Y15.294
N3427 X38.505 Y15.107
N3428 X38.552 Y14.888
N3429 X38.618 Y14.668
N3430 X38.716 Y14.416
N3431 X38.838 Y14.166
N3432 X39.003 Y13.887
N3433 X39.195 Y13.614
N3434 X39.439 Y13.32
N3435 X39.725 Y13.028
N3436 X40.055 Y12.741
N3437 X40.449 Y12.45
N3438 X40.884 Y12.181
N3439 X41.361 Y11.935
N3440 X41.892 Y11.714
N3441 X42.457 Y11.53
N3442 X43.037 Y11.392
N3443 X43.621 Y11.301
N3444 X44.196 Y11.259
N3445 X44.709 Y11.262
N3446 X45.162 Y11.302
N3447 X45.569 Y11.371
N3448 X45.923 Y11.461
N3449 X46.129 Y11.531
N3450 X46.392 Y11.652
N3451 X46.625 Y11.825
N3452 X46.816 Y12.041
N3453 X46.96 Y12.293
N3454 X47.048 Y12.568
N3455 X47.078 Y12.856
N3456 Y14.829
N3457 G3 X46.528 Y15.407 I-0.6 J-0.021
N3458 G1 X39.122 Y16.02
N3459 G3 X38.472 Y15.443 I-0.05 J-0.598
N3460 G1 X38.473 Y13.485
N3461 X38.481 Y13.324
N3462 X38.505 Y13.135
N3463 X38.552 Y12.918
N3464 X38.618 Y12.697
N3465 X38.716 Y12.446
N3466 X38.838 Y12.195
N3467 X39 Y11.919
N3468 X39.195 Y11.642
N3469 X39.435 Y11.353
N3470 X39.725 Y11.056
N3471 X40.051 Y10.772
N3472 X40.441 Y10.483
N3473 X40.881 Y10.209
N3474 X41.356 Y9.964
N3475 X41.884 Y9.743
N3476 X42.448 Y9.559
N3477 X43.028 Y9.42
N3478 X43.613 Y9.329
N3479 X44.189 Y9.286
N3480 X44.704 Y9.289
N3481 X45.156 Y9.328
N3482 X45.564 Y9.397
N3483 X45.918 Y9.486
N3484 X46.128 Y9.557
N3485 X46.391 Y9.678
N3486 X46.624 Y9.851
N3487 X46.816 Y10.067
N3488 X46.959 Y10.319
N3489 X47.048 Y10.595
N3490 X47.078 Y10.883
N3491 Y12.856
N3492 G3 X46.529 Y13.433 I-0.6 J-0.021
N3493 G1 X39.123 Y14.062
N3494 G3 X38.473 Y13.485 I-0.051 J-0.598
N3495 G1 Y11.526
N3496 X38.482 Y11.35
N3497 X38.506 Y11.161
N3498 X38.553 Y10.945
N3499 X38.619 Y10.724
N3500 X38.717 Y10.473
N3501 X38.839 Y10.222
N3502 X39.001 Y9.946
N3503 X39.196 Y9.668
N3504 X39.436 Y9.379
N3505 X39.726 Y9.082
N3506 X40.052 Y8.798
N3507 X40.442 Y8.51
N3508 X40.882 Y8.236
N3509 X41.357 Y7.991
N3510 X41.885 Y7.77
N3511 X42.448 Y7.586
N3512 X43.029 Y7.447
N3513 X43.614 Y7.356
N3514 X44.189 Y7.313
N3515 X44.704 Y7.316
N3516 X45.155 Y7.355
N3517 X45.564 Y7.424
N3518 X45.918 Y7.513
N3519 X46.128 Y7.584
N3520 X46.391 Y7.705
N3521 X46.623 Y7.878
N3522 X46.815 Y8.094
N3523 X46.959 Y8.346
N3524 X47.048 Y8.622
N3525 X47.078 Y8.91
N3526 Y10.883
N3527 G3 X46.53 Y11.46 I-0.6 J-0.021
N3528 G1 X39.124 Y12.103
N3529 G3 X38.473 Y11.526 I-0.052 J-0.598
N3530 G1 Y9.567
N3531 X38.483 Y9.377
N3532 X38.507 Y9.188
N3533 X38.554 Y8.972
N3534 X38.62 Y8.751
N3535 X38.718 Y8.5
N3536 X38.84 Y8.248
N3537 X39.002 Y7.972
N3538 X39.197 Y7.695
N3539 X39.437 Y7.406
N3540 X39.727 Y7.109
N3541 X40.052 Y6.825
N3542 X40.442 Y6.537
N3543 X40.883 Y6.263
N3544 X41.357 Y6.018
N3545 X41.885 Y5.797
N3546 X42.449 Y5.613
N3547 X43.029 Y5.474
N3548 X43.614 Y5.383
N3549 X44.189 Y5.34
N3550 X44.704 Y5.343
N3551 X45.155 Y5.382
N3552 X45.564 Y5.451
N3553 X45.918 Y5.54
N3554 X46.127 Y5.611
N3555 X46.39 Y5.732
N3556 X46.623 Y5.904
N3557 X46.815 Y6.121
N3558 X46.959 Y6.373
N3559 X47.047 Y6.648
N3560 X47.077 Y6.937
N3561 X47.078 Y8.91
N3562 G3 X46.531 Y9.486 I-0.6 J-0.021
N3563 G1 X39.126 Y10.144
N3564 G3 X38.473 Y9.567 I-0.053 J-0.598
N3565 G1 Y7.608
N3566 X38.484 Y7.404
N3567 X38.508 Y7.215
N3568 X38.555 Y6.999
N3569 X38.621 Y6.777
N3570 X38.719 Y6.527
N3571 X38.841 Y6.275
N3572 X39.003 Y5.999
N3573 X39.198 Y5.722
N3574 X39.438 Y5.433
N3575 X39.728 Y5.136
N3576 X40.053 Y4.852
N3577 X40.443 Y4.564
N3578 X40.884 Y4.289
N3579 X41.358 Y4.045
N3580 X41.886 Y3.824
N3581 X42.449 Y3.64
N3582 X43.03 Y3.501
N3583 X43.614 Y3.41
N3584 X44.19 Y3.367
N3585 X44.705 Y3.37
N3586 X45.155 Y3.409
N3587 X45.564 Y3.478
N3588 X45.918 Y3.567
N3589 X46.127 Y3.638
N3590 X46.39 Y3.759
N3591 X46.623 Y3.931
N3592 X46.815 Y4.148
N3593 X46.958 Y4.4
N3594 X47.047 Y4.675
N3595 X47.077 Y4.964
N3596 Y6.937
N3597 G3 X46.532 Y7.513 I-0.6 J-0.021
N3598 G1 X39.127 Y8.185
N3599 G3 X38.473 Y7.608 I-0.054 J-0.598
N3600 G1 X38.474 Y5.649
N3601 X38.484 Y5.431
N3602 X38.493 Y5.281
N3603 X38.512 Y5.132
N3604 X38.539 Y4.984
N3605 X38.575 Y4.839
N3606 X38.619 Y4.695
N3607 X38.67 Y4.554
N3608 X38.727 Y4.415
N3609 X38.79 Y4.28
N3610 X38.859 Y4.146
N3611 X38.934 Y4.016
N3612 X39.013 Y3.889
N3613 X39.097 Y3.764
N3614 X39.185 Y3.643
N3615 X39.278 Y3.525
N3616 X39.374 Y3.41
N3617 X39.474 Y3.298
N3618 X39.577 Y3.189
N3619 X39.684 Y3.084
N3620 X39.793 Y2.981
N3621 X39.905 Y2.881
N3622 X40.02 Y2.785
N3623 X40.138 Y2.692
N3624 X40.257 Y2.602
N3625 X40.379 Y2.514
N3626 X40.504 Y2.43
N3627 X40.63 Y2.349
N3628 X40.758 Y2.271
N3629 X40.888 Y2.196
N3630 X41.019 Y2.124
N3631 X41.152 Y2.055
N3632 X41.287 Y1.989
N3633 X41.423 Y1.925
N3634 X41.56 Y1.865
N3635 X41.699 Y1.807
N3636 X41.838 Y1.753
N3637 X41.979 Y1.701
N3638 X42.121 Y1.652
N3639 X42.264 Y1.606
N3640 X42.408 Y1.563
N3641 X42.552 Y1.523
N3642 X42.697 Y1.486
N3643 X42.843 Y1.452
N3644 X42.99 Y1.42
N3645 X43.137 Y1.392
N3646 X43.285 Y1.367
N3647 X43.434 Y1.344
N3648 X43.582 Y1.325
N3649 X43.731 Y1.308
N3650 X43.881 Y1.295
N3651 X44.03 Y1.285
N3652 X44.18 Y1.277
N3653 X44.33 Y1.274
N3654 X44.48 Y1.273
N3655 X44.63 Y1.276
N3656 X44.78 Y1.283
N3657 X44.93 Y1.293
N3658 X45.079 Y1.306
N3659 X45.228 Y1.324
N3660 X45.376 Y1.347
N3661 X45.524 Y1.373
N3662 X45.671 Y1.404
N3663 X45.817 Y1.439
N3664 X45.961 Y1.478
N3665 X46.105 Y1.523
N3666 X46.136 Y1.534
N3667 X46.397 Y1.656
N3668 X46.628 Y1.829
N3669 X46.818 Y2.045
N3670 X46.96 Y2.295
N3671 X47.047 Y2.57
N3672 X47.077 Y2.856
N3673 Y4.964
N3674 G3 X46.533 Y5.54 I-0.6 J-0.021
N3675 G1 X39.128 Y6.226
N3676 G3 X38.474 Y5.649 I-0.055 J-0.597
N3677 G1 Y3.473
N3678 X38.481 Y3.323
N3679 X38.508 Y3.129
N3680 X38.555 Y2.917
N3681 X38.625 Y2.689
N3682 X38.674 Y2.567
N3683 X38.771 Y2.348
N3684 X38.829 Y2.116
N3685 X38.848 Y1.877
N3686 X38.825 Y1.639
N3687 X38.762 Y1.408
N3688 X38.69 Y1.254
N3689 X38.57 Y1.017
N3690 X38.498 Y0.767
N3691 X38.474 Y0.507
N3692 G3 X39.674 Y0.529 I0.6 J0.021
N3693 G1 X39.673 Y3.452
N3694 G3 X38.474 Y3.473 I-0.6 J0
N3695 G1 Y0.208
N3696 X38.468 Y-0.01
N3697 X38.417 Y-0.581
N3698 X38.236 Y-1.19
N3699 X38.173 Y-1.316
N3700 X38.041 Y-1.574
N3701 X37.94 Y-1.751
N3702 X37.824 Y-1.888
N3703 X37.377 Y-2.391
N3704 X37.363 Y-2.404
N3705 X36.954 Y-2.691
N3706 X36.736 Y-2.839
N3707 X36.519 Y-2.945
N3708 X36.301 Y-3.048
N3709 X36.084 Y-3.129
N3710 X35.866 Y-3.199
N3711 X35.648 Y-3.259
N3712 X35.431 Y-3.314
N3713 X35.213 Y-3.36
N3714 X34.996 Y-3.399
N3715 X34.778 Y-3.432
N3716 G3 X34.889 Y-4.622 I0.112 J-0.589
N3717 G1 X51.121 Y-4.672
N3718 G3 X51.189 Y-3.475 I0.002 J0.6
N3719 G1 X51.092 Y-3.468
N3720 X50.874 Y-3.447
N3721 X50.657 Y-3.417
N3722 X50.439 Y-3.381
N3723 X50.222 Y-3.34
N3724 X49.947 Y-3.274
N3725 X49.787 Y-3.23
N3726 X49.569 Y-3.166
N3727 X49.272 Y-3.057
N3728 X49.134 Y-2.998
N3729 X48.916 Y-2.892
N3730 X48.481 Y-2.615
N3731 X48.264 Y-2.471
N3732 X48.19 Y-2.404
N3733 X47.686 Y-1.86
N3734 X47.666 Y-1.833
N3735 X47.649 Y-1.805
N3736 X47.317 Y-1.193
N3737 X47.311 Y-1.18
N3738 X47.158 Y-0.663
N3739 X47.113 Y-0.445
N3740 X47.087 Y-0.227
N3741 X47.079 Y-0.01
N3742 X47.076 Y0.208
N3743 X47.077 Y2.856
N3744 X47.065 Y2.91 Z-9.987
N3745 X47.054 Y2.96 Z-9.967
N3746 X47.044 Y3.005 Z-9.936
N3747 X47.036 Y3.042 Z-9.895
N3748 X47.03 Y3.068 Z-9.847
N3749 X47.025 Y3.08 Z-9.803
N3750 X47.023 Y3.084 Z-9.758
N3751 G0 Z5
N3752 X27.804 Y204.436
N3753 Z-7.8
N3754 G1 Z-8.4 F1440
N3755 X27.811 Y204.434 Z-8.494
N3756 X27.832 Y204.427 Z-8.585
N3757 X27.866 Y204.415 Z-8.672
N3758 X27.912 Y204.398 Z-8.753
N3759 X27.97 Y204.378 Z-8.824
N3760 X28.038 Y204.354 Z-8.885
N3761 X28.113 Y204.327 Z-8.935
N3762 X28.195 Y204.298 Z-8.971
N3763 X28.282 Y204.268 Z-8.993
N3764 X28.37 Y204.236 Z-9
N3765 G3 X31.582 Y203.478 I5.107 J14.442
N3766 G1 X31.733 Y203.464
N3767 X31.951 Y203.439
N3768 X32.168 Y203.405
N3769 X32.386 Y203.362
N3770 X32.603 Y203.312
N3771 X32.821 Y203.25
N3772 X33.038 Y203.176
N3773 X33.256 Y203.094
N3774 X33.343 Y203.057
N3775 X33.473 Y202.989
N3776 X33.752 Y202.839
N3777 X33.908 Y202.739
N3778 X34.353 Y202.404
N3779 X34.554 Y202.186
N3780 X34.778 Y201.916
N3781 X34.905 Y201.751
N3782 X35.035 Y201.533
N3783 X35.144 Y201.316
N3784 X35.213 Y201.138
N3785 X35.376 Y200.581
N3786 X35.377 Y200.567
N3787 X35.398 Y200.419
N3788 X35.606 Y199.484
N3789 X35.749 Y198.537
N3790 X35.846 Y197.584
N3791 X35.913 Y196.629
N3792 X35.957 Y195.672
N3793 X35.987 Y194.715
N3794 X36.007 Y193.758
N3795 X36.021 Y192.8
N3796 X36.03 Y191.842
N3797 X36.035 Y190.885
N3798 X36.039 Y189.927
N3799 X36.044 Y188.012
N3800 X36.049 Y184.181
N3801 X36.073 Y150.661
N3802 X36.074 Y149.704
N3803 X36.071 Y136.296
N3804 X36.062 Y98.946
N3805 X36.068 Y48.188
N3806 X36.074 Y2.219
N3807 X35.933 Y1.761
N3808 X35.692 Y1.347
N3809 X35.547 Y1.095
N3810 X35.458 Y0.818
N3811 X35.427 Y0.528
N3812 Y0.208
N3813 X35.421 Y-0.01
N3814 X35.371 Y-0.581
N3815 X35.213 Y-1.119
N3816 X35.138 Y-1.316
N3817 X35.027 Y-1.533
N3818 X34.898 Y-1.751
N3819 X34.778 Y-1.907
N3820 X34.546 Y-2.186
N3821 X34.343 Y-2.404
N3822 X33.908 Y-2.73
N3823 X33.743 Y-2.839
N3824 X33.691 Y-2.869
N3825 X33.473 Y-2.984
N3826 X33.324 Y-3.057
N3827 X33.256 Y-3.087
N3828 X33.038 Y-3.171
N3829 X32.821 Y-3.247
N3830 X32.603 Y-3.31
N3831 X32.386 Y-3.361
N3832 X32.168 Y-3.406
N3833 G3 X31.956 Y-3.504 I0.14 J-0.583
N3834 G1 X31.88 Y-3.559 Z-8.993
N3835 X31.806 Y-3.613 Z-8.971
N3836 X31.735 Y-3.664 Z-8.935
N3837 X31.671 Y-3.711 Z-8.885
N3838 X31.613 Y-3.753 Z-8.824
N3839 X31.563 Y-3.789 Z-8.753
N3840 X31.523 Y-3.818 Z-8.672
N3841 X31.494 Y-3.839 Z-8.585
N3842 X31.476 Y-3.852 Z-8.494
N3843 X31.47 Y-3.856 Z-8.4
N3844 G0 Z5
N3845 X35.998 Y201.09
N3846 Z-7.8
N3847 G1 Z-8.4 F1440
N3848 X35.991 Y201.086 Z-8.494
N3849 X35.973 Y201.075 Z-8.585
N3850 X35.942 Y201.056 Z-8.672
N3851 X35.9 Y201.03 Z-8.753
N3852 X35.848 Y200.998 Z-8.824
N3853 X35.787 Y200.961 Z-8.885
N3854 X35.719 Y200.919 Z-8.935
N3855 X35.644 Y200.873 Z-8.971
N3856 X35.566 Y200.825 Z-8.993
N3857 X35.487 Y200.776 Z-9
N3858 G3 X35.377 Y200.567 I0.121 J-0.196
N3859 G1 X35.431 Y199.954
N3860 X35.432 Y199.792
N3861 X35.423 Y175.633
N3862 X35.438 Y148.862
N3863 X35.428 Y20.449
N3864 X35.427 Y0.528
N3865 G3 X35.481 Y0.3 I0.6 J0.021
N3866 G1 X35.52 Y0.215 Z-8.993
N3867 X35.558 Y0.132 Z-8.971
N3868 X35.594 Y0.053 Z-8.935
N3869 X35.627 Y-0.021 Z-8.885
N3870 X35.657 Y-0.086 Z-8.824
N3871 X35.682 Y-0.141 Z-8.753
N3872 X35.703 Y-0.186 Z-8.672
N3873 X35.718 Y-0.219 Z-8.585
N3874 X35.727 Y-0.239 Z-8.494
N3875 X35.73 Y-0.246 Z-8.4
N3876 G0 Z5
N3877 X57.658 Y-4.444
N3878 Z-7.8
N3879 G1 Z-8.4 F1440
N3880 X57.651 Y-4.442 Z-8.494
N3881 X57.631 Y-4.434 Z-8.585
N3882 X57.597 Y-4.422 Z-8.672
N3883 X57.55 Y-4.406 Z-8.753
N3884 X57.493 Y-4.385 Z-8.824
N3885 X57.425 Y-4.361 Z-8.885
N3886 X57.35 Y-4.334 Z-8.935
N3887 X57.268 Y-4.305 Z-8.971
N3888 X57.181 Y-4.275 Z-8.993
N3889 X57.093 Y-4.243 Z-9
N3890 G3 X53.883 Y-3.478 I-5.137 J-14.431
N3891 G1 X53.702 Y-3.461
N3892 X53.484 Y-3.435
N3893 X53.267 Y-3.396
N3894 X53.049 Y-3.35
N3895 X52.832 Y-3.297
N3896 X52.759 Y-3.274
N3897 X52.614 Y-3.228
N3898 X52.397 Y-3.15
N3899 X52.17 Y-3.057
N3900 X51.962 Y-2.955
N3901 X51.744 Y-2.833
N3902 X51.527 Y-2.697
N3903 X51.309 Y-2.531
N3904 X51.156 Y-2.404
N3905 X50.874 Y-2.118
N3906 X50.757 Y-1.969
N3907 X50.657 Y-1.838
N3908 X50.602 Y-1.751
N3909 X50.306 Y-1.193
N3910 X50.302 Y-1.18
N3911 X50.127 Y-0.581
N3912 X50.126 Y-0.567
N3913 X49.994 Y0.381
N3914 X49.828 Y1.324
N3915 X49.715 Y2.275
N3916 X49.638 Y3.23
N3917 X49.586 Y4.186
N3918 X49.551 Y5.143
N3919 X49.527 Y6.101
N3920 X49.511 Y7.058
N3921 X49.5 Y8.016
N3922 X49.493 Y8.974
N3923 X49.488 Y9.931
N3924 X49.485 Y10.889
N3925 X49.481 Y12.804
N3926 X49.479 Y16.635
N3927 X49.483 Y50.155
N3928 X49.488 Y98.997
N3929 Y100.912
N3930 X49.477 Y147.84
N3931 X49.479 Y151.67
N3932 X49.495 Y171.782
N3933 Y175.613
N3934 X49.482 Y197.64
N3935 X49.587 Y198.107
N3936 X49.799 Y198.536
N3937 X49.942 Y198.788
N3938 X50.031 Y199.064
N3939 X50.061 Y199.352
N3940 Y199.792
N3941 X50.067 Y200.01
N3942 X50.117 Y200.581
N3943 X50.291 Y201.18
N3944 X50.296 Y201.193
N3945 X50.593 Y201.751
N3946 X50.657 Y201.853
N3947 X50.745 Y201.969
N3948 X50.874 Y202.13
N3949 X51.142 Y202.404
N3950 X51.309 Y202.543
N3951 X51.527 Y202.708
N3952 X51.744 Y202.843
N3953 X51.962 Y202.964
N3954 X52.154 Y203.057
N3955 X52.397 Y203.154
N3956 X52.614 Y203.23
N3957 X52.756 Y203.274
N3958 X52.832 Y203.297
N3959 X53.049 Y203.349
N3960 X53.267 Y203.394
N3961 X53.386 Y203.415
N3962 G3 X53.601 Y203.507 I-0.124 J0.587
N3963 G1 X53.679 Y203.56 Z-8.993
N3964 X53.754 Y203.612 Z-8.971
N3965 X53.826 Y203.661 Z-8.935
N3966 X53.892 Y203.706 Z-8.885
N3967 X53.951 Y203.747 Z-8.824
N3968 X54.002 Y203.782 Z-8.753
N3969 X54.042 Y203.809 Z-8.672
N3970 X54.072 Y203.83 Z-8.585
N3971 X54.09 Y203.842 Z-8.494
N3972 X54.096 Y203.846 Z-8.4
N3973 G0 Z5
N3974 X49.505 Y-1.09
N3975 Z-7.8
N3976 G1 Z-8.4 F1440
N3977 X49.511 Y-1.086 Z-8.494
N3978 X49.53 Y-1.075 Z-8.585
N3979 X49.561 Y-1.056 Z-8.672
N3980 X49.603 Y-1.03 Z-8.753
N3981 X49.655 Y-0.998 Z-8.824
N3982 X49.716 Y-0.961 Z-8.885
N3983 X49.784 Y-0.919 Z-8.935
N3984 X49.858 Y-0.873 Z-8.971
N3985 X49.936 Y-0.825 Z-8.993
N3986 X50.016 Y-0.776 Z-9
N3987 G3 X50.126 Y-0.567 I-0.121 J0.196
N3988 G1 X50.076 Y-0.01
N3989 X50.07 Y0.208
N3990 X50.069 Y36.338
N3991 X50.06 Y150.168
N3992 X50.07 Y170.627
N3993 X50.061 Y199.352
N3994 X50.049 Y199.406 Z-8.993
N3995 X50.038 Y199.456 Z-8.974
N3996 X50.028 Y199.501 Z-8.943
N3997 X50.02 Y199.538 Z-8.902
N3998 X50.014 Y199.564 Z-8.853
N3999 X50.009 Y199.576 Z-8.81
N4000 X50.007 Y199.58 Z-8.764
N4001 G0 Z5
N4002 X25.641 Y204.48
N4003 Z-6.796
N4004 G1 Z-7.396 F1440
N4005 X25.648 Y204.478 Z-7.49
N4006 X25.669 Y204.47 Z-7.582
N4007 X25.703 Y204.458 Z-7.669
N4008 X25.749 Y204.441 Z-7.749
N4009 X25.806 Y204.42 Z-7.821
N4010 X25.873 Y204.395 Z-7.882
N4011 X25.949 Y204.367 Z-7.931
N4012 X26.03 Y204.337 Z-7.967
N4013 X26.116 Y204.306 Z-7.989
N4014 X26.204 Y204.273 Z-7.996
N4015 G3 X29.407 Y203.476 I5.281 J14.379
N4016 G1 X29.558 Y203.461
N4017 X29.776 Y203.432
N4018 X29.993 Y203.393
N4019 X30.211 Y203.342
N4020 X30.428 Y203.283
N4021 X30.646 Y203.212
N4022 X30.863 Y203.126
N4023 X31.028 Y203.057
N4024 X31.298 Y202.915
N4025 X31.423 Y202.839
N4026 X31.516 Y202.779
N4027 X31.733 Y202.621
N4028 X31.951 Y202.445
N4029 X31.997 Y202.404
N4030 X32.209 Y202.186
N4031 X32.386 Y201.966
N4032 X32.534 Y201.751
N4033 X32.821 Y201.205
N4034 X32.847 Y201.152
N4035 X32.865 Y201.098
N4036 X33.001 Y200.595
N4037 X33.004 Y200.581
N4038 X33.054 Y200.01
N4039 X33.06 Y199.792
N4040 Y193.698
N4041 X33.073 Y148.427
N4042 X33.065 Y87.92
N4043 X33.073 Y0.208
N4044 X33.067 Y-0.01
N4045 X33.017 Y-0.581
N4046 X33.011 Y-0.608
N4047 X32.875 Y-1.098
N4048 X32.855 Y-1.164
N4049 X32.546 Y-1.751
N4050 X32.394 Y-1.969
N4051 X32.22 Y-2.186
N4052 X32.007 Y-2.404
N4053 X31.951 Y-2.452
N4054 X31.733 Y-2.627
N4055 X31.516 Y-2.783
N4056 X31.428 Y-2.839
N4057 X31.298 Y-2.917
N4058 X31.029 Y-3.057
N4059 X30.863 Y-3.125
N4060 X30.646 Y-3.211
N4061 X30.428 Y-3.281
N4062 X30.211 Y-3.339
N4063 X29.993 Y-3.39
N4064 G3 X29.784 Y-3.494 I0.156 J-0.579
N4065 G1 X29.709 Y-3.551 Z-7.989
N4066 X29.637 Y-3.607 Z-7.967
N4067 X29.568 Y-3.66 Z-7.931
N4068 X29.504 Y-3.709 Z-7.882
N4069 X29.447 Y-3.753 Z-7.821
N4070 X29.399 Y-3.79 Z-7.749
N4071 X29.36 Y-3.82 Z-7.669
N4072 X29.331 Y-3.842 Z-7.582
N4073 X29.314 Y-3.856 Z-7.49
N4074 X29.308 Y-3.86 Z-7.396
N4075 G0 Z5
N4076 X59.798 Y-4.465
N4077 Z-6.796
N4078 G1 Z-7.396 F1440
N4079 X59.791 Y-4.463 Z-7.49
N4080 X59.77 Y-4.455 Z-7.582
N4081 X59.736 Y-4.443 Z-7.669
N4082 X59.69 Y-4.426 Z-7.749
N4083 X59.633 Y-4.405 Z-7.821
N4084 X59.565 Y-4.381 Z-7.882
N4085 X59.49 Y-4.354 Z-7.931
N4086 X59.408 Y-4.324 Z-7.967
N4087 X59.322 Y-4.293 Z-7.989
N4088 X59.234 Y-4.261 Z-7.996
N4089 G3 X56.028 Y-3.476 I-5.226 J-14.399
N4090 G1 X55.877 Y-3.461
N4091 X55.659 Y-3.432
N4092 X55.442 Y-3.39
N4093 X55.224 Y-3.34
N4094 X55.007 Y-3.283
N4095 X54.789 Y-3.209
N4096 X54.572 Y-3.125
N4097 X54.412 Y-3.057
N4098 X54.354 Y-3.028
N4099 X54.137 Y-2.912
N4100 X54.01 Y-2.839
N4101 X53.919 Y-2.779
N4102 X53.702 Y-2.626
N4103 X53.46 Y-2.428
N4104 X53.447 Y-2.416
N4105 X53.049 Y-1.949
N4106 X52.888 Y-1.751
N4107 X52.832 Y-1.66
N4108 X52.767 Y-1.533
N4109 X52.614 Y-1.219
N4110 X52.576 Y-1.098
N4111 X52.427 Y-0.581
N4112 X52.377 Y-0.01
N4113 X52.371 Y0.208
N4114 X52.379 Y91.185
N4115 X52.371 Y151.256
N4116 X52.377 Y199.792
N4117 X52.383 Y200.01
N4118 X52.433 Y200.581
N4119 X52.581 Y201.098
N4120 X52.614 Y201.208
N4121 X52.772 Y201.533
N4122 X52.832 Y201.652
N4123 X52.893 Y201.751
N4124 X53.049 Y201.944
N4125 X53.449 Y202.415
N4126 X53.484 Y202.446
N4127 X53.702 Y202.625
N4128 X53.919 Y202.779
N4129 X54.009 Y202.839
N4130 X54.137 Y202.913
N4131 X54.354 Y203.03
N4132 X54.408 Y203.057
N4133 X54.572 Y203.127
N4134 X54.789 Y203.212
N4135 X54.972 Y203.274
N4136 X55.019 Y203.303 Z-7.99
N4137 X55.064 Y203.33 Z-7.97
N4138 X55.103 Y203.354 Z-7.939
N4139 X55.135 Y203.373 Z-7.898
N4140 X55.158 Y203.387 Z-7.85
N4141 X55.167 Y203.396 Z-7.806
N4142 X55.171 Y203.399 Z-7.761
N4143 G0 Z5
N4144 X23.72 Y204.411
N4145 Z-5.796
N4146 G1 Z-6.396 F1440
N4147 X23.727 Y204.409 Z-6.49
N4148 X23.747 Y204.402 Z-6.582
N4149 X23.782 Y204.39 Z-6.669
N4150 X23.828 Y204.374 Z-6.749
N4151 X23.886 Y204.354 Z-6.821
N4152 X23.953 Y204.33 Z-6.882
N4153 X24.029 Y204.304 Z-6.931
N4154 X24.111 Y204.275 Z-6.967
N4155 X24.198 Y204.245 Z-6.989
N4156 X24.287 Y204.215 Z-6.996
N4157 G3 X27.503 Y203.476 I5.018 J14.473
N4158 G1 X27.601 Y203.467
N4159 X27.818 Y203.437
N4160 X28.036 Y203.397
N4161 X28.253 Y203.35
N4162 X28.521 Y203.274
N4163 X28.688 Y203.215
N4164 X28.906 Y203.132
N4165 X29.074 Y203.057
N4166 X29.123 Y203.03
N4167 X29.467 Y202.839
N4168 X29.558 Y202.77
N4169 X29.993 Y202.436
N4170 X30.033 Y202.404
N4171 X30.211 Y202.201
N4172 X30.428 Y201.935
N4173 X30.569 Y201.751
N4174 X30.696 Y201.533
N4175 X30.801 Y201.316
N4176 X30.863 Y201.161
N4177 X31.029 Y200.581
N4178 X31.081 Y199.988
N4179 X31.085 Y199.792
N4180 X31.087 Y174.545
N4181 X31.091 Y147.992
N4182 X31.073 Y13.049
N4183 X31.075 Y0.208
N4184 X31.069 Y-0.01
N4185 X31.019 Y-0.581
N4186 X30.863 Y-1.127
N4187 X30.792 Y-1.316
N4188 X30.686 Y-1.533
N4189 X30.56 Y-1.751
N4190 X30.428 Y-1.926
N4191 X30.211 Y-2.193
N4192 X30.027 Y-2.404
N4193 X29.993 Y-2.431
N4194 X29.558 Y-2.768
N4195 X29.464 Y-2.839
N4196 X29.123 Y-3.03
N4197 X29.074 Y-3.057
N4198 X28.906 Y-3.132
N4199 X28.688 Y-3.216
N4200 X28.528 Y-3.274
N4201 X28.253 Y-3.352
N4202 G3 X28.048 Y-3.465 I0.183 J-0.572
N4203 G1 X27.977 Y-3.526 Z-6.989
N4204 X27.907 Y-3.585 Z-6.967
N4205 X27.84 Y-3.641 Z-6.931
N4206 X27.779 Y-3.693 Z-6.882
N4207 X27.724 Y-3.739 Z-6.821
N4208 X27.678 Y-3.778 Z-6.749
N4209 X27.64 Y-3.81 Z-6.669
N4210 X27.613 Y-3.833 Z-6.582
N4211 X27.596 Y-3.848 Z-6.49
N4212 X27.59 Y-3.852 Z-6.396
N4213 G0 Z5
N4214 X61.573 Y-4.576
N4215 Z-5.796
N4216 G1 Z-6.396 F1440
N4217 X61.566 Y-4.573 Z-6.49
N4218 X61.545 Y-4.565 Z-6.582
N4219 X61.512 Y-4.552 Z-6.669
N4220 X61.466 Y-4.534 Z-6.749
N4221 X61.409 Y-4.511 Z-6.821
N4222 X61.343 Y-4.485 Z-6.882
N4223 X61.268 Y-4.455 Z-6.931
N4224 X61.187 Y-4.423 Z-6.967
N4225 X61.102 Y-4.389 Z-6.989
N4226 X61.015 Y-4.355 Z-6.996
N4227 G3 X57.834 Y-3.475 I-5.649 J-14.238
N4228 G1 X57.617 Y-3.447
N4229 X57.399 Y-3.412
N4230 X57.182 Y-3.366
N4231 X56.964 Y-3.306
N4232 X56.854 Y-3.274
N4233 X56.747 Y-3.237
N4234 X56.529 Y-3.155
N4235 X56.31 Y-3.057
N4236 X56.094 Y-2.94
N4237 X55.922 Y-2.839
N4238 X55.877 Y-2.811
N4239 X55.617 Y-2.621
N4240 X55.442 Y-2.476
N4241 X55.368 Y-2.404
N4242 X54.982 Y-1.969
N4243 X54.898 Y-1.86
N4244 X54.836 Y-1.751
N4245 X54.553 Y-1.207
N4246 X54.544 Y-1.189
N4247 X54.394 Y-0.663
N4248 X54.354 Y-0.486
N4249 X54.348 Y-0.445
N4250 X54.332 Y-0.227
N4251 X54.319 Y-0.01
N4252 X54.316 Y0.208
N4253 X54.317 Y18.708
N4254 X54.3 Y150.603
N4255 X54.308 Y183.904
N4256 X54.307 Y199.792
N4257 X54.311 Y200.01
N4258 X54.34 Y200.445
N4259 X54.354 Y200.546
N4260 X54.386 Y200.663
N4261 X54.536 Y201.188
N4262 X54.54 Y201.198
N4263 X54.829 Y201.751
N4264 X54.891 Y201.86
N4265 X54.975 Y201.969
N4266 X55.364 Y202.404
N4267 X55.442 Y202.479
N4268 X55.614 Y202.621
N4269 X55.877 Y202.811
N4270 X55.923 Y202.839
N4271 X56.094 Y202.939
N4272 X56.314 Y203.057
N4273 X56.529 Y203.152
N4274 X56.747 Y203.234
N4275 X56.866 Y203.274
N4276 X56.964 Y203.303
N4277 X57.182 Y203.363
N4278 X57.23 Y203.389 Z-6.99
N4279 X57.276 Y203.413 Z-6.97
N4280 X57.317 Y203.435 Z-6.939
N4281 X57.35 Y203.452 Z-6.898
N4282 X57.373 Y203.465 Z-6.85
N4283 X57.384 Y203.473 Z-6.806
N4284 X57.387 Y203.476 Z-6.761
N4285 G0 Z5
N4286 X22.025 Y204.38
N4287 Z-4.8
N4288 G1 Z-5.4 F1440
N4289 X22.032 Y204.377 Z-5.494
N4290 X22.053 Y204.37 Z-5.585
N4291 X22.087 Y204.359 Z-5.672
N4292 X22.134 Y204.343 Z-5.753
N4293 X22.192 Y204.324 Z-5.824
N4294 X22.26 Y204.301 Z-5.885
N4295 X22.336 Y204.275 Z-5.935
N4296 X22.418 Y204.247 Z-5.971
N4297 X22.505 Y204.218 Z-5.993
N4298 X22.594 Y204.188 Z-6
N4299 G3 X25.817 Y203.478 I4.889 J14.517
N4300 G1 X25.861 Y203.475
N4301 X26.078 Y203.45
N4302 X26.296 Y203.41
N4303 X26.513 Y203.361
N4304 X26.731 Y203.303
N4305 X26.948 Y203.227
N4306 X27.166 Y203.139
N4307 X27.35 Y203.057
