%
(BrandonLuke_Prototype_v1)
(T2  D=3.175 CR=0 - ZMIN=-1.5 - flat end mill)
(T3  D=6.35 CR=0 - ZMIN=-15.5 - flat end mill)
N0 G90
N1 G17
(2D Pocket1)
N2 T2 M6
N3 S10000 M3
N5 G0 X137.641 Y82.484
N6 Z8
N7 Z3
N8 G1 Z-1.183 F762
N9 X137.648 Y82.48 Z-1.253
N10 X137.669 Y82.469 Z-1.32
N11 X137.703 Y82.452 Z-1.38
N12 X137.747 Y82.429 Z-1.431
N13 X137.801 Y82.401 Z-1.469
N14 X137.86 Y82.37 Z-1.492
N15 X137.923 Y82.337 Z-1.5
N16 X139.559 Y81.487
N17 G2 X141.35 Y80.193 I-3.489 J-6.715 F2286
N18 G3 X141.973 Y80.054 I0.424 J0.435
N19 G2 X147.218 Y81.486 I13.322 J-38.493
N20 G1 X147.231 Y81.488 F762
N21 X147.3 Y81.502 Z-1.492
N22 X147.366 Y81.515 Z-1.469
N23 X147.425 Y81.527 Z-1.431
N24 X147.474 Y81.537 Z-1.38
N25 X147.511 Y81.545 Z-1.32
N26 X147.534 Y81.549 Z-1.253
N27 X147.542 Y81.551 Z-1.183
N28 G0 Z3
N29 X147.532 Y3.446
N30 G1 Z1 F762
N31 Z-1.183
N32 X147.524 Y3.448 Z-1.253
N33 X147.501 Y3.453 Z-1.32
N34 X147.464 Y3.46 Z-1.38
N35 X147.415 Y3.47 Z-1.431
N36 X147.356 Y3.482 Z-1.469
N37 X147.29 Y3.495 Z-1.492
N38 X147.221 Y3.509 Z-1.5
N39 X147.19 Y3.516
N40 G2 X141.973 Y4.946 I7.868 J38.927 F2286
N41 G3 X141.35 Y4.807 I-0.199 J-0.574
N42 G2 X139.559 Y3.513 I-5.28 J5.421
N43 X136.84 Y4.151 I-0.988 J1.901
N44 G3 X134.35 Y5.417 I-2.49 J-1.816
N45 G1 X44.742
N46 G2 X30.68 Y8.265 I0 J36.141
N47 X18.778 Y16.278 I14.563 J34.477
N48 X45 Y79.583 I26.222 J26.222
N49 G1 X136.292
N50 G2 X138.754 Y78.839 I0 J-4.447
N51 X140.422 Y76.882 I-2.591 J-3.898
N52 G3 X140.831 Y76.722 I0.287 J0.131
N53 G2 X147.902 Y78.87 I14.056 J-33.558
N54 X155.258 Y79.583 I7.355 J-37.597
N55 X169.32 Y76.735 I0 J-36.141
N56 X181.222 Y68.722 I-14.563 J-34.477
N57 X189.286 Y56.562 I-25.988 J-25.988
N58 X192.083 Y42.242 I-35.263 J-14.32
N59 X189.235 Y28.18 I-36.141 J0
N60 X181.222 Y16.278 I-34.477 J14.563
N61 X140.831 Y8.278 I-26.171 J26.171
N62 G3 X140.422 Y8.118 I-0.122 J-0.291
N63 G2 X138.754 Y6.161 I-4.259 J1.941
N64 X136.292 Y5.417 I-2.462 J3.704
N65 G1 X134.35
N66 G2 X132.479 Y6.665 I0 J2.028
N67 G3 X130.607 Y7.912 I-1.872 J-0.78
N68 G1 X45
N69 G2 Y77.088 I0 J34.588
N70 G1 X136.292
N71 G2 X137.336 Y73.192 I0 J-2.088
N72 G3 X137.333 Y11.809 I17.664 J-30.692
N73 G2 X136.292 Y7.912 I-1.041 J-1.809
N74 G1 X130.607
N75 G3 X130.489 Y7.89 Z-1.476 I0 J-0.318 F762
N76 X130.401 Y7.836 Z-1.407 I0.119 J-0.295
N77 X130.354 Y7.786 Z-1.304 I0.206 J-0.241
N78 X130.34 Y7.767 Z-1.183 I0.253 J-0.191
N79 G1 Z2.817
N80 X153.476 Y7.519 F2286
N81 G3 X153.46 Y7.536 Z2.698 I-1.113 J-1.018 F762
N82 X153.414 Y7.583 Z2.597 I-1.097 J-1.035
N83 X153.34 Y7.649 Z2.527 I-1.051 J-1.082
N84 X153.248 Y7.722 Z2.5 I-0.977 J-1.148
N85 X151.094 Y5.687 Z2.354 I-0.885 J-1.221
N86 X153.5 Y5.51 Z2.257 I1.269 J0.814
N87 X151.226 Y7.491 Z2.091 I-1.137 J0.991
N88 X151.094 Y5.687 Z2.023 I1.137 J-0.991
N89 X153.5 Y5.51 Z1.926 I1.269 J0.814
N90 X151.226 Y7.491 Z1.76 I-1.137 J0.991
N91 X151.094 Y5.687 Z1.692 I1.137 J-0.991
N92 X153.5 Y5.51 Z1.595 I1.269 J0.814
N93 X151.226 Y7.491 Z1.429 I-1.137 J0.991
N94 X151.094 Y5.687 Z1.362 I1.137 J-0.991
N95 X153.5 Y5.51 Z1.264 I1.269 J0.814
N96 X151.226 Y7.491 Z1.098 I-1.137 J0.991
N97 X151.094 Y5.687 Z1.031 I1.137 J-0.991
N98 X153.5 Y5.51 Z0.933 I1.269 J0.814
N99 X151.226 Y7.491 Z0.767 I-1.137 J0.991
N100 X151.094 Y5.687 Z0.7 I1.137 J-0.991
N101 X153.5 Y5.51 Z0.602 I1.269 J0.814
N102 X151.226 Y7.491 Z0.437 I-1.137 J0.991
N103 X151.094 Y5.687 Z0.369 I1.137 J-0.991
N104 X153.5 Y5.51 Z0.271 I1.269 J0.814
N105 X151.226 Y7.491 Z0.106 I-1.137 J0.991
N106 X151.094 Y5.687 Z0.038 I1.137 J-0.991
N107 X153.5 Y5.51 Z-0.06 I1.269 J0.814
N108 X151.226 Y7.491 Z-0.225 I-1.137 J0.991
N109 X151.094 Y5.687 Z-0.293 I1.137 J-0.991
N110 X153.5 Y5.51 Z-0.391 I1.269 J0.814
N111 X151.226 Y7.491 Z-0.556 I-1.137 J0.991
N112 X151.094 Y5.687 Z-0.624 I1.137 J-0.991
N113 X153.5 Y5.51 Z-0.722 I1.269 J0.814
N114 X151.226 Y7.491 Z-0.887 I-1.137 J0.991
N115 X151.094 Y5.687 Z-0.955 I1.137 J-0.991
N116 X153.5 Y5.51 Z-1.052 I1.269 J0.814
N117 X151.226 Y7.491 Z-1.218 I-1.137 J0.991
N118 X151.094 Y5.687 Z-1.286 I1.137 J-0.991
N119 X153.5 Y5.51 Z-1.383 I1.269 J0.814
N120 X152.473 Y8.005 Z-1.5 I-1.137 J0.991
N121 G2 X157.527 Y76.995 I2.527 J34.495 F2286
N122 X152.473 Y8.005 I-2.527 J-34.495
N123 G3 X152.353 Y7.991 Z-1.476 I-0.023 J-0.317 F762
N124 X152.262 Y7.944 Z-1.407 I0.097 J-0.302
N125 X152.211 Y7.898 Z-1.304 I0.188 J-0.256
N126 X152.196 Y7.879 Z-1.183 I0.239 J-0.209
N127 G0 Z8
N129 M5
(Adaptive1)
N130 T3 M6
N131 S9930 M3
N133 G0 X-0.642 Y-7.277
N134 Z15
N135 Z5
N136 Z-1.73
N137 G1 Z-2.365 F1397
N138 X-0.64 Y-7.269 Z-2.464
N139 X-0.634 Y-7.247 Z-2.561
N140 X-0.624 Y-7.21 Z-2.653
N141 X-0.611 Y-7.159 Z-2.738
N142 X-0.595 Y-7.096 Z-2.814
N143 X-0.577 Y-7.023 Z-2.879
N144 X-0.555 Y-6.941 Z-2.931
N145 X-0.533 Y-6.852 Z-2.969
N146 X-0.509 Y-6.758 Z-2.992
N147 X-0.484 Y-6.661 Z-3
N148 G3 X0.013 Y-3.205 I-15.704 J4.023
N149 G1 Y-3.055 F2270
N150 X-0.165 Y-2.16
N151 X-0.293 Y-1.258
N152 X-0.385 Y-0.35
N153 X-0.45 Y0.559
N154 X-0.496 Y1.47
N155 X-0.529 Y2.381
N156 X-0.553 Y3.292
N157 X-0.569 Y4.204
N158 X-0.581 Y5.116
N159 X-0.589 Y6.028
N160 X-0.595 Y6.939
N161 X-0.6 Y7.851
N162 X-0.605 Y9.675
N163 X-0.609 Y12.41
N164 X-0.611 Y18.793
N165 X-0.616 Y47.059
N166 X-0.621 Y82.164
N167 X-0.495 Y82.602
N168 X-0.039 Y83.392
N169 X0.644 Y83.996
N170 X1.437 Y84.446
N171 X2.287 Y84.775
N172 X3.167 Y85.014
N173 X4.063 Y85.186
N174 X4.966 Y85.31
N175 X5.873 Y85.398
N176 X6.783 Y85.46
N177 X7.694 Y85.505
N178 X8.605 Y85.537
N179 X9.517 Y85.559
N180 X10.428 Y85.575
N181 X11.34 Y85.586
N182 X12.252 Y85.594
N183 X13.164 Y85.6
N184 X14.075 Y85.604
N185 X15.899 Y85.609
N186 X18.635 Y85.612
N187 X25.929 Y85.614
N188 X63.313 Y85.616
N189 X113.463 Y85.618
N190 X163.613 Y85.621
N191 X196.894 Y85.623
N192 X197.122 Y85.613
N193 X197.345 Y85.568
N194 X197.773 Y85.41
N195 X198.524 Y84.892
N196 X199.094 Y84.181
N197 X199.516 Y83.373
N198 X199.825 Y82.515
N199 X200.049 Y81.631
N200 X200.21 Y80.733
N201 X200.325 Y79.829
N202 X200.407 Y78.921
N203 X200.465 Y78.011
N204 X200.506 Y77.1
N205 X200.536 Y76.189
N206 X200.556 Y75.277
N207 X200.571 Y74.365
N208 X200.581 Y73.454
N209 X200.589 Y72.542
N210 X200.594 Y71.63
N211 X200.597 Y70.718
N212 X200.6 Y69.806
N213 X200.603 Y67.071
N214 X200.604 Y61.6
N215 X200.598 Y19.657
N216 X200.595 Y2.788
N217 X200.461 Y2.352
N218 X199.995 Y1.569
N219 X199.307 Y0.969
N220 X198.512 Y0.524
N221 X197.661 Y0.197
N222 X196.78 Y-0.039
N223 X195.884 Y-0.21
N224 X194.981 Y-0.332
N225 X194.073 Y-0.419
N226 X193.163 Y-0.481
N227 X192.253 Y-0.525
N228 X191.341 Y-0.556
N229 X190.43 Y-0.578
N230 X189.518 Y-0.594
N231 X188.606 Y-0.605
N232 X187.694 Y-0.613
N233 X186.783 Y-0.618
N234 X185.871 Y-0.622
N235 X184.047 Y-0.627
N236 X181.312 Y-0.63
N237 X174.017 Y-0.631
N238 X168.546
N239 X118.397 Y-0.628
N240 X68.247 Y-0.626
N241 X18.097 Y-0.624
N242 X5.788 Y-0.623
N243 X5.334 Y-0.58
N244 X4.912 Y-0.407
N245 X4.152 Y0.096
N246 X3.564 Y0.794
N247 X3.123 Y1.591
N248 X2.796 Y2.442
N249 X2.556 Y3.322
N250 X2.381 Y4.217
N251 X2.254 Y5.12
N252 X2.163 Y6.027
N253 X2.097 Y6.937
N254 X2.049 Y7.847
N255 X2.015 Y8.758
N256 X1.991 Y9.67
N257 X1.973 Y10.582
N258 X1.961 Y11.493
N259 X1.952 Y12.405
N260 X1.945 Y13.317
N261 X1.941 Y14.229
N262 X1.935 Y16.052
N263 X1.931 Y18.788
N264 X1.928 Y24.259
N265 X1.926 Y36.112
N266 X1.919 Y78.967
N267 X2.17 Y79.844
N268 X2.692 Y80.592
N269 X3.377 Y81.193
N270 X4.159 Y81.662
N271 X4.997 Y82.022
N272 X5.867 Y82.294
N273 X6.756 Y82.498
N274 X7.655 Y82.65
N275 X8.56 Y82.763
N276 X9.468 Y82.846
N277 X10.377 Y82.907
N278 X11.288 Y82.952
N279 X12.199 Y82.985
N280 X13.111 Y83.009
N281 X14.022 Y83.027
N282 X14.934 Y83.04
N283 X15.846 Y83.049
N284 X16.758 Y83.056
N285 X17.67 Y83.061
N286 X19.493 Y83.067
N287 X22.229 Y83.071
N288 X27.699 Y83.074
N289 X42.275 Y83.075
N290 X42.334 Y83.077
N291 X42.512 Y83.088
N292 X44.377 Y83.155
N293 X44.584 Y83.161
N294 X45.205 Y83.175
N295 X154.795
N296 X155.416 Y83.161
N297 X155.623 Y83.155
N298 X156.535 Y83.168
N299 X157.446 Y83.142
N300 X158.358 Y83.124
N301 X159.27 Y83.112
N302 X160.182 Y83.103
N303 X161.093 Y83.096
N304 X162.005 Y83.092
N305 X163.829 Y83.086
N306 X166.564 Y83.083
N307 X172.947 Y83.082
N308 X193.919 Y83.083
N309 X194.799 Y82.846
N310 X195.553 Y82.333
N311 X196.161 Y81.653
N312 X196.636 Y80.875
N313 X197.001 Y80.039
N314 X197.277 Y79.17
N315 X197.484 Y78.282
N316 X197.638 Y77.384
N317 X197.752 Y76.479
N318 X197.836 Y75.571
N319 X197.898 Y74.661
N320 X197.944 Y73.751
N321 X197.977 Y72.839
N322 X198.001 Y71.928
N323 X198.019 Y71.016
N324 X198.032 Y70.105
N325 X198.041 Y69.193
N326 X198.048 Y68.281
N327 X198.052 Y67.369
N328 X198.058 Y65.546
N329 X198.062 Y62.81
N330 X198.064 Y58.251
N331 X198.058 Y22.69
N332 X198.056 Y6.278
N333 X197.981 Y5.828
N334 X197.668 Y4.972
N335 X197.107 Y4.253
N336 X196.398 Y3.68
N337 X195.602 Y3.235
N338 X194.756 Y2.895
N339 X193.881 Y2.639
N340 X192.99 Y2.447
N341 X192.089 Y2.304
N342 X191.183 Y2.198
N343 X190.275 Y2.12
N344 X189.365 Y2.063
N345 X188.454 Y2.021
N346 X187.543 Y1.991
N347 X186.631 Y1.968
N348 X185.719 Y1.952
N349 X184.808 Y1.94
N350 X183.896 Y1.932
N351 X182.984 Y1.925
N352 X182.072 Y1.921
N353 X180.249 Y1.915
N354 X177.513 Y1.911
N355 X172.042 Y1.91
N356 X165.66
N357 X157.424 Y1.909
N358 X157.406
N359 X155.623 Y1.845
N360 X155.416 Y1.839
N361 X154.795 Y1.825
N362 X45.205
N363 X44.584 Y1.839
N364 X44.377 Y1.845
N365 X43.465 Y1.832
N366 X42.554 Y1.857
N367 X41.642 Y1.874
N368 X40.73 Y1.886
N369 X39.818 Y1.895
N370 X38.907 Y1.901
N371 X37.995 Y1.905
N372 X36.171 Y1.91
N373 X33.436 Y1.914
N374 X27.053 Y1.916
N375 X8.817 Y1.917
N376 X7.925 Y2.108
N377 X7.148 Y2.585
N378 X6.514 Y3.24
N379 X6.013 Y4.002
N380 X5.627 Y4.828
N381 X5.332 Y5.691
N382 X5.109 Y6.575
N383 X4.943 Y7.471
N384 X4.818 Y8.375
N385 X4.726 Y9.282
N386 X4.658 Y10.191
N387 X4.608 Y11.102
N388 X4.571 Y12.013
N389 X4.543 Y12.924
N390 X4.523 Y13.836
N391 X4.509 Y14.747
N392 X4.498 Y15.659
N393 X4.49 Y16.571
N394 X4.484 Y17.483
N395 X4.48 Y18.394
N396 X4.474 Y20.218
N397 X4.47 Y22.954
N398 X4.467 Y28.424
N399 X4.465 Y39.158
N400 X4.464 Y39.211
N401 X4.462 Y39.264
N402 X4.457 Y39.316
N403 X4.449 Y39.393
N404 X4.432 Y39.6
N405 X4.419 Y39.807
N406 X4.345 Y41.879
N407 X4.325 Y42.5
N408 X4.353 Y43.328
N409 X4.36 Y43.536
N410 X4.347 Y44.447
N411 X4.381 Y45.358
N412 X4.406 Y46.27
N413 X4.423 Y47.182
N414 X4.435 Y48.093
N415 X4.443 Y49.005
N416 X4.449 Y49.917
N417 X4.453 Y50.829
N418 X4.458 Y52.652
N419 X4.461 Y55.388
N420 X4.462 Y61.77
N421 X4.46 Y75.448
N422 X4.482 Y76.359
N423 X4.798 Y77.215
N424 X5.341 Y77.947
N425 X6.03 Y78.544
N426 X6.809 Y79.018
N427 X7.643 Y79.386
N428 X8.51 Y79.669
N429 X9.396 Y79.885
N430 X10.293 Y80.049
N431 X11.196 Y80.172
N432 X12.103 Y80.265
N433 X13.012 Y80.334
N434 X13.923 Y80.386
N435 X14.834 Y80.424
N436 X15.745 Y80.453
N437 X16.657 Y80.474
N438 X17.568 Y80.489
N439 X18.48 Y80.501
N440 X19.392 Y80.51
N441 X20.304 Y80.516
N442 X21.216 Y80.521
N443 X23.039 Y80.527
N444 X25.775 Y80.531
N445 X30.32 Y80.534
N446 X30.494 Y80.544
N447 X30.665 Y80.575
N448 X30.832 Y80.625
N449 X30.911 Y80.654
N450 X32.983 Y81.344
N451 X33.604 Y81.544
N452 X33.811 Y81.599
N453 X35.676 Y82.074
N454 X36.297 Y82.231
N455 X36.475 Y82.267
N456 X37.126 Y82.387
N457 X38.991 Y82.723
N458 X39.198 Y82.753
N459 X39.612 Y82.804
N460 X39.819 Y82.828
N461 X41.684 Y83.029
N462 X41.891 Y83.047
N463 X42.334 Y83.077
N464 G3 X42.571 Y83.149 I-0.06 J0.632 F1397
N465 G1 X42.659 Y83.195 Z-2.992
N466 X42.744 Y83.24 Z-2.969
N467 X42.826 Y83.284 Z-2.931
N468 X42.901 Y83.323 Z-2.879
N469 X42.968 Y83.359 Z-2.814
N470 X43.025 Y83.389 Z-2.738
N471 X43.071 Y83.414 Z-2.653
N472 X43.105 Y83.431 Z-2.561
N473 X43.125 Y83.442 Z-2.464
N474 X43.132 Y83.446 Z-2.365
N475 G0 Z5
N476 X3.561 Y43.263
N477 Z-1.73
N478 G1 Z-2.365 F1397
N479 X3.569 Y43.265 Z-2.464
N480 X3.592 Y43.268 Z-2.561
N481 X3.63 Y43.273 Z-2.653
N482 X3.681 Y43.281 Z-2.738
N483 X3.745 Y43.29 Z-2.814
N484 X3.821 Y43.3 Z-2.879
N485 X3.905 Y43.312 Z-2.931
N486 X3.996 Y43.325 Z-2.969
N487 X4.092 Y43.339 Z-2.992
N488 X4.19 Y43.353 Z-3
N489 G3 X4.36 Y43.536 I-0.028 J0.196
N490 G1 X4.419 Y45.193 F2270
N491 X4.432 Y45.4
N492 X4.449 Y45.607
N493 X4.694 Y47.885
N494 X4.721 Y48.092
N495 X4.78 Y48.507
N496 X4.809 Y48.686
N497 X5.15 Y50.578
N498 X5.19 Y50.785
N499 X5.273 Y51.199
N500 X5.319 Y51.406
N501 X5.795 Y53.27
N502 X5.849 Y53.477
N503 X5.959 Y53.892
N504 X6.017 Y54.099
N505 X6.086 Y54.306
N506 X6.33 Y55.184
N507 X6.532 Y56.074
N508 X6.672 Y56.975
N509 X6.769 Y57.881
N510 X6.838 Y58.79
N511 X6.886 Y59.701
N512 X6.92 Y60.612
N513 X6.944 Y61.524
N514 X6.961 Y62.435
N515 X6.973 Y63.347
N516 X6.981 Y64.259
N517 X6.987 Y65.171
N518 X6.991 Y66.082
N519 X6.996 Y67.906
N520 X6.999 Y70.642
N521 Y72.465
N522 X7.001 Y73.377
N523 X7.223 Y74.261
N524 X7.69 Y75.044
N525 X8.327 Y75.697
N526 X9.072 Y76.223
N527 X9.884 Y76.639
N528 X10.736 Y76.962
N529 X11.613 Y77.212
N530 X12.504 Y77.404
N531 X13.404 Y77.549
N532 X14.309 Y77.66
N533 X15.217 Y77.743
N534 X16.127 Y77.806
N535 X17.038 Y77.853
N536 X17.949 Y77.889
N537 X18.86 Y77.916
N538 X19.772 Y77.936
N539 X20.684 Y77.95
N540 X21.595 Y77.962
N541 X22.507 Y77.97
N542 X23.419 Y77.976
N543 X24.742 Y77.982
N544 X24.995 Y78.005
N545 X25.239 Y78.07
N546 X25.469 Y78.176
N547 X25.525 Y78.208
N548 X26.18 Y78.539
N549 X27.422 Y79.161
N550 X27.597 Y79.247
N551 X28.011 Y79.449
N552 X28.218 Y79.549
N553 X30.611 Y80.54
N554 X30.704 Y80.578
N555 X30.832 Y80.625
N556 G3 X31.038 Y80.762 I-0.24 J0.588 F1397
N557 G1 X31.109 Y80.832 Z-2.992
N558 X31.178 Y80.9 Z-2.969
N559 X31.243 Y80.965 Z-2.931
N560 X31.304 Y81.025 Z-2.879
N561 X31.357 Y81.078 Z-2.814
N562 X31.403 Y81.123 Z-2.738
N563 X31.44 Y81.16 Z-2.653
N564 X31.467 Y81.187 Z-2.561
N565 X31.484 Y81.203 Z-2.464
N566 X31.49 Y81.209 Z-2.365
N567 G0 Z5
N568 X5.243 Y54.27
N569 Z-1.73
N570 G1 Z-2.365 F1397
N571 X5.251 Y54.269 Z-2.464
N572 X5.274 Y54.265 Z-2.561
N573 X5.311 Y54.26 Z-2.653
N574 X5.363 Y54.252 Z-2.738
N575 X5.427 Y54.243 Z-2.814
N576 X5.502 Y54.232 Z-2.879
N577 X5.586 Y54.22 Z-2.931
N578 X5.677 Y54.207 Z-2.969
N579 X5.773 Y54.193 Z-2.992
N580 X5.871 Y54.179 Z-3
N581 G3 X6.086 Y54.306 I0.028 J0.196
N582 G1 X6.707 Y56.17 F2270
N583 X6.88 Y56.679
N584 X6.92 Y56.791
N585 X7.777 Y58.863
N586 X7.864 Y59.07
N587 X8.043 Y59.484
N588 X8.249 Y59.898
N589 X8.528 Y60.533
N590 X8.76 Y61.202
N591 X8.989 Y62.085
N592 X9.149 Y62.982
N593 X9.262 Y63.887
N594 X9.343 Y64.795
N595 X9.4 Y65.705
N596 X9.44 Y66.616
N597 X9.469 Y67.527
N598 X9.489 Y68.439
N599 X9.504 Y69.351
N600 X9.514 Y70.262
N601 X9.6 Y71.17
N602 X9.946 Y72.014
N603 X10.495 Y72.742
N604 X11.182 Y73.341
N605 X11.957 Y73.822
N606 X12.786 Y74.202
N607 X13.648 Y74.498
N608 X14.531 Y74.726
N609 X15.426 Y74.902
N610 X16.328 Y75.036
N611 X17.234 Y75.138
N612 X18.142 Y75.216
N613 X19.052 Y75.274
N614 X19.963 Y75.319
N615 X20.615 Y75.343
N616 X20.893 Y75.38
N617 X21.16 Y75.469
N618 X21.405 Y75.606
N619 X22.646 Y76.468
N620 X22.832 Y76.593
N621 X23.453 Y76.984
N622 X25.111 Y77.966
N623 X25.379 Y78.125
N624 X25.469 Y78.176
N625 G3 X25.651 Y78.345 I-0.333 J0.541 F1397
N626 G1 X25.709 Y78.425 Z-2.992
N627 X25.766 Y78.504 Z-2.969
N628 X25.82 Y78.578 Z-2.931
N629 X25.87 Y78.647 Z-2.879
N630 X25.914 Y78.709 Z-2.814
N631 X25.952 Y78.761 Z-2.738
N632 X25.982 Y78.803 Z-2.653
N633 X26.005 Y78.834 Z-2.561
N634 X26.018 Y78.853 Z-2.464
N635 X26.023 Y78.859 Z-2.365
N636 G0 Z5
N637 X7.41 Y59.982
N638 Z-1.73
N639 G1 Z-2.365 F1397
N640 X7.417 Y59.98 Z-2.464
N641 X7.44 Y59.974 Z-2.561
N642 X7.476 Y59.963 Z-2.653
N643 X7.526 Y59.948 Z-2.738
N644 X7.588 Y59.93 Z-2.814
N645 X7.661 Y59.908 Z-2.879
N646 X7.742 Y59.884 Z-2.931
N647 X7.831 Y59.858 Z-2.969
N648 X7.924 Y59.831 Z-2.992
N649 X8.019 Y59.803 Z-3
N650 G3 X8.249 Y59.898 I0.056 J0.19
N651 G1 X9.182 Y61.762 F2270
N652 X9.366 Y62.1
N653 X9.408 Y62.177
N654 X9.573 Y62.458
N655 X10.513 Y64.041
N656 X10.827 Y64.636
N657 X11.059 Y65.177
N658 X11.301 Y65.896
N659 X11.522 Y66.78
N660 X11.679 Y67.679
N661 X11.85 Y68.574
N662 X12.23 Y69.403
N663 X12.788 Y70.124
N664 X13.475 Y70.723
N665 X14.247 Y71.209
N666 X15.072 Y71.596
N667 X15.932 Y71.9
N668 X16.812 Y72.137
N669 X16.872 Y72.15
N670 X17.13 Y72.228
N671 X17.37 Y72.352
N672 X17.584 Y72.517
N673 X18.067 Y72.967
N674 X18.275 Y73.154
N675 X18.689 Y73.504
N676 X20.053 Y74.604
N677 X20.577 Y75.018
N678 X20.76 Y75.159
N679 X21.405 Y75.606
N680 G3 X21.571 Y75.791 I-0.38 J0.509 F1397
N681 G1 X21.622 Y75.876 Z-2.992
N682 X21.671 Y75.959 Z-2.969
N683 X21.718 Y76.039 Z-2.931
N684 X21.761 Y76.112 Z-2.879
N685 X21.8 Y76.177 Z-2.814
N686 X21.833 Y76.232 Z-2.738
N687 X21.86 Y76.277 Z-2.653
N688 X21.879 Y76.31 Z-2.561
N689 X21.891 Y76.33 Z-2.464
N690 X21.895 Y76.337 Z-2.365
N691 G0 Z5
N692 X9.681 Y64.185
N693 Z-1.73
N694 G1 Z-2.365 F1397
N695 X9.689 Y64.182 Z-2.464
N696 X9.711 Y64.174 Z-2.561
N697 X9.746 Y64.16 Z-2.653
N698 X9.795 Y64.142 Z-2.738
N699 X9.856 Y64.119 Z-2.814
N700 X9.927 Y64.093 Z-2.879
N701 X10.006 Y64.063 Z-2.931
N702 X10.092 Y64.031 Z-2.969
N703 X10.183 Y63.997 Z-2.992
N704 X10.276 Y63.962 Z-3
N705 G3 X10.513 Y64.041 I0.07 J0.186
N706 G1 X10.636 Y64.248 F2270
N707 X11.044 Y64.869
N708 X11.231 Y65.14
N709 X12.059 Y66.333
N710 X12.491 Y66.94
N711 X12.681 Y67.18
N712 X14.157 Y69.012
N713 X14.545 Y69.443
N714 X14.752 Y69.669
N715 X15.995 Y71.004
N716 X16.072 Y71.083
N717 X16.617 Y71.615
N718 X16.711 Y71.704
N719 X17.584 Y72.517
N720 G3 X17.721 Y72.723 I-0.449 J0.449 F1397
N721 G1 X17.759 Y72.814 Z-2.992
N722 X17.797 Y72.904 Z-2.969
N723 X17.832 Y72.989 Z-2.931
N724 X17.864 Y73.067 Z-2.879
N725 X17.893 Y73.137 Z-2.814
N726 X17.918 Y73.197 Z-2.738
N727 X17.938 Y73.245 Z-2.653
N728 X17.953 Y73.28 Z-2.561
N729 X17.962 Y73.302 Z-2.464
N730 X17.965 Y73.309 Z-2.365
N731 G0 Z5
N732 X44.649 Y1.047
N733 Z-1.73
N734 G1 Z-2.365 F1397
N735 X44.648 Y1.054 Z-2.464
N736 X44.645 Y1.077 Z-2.561
N737 X44.639 Y1.115 Z-2.653
N738 X44.632 Y1.167 Z-2.738
N739 X44.623 Y1.231 Z-2.814
N740 X44.612 Y1.306 Z-2.879
N741 X44.6 Y1.39 Z-2.931
N742 X44.587 Y1.481 Z-2.969
N743 X44.573 Y1.577 Z-2.992
N744 X44.559 Y1.675 Z-3
N745 G3 X44.377 Y1.845 I-0.196 J-0.028
N746 G1 X42.512 Y1.912 F2270
N747 X42.305 Y1.924
N748 X41.891 Y1.953
N749 X41.684 Y1.971
N750 X39.819 Y2.172
N751 X39.612 Y2.196
N752 X39.198 Y2.247
N753 X38.991 Y2.277
N754 X36.919 Y2.651
N755 X36.475 Y2.733
N756 X36.297 Y2.769
N757 X35.62 Y2.94
N758 X33.811 Y3.402
N759 X33.604 Y3.456
N760 X33.279 Y3.561
N761 X32.398 Y3.797
N762 X31.508 Y3.994
N763 X30.606 Y4.131
N764 X29.7 Y4.227
N765 X28.79 Y4.295
N766 X27.88 Y4.342
N767 X26.969 Y4.376
N768 X26.057 Y4.399
N769 X25.145 Y4.416
N770 X24.234 Y4.428
N771 X23.322 Y4.436
N772 X22.41 Y4.442
N773 X21.498 Y4.446
N774 X19.675 Y4.451
N775 X16.939 Y4.455
N776 X11.468 Y4.456
N777 X10.589 Y4.697
N778 X9.819 Y5.185
N779 X9.182 Y5.838
N780 X8.672 Y6.594
N781 X8.273 Y7.414
N782 X7.964 Y8.272
N783 X7.728 Y9.152
N784 X7.548 Y10.046
N785 X7.413 Y10.948
N786 X7.31 Y11.854
N787 X7.233 Y12.763
N788 X7.176 Y13.673
N789 X7.133 Y14.583
N790 X7.101 Y15.495
N791 X7.077 Y16.406
N792 X7.059 Y17.318
N793 X7.046 Y18.229
N794 X7.036 Y19.141
N795 X7.029 Y20.053
N796 X7.023 Y20.965
N797 X7.019 Y21.877
N798 X7.014 Y23.7
N799 X7.01 Y26.436
N800 X7.009 Y27.689
N801 X6.999 Y27.865
N802 X6.969 Y28.039
N803 X6.92 Y28.209
N804 X6.88 Y28.321
N805 X6.673 Y28.929
N806 X6.017 Y30.901
N807 X5.959 Y31.108
N808 X5.844 Y31.538
N809 X5.742 Y31.937
N810 X5.319 Y33.594
N811 X5.273 Y33.801
N812 X5.19 Y34.215
N813 X5.15 Y34.422
N814 X4.809 Y36.314
N815 X4.78 Y36.493
N816 X4.721 Y36.908
N817 X4.694 Y37.115
N818 X4.457 Y39.316
N819 G3 X4.375 Y39.55 I-0.629 J-0.09 F1397
N820 G1 X4.324 Y39.635 Z-2.992
N821 X4.275 Y39.719 Z-2.969
N822 X4.228 Y39.798 Z-2.931
N823 X4.184 Y39.871 Z-2.879
N824 X4.146 Y39.936 Z-2.814
N825 X4.113 Y39.992 Z-2.738
N826 X4.086 Y40.037 Z-2.653
N827 X4.067 Y40.07 Z-2.561
N828 X4.055 Y40.09 Z-2.464
N829 X4.051 Y40.096 Z-2.365
N830 G0 Z5
N831 X33.324 Y2.719
N832 Z-1.73
N833 G1 Z-2.365 F1397
N834 X33.325 Y2.726 Z-2.464
N835 X33.328 Y2.749 Z-2.561
N836 X33.333 Y2.787 Z-2.653
N837 X33.34 Y2.839 Z-2.738
N838 X33.348 Y2.903 Z-2.814
N839 X33.358 Y2.978 Z-2.879
N840 X33.37 Y3.062 Z-2.931
N841 X33.382 Y3.153 Z-2.969
N842 X33.395 Y3.249 Z-2.992
N843 X33.408 Y3.348 Z-3
N844 G3 X33.279 Y3.561 I-0.197 J0.026
N845 G1 X32.983 Y3.656 F2270
N846 X30.911 Y4.346
N847 X30.704 Y4.422
N848 X30.28 Y4.597
N849 X28.218 Y5.451
N850 X27.804 Y5.652
N851 X27.597 Y5.753
N852 X27.043 Y5.993
N853 X26.365 Y6.226
N854 X25.482 Y6.451
N855 X24.584 Y6.609
N856 X23.679 Y6.721
N857 X22.77 Y6.8
N858 X21.86 Y6.857
N859 X20.949 Y6.897
N860 X20.038 Y6.925
N861 X19.126 Y6.946
N862 X18.215 Y6.96
N863 X17.303 Y6.971
N864 X16.391 Y6.978
N865 X15.479 Y6.983
N866 X14.567 Y6.987
N867 X13.662 Y7.098
N868 X12.832 Y7.474
N869 X12.123 Y8.047
N870 X11.544 Y8.752
N871 X11.082 Y9.538
N872 X10.72 Y10.375
N873 X10.439 Y11.242
N874 X10.223 Y12.128
N875 X10.058 Y13.025
N876 X9.933 Y13.928
N877 X9.837 Y14.835
N878 X9.765 Y15.744
N879 X9.711 Y16.654
N880 X9.67 Y17.565
N881 X9.639 Y18.476
N882 X9.616 Y19.388
N883 X9.599 Y20.299
N884 X9.586 Y21.211
N885 X9.576 Y22.15
N886 X9.554 Y22.392
N887 X9.493 Y22.627
N888 X9.394 Y22.85
N889 X9.295 Y23.031
N890 X9.182 Y23.238
N891 X8.043 Y25.516
N892 X7.864 Y25.93
N893 X7.691 Y26.345
N894 X6.92 Y28.209
N895 G3 X6.775 Y28.41 I-0.578 J-0.263 F1397
N896 G1 X6.703 Y28.478 Z-2.992
N897 X6.632 Y28.544 Z-2.969
N898 X6.565 Y28.607 Z-2.931
N899 X6.503 Y28.665 Z-2.879
N900 X6.447 Y28.716 Z-2.814
N901 X6.4 Y28.761 Z-2.738
N902 X6.362 Y28.796 Z-2.653
N903 X6.334 Y28.822 Z-2.561
N904 X6.317 Y28.838 Z-2.464
N905 X6.311 Y28.843 Z-2.365
N906 G0 Z5
N907 X27.516 Y4.913
N908 Z-1.73
N909 G1 Z-2.365 F1397
N910 X27.518 Y4.92 Z-2.464
N911 X27.524 Y4.943 Z-2.561
N912 X27.535 Y4.979 Z-2.653
N913 X27.549 Y5.029 Z-2.738
N914 X27.567 Y5.092 Z-2.814
N915 X27.589 Y5.164 Z-2.879
N916 X27.612 Y5.246 Z-2.931
N917 X27.638 Y5.334 Z-2.969
N918 X27.665 Y5.427 Z-2.992
N919 X27.693 Y5.523 Z-3
N920 G3 X27.597 Y5.753 I-0.191 J0.055
N921 G1 X27.182 Y5.959 F2270
N922 X26.146 Y6.478
N923 X25.525 Y6.792
N924 X25.379 Y6.875
N925 X24.679 Y7.289
N926 X23.453 Y8.016
N927 X23.101 Y8.213
N928 X22.599 Y8.443
N929 X21.941 Y8.683
N930 X21.062 Y8.925
N931 X20.167 Y9.097
N932 X19.263 Y9.22
N933 X18.356 Y9.309
N934 X17.446 Y9.372
N935 X16.538 Y9.454
N936 X15.684 Y9.774
N937 X14.938 Y10.299
N938 X14.318 Y10.967
N939 X13.817 Y11.729
N940 X13.42 Y12.55
N941 X13.109 Y13.407
N942 X12.867 Y14.286
N943 X12.681 Y15.179
N944 X12.538 Y16.079
N945 X12.429 Y16.984
N946 X12.346 Y17.892
N947 X12.302 Y18.158
N948 X12.211 Y18.411
N949 X12.076 Y18.644
N950 X11.618 Y19.302
N951 X11.186 Y19.924
N952 X11.044 Y20.131
N953 X10.636 Y20.752
N954 X9.53 Y22.616
N955 X9.408 Y22.823
N956 X9.394 Y22.85
N957 G3 X9.228 Y23.034 I-0.546 J-0.324 F1397
N958 G1 X9.148 Y23.093 Z-2.992
N959 X9.071 Y23.151 Z-2.969
N960 X8.997 Y23.207 Z-2.931
N961 X8.929 Y23.257 Z-2.879
N962 X8.868 Y23.303 Z-2.814
N963 X8.816 Y23.342 Z-2.738
N964 X8.775 Y23.373 Z-2.653
N965 X8.744 Y23.395 Z-2.561
N966 X8.726 Y23.409 Z-2.464
N967 X8.719 Y23.414 Z-2.365
N968 G0 Z5
N969 X23.289 Y7.189
N970 Z-1.73
N971 G1 Z-2.365 F1397
N972 X23.292 Y7.196 Z-2.464
N973 X23.301 Y7.218 Z-2.561
N974 X23.315 Y7.253 Z-2.653
N975 X23.334 Y7.301 Z-2.738
N976 X23.359 Y7.361 Z-2.814
N977 X23.387 Y7.432 Z-2.879
N978 X23.419 Y7.51 Z-2.931
N979 X23.453 Y7.596 Z-2.969
N980 X23.489 Y7.686 Z-2.992
N981 X23.526 Y7.778 Z-3
N982 G3 X23.453 Y8.016 I-0.184 J0.074
N983 G1 X22.832 Y8.407 F2270
N984 X22.625 Y8.547
N985 X20.76 Y9.841
N986 X20.553 Y10.001
N987 X20.346 Y10.164
N988 X20.014 Y10.401
N989 X19.231 Y10.868
N990 X18.434 Y11.312
N991 X17.716 Y11.874
N992 X17.098 Y12.545
N993 X16.583 Y13.297
N994 X16.564 Y13.334
N995 X16.484 Y13.469
N996 X16.391 Y13.594
N997 X16.285 Y13.71
N998 G3 X16.072 Y13.837 I-0.427 J-0.47 F1397
N999 X15.44 Y12.762 I-0.215 J-0.597 F2270
N1000 G1 X19.518 Y9.202
N1001 G3 X20.5 Y9.97 I0.418 J0.478
N1002 X20.346 Y10.164 I-0.565 J-0.29 F1397
N1003 G1 X20.053 Y10.396 F2270
N1004 X18.689 Y11.496
N1005 X18.274 Y11.846
N1006 X18.046 Y12.053
N1007 X16.711 Y13.296
N1008 X16.617 Y13.385
N1009 X16.072 Y13.917
N1010 X15.995 Y13.996
N1011 X14.719 Y15.367
N1012 X14.53 Y15.574
N1013 X14.157 Y15.988
N1014 X12.654 Y17.853
N1015 X12.491 Y18.06
N1016 X12.076 Y18.644
N1017 G3 X11.89 Y18.807 I-0.505 J-0.385 F1397
N1018 G1 X11.804 Y18.857 Z-2.992
N1019 X11.72 Y18.906 Z-2.969
N1020 X11.641 Y18.952 Z-2.931
N1021 X11.567 Y18.995 Z-2.879
N1022 X11.502 Y19.033 Z-2.814
N1023 X11.446 Y19.065 Z-2.738
N1024 X11.401 Y19.091 Z-2.653
N1025 X11.368 Y19.111 Z-2.561
N1026 X11.347 Y19.122 Z-2.464
N1027 X11.341 Y19.126 Z-2.365
N1028 G0 Z5
N1029 X155.351 Y83.953
N1030 Z-1.73
N1031 G1 Z-2.365 F1397
N1032 X155.352 Y83.946 Z-2.464
N1033 X155.355 Y83.923 Z-2.561
N1034 X155.361 Y83.885 Z-2.653
N1035 X155.368 Y83.833 Z-2.738
N1036 X155.377 Y83.769 Z-2.814
N1037 X155.388 Y83.694 Z-2.879
N1038 X155.4 Y83.61 Z-2.931
N1039 X155.413 Y83.519 Z-2.969
N1040 X155.427 Y83.423 Z-2.992
N1041 X155.441 Y83.325 Z-3
N1042 G3 X155.623 Y83.155 I0.196 J0.028
N1043 G1 X157.488 Y83.088 F2270
N1044 X157.695 Y83.076
N1045 X158.109 Y83.047
N1046 X158.316 Y83.029
N1047 X160.181 Y82.828
N1048 X160.388 Y82.804
N1049 X160.802 Y82.753
N1050 X161.009 Y82.723
N1051 X163.081 Y82.349
N1052 X163.525 Y82.267
N1053 X163.703 Y82.231
N1054 X164.38 Y82.06
N1055 X166.189 Y81.599
N1056 X166.396 Y81.544
N1057 X166.721 Y81.439
N1058 X167.602 Y81.203
N1059 X168.492 Y81.005
N1060 X169.393 Y80.867
N1061 X170.3 Y80.771
N1062 X171.209 Y80.703
N1063 X172.12 Y80.655
N1064 X173.031 Y80.622
N1065 X173.943 Y80.598
N1066 X174.854 Y80.582
N1067 X175.766 Y80.57
N1068 X176.678 Y80.562
N1069 X177.59 Y80.556
N1070 X178.501 Y80.552
N1071 X180.325 Y80.547
N1072 X183.06 Y80.544
N1073 X189.443 Y80.542
N1074 X191.267
N1075 X192.131 Y80.251
N1076 X192.875 Y79.724
N1077 X193.485 Y79.047
N1078 X193.97 Y78.274
N1079 X194.348 Y77.444
N1080 X194.638 Y76.58
N1081 X194.86 Y75.696
N1082 X195.028 Y74.8
N1083 X195.155 Y73.897
N1084 X195.25 Y72.99
N1085 X195.321 Y72.081
N1086 X195.374 Y71.17
N1087 X195.413 Y70.259
N1088 X195.443 Y69.348
N1089 X195.464 Y68.437
N1090 X195.48 Y67.525
N1091 X195.492 Y66.613
N1092 X195.501 Y65.701
N1093 X195.507 Y64.79
N1094 X195.512 Y63.878
N1095 X195.518 Y62.054
N1096 X195.521 Y59.319
N1097 X195.523 Y56.583
N1098 X195.522 Y45.959
N1099 X195.523 Y45.906
N1100 X195.526 Y45.853
N1101 X195.531 Y45.8
N1102 X195.551 Y45.607
N1103 X195.568 Y45.4
N1104 X195.581 Y45.193
N1105 X195.655 Y43.121
N1106 X195.675 Y42.5
N1107 X195.647 Y41.672
N1108 X195.625 Y41.05
N1109 X195.638 Y40.138
N1110 X195.604 Y39.227
N1111 X195.579 Y38.316
N1112 X195.562 Y37.404
N1113 X195.55 Y36.492
N1114 X195.541 Y35.581
N1115 X195.535 Y34.669
N1116 X195.53 Y33.757
N1117 X195.525 Y31.933
N1118 X195.521 Y29.198
N1119 X195.519 Y22.815
N1120 X195.516 Y9.138
N1121 X195.362 Y8.239
N1122 X194.934 Y7.434
N1123 X194.32 Y6.76
N1124 X193.586 Y6.219
N1125 X192.78 Y5.794
N1126 X191.929 Y5.464
N1127 X191.053 Y5.212
N1128 X190.162 Y5.02
N1129 X189.262 Y4.876
N1130 X188.356 Y4.767
N1131 X187.448 Y4.685
N1132 X186.538 Y4.624
N1133 X185.628 Y4.579
N1134 X184.716 Y4.545
N1135 X183.805 Y4.52
N1136 X182.893 Y4.501
N1137 X181.982 Y4.487
N1138 X181.07 Y4.477
N1139 X180.158 Y4.47
N1140 X179.246 Y4.464
N1141 X178.334 Y4.46
N1142 X176.511 Y4.455
N1143 X173.775 Y4.452
N1144 X169.636 Y4.45
N1145 X169.462 Y4.44
N1146 X169.29 Y4.409
N1147 X169.123 Y4.358
N1148 X169.089 Y4.346
N1149 X167.017 Y3.656
N1150 X166.396 Y3.456
N1151 X166.189 Y3.402
N1152 X164.324 Y2.926
N1153 X163.703 Y2.769
N1154 X163.525 Y2.733
N1155 X162.874 Y2.613
N1156 X161.009 Y2.277
N1157 X160.802 Y2.247
N1158 X160.388 Y2.196
N1159 X160.181 Y2.172
N1160 X158.316 Y1.971
N1161 X158.109 Y1.953
N1162 X157.695 Y1.924
N1163 X157.488 Y1.912
N1164 X157.406 Y1.909
N1165 G3 X157.167 Y1.844 I0.045 J-0.633 F1397
N1166 G1 X157.079 Y1.799 Z-2.992
N1167 X156.992 Y1.756 Z-2.969
N1168 X156.91 Y1.715 Z-2.931
N1169 X156.834 Y1.677 Z-2.879
N1170 X156.766 Y1.643 Z-2.814
N1171 X156.708 Y1.614 Z-2.738
N1172 X156.661 Y1.591 Z-2.653
N1173 X156.627 Y1.574 Z-2.561
N1174 X156.606 Y1.563 Z-2.464
N1175 X156.599 Y1.56 Z-2.365
N1176 G0 Z5
N1177 X196.424 Y41.322
N1178 Z-1.73
N1179 G1 Z-2.365 F1397
N1180 X196.416 Y41.321 Z-2.464
N1181 X196.393 Y41.318 Z-2.561
N1182 X196.355 Y41.313 Z-2.653
N1183 X196.304 Y41.305 Z-2.738
N1184 X196.24 Y41.296 Z-2.814
N1185 X196.165 Y41.285 Z-2.879
N1186 X196.081 Y41.273 Z-2.931
N1187 X195.989 Y41.26 Z-2.969
N1188 X195.894 Y41.247 Z-2.992
N1189 X195.795 Y41.233 Z-3
N1190 G3 X195.625 Y41.05 I0.028 J-0.196
N1191 G1 X195.581 Y39.807 F2270
N1192 X195.568 Y39.6
N1193 X195.551 Y39.393
N1194 X195.306 Y37.115
N1195 X195.279 Y36.908
N1196 X195.22 Y36.493
N1197 X195.191 Y36.314
N1198 X194.85 Y34.422
N1199 X194.81 Y34.215
N1200 X194.727 Y33.801
N1201 X194.681 Y33.594
N1202 X194.205 Y31.73
N1203 X194.151 Y31.523
N1204 X194.041 Y31.108
N1205 X193.983 Y30.901
N1206 X193.914 Y30.694
N1207 X193.67 Y29.816
N1208 X193.463 Y28.928
N1209 X193.319 Y28.027
N1210 X193.218 Y27.121
N1211 X193.147 Y26.212
N1212 X193.098 Y25.301
N1213 X193.063 Y24.39
N1214 X193.038 Y23.479
N1215 X193.02 Y22.567
N1216 X193.008 Y21.655
N1217 X192.999 Y20.744
N1218 X192.993 Y19.832
N1219 X192.988 Y18.92
N1220 X192.983 Y17.096
N1221 X192.979 Y14.361
N1222 X192.977 Y11.626
N1223 X192.755 Y10.741
N1224 X192.289 Y9.957
N1225 X191.656 Y9.302
N1226 X190.913 Y8.772
N1227 X190.103 Y8.354
N1228 X189.251 Y8.028
N1229 X188.375 Y7.777
N1230 X187.484 Y7.584
N1231 X186.584 Y7.437
N1232 X185.679 Y7.326
N1233 X184.771 Y7.242
N1234 X183.861 Y7.178
N1235 X182.951 Y7.13
N1236 X182.04 Y7.095
N1237 X181.128 Y7.068
N1238 X180.217 Y7.048
N1239 X179.305 Y7.033
N1240 X178.393 Y7.022
N1241 X177.481 Y7.013
N1242 X176.57 Y7.007
N1243 X175.228 Y7.001
N1244 X174.976 Y6.978
N1245 X174.731 Y6.913
N1246 X174.501 Y6.807
N1247 X174.475 Y6.792
N1248 X173.82 Y6.461
N1249 X172.578 Y5.839
N1250 X172.403 Y5.753
N1251 X171.989 Y5.551
N1252 X171.782 Y5.451
N1253 X169.389 Y4.46
N1254 X169.296 Y4.422
N1255 X169.123 Y4.358
N1256 G3 X168.917 Y4.222 I0.24 J-0.588 F1397
N1257 G1 X168.846 Y4.152 Z-2.992
N1258 X168.777 Y4.084 Z-2.969
N1259 X168.712 Y4.019 Z-2.931
N1260 X168.652 Y3.959 Z-2.879
N1261 X168.598 Y3.906 Z-2.814
N1262 X168.552 Y3.86 Z-2.738
N1263 X168.515 Y3.823 Z-2.653
N1264 X168.488 Y3.797 Z-2.561
N1265 X168.471 Y3.78 Z-2.464
N1266 X168.466 Y3.775 Z-2.365
N1267 G0 Z5
N1268 X194.757 Y30.73
N1269 Z-1.73
N1270 G1 Z-2.365 F1397
N1271 X194.749 Y30.731 Z-2.464
N1272 X194.726 Y30.735 Z-2.561
N1273 X194.689 Y30.74 Z-2.653
N1274 X194.637 Y30.748 Z-2.738
N1275 X194.573 Y30.757 Z-2.814
N1276 X194.498 Y30.768 Z-2.879
N1277 X194.414 Y30.78 Z-2.931
N1278 X194.323 Y30.793 Z-2.969
N1279 X194.227 Y30.807 Z-2.992
N1280 X194.129 Y30.821 Z-3
N1281 G3 X193.914 Y30.694 I-0.028 J-0.196
N1282 G1 X193.293 Y28.83 F2270
N1283 X193.12 Y28.321
N1284 X193.08 Y28.209
N1285 X192.223 Y26.137
N1286 X192.136 Y25.93
N1287 X191.957 Y25.516
N1288 X191.751 Y25.102
N1289 X191.452 Y24.421
N1290 X191.22 Y23.752
N1291 X190.991 Y22.869
N1292 X190.831 Y21.971
N1293 X190.717 Y21.067
N1294 X190.637 Y20.158
N1295 X190.579 Y19.248
N1296 X190.539 Y18.337
N1297 X190.51 Y17.426
N1298 X190.489 Y16.515
N1299 X190.474 Y15.603
N1300 X190.463 Y14.691
N1301 X190.366 Y13.784
N1302 X190.011 Y12.945
N1303 X189.457 Y12.221
N1304 X188.766 Y11.626
N1305 X187.989 Y11.148
N1306 X187.159 Y10.772
N1307 X186.295 Y10.478
N1308 X185.412 Y10.251
N1309 X184.517 Y10.077
N1310 X183.615 Y9.944
N1311 X182.709 Y9.842
N1312 X181.801 Y9.765
N1313 X180.891 Y9.707
N1314 X179.98 Y9.663
N1315 X179.362 Y9.64
N1316 X179.083 Y9.603
N1317 X178.816 Y9.514
N1318 X178.571 Y9.377
N1319 X177.354 Y8.532
N1320 X177.168 Y8.407
N1321 X176.547 Y8.016
N1322 X174.889 Y7.034
N1323 X174.621 Y6.875
N1324 X174.501 Y6.807
N1325 G3 X174.319 Y6.638 I0.333 J-0.541 F1397
N1326 G1 X174.261 Y6.558 Z-2.992
N1327 X174.204 Y6.479 Z-2.969
N1328 X174.15 Y6.405 Z-2.931
N1329 X174.101 Y6.336 Z-2.879
N1330 X174.056 Y6.274 Z-2.814
N1331 X174.018 Y6.222 Z-2.738
N1332 X173.988 Y6.18 Z-2.653
N1333 X173.966 Y6.149 Z-2.561
N1334 X173.952 Y6.13 Z-2.464
N1335 X173.947 Y6.124 Z-2.365
N1336 G0 Z5
N1337 X192.59 Y25.018
N1338 Z-1.73
N1339 G1 Z-2.365 F1397
N1340 X192.583 Y25.02 Z-2.464
N1341 X192.56 Y25.026 Z-2.561
N1342 X192.524 Y25.037 Z-2.653
N1343 X192.474 Y25.052 Z-2.738
N1344 X192.412 Y25.07 Z-2.814
N1345 X192.339 Y25.092 Z-2.879
N1346 X192.258 Y25.116 Z-2.931
N1347 X192.169 Y25.142 Z-2.969
N1348 X192.076 Y25.169 Z-2.992
N1349 X191.981 Y25.197 Z-3
N1350 G3 X191.751 Y25.102 I-0.056 J-0.19
N1351 G1 X190.818 Y23.238 F2270
N1352 X190.634 Y22.9
N1353 X190.592 Y22.823
N1354 X190.427 Y22.542
N1355 X189.487 Y20.959
N1356 X189.152 Y20.324
N1357 X188.919 Y19.781
N1358 X188.677 Y19.062
N1359 X188.457 Y18.178
N1360 X188.299 Y17.279
N1361 X188.121 Y16.385
N1362 X187.735 Y15.559
N1363 X187.172 Y14.842
N1364 X186.482 Y14.246
N1365 X185.708 Y13.763
N1366 X184.881 Y13.379
N1367 X184.021 Y13.076
N1368 X183.14 Y12.841
N1369 X183.113 Y12.835
N1370 X182.854 Y12.757
N1371 X182.614 Y12.633
N1372 X182.4 Y12.468
N1373 X181.933 Y12.033
N1374 X181.725 Y11.846
N1375 X181.311 Y11.496
N1376 X179.947 Y10.396
N1377 X179.423 Y9.982
N1378 X179.24 Y9.841
N1379 X178.571 Y9.377
N1380 G3 X178.405 Y9.193 I0.38 J-0.509 F1397
N1381 G1 X178.354 Y9.107 Z-2.992
N1382 X178.305 Y9.024 Z-2.969
N1383 X178.258 Y8.945 Z-2.931
N1384 X178.214 Y8.872 Z-2.879
N1385 X178.176 Y8.807 Z-2.814
N1386 X178.143 Y8.751 Z-2.738
N1387 X178.116 Y8.706 Z-2.653
N1388 X178.096 Y8.673 Z-2.561
N1389 X178.085 Y8.653 Z-2.464
N1390 X178.081 Y8.647 Z-2.365
N1391 G0 Z5
N1392 X190.319 Y20.815
N1393 Z-1.73
N1394 G1 Z-2.365 F1397
N1395 X190.311 Y20.818 Z-2.464
N1396 X190.29 Y20.826 Z-2.561
N1397 X190.254 Y20.84 Z-2.653
N1398 X190.205 Y20.858 Z-2.738
N1399 X190.144 Y20.881 Z-2.814
N1400 X190.073 Y20.907 Z-2.879
N1401 X189.994 Y20.937 Z-2.931
N1402 X189.908 Y20.969 Z-2.969
N1403 X189.817 Y21.003 Z-2.992
N1404 X189.724 Y21.038 Z-3
N1405 G3 X189.487 Y20.959 I-0.07 J-0.186
N1406 G1 X189.364 Y20.752 F2270
N1407 X188.956 Y20.131
N1408 X188.769 Y19.86
N1409 X187.941 Y18.667
N1410 X187.509 Y18.06
N1411 X187.319 Y17.82
N1412 X185.843 Y15.988
N1413 X185.455 Y15.557
N1414 X185.247 Y15.331
N1415 X184.005 Y13.996
N1416 X183.928 Y13.917
N1417 X183.383 Y13.385
N1418 X183.289 Y13.296
N1419 X182.4 Y12.468
N1420 G3 X182.262 Y12.262 I0.449 J-0.449 F1397
N1421 G1 X182.224 Y12.17 Z-2.992
N1422 X182.187 Y12.081 Z-2.969
N1423 X182.151 Y11.996 Z-2.931
N1424 X182.119 Y11.917 Z-2.879
N1425 X182.09 Y11.847 Z-2.814
N1426 X182.065 Y11.787 Z-2.738
N1427 X182.045 Y11.739 Z-2.653
N1428 X182.03 Y11.704 Z-2.561
N1429 X182.021 Y11.683 Z-2.464
N1430 X182.018 Y11.675 Z-2.365
N1431 G0 Z5
N1432 X166.676 Y82.281
N1433 Z-1.73
N1434 G1 Z-2.365 F1397
N1435 X166.675 Y82.274 Z-2.464
N1436 X166.672 Y82.251 Z-2.561
N1437 X166.667 Y82.213 Z-2.653
N1438 X166.66 Y82.161 Z-2.738
N1439 X166.652 Y82.097 Z-2.814
N1440 X166.642 Y82.022 Z-2.879
N1441 X166.63 Y81.938 Z-2.931
N1442 X166.618 Y81.847 Z-2.969
N1443 X166.605 Y81.751 Z-2.992
N1444 X166.592 Y81.652 Z-3
N1445 G3 X166.721 Y81.439 I0.197 J-0.026
N1446 G1 X167.017 Y81.344 F2270
N1447 X169.089 Y80.654
N1448 X169.296 Y80.578
N1449 X169.72 Y80.403
N1450 X171.782 Y79.549
N1451 X172.196 Y79.348
N1452 X172.403 Y79.247
N1453 X172.962 Y79.004
N1454 X173.64 Y78.772
N1455 X174.524 Y78.547
N1456 X175.422 Y78.389
N1457 X176.326 Y78.277
N1458 X177.235 Y78.198
N1459 X178.145 Y78.141
N1460 X179.056 Y78.101
N1461 X179.967 Y78.073
N1462 X180.879 Y78.053
N1463 X181.79 Y78.038
N1464 X182.702 Y78.028
N1465 X183.614 Y78.02
N1466 X184.526 Y78.015
N1467 X185.438 Y78.012
N1468 X187.261 Y78.007
N1469 X188.173 Y78.006
N1470 X189.071 Y77.846
N1471 X189.879 Y77.424
N1472 X190.561 Y76.819
N1473 X191.113 Y76.093
N1474 X191.551 Y75.293
N1475 X191.893 Y74.448
N1476 X192.157 Y73.575
N1477 X192.36 Y72.686
N1478 X192.514 Y71.788
N1479 X192.631 Y70.883
N1480 X192.72 Y69.976
N1481 X192.786 Y69.067
N1482 X192.837 Y68.156
N1483 X192.874 Y67.245
N1484 X192.902 Y66.334
N1485 X192.923 Y65.422
N1486 X192.939 Y64.511
N1487 X192.951 Y63.599
N1488 X192.959 Y62.687
N1489 X192.966 Y61.775
N1490 X192.97 Y60.863
N1491 X192.976 Y59.04
N1492 X192.98 Y57.296
N1493 X192.991 Y57.124
N1494 X193.025 Y56.955
N1495 X193.08 Y56.791
N1496 X193.12 Y56.679
N1497 X193.327 Y56.071
N1498 X193.983 Y54.099
N1499 X194.041 Y53.892
N1500 X194.156 Y53.462
N1501 X194.258 Y53.063
N1502 X194.681 Y51.406
N1503 X194.727 Y51.199
N1504 X194.81 Y50.785
N1505 X194.85 Y50.578
N1506 X195.191 Y48.686
N1507 X195.22 Y48.507
N1508 X195.279 Y48.092
N1509 X195.306 Y47.885
N1510 X195.531 Y45.8
N1511 G3 X195.613 Y45.566 I0.629 J0.09 F1397
N1512 G1 X195.663 Y45.481 Z-2.992
N1513 X195.713 Y45.397 Z-2.969
N1514 X195.76 Y45.318 Z-2.931
N1515 X195.803 Y45.245 Z-2.879
N1516 X195.842 Y45.18 Z-2.814
N1517 X195.875 Y45.124 Z-2.738
N1518 X195.901 Y45.079 Z-2.653
N1519 X195.921 Y45.047 Z-2.561
N1520 X195.932 Y45.027 Z-2.464
N1521 X195.936 Y45.02 Z-2.365
N1522 G0 Z5
N1523 X172.484 Y80.087
N1524 Z-1.73
N1525 G1 Z-2.365 F1397
N1526 X172.482 Y80.08 Z-2.464
N1527 X172.476 Y80.057 Z-2.561
N1528 X172.465 Y80.021 Z-2.653
N1529 X172.451 Y79.971 Z-2.738
N1530 X172.433 Y79.908 Z-2.814
N1531 X172.411 Y79.836 Z-2.879
N1532 X172.388 Y79.754 Z-2.931
N1533 X172.362 Y79.666 Z-2.969
N1534 X172.335 Y79.573 Z-2.992
N1535 X172.307 Y79.477 Z-3
N1536 G3 X172.403 Y79.247 I0.191 J-0.055
N1537 G1 X172.818 Y79.041 F2270
N1538 X173.854 Y78.522
N1539 X174.475 Y78.208
N1540 X174.621 Y78.125
N1541 X175.321 Y77.711
N1542 X176.547 Y76.984
N1543 X176.902 Y76.785
N1544 X177.404 Y76.555
N1545 X178.062 Y76.315
N1546 X178.941 Y76.073
N1547 X179.836 Y75.901
N1548 X180.74 Y75.778
N1549 X181.647 Y75.69
N1550 X182.557 Y75.626
N1551 X183.467 Y75.58
N1552 X184.379 Y75.547
N1553 X185.29 Y75.524
N1554 X186.196 Y75.419
N1555 X187.034 Y75.061
N1556 X187.756 Y74.504
N1557 X188.351 Y73.812
N1558 X188.828 Y73.035
N1559 X189.204 Y72.205
N1560 X189.497 Y71.341
N1561 X189.724 Y70.458
N1562 X189.898 Y69.563
N1563 X190.031 Y68.661
N1564 X190.133 Y67.755
N1565 X190.209 Y66.846
N1566 X190.268 Y65.936
N1567 X190.311 Y65.026
N1568 X190.345 Y64.114
N1569 X190.369 Y63.203
N1570 X190.375 Y62.919
N1571 X190.402 Y62.668
N1572 X190.47 Y62.426
N1573 X190.579 Y62.199
N1574 X190.592 Y62.177
N1575 X190.705 Y61.969
N1576 X190.818 Y61.762
N1577 X191.957 Y59.484
N1578 X192.136 Y59.07
N1579 X192.309 Y58.655
N1580 X193.08 Y56.791
N1581 G3 X193.225 Y56.59 I0.578 J0.263 F1397
N1582 G1 X193.297 Y56.522 Z-2.992
N1583 X193.368 Y56.456 Z-2.969
N1584 X193.435 Y56.393 Z-2.931
N1585 X193.497 Y56.335 Z-2.879
N1586 X193.553 Y56.284 Z-2.814
N1587 X193.6 Y56.239 Z-2.738
N1588 X193.638 Y56.204 Z-2.653
N1589 X193.666 Y56.178 Z-2.561
N1590 X193.683 Y56.162 Z-2.464
N1591 X193.689 Y56.157 Z-2.365
N1592 G0 Z5
N1593 X176.711 Y77.811
N1594 Z-1.73
N1595 G1 Z-2.365 F1397
N1596 X176.708 Y77.804 Z-2.464
N1597 X176.699 Y77.782 Z-2.561
N1598 X176.685 Y77.747 Z-2.653
N1599 X176.666 Y77.699 Z-2.738
N1600 X176.641 Y77.639 Z-2.814
N1601 X176.613 Y77.568 Z-2.879
N1602 X176.581 Y77.49 Z-2.931
N1603 X176.547 Y77.404 Z-2.969
N1604 X176.511 Y77.314 Z-2.992
N1605 X176.474 Y77.222 Z-3
N1606 G3 X176.547 Y76.984 I0.184 J-0.074
N1607 G1 X177.168 Y76.593 F2270
N1608 X177.375 Y76.453
N1609 X179.24 Y75.159
N1610 X179.447 Y74.999
N1611 X179.654 Y74.836
N1612 X179.988 Y74.598
N1613 X180.361 Y74.376
N1614 X180.842 Y74.139
N1615 X181.463 Y73.893
N1616 X182.334 Y73.626
N1617 X183.225 Y73.429
N1618 X184.077 Y73.104
N1619 X184.835 Y72.598
N1620 X185.478 Y71.951
N1621 X186.007 Y71.208
N1622 X186.431 Y70.401
N1623 X186.767 Y69.553
N1624 X187.03 Y68.68
N1625 X187.235 Y67.792
N1626 X187.286 Y67.503
N1627 X187.339 Y67.291
N1628 X187.424 Y67.089
N1629 X187.537 Y66.902
N1630 X187.951 Y66.319
N1631 X188.814 Y65.076
N1632 X188.956 Y64.869
N1633 X189.364 Y64.248
N1634 X190.47 Y62.384
N1635 X190.579 Y62.199
N1636 G3 X190.75 Y62.02 I0.536 J0.34 F1397
N1637 G1 X190.831 Y61.963 Z-2.992
N1638 X190.91 Y61.907 Z-2.969
N1639 X190.986 Y61.854 Z-2.931
N1640 X191.055 Y61.805 Z-2.879
N1641 X191.117 Y61.762 Z-2.814
N1642 X191.17 Y61.724 Z-2.738
N1643 X191.213 Y61.695 Z-2.653
N1644 X191.244 Y61.673 Z-2.561
N1645 X191.263 Y61.659 Z-2.464
N1646 X191.269 Y61.655 Z-2.365
N1647 G0 Z5
N1648 X179.907 Y75.641
N1649 Z-1.73
N1650 G1 Z-2.365 F1397
N1651 X179.903 Y75.634 Z-2.464
N1652 X179.892 Y75.613 Z-2.561
N1653 X179.874 Y75.58 Z-2.653
N1654 X179.85 Y75.534 Z-2.738
N1655 X179.819 Y75.477 Z-2.814
N1656 X179.783 Y75.41 Z-2.879
N1657 X179.743 Y75.335 Z-2.931
N1658 X179.7 Y75.254 Z-2.969
N1659 X179.654 Y75.168 Z-2.992
N1660 X179.607 Y75.081 Z-3
N1661 G3 X179.654 Y74.836 I0.175 J-0.094
N1662 G1 X179.947 Y74.604 F2270
N1663 X181.311 Y73.504
N1664 X181.726 Y73.154
N1665 X181.954 Y72.947
N1666 X183.289 Y71.704
N1667 X183.383 Y71.615
N1668 X183.928 Y71.083
N1669 X184.005 Y71.004
N1670 X185.281 Y69.633
N1671 X185.47 Y69.426
N1672 X185.843 Y69.012
N1673 X187.346 Y67.147
N1674 X187.509 Y66.94
N1675 X187.537 Y66.902
N1676 X187.578 Y66.865 Z-2.994 F1397
N1677 X187.616 Y66.829 Z-2.975
N1678 X187.651 Y66.797 Z-2.945
N1679 X187.68 Y66.771 Z-2.906
N1680 X187.702 Y66.751 Z-2.859
N1681 X187.717 Y66.741 Z-2.806
N1682 X187.723 Y66.738 Z-2.751
N1683 G0 Z5
N1684 X153.8 Y39.733
N1685 Z3.138
N1686 G1 Z2.503 F1397
N1687 G3 X156.199 Y45.268 Z2.172 I1.2 J2.767
N1688 X153.8 Y39.733 Z1.841 I-1.2 J-2.767
N1689 X156.199 Y45.268 Z1.51 I1.2 J2.767
N1690 X153.8 Y39.733 Z1.179 I-1.2 J-2.767
N1691 X156.199 Y45.268 Z0.848 I1.2 J2.767
N1692 X153.8 Y39.733 Z0.518 I-1.2 J-2.767
N1693 X156.199 Y45.268 Z0.187 I1.2 J2.767
N1694 X153.8 Y39.733 Z-0.144 I-1.2 J-2.767
N1695 X156.199 Y45.268 Z-0.475 I1.2 J2.767
N1696 X153.8 Y39.733 Z-0.806 I-1.2 J-2.767
N1697 X156.199 Y45.268 Z-1.137 I1.2 J2.767
N1698 X153.8 Y39.733 Z-1.468 I-1.2 J-2.767
N1699 X156.199 Y45.268 Z-1.799 I1.2 J2.767
N1700 X153.8 Y39.733 Z-2.13 I-1.2 J-2.767
N1701 X156.199 Y45.268 Z-2.461 I1.2 J2.767
N1702 X153.8 Y39.733 Z-2.791 I-1.2 J-2.767
N1703 X158.016 Y42.5 Z-3 I1.2 J2.767
N1704 X151.983 I-3.016 J0
N1705 X157.908 Y41.703 I3.016 J0
N1706 X158.016 Y42.5 I-2.909 J0.797
N1707 G1 X158.02 Y42.728 F2270
N1708 X158.174 Y43.627
N1709 X158.216 Y43.733
N1710 X158.257 Y43.877
N1711 X158.283 Y44.025
N1712 X158.296 Y44.174
N1713 X158.295 Y44.33
N1714 X158.282 Y44.496
N1715 X158.253 Y44.673
N1716 X158.207 Y44.858
N1717 X158.143 Y45.05
N1718 X158.06 Y45.246
N1719 X157.955 Y45.445
N1720 X157.829 Y45.645
N1721 X157.681 Y45.843
N1722 X157.51 Y46.036
N1723 X157.317 Y46.222
N1724 X157.102 Y46.398
N1725 X156.866 Y46.561
N1726 X156.609 Y46.71
N1727 X156.334 Y46.841
N1728 X156.042 Y46.952
N1729 X155.735 Y47.042
N1730 X155.415 Y47.108
N1731 X155.084 Y47.15
N1732 X154.746 Y47.164
N1733 X154.402 Y47.151
N1734 X154.055 Y47.111
N1735 X153.708 Y47.041
N1736 X153.365 Y46.943
N1737 X153.027 Y46.816
N1738 X152.697 Y46.662
N1739 X152.379 Y46.48
N1740 X152.074 Y46.271
N1741 X151.785 Y46.038
N1742 X151.514 Y45.78
N1743 X151.263 Y45.501
N1744 X151.035 Y45.201
N1745 X150.831 Y44.882
N1746 X150.653 Y44.547
N1747 X150.502 Y44.198
N1748 X150.378 Y43.837
N1749 X150.284 Y43.466
N1750 X150.22 Y43.089
N1751 X150.187 Y42.706
N1752 X150.184 Y42.322
N1753 X150.212 Y41.939
N1754 X150.271 Y41.558
N1755 X150.36 Y41.183
N1756 X150.48 Y40.816
N1757 X150.628 Y40.46
N1758 X150.805 Y40.116
N1759 X151.008 Y39.788
N1760 X151.238 Y39.477
N1761 X151.492 Y39.185
N1762 X151.768 Y38.914
N1763 X152.066 Y38.667
N1764 X152.382 Y38.444
N1765 X152.716 Y38.247
N1766 X153.064 Y38.077
N1767 X153.425 Y37.936
N1768 X153.796 Y37.824
N1769 X154.175 Y37.742
N1770 X154.559 Y37.691
N1771 X154.946 Y37.671
N1772 X155.334 Y37.683
N1773 X155.719 Y37.725
N1774 X156.1 Y37.798
N1775 X156.474 Y37.901
N1776 X156.838 Y38.034
N1777 X157.19 Y38.196
N1778 X157.529 Y38.386
N1779 X157.851 Y38.602
N1780 X158.154 Y38.843
N1781 X158.438 Y39.108
N1782 X158.699 Y39.395
N1783 X158.936 Y39.702
N1784 X159.154 Y40.035
N1785 X159.546 Y40.758
N1786 X159.843 Y41.428
N1787 X160.036 Y41.98
N1788 X160.167 Y42.477
N1789 X160.25 Y42.945
N1790 X160.294 Y43.399
N1791 X160.3 Y43.839
N1792 X160.273 Y44.266
N1793 X160.212 Y44.683
N1794 X160.118 Y45.091
N1795 X159.992 Y45.489
N1796 X159.834 Y45.877
N1797 X159.645 Y46.253
N1798 X159.425 Y46.615
N1799 X159.174 Y46.961
N1800 X158.893 Y47.289
N1801 X158.584 Y47.597
N1802 X158.247 Y47.882
N1803 X157.882 Y48.144
N1804 X157.493 Y48.378
N1805 X157.08 Y48.583
N1806 X156.647 Y48.757
N1807 X156.195 Y48.897
N1808 X155.727 Y49.002
N1809 X155.246 Y49.07
N1810 X154.757 Y49.099
N1811 X154.261 Y49.089
N1812 X153.763 Y49.038
N1813 X153.266 Y48.947
N1814 X152.775 Y48.816
N1815 X152.292 Y48.644
N1816 X151.821 Y48.432
N1817 X151.366 Y48.182
N1818 X150.929 Y47.894
N1819 X150.515 Y47.571
N1820 X150.127 Y47.213
N1821 X149.766 Y46.824
N1822 X149.437 Y46.405
N1823 X149.141 Y45.96
N1824 X148.881 Y45.49
N1825 X148.659 Y45
N1826 X148.477 Y44.492
N1827 X148.335 Y43.97
N1828 X148.236 Y43.437
N1829 X148.179 Y42.897
N1830 X148.166 Y42.353
N1831 X148.197 Y41.81
N1832 X148.272 Y41.269
N1833 X148.39 Y40.736
N1834 X148.55 Y40.213
N1835 X148.752 Y39.705
N1836 X148.994 Y39.214
N1837 X149.275 Y38.743
N1838 X149.593 Y38.297
N1839 X149.947 Y37.877
N1840 X150.333 Y37.487
N1841 X150.749 Y37.128
N1842 X151.192 Y36.805
N1843 X151.661 Y36.517
N1844 X152.151 Y36.269
N1845 X152.659 Y36.06
N1846 X153.183 Y35.893
N1847 X153.719 Y35.768
N1848 X154.263 Y35.687
N1849 X154.812 Y35.65
N1850 X155.362 Y35.656
N1851 X155.91 Y35.707
N1852 X156.452 Y35.802
N1853 X156.984 Y35.94
N1854 X157.504 Y36.12
N1855 X158.008 Y36.342
N1856 X158.493 Y36.603
N1857 X158.955 Y36.902
N1858 X159.393 Y37.239
N1859 X159.866 Y37.667
N1860 X160.328 Y38.158
N1861 X160.762 Y38.701
N1862 X161.159 Y39.288
N1863 X161.503 Y39.898
N1864 X161.791 Y40.52
N1865 X162.023 Y41.147
N1866 X162.198 Y41.775
N1867 X162.32 Y42.401
N1868 X162.391 Y43.025
N1869 X162.41 Y43.644
N1870 X162.381 Y44.256
N1871 X162.303 Y44.859
N1872 X162.177 Y45.45
N1873 X162.005 Y46.028
N1874 X161.788 Y46.588
N1875 X161.526 Y47.13
N1876 X161.221 Y47.65
N1877 X160.874 Y48.146
N1878 X160.486 Y48.615
N1879 X160.059 Y49.054
N1880 X159.595 Y49.46
N1881 X159.096 Y49.83
N1882 X158.565 Y50.162
N1883 X158.004 Y50.452
N1884 X157.417 Y50.699
N1885 X156.807 Y50.899
N1886 X156.177 Y51.051
N1887 X155.532 Y51.153
N1888 X154.877 Y51.203
N1889 X154.215 Y51.2
N1890 X153.55 Y51.144
N1891 X152.888 Y51.034
N1892 X152.233 Y50.87
N1893 X151.59 Y50.653
N1894 X150.962 Y50.383
N1895 X150.354 Y50.062
N1896 X149.772 Y49.692
N1897 X149.219 Y49.274
N1898 X148.698 Y48.811
N1899 X148.215 Y48.305
N1900 X147.772 Y47.761
N1901 X147.373 Y47.18
N1902 X147.02 Y46.568
N1903 X146.717 Y45.928
N1904 X146.466 Y45.263
N1905 X146.269 Y44.579
N1906 X146.126 Y43.88
N1907 X146.04 Y43.171
N1908 X146.012 Y42.456
N1909 X146.041 Y41.74
N1910 X146.127 Y41.027
N1911 X146.27 Y40.324
N1912 X146.47 Y39.633
N1913 X146.724 Y38.96
N1914 X147.032 Y38.309
N1915 X147.392 Y37.684
N1916 X147.8 Y37.09
N1917 X148.256 Y36.53
N1918 X148.755 Y36.009
N1919 X149.294 Y35.529
N1920 X149.871 Y35.094
N1921 X150.48 Y34.706
N1922 X151.119 Y34.368
N1923 X151.783 Y34.083
N1924 X152.468 Y33.852
N1925 X153.17 Y33.676
N1926 X153.884 Y33.557
N1927 X154.604 Y33.497
N1928 X155.328 Y33.494
N1929 X156.049 Y33.549
N1930 X156.764 Y33.662
N1931 X157.467 Y33.831
N1932 X158.155 Y34.057
N1933 X158.823 Y34.338
N1934 X159.485 Y34.681
N1935 X160.138 Y35.089
N1936 X160.776 Y35.562
N1937 X161.39 Y36.1
N1938 X161.97 Y36.696
N1939 X162.505 Y37.343
N1940 X162.987 Y38.032
N1941 X163.411 Y38.755
N1942 X163.774 Y39.505
N1943 X164.073 Y40.276
N1944 X164.306 Y41.061
N1945 X164.475 Y41.856
N1946 X164.578 Y42.655
N1947 X164.617 Y43.454
N1948 X164.592 Y44.249
N1949 X164.503 Y45.035
N1950 X164.352 Y45.808
N1951 X164.14 Y46.565
N1952 X163.869 Y47.301
N1953 X163.539 Y48.013
N1954 X163.153 Y48.697
N1955 X162.712 Y49.349
N1956 X162.219 Y49.965
N1957 X161.675 Y50.543
N1958 X161.085 Y51.077
N1959 X160.45 Y51.565
N1960 X159.774 Y52.003
N1961 X159.061 Y52.387
N1962 X158.315 Y52.715
N1963 X157.541 Y52.983
N1964 X156.743 Y53.19
N1965 X155.926 Y53.332
N1966 X155.095 Y53.41
N1967 X154.257 Y53.42
N1968 X153.415 Y53.363
N1969 X152.577 Y53.237
N1970 X151.747 Y53.044
N1971 X150.931 Y52.783
N1972 X150.135 Y52.457
N1973 X149.364 Y52.066
N1974 X148.625 Y51.612
N1975 X147.921 Y51.099
N1976 X147.259 Y50.528
N1977 X146.642 Y49.904
N1978 X146.076 Y49.231
N1979 X145.564 Y48.513
N1980 X145.11 Y47.753
N1981 X144.717 Y46.958
N1982 X144.389 Y46.132
N1983 X144.128 Y45.28
N1984 X143.936 Y44.409
N1985 X143.814 Y43.524
N1986 X143.763 Y42.63
N1987 X143.785 Y41.734
N1988 X143.878 Y40.842
N1989 X144.043 Y39.959
N1990 X144.278 Y39.091
N1991 X144.582 Y38.245
N1992 X144.954 Y37.424
N1993 X145.391 Y36.636
N1994 X145.889 Y35.885
N1995 X146.447 Y35.176
N1996 X147.06 Y34.514
N1997 X147.724 Y33.903
N1998 X148.436 Y33.347
N1999 X149.19 Y32.85
N2000 X149.982 Y32.415
N2001 X150.806 Y32.044
N2002 X151.658 Y31.741
N2003 X152.531 Y31.507
N2004 X153.421 Y31.344
N2005 X154.32 Y31.253
N2006 X155.225 Y31.235
N2007 X156.128 Y31.289
N2008 X157.023 Y31.415
N2009 X157.91 Y31.614
N2010 X158.781 Y31.884
N2011 X159.627 Y32.223
N2012 X160.444 Y32.627
N2013 X161.227 Y33.095
N2014 X161.972 Y33.62
N2015 X162.676 Y34.2
N2016 X163.335 Y34.83
N2017 X163.947 Y35.506
N2018 X164.509 Y36.225
N2019 X165.017 Y36.981
N2020 X165.47 Y37.773
N2021 X165.865 Y38.595
N2022 X166.198 Y39.443
N2023 X166.468 Y40.314
N2024 X166.672 Y41.203
N2025 X166.81 Y42.104
N2026 X166.881 Y43.013
N2027 X166.884 Y43.925
N2028 X166.819 Y44.835
N2029 X166.686 Y45.737
N2030 X166.485 Y46.626
N2031 X166.219 Y47.498
N2032 X165.888 Y48.348
N2033 X165.493 Y49.17
N2034 X165.039 Y49.96
N2035 X164.526 Y50.714
N2036 X163.958 Y51.427
N2037 X163.338 Y52.096
N2038 X162.669 Y52.715
N2039 X161.955 Y53.283
N2040 X161.201 Y53.796
N2041 X160.411 Y54.251
N2042 X159.59 Y54.647
N2043 X158.742 Y54.982
N2044 X157.871 Y55.254
N2045 X156.984 Y55.464
N2046 X156.084 Y55.609
N2047 X155.175 Y55.689
N2048 X154.264 Y55.703
N2049 X153.353 Y55.651
N2050 X152.449 Y55.533
N2051 X151.556 Y55.351
N2052 X150.677 Y55.107
N2053 X149.818 Y54.803
N2054 X148.981 Y54.44
N2055 X148.172 Y54.02
N2056 X147.395 Y53.543
N2057 X146.653 Y53.012
N2058 X145.951 Y52.431
N2059 X145.29 Y51.803
N2060 X144.673 Y51.131
N2061 X144.103 Y50.419
N2062 X143.583 Y49.671
N2063 X143.117 Y48.887
N2064 X142.706 Y48.073
N2065 X142.353 Y47.232
N2066 X142.057 Y46.37
N2067 X141.82 Y45.49
N2068 X141.642 Y44.595
N2069 X141.525 Y43.691
N2070 X141.471 Y42.781
N2071 X141.48 Y41.869
N2072 X141.551 Y40.96
N2073 X141.683 Y40.058
N2074 X141.874 Y39.166
N2075 X142.124 Y38.289
N2076 X142.434 Y37.432
N2077 X142.803 Y36.598
N2078 X143.227 Y35.791
N2079 X143.704 Y35.014
N2080 X144.231 Y34.27
N2081 X144.807 Y33.562
N2082 X145.429 Y32.896
N2083 X146.096 Y32.275
N2084 X146.804 Y31.7
N2085 X147.549 Y31.173
N2086 X148.326 Y30.697
N2087 X149.133 Y30.273
N2088 X149.968 Y29.905
N2089 X150.825 Y29.596
N2090 X151.702 Y29.345
N2091 X152.594 Y29.154
N2092 X153.496 Y29.022
N2093 X154.405 Y28.949
N2094 X155.317 Y28.939
N2095 X156.227 Y28.991
N2096 X157.131 Y29.105
N2097 X158.027 Y29.279
N2098 X158.908 Y29.511
N2099 X159.773 Y29.8
N2100 X160.617 Y30.145
N2101 X161.435 Y30.547
N2102 X162.226 Y31.002
N2103 X162.986 Y31.505
N2104 X163.713 Y32.056
N2105 X164.405 Y32.65
N2106 X165.059 Y33.285
N2107 X165.672 Y33.96
N2108 X166.241 Y34.672
N2109 X166.766 Y35.418
N2110 X167.244 Y36.194
N2111 X167.674 Y36.998
N2112 X168.056 Y37.827
N2113 X168.384 Y38.677
N2114 X168.657 Y39.547
N2115 X168.876 Y40.432
N2116 X169.039 Y41.329
N2117 X169.147 Y42.235
N2118 X169.199 Y43.145
N2119 X169.194 Y44.057
N2120 X169.13 Y44.967
N2121 X169.009 Y45.87
N2122 X168.83 Y46.764
N2123 X168.597 Y47.646
N2124 X168.31 Y48.511
N2125 X167.969 Y49.357
N2126 X167.574 Y50.179
N2127 X167.127 Y50.974
N2128 X166.631 Y51.739
N2129 X166.088 Y52.471
N2130 X165.501 Y53.169
N2131 X164.872 Y53.828
N2132 X164.201 Y54.446
N2133 X163.492 Y55.019
N2134 X162.748 Y55.547
N2135 X161.973 Y56.027
N2136 X161.17 Y56.459
N2137 X160.342 Y56.842
N2138 X159.493 Y57.173
N2139 X158.624 Y57.45
N2140 X157.74 Y57.672
N2141 X156.843 Y57.84
N2142 X155.939 Y57.954
N2143 X155.029 Y58.014
N2144 X154.117 Y58.018
N2145 X153.207 Y57.966
N2146 X152.301 Y57.857
N2147 X151.404 Y57.694
N2148 X150.518 Y57.479
N2149 X149.647 Y57.212
N2150 X148.792 Y56.894
N2151 X147.957 Y56.527
N2152 X147.147 Y56.108
N2153 X146.364 Y55.642
N2154 X145.609 Y55.129
N2155 X144.886 Y54.574
N2156 X144.197 Y53.978
N2157 X143.542 Y53.343
N2158 X142.926 Y52.67
N2159 X142.352 Y51.962
N2160 X141.821 Y51.221
N2161 X141.334 Y50.45
N2162 X140.892 Y49.652
N2163 X140.497 Y48.831
N2164 X140.15 Y47.988
N2165 X139.852 Y47.126
N2166 X139.606 Y46.248
N2167 X139.412 Y45.357
N2168 X139.27 Y44.456
N2169 X139.18 Y43.549
N2170 X139.142 Y42.638
N2171 X139.156 Y41.726
N2172 X139.223 Y40.817
N2173 X139.344 Y39.913
N2174 X139.516 Y39.018
N2175 X139.74 Y38.134
N2176 X140.014 Y37.264
N2177 X140.337 Y36.411
N2178 X140.708 Y35.578
N2179 X141.128 Y34.769
N2180 X141.594 Y33.985
N2181 X142.104 Y33.229
N2182 X142.656 Y32.504
N2183 X143.249 Y31.811
N2184 X143.88 Y31.153
N2185 X144.549 Y30.533
N2186 X145.252 Y29.953
N2187 X145.988 Y29.415
N2188 X146.753 Y28.919
N2189 X147.546 Y28.468
N2190 X148.362 Y28.062
N2191 X149.201 Y27.704
N2192 X150.059 Y27.395
N2193 X150.933 Y27.137
N2194 X151.821 Y26.93
N2195 X152.719 Y26.773
N2196 X153.625 Y26.668
N2197 X154.535 Y26.614
N2198 X155.447 Y26.612
N2199 X156.358 Y26.663
N2200 X157.263 Y26.768
N2201 X158.162 Y26.924
N2202 X159.05 Y27.13
N2203 X159.925 Y27.386
N2204 X160.785 Y27.69
N2205 X161.626 Y28.041
N2206 X162.446 Y28.441
N2207 X163.242 Y28.886
N2208 X164.012 Y29.374
N2209 X164.755 Y29.903
N2210 X165.468 Y30.47
N2211 X166.15 Y31.075
N2212 X166.799 Y31.716
N2213 X167.413 Y32.39
N2214 X167.988 Y33.097
N2215 X168.525 Y33.834
N2216 X169.023 Y34.599
N2217 X169.479 Y35.388
N2218 X169.893 Y36.2
N2219 X170.264 Y37.033
N2220 X170.59 Y37.885
N2221 X170.868 Y38.753
N2222 X171.098 Y39.636
N2223 X171.282 Y40.529
N2224 X171.417 Y41.43
N2225 X171.505 Y42.338
N2226 X171.544 Y43.249
N2227 X171.534 Y44.161
N2228 X171.473 Y45.071
N2229 X171.362 Y45.976
N2230 X171.203 Y46.873
N2231 X170.995 Y47.761
N2232 X170.741 Y48.637
N2233 X170.441 Y49.498
N2234 X170.094 Y50.341
N2235 X169.7 Y51.164
N2236 X169.262 Y51.963
N2237 X168.781 Y52.738
N2238 X168.259 Y53.485
N2239 X167.697 Y54.204
N2240 X167.099 Y54.891
N2241 X166.464 Y55.546
N2242 X165.793 Y56.164
N2243 X165.089 Y56.744
N2244 X164.355 Y57.285
N2245 X163.594 Y57.786
N2246 X162.807 Y58.246
N2247 X161.996 Y58.664
N2248 X161.165 Y59.039
N2249 X160.315 Y59.369
N2250 X159.448 Y59.652
N2251 X158.567 Y59.888
N2252 X157.676 Y60.077
N2253 X156.775 Y60.219
N2254 X155.868 Y60.315
N2255 X154.958 Y60.363
N2256 X154.046 Y60.364
N2257 X153.135 Y60.315
N2258 X152.229 Y60.217
N2259 X151.328 Y60.073
N2260 X150.437 Y59.882
N2261 X149.556 Y59.647
N2262 X148.688 Y59.367
N2263 X147.836 Y59.043
N2264 X147.002 Y58.674
N2265 X146.189 Y58.262
N2266 X145.398 Y57.808
N2267 X144.632 Y57.314
N2268 X143.891 Y56.781
N2269 X143.179 Y56.213
N2270 X142.495 Y55.609
N2271 X141.843 Y54.971
N2272 X141.226 Y54.3
N2273 X140.644 Y53.598
N2274 X140.1 Y52.867
N2275 X139.592 Y52.109
N2276 X139.124 Y51.327
N2277 X138.695 Y50.523
N2278 X138.306 Y49.698
N2279 X137.96 Y48.854
N2280 X137.658 Y47.994
N2281 X137.401 Y47.119
N2282 X137.188 Y46.232
N2283 X137.02 Y45.336
N2284 X136.897 Y44.433
N2285 X136.819 Y43.524
N2286 X136.786 Y42.613
N2287 X136.799 Y41.701
N2288 X136.86 Y40.791
N2289 X136.966 Y39.886
N2290 X137.118 Y38.987
N2291 X137.315 Y38.096
N2292 X137.555 Y37.217
N2293 X137.838 Y36.35
N2294 X138.164 Y35.499
N2295 X138.534 Y34.665
N2296 X138.945 Y33.851
N2297 X139.397 Y33.059
N2298 X139.888 Y32.291
N2299 X140.417 Y31.548
N2300 X140.981 Y30.832
N2301 X141.58 Y30.144
N2302 X142.213 Y29.488
N2303 X142.879 Y28.865
N2304 X143.575 Y28.276
N2305 X144.3 Y27.724
N2306 X145.052 Y27.208
N2307 X145.828 Y26.729
N2308 X146.627 Y26.289
N2309 X147.446 Y25.89
N2310 X148.285 Y25.532
N2311 X149.141 Y25.218
N2312 X150.012 Y24.947
N2313 X150.895 Y24.721
N2314 X151.788 Y24.538
N2315 X152.69 Y24.4
N2316 X153.597 Y24.305
N2317 X154.507 Y24.256
N2318 X155.419 Y24.254
N2319 X156.33 Y24.298
N2320 X157.237 Y24.388
N2321 X158.139 Y24.522
N2322 X159.033 Y24.701
N2323 X159.917 Y24.923
N2324 X160.79 Y25.187
N2325 X161.649 Y25.494
N2326 X162.491 Y25.843
N2327 X163.315 Y26.235
N2328 X164.118 Y26.666
N2329 X164.9 Y27.135
N2330 X165.659 Y27.64
N2331 X166.393 Y28.181
N2332 X167.101 Y28.755
N2333 X167.782 Y29.362
N2334 X168.433 Y30.001
N2335 X169.052 Y30.67
N2336 X169.638 Y31.368
N2337 X170.191 Y32.093
N2338 X170.71 Y32.843
N2339 X171.194 Y33.616
N2340 X171.641 Y34.41
N2341 X172.052 Y35.225
N2342 X172.423 Y36.057
N2343 X172.754 Y36.907
N2344 X173.043 Y37.772
N2345 X173.292 Y38.649
N2346 X173.499 Y39.537
N2347 X173.665 Y40.434
N2348 X173.789 Y41.337
N2349 X173.871 Y42.245
N2350 X173.91 Y43.156
N2351 X173.904 Y44.068
N2352 X173.854 Y44.978
N2353 X173.761 Y45.885
N2354 X173.625 Y46.787
N2355 X173.447 Y47.681
N2356 X173.228 Y48.566
N2357 X172.968 Y49.44
N2358 X172.667 Y50.301
N2359 X172.323 Y51.146
N2360 X171.939 Y51.972
N2361 X171.516 Y52.78
N2362 X171.055 Y53.567
N2363 X170.557 Y54.331
N2364 X170.025 Y55.071
N2365 X169.459 Y55.786
N2366 X168.859 Y56.473
N2367 X168.226 Y57.129
N2368 X167.562 Y57.754
N2369 X166.869 Y58.347
N2370 X166.149 Y58.906
N2371 X165.404 Y59.432
N2372 X164.635 Y59.922
N2373 X163.845 Y60.376
N2374 X163.034 Y60.793
N2375 X162.204 Y61.171
N2376 X161.357 Y61.508
N2377 X160.495 Y61.805
N2378 X159.62 Y62.062
N2379 X158.734 Y62.277
N2380 X157.839 Y62.452
N2381 X156.937 Y62.587
N2382 X156.03 Y62.68
N2383 X155.12 Y62.73
N2384 X154.208 Y62.736
N2385 X153.297 Y62.7
N2386 X152.388 Y62.622
N2387 X151.484 Y62.503
N2388 X150.587 Y62.342
N2389 X149.697 Y62.142
N2390 X148.817 Y61.902
N2391 X147.949 Y61.623
N2392 X147.096 Y61.302
N2393 X146.258 Y60.943
N2394 X145.438 Y60.545
N2395 X144.636 Y60.11
N2396 X143.855 Y59.64
N2397 X143.095 Y59.135
N2398 X142.359 Y58.597
N2399 X141.647 Y58.028
N2400 X140.962 Y57.426
N2401 X140.306 Y56.793
N2402 X139.679 Y56.131
N2403 X139.083 Y55.44
N2404 X138.519 Y54.724
N2405 X137.987 Y53.984
N2406 X137.488 Y53.221
N2407 X137.022 Y52.436
N2408 X136.593 Y51.632
N2409 X136.2 Y50.809
N2410 X135.846 Y49.969
N2411 X135.53 Y49.114
N2412 X135.253 Y48.245
N2413 X135.014 Y47.365
N2414 X134.814 Y46.475
N2415 X134.654 Y45.578
N2416 X134.533 Y44.674
N2417 X134.452 Y43.766
N2418 X134.413 Y42.855
N2419 X134.415 Y41.943
N2420 X134.459 Y41.032
N2421 X134.542 Y40.124
N2422 X134.666 Y39.221
N2423 X134.829 Y38.324
N2424 X135.031 Y37.435
N2425 X135.271 Y36.555
N2426 X135.551 Y35.687
N2427 X135.87 Y34.833
N2428 X136.227 Y33.994
N2429 X136.622 Y33.172
N2430 X137.052 Y32.368
N2431 X137.517 Y31.584
N2432 X138.016 Y30.821
N2433 X138.547 Y30.079
N2434 X139.11 Y29.363
N2435 X139.706 Y28.672
N2436 X140.332 Y28.009
N2437 X140.987 Y27.375
N2438 X141.67 Y26.77
N2439 X142.378 Y26.197
N2440 X143.111 Y25.654
N2441 X143.867 Y25.144
N2442 X144.644 Y24.667
N2443 X145.441 Y24.225
N2444 X146.258 Y23.82
N2445 X147.093 Y23.452
N2446 X147.943 Y23.122
N2447 X148.806 Y22.83
N2448 X149.682 Y22.575
N2449 X150.568 Y22.359
N2450 X151.462 Y22.182
N2451 X152.363 Y22.044
N2452 X153.27 Y21.946
N2453 X154.18 Y21.889
N2454 X155.092 Y21.874
N2455 X156.003 Y21.899
N2456 X156.913 Y21.964
N2457 X157.818 Y22.068
N2458 X158.719 Y22.211
N2459 X159.612 Y22.393
N2460 X160.497 Y22.614
N2461 X161.371 Y22.873
N2462 X162.233 Y23.172
N2463 X163.08 Y23.508
N2464 X163.913 Y23.881
N2465 X164.728 Y24.288
N2466 X165.526 Y24.731
N2467 X166.304 Y25.206
N2468 X167.061 Y25.713
N2469 X167.797 Y26.252
N2470 X168.509 Y26.822
N2471 X169.195 Y27.422
N2472 X169.855 Y28.051
N2473 X170.489 Y28.707
N2474 X171.094 Y29.389
N2475 X171.67 Y30.096
N2476 X172.216 Y30.826
N2477 X172.733 Y31.577
N2478 X173.218 Y32.349
N2479 X173.669 Y33.141
N2480 X174.087 Y33.952
N2481 X174.47 Y34.78
N2482 X174.817 Y35.623
N2483 X175.129 Y36.48
N2484 X175.405 Y37.349
N2485 X175.644 Y38.229
N2486 X175.848 Y39.117
N2487 X176.014 Y40.014
N2488 X176.143 Y40.917
N2489 X176.232 Y41.824
N2490 X176.283 Y42.734
N2491 X176.294 Y43.646
N2492 X176.268 Y44.558
N2493 X176.203 Y45.467
N2494 X176.1 Y46.373
N2495 X175.96 Y47.274
N2496 X175.783 Y48.169
N2497 X175.568 Y49.055
N2498 X175.315 Y49.931
N2499 X175.024 Y50.795
N2500 X174.697 Y51.646
N2501 X174.333 Y52.482
N2502 X173.935 Y53.303
N2503 X173.504 Y54.106
N2504 X173.039 Y54.89
N2505 X172.542 Y55.655
N2506 X172.013 Y56.397
N2507 X171.452 Y57.116
N2508 X170.861 Y57.811
N2509 X170.241 Y58.479
N2510 X169.593 Y59.12
N2511 X168.918 Y59.734
N2512 X168.219 Y60.319
N2513 X167.496 Y60.875
N2514 X166.751 Y61.401
N2515 X165.985 Y61.895
N2516 X165.198 Y62.355
N2517 X164.392 Y62.782
N2518 X163.569 Y63.174
N2519 X162.73 Y63.532
N2520 X161.877 Y63.854
N2521 X161.012 Y64.141
N2522 X160.135 Y64.393
N2523 X159.249 Y64.608
N2524 X158.355 Y64.787
N2525 X157.454 Y64.928
N2526 X156.548 Y65.031
N2527 X155.639 Y65.096
N2528 X154.728 Y65.123
N2529 X153.816 Y65.112
N2530 X152.905 Y65.065
N2531 X151.997 Y64.98
N2532 X151.094 Y64.859
N2533 X150.195 Y64.702
N2534 X149.305 Y64.507
N2535 X148.423 Y64.276
N2536 X147.551 Y64.009
N2537 X146.691 Y63.705
N2538 X145.844 Y63.367
N2539 X145.012 Y62.995
N2540 X144.195 Y62.59
N2541 X143.395 Y62.152
N2542 X142.613 Y61.683
N2543 X141.851 Y61.183
N2544 X141.11 Y60.652
N2545 X140.391 Y60.091
N2546 X139.696 Y59.501
N2547 X139.025 Y58.883
N2548 X138.38 Y58.238
N2549 X137.761 Y57.569
N2550 X137.169 Y56.875
N2551 X136.606 Y56.159
N2552 X136.071 Y55.42
N2553 X135.566 Y54.661
N2554 X135.093 Y53.881
N2555 X134.651 Y53.083
N2556 X134.243 Y52.268
N2557 X133.867 Y51.438
N2558 X133.525 Y50.592
N2559 X133.217 Y49.734
N2560 X132.942 Y48.865
N2561 X132.703 Y47.985
N2562 X132.498 Y47.096
N2563 X132.329 Y46.2
N2564 X132.197 Y45.298
N2565 X132.102 Y44.391
N2566 X132.042 Y43.481
N2567 X132.02 Y42.57
N2568 X132.033 Y41.658
N2569 X132.082 Y40.748
N2570 X132.167 Y39.84
N2571 X132.287 Y38.936
N2572 X132.444 Y38.038
N2573 X132.637 Y37.146
N2574 X132.865 Y36.264
N2575 X133.129 Y35.391
N2576 X133.427 Y34.529
N2577 X133.759 Y33.68
N2578 X134.124 Y32.845
N2579 X134.522 Y32.024
N2580 X134.952 Y31.22
N2581 X135.413 Y30.433
N2582 X135.905 Y29.666
N2583 X136.428 Y28.919
N2584 X136.98 Y28.193
N2585 X137.561 Y27.49
N2586 X138.169 Y26.811
N2587 X138.804 Y26.156
N2588 X139.464 Y25.527
N2589 X140.148 Y24.924
N2590 X140.855 Y24.348
N2591 X141.584 Y23.801
N2592 X142.335 Y23.284
N2593 X143.106 Y22.797
N2594 X143.896 Y22.341
N2595 X144.703 Y21.917
N2596 X145.526 Y21.526
N2597 X146.365 Y21.167
N2598 X147.216 Y20.841
N2599 X148.08 Y20.549
N2600 X148.955 Y20.291
N2601 X149.839 Y20.068
N2602 X150.731 Y19.881
N2603 X151.63 Y19.73
N2604 X152.535 Y19.614
N2605 X153.443 Y19.535
N2606 X154.354 Y19.491
N2607 X155.266 Y19.484
N2608 X156.177 Y19.512
N2609 X157.087 Y19.575
N2610 X157.993 Y19.675
N2611 X158.895 Y19.81
N2612 X159.791 Y19.981
N2613 X160.679 Y20.187
N2614 X161.558 Y20.428
N2615 X162.427 Y20.703
N2616 X163.285 Y21.012
N2617 X164.131 Y21.354
N2618 X164.962 Y21.728
N2619 X165.779 Y22.133
N2620 X166.579 Y22.57
N2621 X167.362 Y23.037
N2622 X168.126 Y23.535
N2623 X168.871 Y24.061
N2624 X169.595 Y24.615
N2625 X170.297 Y25.197
N2626 X170.977 Y25.805
N2627 X171.633 Y26.438
N2628 X172.265 Y27.095
N2629 X172.872 Y27.776
N2630 X173.453 Y28.479
N2631 X174.006 Y29.203
N2632 X174.532 Y29.948
N2633 X175.029 Y30.712
N2634 X175.497 Y31.495
N2635 X175.935 Y32.295
N2636 X176.343 Y33.11
N2637 X176.72 Y33.941
N2638 X177.065 Y34.785
N2639 X177.379 Y35.641
N2640 X177.66 Y36.508
N2641 X177.908 Y37.386
N2642 X178.122 Y38.272
N2643 X178.303 Y39.166
N2644 X178.449 Y40.066
N2645 X178.561 Y40.97
N2646 X178.639 Y41.879
N2647 X178.683 Y42.79
N2648 X178.692 Y43.701
N2649 X178.667 Y44.613
N2650 X178.608 Y45.523
N2651 X178.513 Y46.43
N2652 X178.385 Y47.332
N2653 X178.222 Y48.23
N2654 X178.024 Y49.12
N2655 X177.793 Y50.002
N2656 X177.529 Y50.874
N2657 X177.232 Y51.736
N2658 X176.902 Y52.587
N2659 X176.541 Y53.424
N2660 X176.148 Y54.247
N2661 X175.723 Y55.054
N2662 X175.269 Y55.844
N2663 X174.784 Y56.616
N2664 X174.27 Y57.369
N2665 X173.728 Y58.102
N2666 X173.158 Y58.814
N2667 X172.562 Y59.504
N2668 X171.94 Y60.171
N2669 X171.293 Y60.814
N2670 X170.623 Y61.432
N2671 X169.929 Y62.024
N2672 X169.213 Y62.589
N2673 X168.477 Y63.126
N2674 X167.721 Y63.635
N2675 X166.945 Y64.116
N2676 X166.153 Y64.566
N2677 X165.344 Y64.987
N2678 X164.52 Y65.377
N2679 X163.682 Y65.736
N2680 X162.831 Y66.064
N2681 X161.968 Y66.359
N2682 X161.095 Y66.621
N2683 X160.212 Y66.85
N2684 X159.322 Y67.047
N2685 X158.424 Y67.209
N2686 X157.522 Y67.338
N2687 X156.615 Y67.434
N2688 X155.705 Y67.495
N2689 X154.794 Y67.524
N2690 X153.882 Y67.518
N2691 X152.971 Y67.478
N2692 X152.062 Y67.404
N2693 X151.157 Y67.297
N2694 X150.256 Y67.156
N2695 X149.361 Y66.982
N2696 X148.473 Y66.775
N2697 X147.593 Y66.536
N2698 X146.723 Y66.264
N2699 X145.863 Y65.961
N2700 X145.015 Y65.626
N2701 X144.179 Y65.26
N2702 X143.358 Y64.864
N2703 X142.552 Y64.437
N2704 X141.762 Y63.982
N2705 X140.99 Y63.498
N2706 X140.235 Y62.986
N2707 X139.5 Y62.446
N2708 X138.785 Y61.881
N2709 X138.091 Y61.289
N2710 X137.419 Y60.673
N2711 X136.77 Y60.033
N2712 X136.144 Y59.369
N2713 X135.544 Y58.683
N2714 X134.969 Y57.975
N2715 X134.42 Y57.248
N2716 X133.897 Y56.5
N2717 X133.402 Y55.734
N2718 X132.936 Y54.951
N2719 X132.497 Y54.152
N2720 X132.088 Y53.337
N2721 X131.709 Y52.508
N2722 X131.36 Y51.665
N2723 X131.042 Y50.81
N2724 X130.755 Y49.945
N2725 X130.5 Y49.07
N2726 X130.277 Y48.186
N2727 X130.085 Y47.294
N2728 X129.926 Y46.396
N2729 X129.799 Y45.493
N2730 X129.705 Y44.586
N2731 X129.643 Y43.677
N2732 X129.615 Y42.765
N2733 X129.619 Y41.853
N2734 X129.657 Y40.942
N2735 X129.727 Y40.033
N2736 X129.83 Y39.127
N2737 X129.966 Y38.226
N2738 X130.134 Y37.329
N2739 X130.334 Y36.44
N2740 X130.565 Y35.558
N2741 X130.829 Y34.685
N2742 X131.123 Y33.822
N2743 X131.449 Y32.97
N2744 X131.805 Y32.131
N2745 X132.191 Y31.305
N2746 X132.606 Y30.493
N2747 X133.051 Y29.697
N2748 X133.524 Y28.917
N2749 X134.024 Y28.155
N2750 X134.551 Y27.411
N2751 X135.105 Y26.687
N2752 X135.684 Y25.982
N2753 X136.288 Y25.299
N2754 X136.917 Y24.639
N2755 X137.569 Y24.002
N2756 X138.243 Y23.388
N2757 X138.939 Y22.799
N2758 X139.656 Y22.235
N2759 X140.392 Y21.698
N2760 X141.148 Y21.187
N2761 X141.921 Y20.703
N2762 X142.71 Y20.247
N2763 X143.516 Y19.82
N2764 X144.336 Y19.423
N2765 X145.171 Y19.055
N2766 X146.018 Y18.718
N2767 X146.877 Y18.411
N2768 X147.746 Y18.135
N2769 X148.624 Y17.89
N2770 X149.511 Y17.677
N2771 X150.404 Y17.496
N2772 X151.304 Y17.346
N2773 X152.208 Y17.229
N2774 X153.116 Y17.145
N2775 X154.026 Y17.093
N2776 X154.938 Y17.075
N2777 X155.85 Y17.089
N2778 X156.76 Y17.135
N2779 X157.669 Y17.214
N2780 X158.574 Y17.325
N2781 X159.474 Y17.469
N2782 X160.369 Y17.644
N2783 X161.257 Y17.85
N2784 X162.137 Y18.088
N2785 X163.008 Y18.357
N2786 X163.869 Y18.658
N2787 X164.719 Y18.988
N2788 X165.557 Y19.349
N2789 X166.381 Y19.738
N2790 X167.192 Y20.156
N2791 X167.987 Y20.602
N2792 X168.766 Y21.075
N2793 X169.529 Y21.575
N2794 X170.274 Y22.101
N2795 X171 Y22.652
N2796 X171.706 Y23.229
N2797 X172.392 Y23.83
N2798 X173.056 Y24.454
N2799 X173.699 Y25.101
N2800 X174.319 Y25.77
N2801 X174.916 Y26.459
N2802 X175.489 Y27.168
N2803 X176.037 Y27.897
N2804 X176.561 Y28.644
N2805 X177.058 Y29.408
N2806 X177.529 Y30.189
N2807 X177.972 Y30.985
N2808 X178.388 Y31.797
N2809 X178.775 Y32.622
N2810 X179.134 Y33.46
N2811 X179.464 Y34.31
N2812 X179.765 Y35.171
N2813 X180.036 Y36.042
N2814 X180.278 Y36.921
N2815 X180.489 Y37.808
N2816 X180.669 Y38.702
N2817 X180.819 Y39.601
N2818 X180.938 Y40.505
N2819 X181.024 Y41.413
N2820 X181.08 Y42.323
N2821 X181.104 Y43.235
N2822 X181.096 Y44.147
N2823 X181.058 Y45.058
N2824 X180.988 Y45.967
N2825 X180.887 Y46.873
N2826 X180.755 Y47.775
N2827 X180.592 Y48.672
N2828 X180.398 Y49.563
N2829 X180.173 Y50.447
N2830 X179.918 Y51.322
N2831 X179.632 Y52.188
N2832 X179.316 Y53.043
N2833 X178.971 Y53.887
N2834 X178.597 Y54.719
N2835 X178.195 Y55.537
N2836 X177.765 Y56.341
N2837 X177.307 Y57.13
N2838 X176.823 Y57.903
N2839 X176.312 Y58.658
N2840 X175.775 Y59.395
N2841 X175.263 Y60.048
N2842 X175.254 Y60.059
N2843 X175.216 Y60.105
N2844 X175.097 Y60.242
N2845 X174.656 Y60.727
N2846 X174.459 Y60.934
N2847 X173.85 Y61.555
N2848 X173.639 Y61.762
N2849 X173.212 Y62.177
N2850 X173.025 Y62.343
N2851 X171.782 Y63.42
N2852 X171.508 Y63.626
N2853 X171.368 Y63.731
N2854 X170.38 Y64.455
N2855 X170.332 Y64.489
N2856 X169.71 Y64.912
N2857 X169.503 Y65.044
N2858 X168.26 Y65.807
N2859 X168.082 Y65.905
N2860 X167.639 Y66.138
N2861 X167.432 Y66.245
N2862 X166.81 Y66.56
N2863 X166.189 Y66.873
N2864 X166.04 Y66.94
N2865 X164.738 Y67.472
N2866 X164.117 Y67.716
N2867 X163.979 Y67.769
N2868 X162.667 Y68.184
N2869 X162.46 Y68.247
N2870 X161.976 Y68.39
N2871 X161.838 Y68.428
N2872 X160.595 Y68.712
N2873 X160.388 Y68.758
N2874 X159.766 Y68.89
N2875 X159.145 Y68.98
N2876 X158.316 Y69.098
N2877 X157.695 Y69.181
N2878 X157.488 Y69.198
N2879 X156.245 Y69.274
N2880 X155.623 Y69.31
N2881 X155.416 Y69.314
N2882 X153.552 Y69.276
N2883 X153.344 Y69.267
N2884 X152.723 Y69.207
N2885 X151.48 Y69.08
N2886 X151.273 Y69.058
N2887 X150.651 Y68.95
N2888 X150.237 Y68.874
N2889 X149.201 Y68.681
N2890 X148.994 Y68.634
N2891 X148.58 Y68.526
N2892 X148.373 Y68.471
N2893 X147.13 Y68.133
N2894 X146.922 Y68.069
N2895 X146.647 Y67.976
N2896 X146.508 Y67.928
N2897 X145.058 Y67.403
N2898 X144.924 Y67.355
N2899 X144.644 Y67.233
N2900 X143.193 Y66.571
N2901 X142.986 Y66.473
N2902 X142.779 Y66.372
N2903 X141.536 Y65.677
N2904 X141.329 Y65.558
N2905 X140.707 Y65.183
N2906 X140.5 Y65.045
N2907 X139.313 Y64.248
N2908 X139.257 Y64.208
N2909 X138.636 Y63.728
N2910 X137.729 Y63.005
N2911 X137.186 Y62.534
N2912 X136.979 Y62.342
N2913 X136.357 Y61.757
N2914 X136.144 Y61.555
N2915 X135.736 Y61.155
N2916 X134.907 Y60.237
N2917 X134.421 Y59.691
N2918 X134.285 Y59.531
N2919 X133.25 Y58.176
N2920 X133.143 Y58.034
N2921 X132.999 Y57.827
N2922 X132.86 Y57.62
N2923 X132.214 Y56.615
N2924 X131.799 Y55.948
N2925 X131.696 Y55.756
N2926 X131.034 Y54.513
N2927 X130.82 Y54.099
N2928 X130.764 Y53.975
N2929 X130.101 Y52.442
N2930 X130.021 Y52.235
N2931 X129.866 Y51.82
N2932 X129.791 Y51.613
N2933 X129.37 Y50.371
N2934 X129.314 Y50.185
N2935 X129.136 Y49.542
N2936 X128.825 Y48.299
N2937 X128.777 Y48.092
N2938 X128.692 Y47.668
N2939 X128.658 Y47.471
N2940 X128.453 Y46.228
N2941 X128.42 Y46.021
N2942 X128.35 Y45.4
N2943 X128.331 Y45.193
N2944 X128.229 Y43.95
N2945 X128.22 Y43.743
N2946 X128.205 Y43.328
N2947 X128.2 Y43.121
N2948 Y41.879
N2949 X128.205 Y41.672
N2950 X128.22 Y41.257
N2951 X128.229 Y41.05
N2952 X128.331 Y39.807
N2953 X128.35 Y39.6
N2954 X128.42 Y38.979
N2955 X128.487 Y38.565
N2956 X128.658 Y37.529
N2957 X128.694 Y37.322
N2958 X128.777 Y36.908
N2959 X128.825 Y36.701
N2960 X129.136 Y35.458
N2961 X129.314 Y34.815
N2962 X129.37 Y34.629
N2963 X129.791 Y33.387
N2964 X129.866 Y33.18
N2965 X130.021 Y32.765
N2966 X130.101 Y32.558
N2967 X130.764 Y31.025
N2968 X130.82 Y30.901
N2969 X131.034 Y30.487
N2970 X131.696 Y29.244
N2971 X131.799 Y29.052
N2972 X132.214 Y28.385
N2973 X132.86 Y27.38
N2974 X132.999 Y27.173
N2975 X133.143 Y26.966
N2976 X133.25 Y26.824
N2977 X134.285 Y25.469
N2978 X134.421 Y25.309
N2979 X134.907 Y24.763
N2980 X135.736 Y23.845
N2981 X136.15 Y23.439
N2982 X136.363 Y23.238
N2983 X137.023 Y22.616
N2984 X137.186 Y22.466
N2985 X137.729 Y21.995
N2986 X138.636 Y21.272
N2987 X139.257 Y20.792
N2988 X139.313 Y20.752
N2989 X140.546 Y19.924
N2990 X140.707 Y19.817
N2991 X141.329 Y19.442
N2992 X141.574 Y19.302
N2993 X142.779 Y18.628
N2994 X142.986 Y18.527
N2995 X143.193 Y18.429
N2996 X144.644 Y17.767
N2997 X144.924 Y17.645
N2998 X145.887 Y17.297
N2999 X146.508 Y17.072
N3000 X146.647 Y17.024
N3001 X146.922 Y16.931
N3002 X147.13 Y16.867
N3003 X148.373 Y16.529
N3004 X148.854 Y16.403
N3005 X148.994 Y16.366
N3006 X149.201 Y16.319
N3007 X150.444 Y16.088
N3008 X150.651 Y16.05
N3009 X151.273 Y15.942
N3010 X151.687 Y15.899
N3011 X152.723 Y15.793
N3012 X153.344 Y15.733
N3013 X153.552 Y15.724
N3014 X155.416 Y15.686
N3015 X155.623 Y15.69
N3016 X156.452 Y15.739
N3017 X157.488 Y15.802
N3018 X157.695 Y15.819
N3019 X158.316 Y15.902
N3020 X159.559 Y16.08
N3021 X159.766 Y16.11
N3022 X160.388 Y16.242
N3023 X160.595 Y16.288
N3024 X161.838 Y16.572
N3025 X161.976 Y16.61
N3026 X162.46 Y16.753
N3027 X162.668 Y16.817
N3028 X163.979 Y17.231
N3029 X164.117 Y17.284
N3030 X164.738 Y17.528
N3031 X166.04 Y18.06
N3032 X166.189 Y18.127
N3033 X167.017 Y18.545
N3034 X167.432 Y18.755
N3035 X167.688 Y18.888
N3036 X168.082 Y19.095
N3037 X168.26 Y19.193
N3038 X169.503 Y19.956
N3039 X169.71 Y20.088
N3040 X170.332 Y20.511
N3041 X170.38 Y20.545
N3042 X171.368 Y21.269
N3043 X171.575 Y21.423
N3044 X171.783 Y21.581
N3045 X173.025 Y22.657
N3046 X173.212 Y22.823
N3047 X173.646 Y23.245
N3048 X173.854 Y23.449
N3049 X174.475 Y24.083
N3050 X174.656 Y24.273
N3051 X175.097 Y24.758
N3052 X175.216 Y24.895
N3053 X175.925 Y25.748
N3054 X176.246 Y26.137
N3055 X176.34 Y26.254
N3056 X177.375 Y27.729
N3057 X177.42 Y27.794
N3058 X177.681 Y28.209
N3059 X177.79 Y28.383
N3060 X178.538 Y29.658
N3061 X178.618 Y29.8
N3062 X178.825 Y30.207
N3063 X179.459 Y31.523
N3064 X179.558 Y31.73
N3065 X179.654 Y31.945
N3066 X180.209 Y33.387
N3067 X180.286 Y33.594
N3068 X180.437 Y34.008
N3069 X180.56 Y34.422
N3070 X180.925 Y35.665
N3071 X180.981 Y35.872
N3072 X181.036 Y36.079
N3073 X181.082 Y36.286
N3074 X181.339 Y37.529
N3075 X181.459 Y38.15
N3076 X181.492 Y38.358
N3077 X181.645 Y39.6
N3078 X181.726 Y40.292
N3079 X181.738 Y40.429
N3080 X181.822 Y42.5
N3081 X181.738 Y44.571
N3082 X181.726 Y44.708
N3083 X181.645 Y45.4
N3084 X181.492 Y46.642
N3085 X181.459 Y46.85
N3086 X181.339 Y47.471
N3087 X181.082 Y48.714
N3088 X181.036 Y48.921
N3089 X180.981 Y49.128
N3090 X180.925 Y49.335
N3091 X180.483 Y50.839
N3092 X180.437 Y50.992
N3093 X180.276 Y51.435
N3094 X180.209 Y51.613
N3095 X179.651 Y53.063
N3096 X179.558 Y53.27
N3097 X179.36 Y53.685
N3098 X178.825 Y54.793
N3099 X178.618 Y55.2
N3100 X178.538 Y55.342
N3101 X177.79 Y56.617
N3102 X177.551 Y56.999
N3103 X177.42 Y57.206
N3104 X177.276 Y57.413
N3105 X176.34 Y58.746
N3106 X176.246 Y58.863
N3107 X175.904 Y59.277
N3108 X175.254 Y60.059
N3109 X175.21 Y60.093 Z-2.994 F1397
N3110 X175.169 Y60.126 Z-2.975
N3111 X175.132 Y60.155 Z-2.945
N3112 X175.101 Y60.179 Z-2.906
N3113 X175.078 Y60.197 Z-2.859
N3114 X175.062 Y60.206 Z-2.806
N3115 X175.056 Y60.208 Z-2.751
N3116 G0 Z5
N3117 X187.569 Y73.19
N3118 Z-0.53
N3119 G1 Z-1.165 F1397
N3120 X187.562 Y73.186 Z-1.264
N3121 X187.542 Y73.175 Z-1.361
N3122 X187.509 Y73.156 Z-1.453
N3123 X187.464 Y73.13 Z-1.538
N3124 X187.408 Y73.098 Z-1.614
N3125 X187.342 Y73.061 Z-1.679
N3126 X187.268 Y73.019 Z-1.731
N3127 X187.188 Y72.973 Z-1.769
N3128 X187.104 Y72.925 Z-1.792
N3129 X187.017 Y72.876 Z-1.8
N3130 G3 X184.186 Y70.832 I8.019 J-14.089
N3131 G1 X184.078 Y70.727 F2270
N3132 X184.03 Y70.585
N3133 X183.999 Y70.439
N3134 X183.978 Y70.263
N3135 X183.969 Y70.041
N3136 X183.981 Y69.742
N3137 X184.025 Y69.382
N3138 X184.115 Y68.944
N3139 X184.271 Y68.406
N3140 X184.574 Y67.604
N3141 X184.965 Y66.78
N3142 X185.396 Y65.977
N3143 X185.854 Y65.188
N3144 X187.249 Y62.835
N3145 X187.701 Y62.043
N3146 X188.141 Y61.244
N3147 X188.571 Y60.44
N3148 X188.981 Y59.626
N3149 X189.373 Y58.803
N3150 X189.753 Y57.974
N3151 X190.109 Y57.134
N3152 X190.445 Y56.287
N3153 X190.768 Y55.434
N3154 X191.064 Y54.572
N3155 X191.341 Y53.703
N3156 X191.601 Y52.829
N3157 X191.836 Y51.948
N3158 X192.05 Y51.062
N3159 X192.247 Y50.171
N3160 X192.418 Y49.276
N3161 X192.569 Y48.377
N3162 X192.703 Y47.475
N3163 X192.809 Y46.569
N3164 X192.894 Y45.661
N3165 X192.964 Y44.752
N3166 X193.004 Y43.841
N3167 X193.024 Y42.93
N3168 X193.027 Y42.018
N3169 X193.002 Y41.106
N3170 X192.957 Y40.196
N3171 X192.892 Y39.286
N3172 X192.803 Y38.379
N3173 X192.692 Y37.474
N3174 X192.564 Y36.571
N3175 X192.409 Y35.672
N3176 X192.233 Y34.778
N3177 X192.041 Y33.886
N3178 X191.822 Y33.001
N3179 X191.582 Y32.121
N3180 X191.327 Y31.246
N3181 X191.044 Y30.379
N3182 X190.742 Y29.519
N3183 X190.424 Y28.664
N3184 X190.08 Y27.82
N3185 X189.717 Y26.983
N3186 X189.338 Y26.154
N3187 X188.934 Y25.337
N3188 X188.512 Y24.529
N3189 X188.072 Y23.73
N3190 X187.611 Y22.943
N3191 X187.132 Y22.167
N3192 X186.639 Y21.4
N3193 X186.122 Y20.649
N3194 X185.588 Y19.91
N3195 X185.04 Y19.181
N3196 X184.47 Y18.469
N3197 X183.885 Y17.77
N3198 X183.285 Y17.083
N3199 X182.666 Y16.414
N3200 X182.033 Y15.758
N3201 X181.386 Y15.116
N3202 X180.72 Y14.493
N3203 X180.041 Y13.884
N3204 X179.35 Y13.289
N3205 X178.641 Y12.716
N3206 X177.92 Y12.158
N3207 X177.187 Y11.616
N3208 X176.439 Y11.094
N3209 X175.68 Y10.589
N3210 X174.91 Y10.101
N3211 X174.126 Y9.634
N3212 X173.333 Y9.185
N3213 X172.53 Y8.753
N3214 X171.714 Y8.345
N3215 X170.891 Y7.953
N3216 X170.059 Y7.58
N3217 X169.216 Y7.232
N3218 X168.367 Y6.9
N3219 X167.51 Y6.588
N3220 X166.645 Y6.301
N3221 X165.773 Y6.032
N3222 X164.896 Y5.782
N3223 X164.013 Y5.558
N3224 X163.124 Y5.352
N3225 X162.232 Y5.166
N3226 X161.334 Y5.006
N3227 X160.433 Y4.864
N3228 X159.53 Y4.743
N3229 X158.623 Y4.647
N3230 X157.714 Y4.57
N3231 X156.804 Y4.511
N3232 X155.894 Y4.468
N3233 X154.982 Y4.438
N3234 X154.071 Y4.417
N3235 X153.159 Y4.402
N3236 X152.247 Y4.391
N3237 X151.336 Y4.383
N3238 X150.424 Y4.378
N3239 X149.512 Y4.374
N3240 X147.688 Y4.37
N3241 X144.953 Y4.367
N3242 X144.041 Y4.366
N3243 X133.099 Y4.365
N3244 X93.891
N3245 X47.389
N3246 X46.477 Y4.373
N3247 X45.565 Y4.387
N3248 X44.654 Y4.409
N3249 X43.743 Y4.448
N3250 X42.833 Y4.504
N3251 X41.924 Y4.573
N3252 X41.016 Y4.666
N3253 X40.112 Y4.779
N3254 X39.209 Y4.906
N3255 X38.31 Y5.06
N3256 X37.415 Y5.234
N3257 X36.523 Y5.424
N3258 X35.637 Y5.64
N3259 X34.757 Y5.878
N3260 X33.881 Y6.13
N3261 X33.013 Y6.41
N3262 X32.152 Y6.709
N3263 X31.296 Y7.025
N3264 X30.451 Y7.365
N3265 X29.613 Y7.726
N3266 X28.782 Y8.101
N3267 X27.963 Y8.502
N3268 X27.153 Y8.922
N3269 X26.353 Y9.358
N3270 X25.564 Y9.816
N3271 X24.787 Y10.292
N3272 X24.019 Y10.783
N3273 X23.265 Y11.297
N3274 X22.524 Y11.828
N3275 X21.793 Y12.373
N3276 X21.079 Y12.94
N3277 X20.378 Y13.523
N3278 X19.689 Y14.12
N3279 X19.017 Y14.736
N3280 X18.359 Y15.368
N3281 X17.713 Y16.012
N3282 X17.088 Y16.675
N3283 X16.477 Y17.352
N3284 X15.88 Y18.042
N3285 X15.304 Y18.748
N3286 X14.744 Y19.467
N3287 X14.198 Y20.198
N3288 X13.674 Y20.944
N3289 X13.167 Y21.702
N3290 X12.674 Y22.469
N3291 X12.205 Y23.251
N3292 X11.754 Y24.043
N3293 X11.318 Y24.844
N3294 X10.907 Y25.658
N3295 X10.513 Y26.48
N3296 X10.137 Y27.311
N3297 X9.785 Y28.152
N3298 X9.451 Y29.001
N3299 X9.135 Y29.856
N3300 X8.845 Y30.72
N3301 X8.573 Y31.591
N3302 X8.32 Y32.467
N3303 X8.092 Y33.35
N3304 X7.883 Y34.237
N3305 X7.693 Y35.129
N3306 X7.529 Y36.026
N3307 X7.385 Y36.926
N3308 X7.259 Y37.829
N3309 X7.161 Y38.736
N3310 X7.081 Y39.644
N3311 X7.021 Y40.554
N3312 X6.988 Y41.465
N3313 X6.974 Y42.377
N3314 X6.98 Y43.289
N3315 X7.012 Y44.2
N3316 X7.063 Y45.11
N3317 X7.135 Y46.019
N3318 X7.233 Y46.926
N3319 X7.349 Y47.83
N3320 X7.486 Y48.732
N3321 X7.648 Y49.629
N3322 X7.829 Y50.523
N3323 X8.031 Y51.412
N3324 X8.257 Y52.295
N3325 X8.502 Y53.173
N3326 X8.767 Y54.046
N3327 X9.057 Y54.911
N3328 X9.364 Y55.769
N3329 X9.691 Y56.62
N3330 X10.042 Y57.462
N3331 X10.409 Y58.296
N3332 X10.797 Y59.122
N3333 X11.207 Y59.936
N3334 X11.634 Y60.742
N3335 X12.08 Y61.537
N3336 X12.548 Y62.319
N3337 X13.032 Y63.092
N3338 X13.534 Y63.853
N3339 X14.057 Y64.6
N3340 X14.594 Y65.337
N3341 X15.15 Y66.06
N3342 X15.725 Y66.767
N3343 X16.314 Y67.464
N3344 X16.921 Y68.144
N3345 X17.545 Y68.809
N3346 X18.182 Y69.461
N3347 X18.836 Y70.096
N3348 X19.507 Y70.714
N3349 X20.19 Y71.318
N3350 X20.888 Y71.905
N3351 X21.601 Y72.473
N3352 X22.325 Y73.027
N3353 X23.063 Y73.562
N3354 X23.816 Y74.078
N3355 X24.578 Y74.578
N3356 X25.353 Y75.059
N3357 X26.14 Y75.519
N3358 X26.936 Y75.963
N3359 X27.744 Y76.386
N3360 X28.562 Y76.788
N3361 X29.388 Y77.175
N3362 X30.224 Y77.539
N3363 X31.069 Y77.882
N3364 X31.921 Y78.207
N3365 X32.781 Y78.51
N3366 X33.648 Y78.791
N3367 X34.521 Y79.056
N3368 X35.4 Y79.296
N3369 X36.286 Y79.513
N3370 X37.175 Y79.715
N3371 X38.07 Y79.891
N3372 X38.969 Y80.044
N3373 X39.87 Y80.181
N3374 X40.775 Y80.292
N3375 X41.683 Y80.38
N3376 X42.592 Y80.452
N3377 X43.502 Y80.505
N3378 X44.413 Y80.543
N3379 X45.324 Y80.57
N3380 X46.236 Y80.589
N3381 X47.148 Y80.602
N3382 X48.059 Y80.612
N3383 X48.971 Y80.619
N3384 X49.883 Y80.623
N3385 X51.707 Y80.629
N3386 X54.442 Y80.633
N3387 X59.913 Y80.635
N3388 X77.237
N3389 X127.387
N3390 X152.006
N3391 X152.918 Y80.633
N3392 X153.83 Y80.623
N3393 X154.741 Y80.606
N3394 X155.653 Y80.58
N3395 X156.563 Y80.535
N3396 X157.473 Y80.474
N3397 X158.382 Y80.399
N3398 X159.288 Y80.299
N3399 X160.192 Y80.181
N3400 X161.094 Y80.045
N3401 X161.991 Y79.884
N3402 X162.885 Y79.704
N3403 X163.775 Y79.505
N3404 X164.659 Y79.281
N3405 X165.538 Y79.038
N3406 X166.412 Y78.777
N3407 X167.277 Y78.49
N3408 X168.137 Y78.186
N3409 X168.989 Y77.862
N3410 X169.832 Y77.514
N3411 X170.667 Y77.149
N3412 X171.494 Y76.765
N3413 X172.31 Y76.357
N3414 X173.117 Y75.933
N3415 X173.915 Y75.491
N3416 X174.699 Y75.026
N3417 X175.473 Y74.544
N3418 X176.236 Y74.045
N3419 X176.985 Y73.525
N3420 X177.723 Y72.99
N3421 X178.449 Y72.438
N3422 X179.159 Y71.865
N3423 X179.789 Y71.207
N3424 X180.301 Y70.452
N3425 X180.743 Y69.654
N3426 X181.15 Y68.838
N3427 X181.547 Y68.018
N3428 X181.949 Y67.199
N3429 X182.362 Y66.386
N3430 X182.789 Y65.581
N3431 X183.227 Y64.781
N3432 X183.674 Y63.986
N3433 X184.124 Y63.193
N3434 X184.517 Y62.501
N3435 X184.552 Y62.446
N3436 X185.274 Y61.348
N3437 X185.455 Y61.064
N3438 X185.537 Y60.934
N3439 X185.662 Y60.724
N3440 X186.698 Y58.847
N3441 X186.796 Y58.655
N3442 X187 Y58.241
N3443 X187.1 Y58.034
N3444 X187.947 Y56.17
N3445 X188.035 Y55.963
N3446 X188.265 Y55.342
N3447 X188.769 Y53.954
N3448 X188.976 Y53.373
N3449 X189.007 Y53.27
N3450 X189.296 Y52.235
N3451 X189.527 Y51.406
N3452 X189.598 Y51.144
N3453 X189.694 Y50.785
N3454 X189.745 Y50.578
N3455 X190.111 Y48.714
N3456 X190.151 Y48.507
N3457 X190.228 Y48.092
N3458 X190.263 Y47.885
N3459 X190.505 Y45.814
N3460 X190.551 Y45.4
N3461 X190.572 Y45.193
N3462 X190.613 Y44.157
N3463 X190.653 Y43.121
N3464 X190.675 Y42.5
N3465 X190.653 Y41.879
N3466 X190.589 Y40.222
N3467 X190.572 Y39.807
N3468 X190.551 Y39.6
N3469 X190.505 Y39.186
N3470 X190.263 Y37.115
N3471 X190.228 Y36.908
N3472 X190.151 Y36.493
N3473 X190.071 Y36.079
N3474 X189.745 Y34.422
N3475 X189.694 Y34.215
N3476 X189.583 Y33.801
N3477 X189.527 Y33.594
N3478 X189.123 Y32.144
N3479 X189.007 Y31.73
N3480 X188.976 Y31.627
N3481 X188.717 Y30.901
N3482 X188.265 Y29.658
N3483 X188.035 Y29.037
N3484 X187.941 Y28.817
N3485 X187.1 Y26.966
N3486 X187 Y26.759
N3487 X186.796 Y26.345
N3488 X186.689 Y26.137
N3489 X185.66 Y24.273
N3490 X185.537 Y24.066
N3491 X185.406 Y23.859
N3492 X185.274 Y23.652
N3493 X184.32 Y22.202
N3494 X184.181 Y21.995
N3495 X184.005 Y21.736
N3496 X183.891 Y21.581
N3497 X182.607 Y19.924
N3498 X182.272 Y19.509
N3499 X182.14 Y19.357
N3500 X180.587 Y17.645
N3501 X180.483 Y17.538
N3502 X180.384 Y17.438
N3503 X180.276 Y17.334
N3504 X178.618 Y15.77
N3505 X178.411 Y15.588
N3506 X178.146 Y15.367
N3507 X176.547 Y14.077
N3508 X176.334 Y13.917
N3509 X175.925 Y13.625
N3510 X175.718 Y13.48
N3511 X174.475 Y12.627
N3512 X173.854 Y12.224
N3513 X173.646 Y12.1
N3514 X171.772 Y11.017
N3515 X171.575 Y10.918
N3516 X171.16 Y10.712
N3517 X170.935 Y10.603
N3518 X169.503 Y9.919
N3519 X169.089 Y9.727
N3520 X168.882 Y9.644
N3521 X167.017 Y8.924
N3522 X166.396 Y8.701
N3523 X166.189 Y8.636
N3524 X164.324 Y8.078
N3525 X163.703 Y7.908
N3526 X161.631 Y7.459
N3527 X161.424 Y7.42
N3528 X161.009 Y7.343
N3529 X160.802 Y7.311
N3530 X158.938 Y7.056
N3531 X158.731 Y7.032
N3532 X158.316 Y6.987
N3533 X158.109 Y6.97
N3534 X156.245 Y6.862
N3535 X156.038 Y6.852
N3536 X155.623 Y6.837
N3537 X155.416 Y6.835
N3538 X153.966 Y6.863
N3539 X153.055 Y6.835
N3540 X152.143 Y6.859
N3541 X151.231 Y6.875
N3542 X150.32 Y6.885
N3543 X149.408 Y6.892
N3544 X148.496 Y6.897
N3545 X147.584 Y6.9
N3546 X145.761 Y6.903
N3547 X142.113 Y6.905
N3548 X137.131
N3549 X137.033 Y6.902
N3550 X136.935 Y6.892
N3551 X136.839 Y6.875
N3552 X136.771 Y6.866
N3553 X136.357 Y6.837
N3554 X136.15 Y6.825
N3555 X45.205
N3556 X44.584 Y6.84
N3557 X44.377 Y6.847
N3558 X42.512 Y6.918
N3559 X42.305 Y6.935
N3560 X41.891 Y6.973
N3561 X41.684 Y6.995
N3562 X39.819 Y7.21
N3563 X39.612 Y7.238
N3564 X39.198 Y7.312
N3565 X38.991 Y7.35
N3566 X37.126 Y7.712
N3567 X36.919 Y7.759
N3568 X36.505 Y7.864
N3569 X36.297 Y7.919
N3570 X34.433 Y8.431
N3571 X34.226 Y8.495
N3572 X34.019 Y8.564
N3573 X33.811 Y8.638
N3574 X32.154 Y9.233
N3575 X31.74 Y9.385
N3576 X31.533 Y9.469
N3577 X30.497 Y9.932
N3578 X29.668 Y10.304
N3579 X29.461 Y10.4
N3580 X29.033 Y10.603
N3581 X28.84 Y10.706
N3582 X26.975 Y11.72
N3583 X26.759 Y11.846
N3584 X26.561 Y11.967
N3585 X24.829 Y13.089
N3586 X24.489 Y13.313
N3587 X24.233 Y13.503
N3588 X22.832 Y14.57
N3589 X22.605 Y14.746
N3590 X22.21 Y15.062
N3591 X22.093 Y15.16
N3592 X20.346 Y16.718
N3593 X20.139 Y16.921
N3594 X19.839 Y17.231
N3595 X18.689 Y18.427
N3596 X18.447 Y18.681
N3597 X18.264 Y18.888
N3598 X18.067 Y19.124
N3599 X16.724 Y20.752
N3600 X16.617 Y20.896
N3601 X16.203 Y21.473
N3602 X15.253 Y22.823
N3603 X14.855 Y23.445
N3604 X14.73 Y23.652
N3605 X13.991 Y24.895
N3606 X13.63 Y25.516
N3607 X13.51 Y25.755
N3608 X12.602 Y27.587
N3609 X12.324 Y28.209
N3610 X12.267 Y28.347
N3611 X11.487 Y30.28
N3612 X11.416 Y30.487
N3613 X11.345 Y30.694
N3614 X11.277 Y30.901
N3615 X10.622 Y32.972
N3616 X10.609 Y33.018
N3617 X10.47 Y33.594
N3618 X10.131 Y35.044
N3619 X9.988 Y35.666
N3620 X9.95 Y35.872
N3621 X9.662 Y37.736
N3622 X9.569 Y38.358
N3623 X9.548 Y38.565
N3624 X9.482 Y39.393
N3625 X9.403 Y40.429
N3626 X9.358 Y41.05
N3627 X9.351 Y41.257
N3628 X9.349 Y42.086
N3629 Y43.328
N3630 X9.351 Y43.743
N3631 X9.358 Y43.95
N3632 X9.403 Y44.571
N3633 X9.515 Y46.021
N3634 X9.548 Y46.435
N3635 X9.569 Y46.642
N3636 X9.662 Y47.264
N3637 X9.95 Y49.128
N3638 X9.988 Y49.335
N3639 X10.131 Y49.956
N3640 X10.47 Y51.406
N3641 X10.609 Y51.982
N3642 X10.622 Y52.028
N3643 X11.277 Y54.099
N3644 X11.345 Y54.306
N3645 X11.438 Y54.578
N3646 X11.487 Y54.72
N3647 X12.267 Y56.653
N3648 X12.324 Y56.791
N3649 X12.602 Y57.413
N3650 X13.525 Y59.277
N3651 X13.63 Y59.484
N3652 X13.991 Y60.105
N3653 X14.752 Y61.386
N3654 X14.855 Y61.555
N3655 X15.253 Y62.177
N3656 X16.203 Y63.527
N3657 X16.617 Y64.104
N3658 X16.724 Y64.248
N3659 X18.091 Y65.905
N3660 X18.274 Y66.124
N3661 X18.447 Y66.319
N3662 X18.843 Y66.733
N3663 X20.039 Y67.976
N3664 X20.139 Y68.079
N3665 X20.346 Y68.282
N3666 X22.093 Y69.84
N3667 X22.21 Y69.938
N3668 X22.625 Y70.27
N3669 X22.874 Y70.461
N3670 X24.233 Y71.497
N3671 X24.489 Y71.687
N3672 X24.903 Y71.96
N3673 X26.561 Y73.033
N3674 X26.768 Y73.159
N3675 X26.975 Y73.28
N3676 X28.84 Y74.294
N3677 X29.033 Y74.397
N3678 X29.469 Y74.604
N3679 X29.668 Y74.696
N3680 X31.118 Y75.346
N3681 X31.533 Y75.531
N3682 X31.74 Y75.615
N3683 X32.154 Y75.767
N3684 X33.811 Y76.362
N3685 X34.019 Y76.436
N3686 X34.226 Y76.505
N3687 X34.433 Y76.569
N3688 X36.327 Y77.089
N3689 X36.505 Y77.136
N3690 X36.919 Y77.241
N3691 X37.126 Y77.288
N3692 X38.991 Y77.65
N3693 X39.198 Y77.688
N3694 X39.612 Y77.762
N3695 X39.819 Y77.79
N3696 X41.684 Y78.005
N3697 X41.891 Y78.027
N3698 X42.305 Y78.065
N3699 X42.512 Y78.082
N3700 X44.377 Y78.153
N3701 X44.584 Y78.16
N3702 X45.205 Y78.175
N3703 X136.15
N3704 X136.357 Y78.163
N3705 X137.269 Y78.146
N3706 X138.18 Y78.131
N3707 X139.092 Y78.12
N3708 X140.004 Y78.113
N3709 X140.916 Y78.108
N3710 X141.828 Y78.104
N3711 X143.651 Y78.099
N3712 X146.387 Y78.097
N3713 X150.034 Y78.095
N3714 X150.946 Y78.094
N3715 X151.857 Y78.089
N3716 X152.488 Y78.083
N3717 X152.541
N3718 X152.593 Y78.086
N3719 X152.646 Y78.09
N3720 X152.723 Y78.097
N3721 X152.93 Y78.109
N3722 X153.389 Y78.125
N3723 X153.552 Y78.129
N3724 X155.416 Y78.165
N3725 X155.623 Y78.163
N3726 X156.038 Y78.148
N3727 X156.245 Y78.138
N3728 X158.109 Y78.03
N3729 X158.316 Y78.013
N3730 X158.731 Y77.968
N3731 X158.938 Y77.944
N3732 X160.802 Y77.689
N3733 X161.009 Y77.657
N3734 X161.424 Y77.58
N3735 X161.631 Y77.541
N3736 X163.703 Y77.092
N3737 X164.324 Y76.922
N3738 X166.189 Y76.364
N3739 X166.396 Y76.299
N3740 X167.017 Y76.076
N3741 X168.882 Y75.356
N3742 X169.089 Y75.273
N3743 X169.503 Y75.081
N3744 X170.953 Y74.388
N3745 X171.16 Y74.288
N3746 X171.575 Y74.082
N3747 X171.772 Y73.983
N3748 X173.646 Y72.9
N3749 X173.854 Y72.776
N3750 X174.475 Y72.373
N3751 X175.752 Y71.497
N3752 X175.925 Y71.375
N3753 X176.34 Y71.079
N3754 X176.547 Y70.923
N3755 X178.146 Y69.633
N3756 X178.411 Y69.412
N3757 X178.618 Y69.23
N3758 X180.276 Y67.666
N3759 X180.384 Y67.562
N3760 X180.483 Y67.462
N3761 X180.587 Y67.355
N3762 X182.14 Y65.643
N3763 X182.272 Y65.491
N3764 X182.607 Y65.076
N3765 X183.891 Y63.419
N3766 X184.005 Y63.264
N3767 X184.212 Y62.959
N3768 X184.32 Y62.798
N3769 X184.552 Y62.446
N3770 G3 X184.732 Y62.276 I0.518 J0.367 F1397
N3771 G1 X184.816 Y62.223 Z-1.792
N3772 X184.898 Y62.171 Z-1.769
N3773 X184.976 Y62.122 Z-1.731
N3774 X185.048 Y62.077 Z-1.679
N3775 X185.112 Y62.037 Z-1.614
N3776 X185.167 Y62.002 Z-1.538
N3777 X185.211 Y61.974 Z-1.453
N3778 X185.243 Y61.954 Z-1.361
N3779 X185.263 Y61.942 Z-1.264
N3780 X185.269 Y61.938 Z-1.165
N3781 G0 Z5
N3782 X136.111 Y78.97
N3783 Z-0.53
N3784 G1 Z-1.165 F1397
N3785 X136.112 Y78.962 Z-1.264
N3786 X136.115 Y78.939 Z-1.361
N3787 X136.119 Y78.901 Z-1.453
N3788 X136.125 Y78.849 Z-1.538
N3789 X136.132 Y78.785 Z-1.614
N3790 X136.14 Y78.71 Z-1.679
N3791 X136.149 Y78.625 Z-1.731
N3792 X136.159 Y78.534 Z-1.769
N3793 X136.17 Y78.437 Z-1.792
N3794 X136.18 Y78.339 Z-1.8
N3795 G3 X136.357 Y78.163 I0.197 J0.022
N3796 G1 X136.771 Y78.134 F2270
N3797 X136.839 Y78.125
N3798 X136.979 Y78.096
N3799 X137.186 Y78.042
N3800 X137.393 Y77.975
N3801 X137.6 Y77.886
N3802 X137.807 Y77.787
N3803 X137.943 Y77.711
N3804 X138.222 Y77.52
N3805 X138.241 Y77.504
N3806 X138.429 Y77.34
N3807 X138.632 Y77.181
N3808 X138.917 Y76.992
N3809 X139.284 Y76.789
N3810 X139.757 Y76.575
N3811 X140.385 Y76.35
N3812 X141.25 Y76.116
N3813 X142.147 Y75.949
N3814 X142.161 Y75.948
N3815 X142.386 Y75.936
N3816 X142.611 Y75.959
N3817 X142.829 Y76.015
N3818 G3 X143.039 Y76.147 I-0.226 J0.593 F1397
N3819 X142.796 Y77.214 I-0.436 J0.461 F2270
N3820 G1 X139.055 Y78.409
N3821 G3 X138.284 Y77.541 I-0.193 J-0.605
N3822 X138.429 Y77.34 I0.578 J0.263 F1397
N3823 G1 X138.479 Y77.296 F2270
N3824 X138.636 Y77.131
N3825 X138.673 Y77.089
N3826 X138.843 Y76.881
N3827 X138.988 Y76.675
N3828 X139.05 Y76.568
N3829 X139.103 Y76.468
N3830 X139.196 Y76.261
N3831 X139.314 Y76.032
N3832 X139.424 Y75.856
N3833 X139.648 Y75.613
N3834 X139.922 Y75.426
N3835 X140.229 Y75.305
N3836 X140.556 Y75.255
N3837 X140.887 Y75.278
N3838 X141.203 Y75.374
N3839 G3 X141.402 Y75.522 I-0.272 J0.574 F1397
N3840 X141.207 Y76.52 I-0.471 J0.426 F2270
N3841 G1 X140.06 Y77.074
N3842 G3 X139.149 Y76.504 I-0.276 J-0.572
N3843 X139.196 Y76.261 I0.635 J-0.002 F1397
N3844 G1 X139.257 Y76.126 F2270
N3845 X139.284 Y76.054
N3846 X139.35 Y75.847
N3847 X139.398 Y75.639
N3848 X139.441 Y75.432
N3849 X139.465 Y75.361
N3850 X139.496 Y75.293
N3851 X139.539 Y75.225
N3852 X139.597 Y75.154
N3853 X139.672 Y75.084
N3854 X139.721 Y75.048
N3855 X139.77 Y75.018
N3856 X139.825 Y74.992
N3857 X139.879 Y74.972
N3858 X139.982 Y74.949
N3859 X140.086 Y74.943
N3860 X140.19 Y74.954
N3861 X140.293 Y74.983
N3862 X140.5 Y75.071
N3863 X141.95 Y75.697
N3864 X142.158 Y75.778
N3865 X142.572 Y75.927
N3866 X143.193 Y76.14
N3867 X144.644 Y76.636
N3868 X144.851 Y76.693
N3869 X145.265 Y76.806
N3870 X145.679 Y76.913
N3871 X147.337 Y77.34
N3872 X147.544 Y77.381
N3873 X147.958 Y77.458
N3874 X148.373 Y77.532
N3875 X150.03 Y77.824
N3876 X150.237 Y77.85
N3877 X150.651 Y77.895
N3878 X150.878 Y77.918
N3879 X152.646 Y78.09
N3880 G3 X152.88 Y78.17 I-0.083 J0.629 F1397
N3881 G1 X152.966 Y78.219 Z-1.792
N3882 X153.05 Y78.268 Z-1.769
N3883 X153.13 Y78.314 Z-1.731
N3884 X153.203 Y78.357 Z-1.679
N3885 X153.269 Y78.395 Z-1.614
N3886 X153.325 Y78.427 Z-1.538
N3887 X153.37 Y78.453 Z-1.453
N3888 X153.403 Y78.472 Z-1.361
N3889 X153.423 Y78.484 Z-1.264
N3890 X153.43 Y78.488 Z-1.165
N3891 G0 Z5
N3892 X154.251 Y6.069
N3893 Z-0.53
N3894 G1 Z-1.165 F1397
N3895 X154.25 Y6.076 Z-1.264
N3896 X154.246 Y6.099 Z-1.361
N3897 X154.24 Y6.137 Z-1.453
N3898 X154.232 Y6.189 Z-1.538
N3899 X154.222 Y6.252 Z-1.614
N3900 X154.21 Y6.327 Z-1.679
N3901 X154.196 Y6.411 Z-1.731
N3902 X154.182 Y6.502 Z-1.769
N3903 X154.167 Y6.598 Z-1.792
N3904 X154.151 Y6.696 Z-1.8
N3905 G3 X153.966 Y6.863 I-0.196 J-0.031
N3906 G1 X153.552 Y6.871 F2270
N3907 X153.344 Y6.877
N3908 X152.93 Y6.891
N3909 X152.723 Y6.903
N3910 X150.858 Y7.084
N3911 X150.651 Y7.105
N3912 X150.237 Y7.15
N3913 X150.03 Y7.176
N3914 X148.165 Y7.505
N3915 X147.958 Y7.542
N3916 X147.544 Y7.619
N3917 X147.337 Y7.66
N3918 X145.472 Y8.14
N3919 X145.265 Y8.194
N3920 X144.783 Y8.325
N3921 X144.644 Y8.364
N3922 X144.229 Y8.506
N3923 X143.353 Y8.757
N3924 X142.465 Y8.964
N3925 X141.564 Y9.107
N3926 X140.658 Y9.207
N3927 X140.477 Y9.221
N3928 X140.19 Y9.216
N3929 X139.909 Y9.155
N3930 X139.646 Y9.041
N3931 X139.409 Y8.878
N3932 X139.208 Y8.673
N3933 X139.051 Y8.433
N3934 G3 X138.989 Y8.194 I0.572 J-0.276 F1397
N3935 X139.587 Y7.524 I0.634 J-0.036 F2270
N3936 G1 X143.967 Y7.278
N3937 G3 X144.439 Y8.374 I0.036 J0.634
N3938 X144.229 Y8.506 I-0.436 J-0.462 F1397
N3939 G1 X142.779 Y9.002 F2270
N3940 X142.572 Y9.073
N3941 X142.158 Y9.222
N3942 X141.95 Y9.303
N3943 X140.5 Y9.929
N3944 X140.357 Y9.982
N3945 X140.152 Y10.011
N3946 X139.947 Y9.984
N3947 X139.758 Y9.902
N3948 X139.597 Y9.772
N3949 X139.477 Y9.603
N3950 X139.408 Y9.409
N3951 G3 X139.402 Y9.16 I0.829 J-0.144 F1397
N3952 X139.477 Y8.903 I0.835 J0.104 F2270
N3953 X140.866 Y9.564 I0.694 J0.33
N3954 X140.705 Y9.788 I-0.694 J-0.33
N3955 X140.5 Y9.929 I-0.533 J-0.554 F1397
N3956 G1 X140.293 Y10.017 F2270
N3957 X140.19 Y10.046
N3958 X140.086 Y10.057
N3959 X139.982 Y10.051
N3960 X139.879 Y10.028
N3961 X139.825 Y10.008
N3962 X139.77 Y9.982
N3963 X139.721 Y9.952
N3964 X139.672 Y9.916
N3965 X139.597 Y9.846
N3966 X139.539 Y9.775
N3967 X139.496 Y9.707
N3968 X139.465 Y9.639
N3969 X139.441 Y9.568
N3970 X139.417 Y9.454
N3971 X139.412 Y9.398 Z-1.794 F1397
N3972 X139.408 Y9.345 Z-1.775
N3973 X139.413 Y9.298 Z-1.745
N3974 X139.417 Y9.26 Z-1.706
N3975 X139.421 Y9.23 Z-1.658
N3976 X139.423 Y9.212 Z-1.606
N3977 Y9.206 Z-1.551
N3978 G0 Z5
N3979 X151.4 Y88.936
N3980 Z-4.727
N3981 G1 Z-5.362 F1397
N3982 X151.407 Y88.934 Z-5.461
N3983 X151.43 Y88.928 Z-5.558
N3984 X151.466 Y88.917 Z-5.65
N3985 X151.516 Y88.903 Z-5.735
N3986 X151.578 Y88.885 Z-5.811
N3987 X151.651 Y88.864 Z-5.876
N3988 X151.733 Y88.84 Z-5.928
N3989 X151.821 Y88.815 Z-5.966
N3990 X151.914 Y88.788 Z-5.989
N3991 X152.01 Y88.76 Z-5.997
N3992 G3 X155.451 Y88.161 I4.488 J15.578
N3993 G1 X155.83 Y88.148 F2270
N3994 X157.488 Y88.092
N3995 X158.109 Y88.065
N3996 X158.316 Y88.05
N3997 X160.802 Y87.794
N3998 X161.009 Y87.77
N3999 X161.631 Y87.681
N4000 X163.703 Y87.323
N4001 X164.324 Y87.212
N4002 X164.531 Y87.163
N4003 X167.017 Y86.558
N4004 X167.224 Y86.5
N4005 X167.432 Y86.44
N4006 X168.319 Y86.231
N4007 X169.212 Y86.049
N4008 X170.115 Y85.922
N4009 X171.023 Y85.833
N4010 X171.932 Y85.77
N4011 X172.843 Y85.727
N4012 X173.755 Y85.696
N4013 X174.666 Y85.674
N4014 X175.578 Y85.659
N4015 X176.489 Y85.648
N4016 X177.401 Y85.64
N4017 X178.313 Y85.635
N4018 X179.225 Y85.631
N4019 X181.048 Y85.627
N4020 X183.784 Y85.624
N4021 X191.078 Y85.623
N4022 X197.005
N4023 X197.455 Y85.549
N4024 X197.865 Y85.35
N4025 X198.595 Y84.803
N4026 X199.147 Y84.077
N4027 X199.555 Y83.262
N4028 X199.853 Y82.4
N4029 X200.069 Y81.514
N4030 X200.224 Y80.616
N4031 X200.335 Y79.711
N4032 X200.414 Y78.802
N4033 X200.47 Y77.892
N4034 X200.51 Y76.981
N4035 X200.538 Y76.07
N4036 X200.558 Y75.158
N4037 X200.572 Y74.247
N4038 X200.582 Y73.335
N4039 X200.589 Y72.423
N4040 X200.594 Y71.511
N4041 X200.598 Y70.599
N4042 X200.602 Y68.776
N4043 X200.604 Y66.04
N4044 Y57.834
N4045 X200.602 Y44.685
N4046 X200.603 Y44.668
N4047 X200.655 Y43.121
N4048 X200.675 Y42.5
N4049 X200.668 Y42.293
N4050 X200.686 Y41.381
N4051 X200.661 Y40.47
N4052 X200.643 Y39.558
N4053 X200.631 Y38.646
N4054 X200.622 Y37.735
N4055 X200.615 Y36.823
N4056 X200.611 Y35.911
N4057 X200.605 Y34.087
N4058 X200.602 Y31.352
N4059 X200.599 Y24.969
N4060 X200.595 Y3.086
N4061 X200.586 Y2.858
N4062 X200.542 Y2.634
N4063 X200.387 Y2.206
N4064 X199.87 Y1.455
N4065 X199.158 Y0.884
N4066 X198.351 Y0.461
N4067 X197.493 Y0.152
N4068 X196.609 Y-0.072
N4069 X195.712 Y-0.233
