%
(BrandonLuke_Prototype_v1)
(T2  D=0.125 CR=0 - ZMIN=-0.0787 - flat end mill)
(T3  D=0.25 CR=0 - ZMIN=-0.6102 - flat end mill)
N0 G90
N1 G17
(Adaptive1)
N2 T3 M6
N3 S9930 M3
N5 G0 X-0.0253 Y-0.2865
N6 Z0.5906
N7 Z0.1969
N8 Z-0.0681
N9 G1 Z-0.0931 F55
N10 X-0.0252 Y-0.2862 Z-0.097
N11 X-0.025 Y-0.2853 Z-0.1008
N12 X-0.0246 Y-0.2838 Z-0.1045
N13 X-0.0241 Y-0.2819 Z-0.1078
N14 X-0.0234 Y-0.2794 Z-0.1108
N15 X-0.0227 Y-0.2765 Z-0.1133
N16 X-0.0219 Y-0.2733 Z-0.1154
N17 X-0.021 Y-0.2697 Z-0.1169
N18 X-0.02 Y-0.2661 Z-0.1178
N19 X-0.0191 Y-0.2623 Z-0.1181
N20 G3 X0.0005 Y-0.1262 I-0.6183 J0.1584
N21 G1 Y-0.1203 F89.37
N22 X-0.0065 Y-0.0851
N23 X-0.0116 Y-0.0495
N24 X-0.0152 Y-0.0138
N25 X-0.0177 Y0.022
N26 X-0.0195 Y0.0579
N27 X-0.0208 Y0.0937
N28 X-0.0218 Y0.1296
N29 X-0.0224 Y0.1655
N30 X-0.0229 Y0.2014
N31 X-0.0232 Y0.2373
N32 X-0.0234 Y0.2732
N33 X-0.0236 Y0.3091
N34 X-0.0238 Y0.3809
N35 X-0.024 Y0.4886
N36 X-0.0241 Y0.7399
N37 X-0.0242 Y1.8527
N38 X-0.0245 Y3.2348
N39 X-0.0195 Y3.2521
N40 X-0.0015 Y3.2831
N41 X0.0253 Y3.3069
N42 X0.0566 Y3.3246
N43 X0.09 Y3.3376
N44 X0.1247 Y3.347
N45 X0.1599 Y3.3538
N46 X0.1955 Y3.3586
N47 X0.2312 Y3.3621
N48 X0.2671 Y3.3646
N49 X0.3029 Y3.3663
N50 X0.3388 Y3.3676
N51 X0.3747 Y3.3685
N52 X0.4106 Y3.3691
N53 X0.4465 Y3.3695
N54 X0.4824 Y3.3698
N55 X0.5183 Y3.3701
N56 X0.5542 Y3.3702
N57 X0.6259 Y3.3704
N58 X0.7336 Y3.3705
N59 X1.0208 Y3.3706
N60 X2.4927 Y3.3707
N61 X4.4671 Y3.3708
N62 X6.4414 Y3.3709
N63 X7.7517 Y3.371
N64 X7.7607 Y3.3706
N65 X7.7695 Y3.3688
N66 X7.7863 Y3.3626
N67 X7.8159 Y3.3422
N68 X7.8383 Y3.3142
N69 X7.855 Y3.2824
N70 X7.8671 Y3.2486
N71 X7.8759 Y3.2138
N72 X7.8823 Y3.1785
N73 X7.8868 Y3.1429
N74 X7.89 Y3.1071
N75 X7.8923 Y3.0713
N76 X7.894 Y3.0354
N77 X7.8951 Y2.9995
N78 X7.8959 Y2.9637
N79 X7.8965 Y2.9278
N80 X7.8969 Y2.8919
N81 X7.8972 Y2.856
N82 X7.8974 Y2.8201
N83 X7.8975 Y2.7842
N84 X7.8976 Y2.7483
N85 X7.8978 Y2.6406
N86 Y2.4252
N87 X7.8976 Y0.7739
N88 X7.8974 Y0.1098
N89 X7.8922 Y0.0926
N90 X7.8738 Y0.0618
N91 X7.8467 Y0.0382
N92 X7.8154 Y0.0206
N93 X7.7819 Y0.0078
N94 X7.7472 Y-0.0015
N95 X7.712 Y-0.0083
N96 X7.6764 Y-0.0131
N97 X7.6407 Y-0.0165
N98 X7.6049 Y-0.0189
N99 X7.569 Y-0.0207
N100 X7.5331 Y-0.0219
N101 X7.4972 Y-0.0228
N102 X7.4613 Y-0.0234
N103 X7.4254 Y-0.0238
N104 X7.3895 Y-0.0241
N105 X7.3536 Y-0.0243
N106 X7.3178 Y-0.0245
N107 X7.246 Y-0.0247
N108 X7.1383 Y-0.0248
N109 X6.8511
N110 X6.6357
N111 X4.6613 Y-0.0247
N112 X2.6869 Y-0.0246
N113 X0.7125
N114 X0.2279 Y-0.0245
N115 X0.21 Y-0.0228
N116 X0.1934 Y-0.016
N117 X0.1634 Y0.0038
N118 X0.1403 Y0.0312
N119 X0.1229 Y0.0627
N120 X0.1101 Y0.0962
N121 X0.1006 Y0.1308
N122 X0.0937 Y0.166
N123 X0.0887 Y0.2016
N124 X0.0851 Y0.2373
N125 X0.0826 Y0.2731
N126 X0.0807 Y0.3089
N127 X0.0793 Y0.3448
N128 X0.0784 Y0.3807
N129 X0.0777 Y0.4166
N130 X0.0772 Y0.4525
N131 X0.0768 Y0.4884
N132 X0.0766 Y0.5243
N133 X0.0764 Y0.5602
N134 X0.0762 Y0.632
N135 X0.076 Y0.7397
N136 X0.0759 Y0.9551
N137 X0.0758 Y1.4217
N138 X0.0756 Y3.1089
N139 X0.0854 Y3.1435
N140 X0.106 Y3.1729
N141 X0.133 Y3.1966
N142 X0.1637 Y3.2151
N143 X0.1967 Y3.2292
N144 X0.231 Y3.2399
N145 X0.266 Y3.248
N146 X0.3014 Y3.2539
N147 X0.337 Y3.2584
N148 X0.3727 Y3.2617
N149 X0.4086 Y3.2641
N150 X0.4444 Y3.2658
N151 X0.4803 Y3.2671
N152 X0.5162 Y3.2681
N153 X0.5521 Y3.2688
N154 X0.588 Y3.2693
N155 X0.6239 Y3.2696
N156 X0.6598 Y3.2699
N157 X0.6957 Y3.2701
N158 X0.7674 Y3.2703
N159 X0.8751 Y3.2705
N160 X1.0905 Y3.2706
N161 X1.6644 Y3.2707
N162 X1.6667 Y3.2708
N163 X1.6737 Y3.2712
N164 X1.7471 Y3.2738
N165 X1.7553 Y3.2741
N166 X1.7797 Y3.2746
N167 X6.0943
N168 X6.1187 Y3.2741
N169 X6.1269 Y3.2738
N170 X6.1628 Y3.2743
N171 X6.1987 Y3.2733
N172 X6.2346 Y3.2726
N173 X6.2705 Y3.2721
N174 X6.3064 Y3.2718
N175 X6.3423 Y3.2715
N176 X6.3782 Y3.2713
N177 X6.45 Y3.2711
N178 X6.5576 Y3.271
N179 X6.8089 Y3.2709
N180 X7.6346 Y3.271
N181 X7.6693 Y3.2616
N182 X7.6989 Y3.2414
N183 X7.7229 Y3.2147
N184 X7.7416 Y3.1841
N185 X7.7559 Y3.1512
N186 X7.7668 Y3.1169
N187 X7.7749 Y3.082
N188 X7.781 Y3.0466
N189 X7.7855 Y3.011
N190 X7.7888 Y2.9752
N191 X7.7913 Y2.9394
N192 X7.7931 Y2.9036
N193 X7.7944 Y2.8677
N194 X7.7953 Y2.8318
N195 X7.796 Y2.7959
N196 X7.7965 Y2.76
N197 X7.7969 Y2.7241
N198 X7.7972 Y2.6882
N199 X7.7973 Y2.6523
N200 X7.7976 Y2.5805
N201 X7.7977 Y2.4728
N202 X7.7978 Y2.2934
N203 X7.7976 Y0.8933
N204 X7.7975 Y0.2472
N205 X7.7945 Y0.2295
N206 X7.7822 Y0.1957
N207 X7.7601 Y0.1674
N208 X7.7322 Y0.1449
N209 X7.7009 Y0.1273
N210 X7.6676 Y0.114
N211 X7.6331 Y0.1039
N212 X7.598 Y0.0963
N213 X7.5626 Y0.0907
N214 X7.5269 Y0.0865
N215 X7.4911 Y0.0835
N216 X7.4553 Y0.0812
N217 X7.4194 Y0.0796
N218 X7.3836 Y0.0784
N219 X7.3477 Y0.0775
N220 X7.3118 Y0.0769
N221 X7.2759 Y0.0764
N222 X7.24 Y0.076
N223 X7.2041 Y0.0758
N224 X7.1682 Y0.0756
N225 X7.0964 Y0.0754
N226 X6.9887 Y0.0752
N227 X6.7733
N228 X6.522
N229 X6.1978
N230 X6.1971
N231 X6.1269 Y0.0726
N232 X6.1187 Y0.0724
N233 X6.0943 Y0.0719
N234 X1.7797
N235 X1.7553 Y0.0724
N236 X1.7471 Y0.0726
N237 X1.7112 Y0.0721
N238 X1.6753 Y0.0731
N239 X1.6394 Y0.0738
N240 X1.6036 Y0.0743
N241 X1.5677 Y0.0746
N242 X1.5318 Y0.0748
N243 X1.4959 Y0.075
N244 X1.4241 Y0.0752
N245 X1.3164 Y0.0753
N246 X1.0651 Y0.0754
N247 X0.3471 Y0.0755
N248 X0.312 Y0.083
N249 X0.2814 Y0.1018
N250 X0.2564 Y0.1276
N251 X0.2367 Y0.1576
N252 X0.2215 Y0.1901
N253 X0.2099 Y0.224
N254 X0.2012 Y0.2589
N255 X0.1946 Y0.2942
N256 X0.1897 Y0.3297
N257 X0.1861 Y0.3654
N258 X0.1834 Y0.4012
N259 X0.1814 Y0.4371
N260 X0.1799 Y0.4729
N261 X0.1789 Y0.5088
N262 X0.1781 Y0.5447
N263 X0.1775 Y0.5806
N264 X0.1771 Y0.6165
N265 X0.1768 Y0.6524
N266 X0.1765 Y0.6883
N267 X0.1764 Y0.7242
N268 X0.1762 Y0.796
N269 X0.176 Y0.9037
N270 X0.1759 Y1.1191
N271 X0.1758 Y1.5417
N272 Y1.5437
N273 X0.1757 Y1.5458
N274 X0.1755 Y1.5479
N275 X0.1751 Y1.5509
N276 X0.1745 Y1.5591
N277 X0.174 Y1.5672
N278 X0.1711 Y1.6488
N279 X0.1703 Y1.6732
N280 X0.1714 Y1.7058
N281 X0.1717 Y1.714
N282 X0.1711 Y1.7499
N283 X0.1725 Y1.7858
N284 X0.1735 Y1.8217
N285 X0.1741 Y1.8575
N286 X0.1746 Y1.8934
N287 X0.1749 Y1.9293
N288 X0.1752 Y1.9652
N289 X0.1753 Y2.0011
N290 X0.1755 Y2.0729
N291 X0.1756 Y2.1806
N292 X0.1757 Y2.4319
N293 X0.1756 Y2.9704
N294 X0.1764 Y3.0063
N295 X0.1889 Y3.0399
N296 X0.2103 Y3.0688
N297 X0.2374 Y3.0923
N298 X0.2681 Y3.1109
N299 X0.3009 Y3.1254
N300 X0.335 Y3.1366
N301 X0.3699 Y3.1451
N302 X0.4052 Y3.1515
N303 X0.4408 Y3.1564
N304 X0.4765 Y3.16
N305 X0.5123 Y3.1628
N306 X0.5481 Y3.1648
N307 X0.584 Y3.1663
N308 X0.6199 Y3.1674
N309 X0.6558 Y3.1683
N310 X0.6917 Y3.1689
N311 X0.7276 Y3.1693
N312 X0.7635 Y3.1697
N313 X0.7994 Y3.1699
N314 X0.8353 Y3.1701
N315 X0.9071 Y3.1703
N316 X1.0147 Y3.1705
N317 X1.1937 Y3.1706
N318 X1.2005 Y3.171
N319 X1.2073 Y3.1722
N320 X1.2139 Y3.1742
N321 X1.217 Y3.1754
N322 X1.2985 Y3.2025
N323 X1.323 Y3.2104
N324 X1.3312 Y3.2125
N325 X1.4046 Y3.2313
N326 X1.429 Y3.2374
N327 X1.436 Y3.2389
N328 X1.4617 Y3.2436
N329 X1.5351 Y3.2568
N330 X1.5432 Y3.258
N331 X1.5595 Y3.26
N332 X1.5677 Y3.261
N333 X1.6411 Y3.2689
N334 X1.6492 Y3.2696
N335 X1.6667 Y3.2708
N336 G3 X1.676 Y3.2736 I-0.0024 J0.0249 F55
N337 G1 X1.6795 Y3.2754 Z-0.1178
N338 X1.6828 Y3.2772 Z-0.1169
N339 X1.686 Y3.2789 Z-0.1154
N340 X1.689 Y3.2804 Z-0.1133
N341 X1.6916 Y3.2818 Z-0.1108
N342 X1.6939 Y3.283 Z-0.1078
N343 X1.6957 Y3.284 Z-0.1045
N344 X1.697 Y3.2847 Z-0.1008
N345 X1.6978 Y3.2851 Z-0.097
N346 X1.6981 Y3.2853 Z-0.0931
N347 G0 Z0.1969
N348 X0.1402 Y1.7033
N349 Z-0.0681
N350 G1 Z-0.0931 F55
N351 X0.1405 Z-0.097
N352 X0.1414 Y1.7035 Z-0.1008
N353 X0.1429 Y1.7037 Z-0.1045
N354 X0.1449 Y1.704 Z-0.1078
N355 X0.1475 Y1.7043 Z-0.1108
N356 X0.1504 Y1.7047 Z-0.1133
N357 X0.1537 Y1.7052 Z-0.1154
N358 X0.1573 Y1.7057 Z-0.1169
N359 X0.1611 Y1.7063 Z-0.1178
N360 X0.165 Y1.7068 Z-0.1181
N361 G3 X0.1717 Y1.714 I-0.0011 J0.0077
N362 G1 X0.174 Y1.7792 F89.37
N363 X0.1745 Y1.7874
N364 X0.1751 Y1.7955
N365 X0.1848 Y1.8852
N366 X0.1859 Y1.8934
N367 X0.1882 Y1.9097
N368 X0.1893 Y1.9168
N369 X0.2028 Y1.9913
N370 X0.2043 Y1.9994
N371 X0.2076 Y2.0157
N372 X0.2094 Y2.0239
N373 X0.2281 Y2.0973
N374 X0.2303 Y2.1054
N375 X0.2346 Y2.1217
N376 X0.2369 Y2.1299
N377 X0.2396 Y2.138
N378 X0.2492 Y2.1726
N379 X0.2571 Y2.2076
N380 X0.2627 Y2.2431
N381 X0.2665 Y2.2788
N382 X0.2692 Y2.3146
N383 X0.2711 Y2.3504
N384 X0.2724 Y2.3863
N385 X0.2734 Y2.4222
N386 X0.2741 Y2.4581
N387 X0.2745 Y2.494
N388 X0.2748 Y2.5299
N389 X0.2751 Y2.5658
N390 X0.2752 Y2.6017
N391 X0.2754 Y2.6735
N392 X0.2755 Y2.7812
N393 X0.2756 Y2.853
N394 Y2.8889
N395 X0.2844 Y2.9237
N396 X0.3028 Y2.9545
N397 X0.3278 Y2.9802
N398 X0.3572 Y3.0009
N399 X0.3891 Y3.0173
N400 X0.4227 Y3.03
N401 X0.4572 Y3.0399
N402 X0.4923 Y3.0474
N403 X0.5277 Y3.0531
N404 X0.5634 Y3.0575
N405 X0.5991 Y3.0608
N406 X0.6349 Y3.0632
N407 X0.6708 Y3.0651
N408 X0.7066 Y3.0665
N409 X0.7425 Y3.0675
N410 X0.7784 Y3.0683
N411 X0.8143 Y3.0689
N412 X0.8502 Y3.0694
N413 X0.8861 Y3.0697
N414 X0.922 Y3.0699
N415 X0.9741 Y3.0702
N416 X0.984 Y3.0711
N417 X0.9937 Y3.0736
N418 X1.0027 Y3.0778
N419 X1.0049 Y3.079
N420 X1.0307 Y3.0921
N421 X1.0796 Y3.1166
N422 X1.0865 Y3.12
N423 X1.1028 Y3.1279
N424 X1.1109 Y3.1319
N425 X1.2051 Y3.1709
N426 X1.2088 Y3.1724
N427 X1.2139 Y3.1742
N428 G3 X1.222 Y3.1796 I-0.0095 J0.0231 F55
N429 G1 X1.2248 Y3.1824 Z-0.1178
N430 X1.2275 Y3.185 Z-0.1169
N431 X1.23 Y3.1876 Z-0.1154
N432 X1.2324 Y3.1899 Z-0.1133
N433 X1.2345 Y3.192 Z-0.1108
N434 X1.2364 Y3.1938 Z-0.1078
N435 X1.2378 Y3.1953 Z-0.1045
N436 X1.2389 Y3.1963 Z-0.1008
N437 X1.2395 Y3.197 Z-0.097
N438 X1.2397 Y3.1972 Z-0.0931
N439 G0 Z0.1969
N440 X0.2064 Y2.1366
N441 Z-0.0681
N442 G1 Z-0.0931 F55
N443 X0.2067 Z-0.097
N444 X0.2076 Y2.1364 Z-0.1008
N445 X0.2091 Y2.1362 Z-0.1045
N446 X0.2111 Y2.1359 Z-0.1078
N447 X0.2137 Y2.1356 Z-0.1108
N448 X0.2166 Y2.1351 Z-0.1133
N449 X0.2199 Y2.1346 Z-0.1154
N450 X0.2235 Y2.1341 Z-0.1169
N451 X0.2273 Y2.1336 Z-0.1178
N452 X0.2312 Y2.133 Z-0.1181
N453 G3 X0.2396 Y2.138 I0.0011 J0.0077
N454 G1 X0.264 Y2.2114 F89.37
N455 X0.2709 Y2.2315
N456 X0.2724 Y2.2359
N457 X0.3062 Y2.3174
N458 X0.3096 Y2.3256
N459 X0.3166 Y2.3419
N460 X0.3248 Y2.3582
N461 X0.3358 Y2.3832
N462 X0.3449 Y2.4095
N463 X0.3539 Y2.4443
N464 X0.3602 Y2.4796
N465 X0.3647 Y2.5152
N466 X0.3678 Y2.551
N467 X0.3701 Y2.5868
N468 X0.3717 Y2.6227
N469 X0.3728 Y2.6586
N470 X0.3736 Y2.6945
N471 X0.3742 Y2.7303
N472 X0.3746 Y2.7662
N473 X0.3779 Y2.802
N474 X0.3916 Y2.8352
N475 X0.4132 Y2.8638
N476 X0.4402 Y2.8874
N477 X0.4707 Y2.9064
N478 X0.5034 Y2.9213
N479 X0.5373 Y2.933
N480 X0.5721 Y2.942
N481 X0.6073 Y2.9489
N482 X0.6428 Y2.9542
N483 X0.6785 Y2.9582
N484 X0.7143 Y2.9612
N485 X0.7501 Y2.9636
N486 X0.7859 Y2.9653
N487 X0.8116 Y2.9663
N488 X0.8226 Y2.9677
N489 X0.8331 Y2.9712
N490 X0.8427 Y2.9766
N491 X0.8916 Y3.0106
N492 X0.8989 Y3.0155
N493 X0.9234 Y3.0309
N494 X0.9886 Y3.0695
N495 X0.9992 Y3.0758
N496 X1.0027 Y3.0778
N497 G3 X1.0099 Y3.0844 I-0.0131 J0.0213 F55
N498 G1 X1.0122 Y3.0876 Z-0.1178
N499 X1.0144 Y3.0907 Z-0.1169
N500 X1.0165 Y3.0936 Z-0.1154
N501 X1.0185 Y3.0964 Z-0.1133
N502 X1.0202 Y3.0988 Z-0.1108
N503 X1.0217 Y3.1008 Z-0.1078
N504 X1.0229 Y3.1025 Z-0.1045
N505 X1.0238 Y3.1037 Z-0.1008
N506 X1.0243 Y3.1045 Z-0.097
N507 X1.0245 Y3.1047 Z-0.0931
N508 G0 Z0.1969
N509 X0.2917 Y2.3615
N510 Z-0.0681
N511 G1 Z-0.0931 F55
N512 X0.292 Y2.3614 Z-0.097
N513 X0.2929 Y2.3612 Z-0.1008
N514 X0.2943 Y2.3607 Z-0.1045
N515 X0.2963 Y2.3602 Z-0.1078
N516 X0.2988 Y2.3594 Z-0.1108
N517 X0.3016 Y2.3586 Z-0.1133
N518 X0.3048 Y2.3576 Z-0.1154
N519 X0.3083 Y2.3566 Z-0.1169
N520 X0.312 Y2.3555 Z-0.1178
N521 X0.3157 Y2.3544 Z-0.1181
N522 G3 X0.3248 Y2.3582 I0.0022 J0.0075
N523 G1 X0.3615 Y2.4316 F89.37
N524 X0.3688 Y2.4449
N525 X0.3704 Y2.4479
N526 X0.3769 Y2.459
N527 X0.4139 Y2.5213
N528 X0.4263 Y2.5447
N529 X0.4354 Y2.566
N530 X0.4449 Y2.5943
N531 X0.4536 Y2.6292
N532 X0.4598 Y2.6645
N533 X0.4665 Y2.6998
N534 X0.4815 Y2.7324
N535 X0.5035 Y2.7608
N536 X0.5305 Y2.7844
N537 X0.5609 Y2.8035
N538 X0.5934 Y2.8187
N539 X0.6272 Y2.8307
N540 X0.6619 Y2.8401
N541 X0.6643 Y2.8405
N542 X0.6744 Y2.8436
N543 X0.6839 Y2.8485
N544 X0.6923 Y2.855
N545 X0.7113 Y2.8727
N546 X0.7195 Y2.8801
N547 X0.7358 Y2.8939
N548 X0.7895 Y2.9372
N549 X0.8101 Y2.9535
N550 X0.8173 Y2.959
N551 X0.8427 Y2.9766
N552 G3 X0.8492 Y2.9839 I-0.015 J0.02 F55
N553 G1 X0.8512 Y2.9872 Z-0.1178
N554 X0.8532 Y2.9905 Z-0.1169
N555 X0.855 Y2.9936 Z-0.1154
N556 X0.8568 Y2.9965 Z-0.1133
N557 X0.8583 Y2.9991 Z-0.1108
N558 X0.8596 Y3.0013 Z-0.1078
N559 X0.8606 Y3.003 Z-0.1045
N560 X0.8614 Y3.0043 Z-0.1008
N561 X0.8619 Y3.0051 Z-0.097
N562 X0.862 Y3.0054 Z-0.0931
N563 G0 Z0.1969
N564 X0.3812 Y2.527
N565 Z-0.0681
N566 G1 Z-0.0931 F55
N567 X0.3814 Y2.5268 Z-0.097
N568 X0.3823 Y2.5265 Z-0.1008
N569 X0.3837 Y2.526 Z-0.1045
N570 X0.3856 Y2.5253 Z-0.1078
N571 X0.388 Y2.5244 Z-0.1108
N572 X0.3908 Y2.5233 Z-0.1133
N573 X0.3939 Y2.5222 Z-0.1154
N574 X0.3973 Y2.5209 Z-0.1169
N575 X0.4009 Y2.5196 Z-0.1178
N576 X0.4046 Y2.5182 Z-0.1181
N577 G3 X0.4139 Y2.5213 I0.0027 J0.0073
N578 G1 X0.4187 Y2.5294 F89.37
N579 X0.4348 Y2.5539
N580 X0.4422 Y2.5646
N581 X0.4748 Y2.6115
N582 X0.4918 Y2.6354
N583 X0.4992 Y2.6449
N584 X0.5573 Y2.717
N585 X0.5727 Y2.734
N586 X0.5808 Y2.7429
N587 X0.6297 Y2.7954
N588 X0.6328 Y2.7985
N589 X0.6542 Y2.8195
N590 X0.6579 Y2.823
N591 X0.6923 Y2.855
N592 G3 X0.6977 Y2.8631 I-0.0177 J0.0177 F55
N593 G1 X0.6992 Y2.8667 Z-0.1178
N594 X0.7007 Y2.8702 Z-0.1169
N595 X0.702 Y2.8736 Z-0.1154
N596 X0.7033 Y2.8767 Z-0.1133
N597 X0.7045 Y2.8794 Z-0.1108
N598 X0.7054 Y2.8818 Z-0.1078
N599 X0.7062 Y2.8837 Z-0.1045
N600 X0.7068 Y2.8851 Z-0.1008
N601 X0.7072 Y2.8859 Z-0.097
N602 X0.7073 Y2.8862 Z-0.0931
N603 G0 Z0.1969
N604 X1.7578 Y0.0412
N605 Z-0.0681
N606 G1 Z-0.0931 F55
N607 Y0.0415 Z-0.097
N608 X1.7577 Y0.0424 Z-0.1008
N609 X1.7574 Y0.0439 Z-0.1045
N610 X1.7572 Y0.0459 Z-0.1078
N611 X1.7568 Y0.0485 Z-0.1108
N612 X1.7564 Y0.0514 Z-0.1133
N613 X1.7559 Y0.0547 Z-0.1154
N614 X1.7554 Y0.0583 Z-0.1169
N615 X1.7549 Y0.0621 Z-0.1178
N616 X1.7543 Y0.066 Z-0.1181
N617 G3 X1.7471 Y0.0726 I-0.0077 J-0.0011
N618 G1 X1.6737 Y0.0753 F89.37
N619 X1.6656 Y0.0758
N620 X1.6492 Y0.0769
N621 X1.6411 Y0.0776
N622 X1.5677 Y0.0855
N623 X1.5595 Y0.0864
N624 X1.5432 Y0.0885
N625 X1.5351 Y0.0896
N626 X1.4535 Y0.1044
N627 X1.436 Y0.1076
N628 X1.429 Y0.109
N629 X1.4024 Y0.1157
N630 X1.3312 Y0.1339
N631 X1.323 Y0.1361
N632 X1.3102 Y0.1402
N633 X1.2755 Y0.1495
N634 X1.2405 Y0.1572
N635 X1.205 Y0.1627
N636 X1.1693 Y0.1664
N637 X1.1335 Y0.1691
N638 X1.0976 Y0.171
N639 X1.0618 Y0.1723
N640 X1.0259 Y0.1732
N641 X0.99 Y0.1739
N642 X0.9541 Y0.1743
N643 X0.9182 Y0.1746
N644 X0.8823 Y0.1749
N645 X0.8464 Y0.175
N646 X0.7746 Y0.1752
N647 X0.6669 Y0.1754
N648 X0.4515
N649 X0.4169 Y0.1849
N650 X0.3866 Y0.2041
N651 X0.3615 Y0.2298
N652 X0.3414 Y0.2596
N653 X0.3257 Y0.2919
N654 X0.3136 Y0.3257
N655 X0.3043 Y0.3603
N656 X0.2972 Y0.3955
N657 X0.2918 Y0.431
N658 X0.2878 Y0.4667
N659 X0.2848 Y0.5025
N660 X0.2825 Y0.5383
N661 X0.2808 Y0.5741
N662 X0.2796 Y0.61
N663 X0.2786 Y0.6459
N664 X0.2779 Y0.6818
N665 X0.2774 Y0.7177
N666 X0.277 Y0.7536
N667 X0.2767 Y0.7895
N668 X0.2765 Y0.8254
N669 X0.2763 Y0.8613
N670 X0.2761 Y0.9331
N671 X0.276 Y1.0408
N672 X0.2759 Y1.0901
N673 X0.2755 Y1.0971
N674 X0.2744 Y1.1039
N675 X0.2724 Y1.1106
N676 X0.2709 Y1.115
N677 X0.2627 Y1.139
N678 X0.2369 Y1.2166
N679 X0.2346 Y1.2247
N680 X0.2301 Y1.2416
N681 X0.2261 Y1.2574
N682 X0.2094 Y1.3226
N683 X0.2076 Y1.3307
N684 X0.2043 Y1.3471
N685 X0.2028 Y1.3552
N686 X0.1893 Y1.4297
N687 X0.1882 Y1.4368
N688 X0.1859 Y1.4531
N689 X0.1848 Y1.4612
N690 X0.1755 Y1.5479
N691 G3 X0.1722 Y1.5571 I-0.0247 J-0.0035 F55
N692 G1 X0.1702 Y1.5604 Z-0.1178
N693 X0.1683 Y1.5637 Z-0.1169
N694 X0.1664 Y1.5669 Z-0.1154
N695 X0.1647 Y1.5697 Z-0.1133
N696 X0.1632 Y1.5723 Z-0.1108
N697 X0.1619 Y1.5745 Z-0.1078
N698 X0.1609 Y1.5763 Z-0.1045
N699 X0.1601 Y1.5775 Z-0.1008
N700 X0.1596 Y1.5783 Z-0.097
N701 X0.1595 Y1.5786 Z-0.0931
N702 G0 Z0.1969
N703 X1.3119 Y0.107
N704 Z-0.0681
N705 G1 Z-0.0931 F55
N706 X1.312 Y0.1073 Z-0.097
N707 X1.3121 Y0.1082 Z-0.1008
N708 X1.3123 Y0.1097 Z-0.1045
N709 X1.3126 Y0.1118 Z-0.1078
N710 X1.3129 Y0.1143 Z-0.1108
N711 X1.3133 Y0.1172 Z-0.1133
N712 X1.3138 Y0.1206 Z-0.1154
N713 X1.3143 Y0.1242 Z-0.1169
N714 X1.3148 Y0.1279 Z-0.1178
N715 X1.3153 Y0.1318 Z-0.1181
N716 G3 X1.3102 Y0.1402 I-0.0077 J0.001
N717 G1 X1.2985 Y0.1439 F89.37
N718 X1.217 Y0.1711
N719 X1.2088 Y0.1741
N720 X1.1921 Y0.181
N721 X1.1109 Y0.2146
N722 X1.0946 Y0.2225
N723 X1.0865 Y0.2265
N724 X1.0647 Y0.236
N725 X1.038 Y0.2451
N726 X1.0032 Y0.254
N727 X0.9679 Y0.2602
N728 X0.9322 Y0.2646
N729 X0.8965 Y0.2677
N730 X0.8606 Y0.2699
N731 X0.8248 Y0.2715
N732 X0.7889 Y0.2726
N733 X0.753 Y0.2734
N734 X0.7171 Y0.274
N735 X0.6812 Y0.2744
N736 X0.6453 Y0.2747
N737 X0.6094 Y0.2749
N738 X0.5735 Y0.2751
N739 X0.5379 Y0.2794
N740 X0.5052 Y0.2943
N741 X0.4773 Y0.3168
N742 X0.4545 Y0.3446
N743 X0.4363 Y0.3755
N744 X0.422 Y0.4085
N745 X0.411 Y0.4426
N746 X0.4025 Y0.4775
N747 X0.396 Y0.5128
N748 X0.391 Y0.5483
N749 X0.3873 Y0.5841
N750 X0.3845 Y0.6198
N751 X0.3823 Y0.6557
N752 X0.3807 Y0.6915
N753 X0.3795 Y0.7274
N754 X0.3786 Y0.7633
N755 X0.3779 Y0.7992
N756 X0.3774 Y0.8351
N757 X0.377 Y0.872
N758 X0.3761 Y0.8816
N759 X0.3737 Y0.8908
N760 X0.3698 Y0.8996
N761 X0.3659 Y0.9067
N762 X0.3615 Y0.9149
N763 X0.3166 Y1.0046
N764 X0.3096 Y1.0209
N765 X0.3028 Y1.0372
N766 X0.2724 Y1.1106
N767 G3 X0.2667 Y1.1185 I-0.0228 J-0.0103 F55
N768 G1 X0.2639 Y1.1212 Z-0.1178
N769 X0.2611 Y1.1238 Z-0.1169
N770 X0.2585 Y1.1262 Z-0.1154
N771 X0.256 Y1.1285 Z-0.1133
N772 X0.2538 Y1.1306 Z-0.1108
N773 X0.252 Y1.1323 Z-0.1078
N774 X0.2505 Y1.1337 Z-0.1045
N775 X0.2494 Y1.1347 Z-0.1008
N776 X0.2487 Y1.1354 Z-0.097
N777 X0.2485 Y1.1356 Z-0.0931
N778 G0 Z0.1969
N779 X1.0833 Y0.1934
N780 Z-0.0681
N781 G1 Z-0.0931 F55
N782 X1.0834 Y0.1937 Z-0.097
N783 X1.0836 Y0.1946 Z-0.1008
N784 X1.0841 Y0.196 Z-0.1045
N785 X1.0846 Y0.198 Z-0.1078
N786 X1.0853 Y0.2005 Z-0.1108
N787 X1.0862 Y0.2033 Z-0.1133
N788 X1.0871 Y0.2065 Z-0.1154
N789 X1.0881 Y0.21 Z-0.1169
N790 X1.0892 Y0.2137 Z-0.1178
N791 X1.0903 Y0.2174 Z-0.1181
N792 G3 X1.0865 Y0.2265 I-0.0075 J0.0022
N793 G1 X1.0702 Y0.2346 F89.37
N794 X1.0294 Y0.255
N795 X1.0049 Y0.2674
N796 X0.9992 Y0.2707
N797 X0.9716 Y0.287
N798 X0.9234 Y0.3156
N799 X0.9095 Y0.3234
N800 X0.8897 Y0.3324
N801 X0.8638 Y0.3418
N802 X0.8292 Y0.3514
N803 X0.794 Y0.3582
N804 X0.7584 Y0.363
N805 X0.7227 Y0.3665
N806 X0.6869 Y0.369
N807 X0.6511 Y0.3722
N808 X0.6175 Y0.3848
N809 X0.5881 Y0.4055
N810 X0.5637 Y0.4318
N811 X0.544 Y0.4618
N812 X0.5283 Y0.4941
N813 X0.5161 Y0.5278
N814 X0.5066 Y0.5624
N815 X0.4992 Y0.5976
N816 X0.4936 Y0.633
N817 X0.4893 Y0.6687
N818 X0.486 Y0.7044
N819 X0.4843 Y0.7149
N820 X0.4807 Y0.7248
N821 X0.4754 Y0.734
N822 X0.4574 Y0.7599
N823 X0.4404 Y0.7844
N824 X0.4348 Y0.7926
N825 X0.4187 Y0.817
N826 X0.3752 Y0.8904
N827 X0.3704 Y0.8986
N828 X0.3698 Y0.8996
N829 G3 X0.3633 Y0.9068 I-0.0215 J-0.0128 F55
N830 G1 X0.3602 Y0.9092 Z-0.1178
N831 X0.3571 Y0.9115 Z-0.1169
N832 X0.3542 Y0.9136 Z-0.1154
N833 X0.3515 Y0.9156 Z-0.1133
N834 X0.3491 Y0.9174 Z-0.1108
N835 X0.3471 Y0.919 Z-0.1078
N836 X0.3455 Y0.9202 Z-0.1045
N837 X0.3443 Y0.9211 Z-0.1008
N838 X0.3435 Y0.9216 Z-0.097
N839 X0.3433 Y0.9218 Z-0.0931
N840 G0 Z0.1969
N841 X0.9169 Y0.283
N842 Z-0.0681
N843 G1 Z-0.0931 F55
N844 X0.917 Y0.2833 Z-0.097
N845 X0.9174 Y0.2842 Z-0.1008
N846 X0.9179 Y0.2855 Z-0.1045
N847 X0.9187 Y0.2874 Z-0.1078
N848 X0.9196 Y0.2898 Z-0.1108
N849 X0.9207 Y0.2926 Z-0.1133
N850 X0.922 Y0.2957 Z-0.1154
N851 X0.9233 Y0.299 Z-0.1169
N852 X0.9248 Y0.3026 Z-0.1178
N853 X0.9262 Y0.3062 Z-0.1181
N854 G3 X0.9234 Y0.3156 I-0.0072 J0.0029
N855 G1 X0.8989 Y0.331 F89.37
N856 X0.8907 Y0.3365
N857 X0.8173 Y0.3874
N858 X0.8092 Y0.3937
N859 X0.801 Y0.4002
N860 X0.7879 Y0.4095
N861 X0.7571 Y0.4279
N862 X0.7258 Y0.4454
N863 X0.6975 Y0.4675
N864 X0.6732 Y0.4939
N865 X0.6529 Y0.5235
N866 X0.6521 Y0.5249
N867 X0.649 Y0.5303
N868 X0.6453 Y0.5352
N869 X0.6411 Y0.5397
N870 G3 X0.6328 Y0.5448 I-0.0168 J-0.0185 F55
N871 X0.6079 Y0.5024 I-0.0085 J-0.0235 F89.37
N872 G1 X0.7684 Y0.3623
N873 G3 X0.8071 Y0.3925 I0.0164 J0.0188
N874 X0.801 Y0.4002 I-0.0222 J-0.0114 F55
N875 G1 X0.7895 Y0.4093 F89.37
N876 X0.7358 Y0.4526
N877 X0.7195 Y0.4664
N878 X0.7105 Y0.4745
N879 X0.6579 Y0.5235
N880 X0.6542 Y0.527
N881 X0.6328 Y0.5479
N882 X0.6297 Y0.551
N883 X0.5795 Y0.605
N884 X0.572 Y0.6132
N885 X0.5573 Y0.6295
N886 X0.4982 Y0.7029
N887 X0.4918 Y0.711
N888 X0.4754 Y0.734
N889 G3 X0.4681 Y0.7405 I-0.0199 J-0.0152 F55
N890 G1 X0.4647 Y0.7424 Z-0.1178
N891 X0.4614 Y0.7443 Z-0.1169
N892 X0.4583 Y0.7461 Z-0.1154
N893 X0.4554 Y0.7478 Z-0.1133
N894 X0.4528 Y0.7493 Z-0.1108
N895 X0.4506 Y0.7506 Z-0.1078
N896 X0.4488 Y0.7516 Z-0.1045
N897 X0.4475 Y0.7524 Z-0.1008
N898 X0.4468 Y0.7528 Z-0.097
N899 X0.4465 Y0.753 Z-0.0931
N900 G0 Z0.1969
N901 X6.1162 Y3.3053
N902 Z-0.0681
N903 G1 Z-0.0931 F55
N904 Y3.3049 Z-0.097
N905 X6.1164 Y3.304 Z-0.1008
N906 X6.1166 Y3.3026 Z-0.1045
N907 X6.1169 Y3.3005 Z-0.1078
N908 X6.1172 Y3.298 Z-0.1108
N909 X6.1176 Y3.295 Z-0.1133
N910 X6.1181 Y3.2917 Z-0.1154
N911 X6.1186 Y3.2881 Z-0.1169
N912 X6.1192 Y3.2844 Z-0.1178
N913 X6.1197 Y3.2805 Z-0.1181
N914 G3 X6.1269 Y3.2738 I0.0077 J0.0011
N915 G1 X6.2003 Y3.2712 F89.37
N916 X6.2085 Y3.2707
N917 X6.2248 Y3.2696
N918 X6.2329 Y3.2689
N919 X6.3063 Y3.261
N920 X6.3145 Y3.26
N921 X6.3308 Y3.258
N922 X6.339 Y3.2568
N923 X6.4205 Y3.2421
N924 X6.438 Y3.2389
N925 X6.445 Y3.2374
N926 X6.4716 Y3.2307
N927 X6.5429 Y3.2125
N928 X6.551 Y3.2104
N929 X6.5638 Y3.2063
N930 X6.5985 Y3.197
N931 X6.6335 Y3.1892
N932 X6.669 Y3.1837
N933 X6.7047 Y3.1799
N934 X6.7405 Y3.1773
N935 X6.7764 Y3.1754
N936 X6.8122 Y3.1741
N937 X6.8481 Y3.1732
N938 X6.884 Y3.1725
N939 X6.9199 Y3.172
N940 X6.9558 Y3.1717
N941 X6.9917 Y3.1715
N942 X7.0276 Y3.1713
N943 X7.0994 Y3.1711
N944 X7.2071 Y3.171
N945 X7.4584
N946 X7.5302 Y3.1709
N947 X7.5642 Y3.1595
N948 X7.5935 Y3.1388
N949 X7.6175 Y3.1121
N950 X7.6366 Y3.0817
N951 X7.6515 Y3.049
N952 X7.6629 Y3.015
N953 X7.6717 Y2.9801
N954 X7.6783 Y2.9449
N955 X7.6833 Y2.9093
N956 X7.687 Y2.8736
N957 X7.6898 Y2.8378
N958 X7.6919 Y2.802
N959 X7.6934 Y2.7661
N960 X7.6946 Y2.7302
N961 X7.6954 Y2.6944
N962 X7.6961 Y2.6585
N963 X7.6965 Y2.6226
N964 X7.6969 Y2.5867
N965 X7.6971 Y2.5508
N966 X7.6973 Y2.5149
N967 X7.6975 Y2.4431
N968 X7.6977 Y2.3354
N969 Y2.2277
N970 Y1.8094
N971 X7.6978 Y1.8073
N972 X7.6979 Y1.8052
N973 X7.6981 Y1.8031
N974 X7.6989 Y1.7955
N975 X7.6995 Y1.7874
N976 X7.7 Y1.7792
N977 X7.7029 Y1.6977
N978 X7.7037 Y1.6732
N979 X7.7027 Y1.6406
N980 X7.7018 Y1.6161
N981 X7.7023 Y1.5803
N982 X7.7009 Y1.5444
N983 X7.7 Y1.5085
N984 X7.6993 Y1.4726
N985 X7.6988 Y1.4367
N986 X7.6985 Y1.4008
N987 X7.6982 Y1.3649
N988 X7.698 Y1.329
N989 X7.6978 Y1.2572
N990 X7.6977 Y1.1495
N991 X7.6976 Y0.8982
N992 X7.6975 Y0.3598
N993 X7.6914 Y0.3244
N994 X7.6746 Y0.2927
N995 X7.6504 Y0.2661
N996 X7.6215 Y0.2448
N997 X7.5898 Y0.2281
N998 X7.5563 Y0.2151
N999 X7.5218 Y0.2052
N1000 X7.4867 Y0.1977
N1001 X7.4512 Y0.1919
N1002 X7.4156 Y0.1877
N1003 X7.3798 Y0.1844
N1004 X7.344 Y0.182
N1005 X7.3082 Y0.1803
N1006 X7.2723 Y0.1789
N1007 X7.2364 Y0.1779
N1008 X7.2005 Y0.1772
N1009 X7.1646 Y0.1767
N1010 X7.1287 Y0.1763
N1011 X7.0928 Y0.176
N1012 X7.0569 Y0.1758
N1013 X7.021 Y0.1756
N1014 X6.9492 Y0.1754
N1015 X6.8416 Y0.1753
N1016 X6.6786 Y0.1752
N1017 X6.6717 Y0.1748
N1018 X6.665 Y0.1736
N1019 X6.6584 Y0.1716
N1020 X6.657 Y0.1711
N1021 X6.5755 Y0.1439
N1022 X6.551 Y0.1361
N1023 X6.5429 Y0.1339
N1024 X6.4695 Y0.1152
N1025 X6.445 Y0.109
N1026 X6.438 Y0.1076
N1027 X6.4124 Y0.1029
N1028 X6.339 Y0.0896
N1029 X6.3308 Y0.0885
N1030 X6.3145 Y0.0864
N1031 X6.3063 Y0.0855
N1032 X6.2329 Y0.0776
N1033 X6.2248 Y0.0769
N1034 X6.2085 Y0.0758
N1035 X6.2003 Y0.0753
N1036 X6.1971 Y0.0752
N1037 G3 X6.1877 Y0.0726 I0.0018 J-0.0249 F55
N1038 G1 X6.1842 Y0.0708 Z-0.1178
N1039 X6.1808 Y0.0691 Z-0.1169
N1040 X6.1775 Y0.0675 Z-0.1154
N1041 X6.1745 Y0.066 Z-0.1133
N1042 X6.1719 Y0.0647 Z-0.1108
N1043 X6.1696 Y0.0635 Z-0.1078
N1044 X6.1678 Y0.0626 Z-0.1045
N1045 X6.1664 Y0.062 Z-0.1008
N1046 X6.1656 Y0.0615 Z-0.097
N1047 X6.1653 Y0.0614 Z-0.0931
N1048 G0 Z0.1969
N1049 X7.7332 Y1.6269
N1050 Z-0.0681
N1051 G1 Z-0.0931 F55
N1052 X7.7329 Y1.6268 Z-0.097
N1053 X7.732 Y1.6267 Z-0.1008
N1054 X7.7305 Y1.6265 Z-0.1045
N1055 X7.7285 Y1.6262 Z-0.1078
N1056 X7.726 Y1.6258 Z-0.1108
N1057 X7.723 Y1.6254 Z-0.1133
N1058 X7.7197 Y1.6249 Z-0.1154
N1059 X7.7161 Y1.6244 Z-0.1169
N1060 X7.7123 Y1.6239 Z-0.1178
N1061 X7.7085 Y1.6233 Z-0.1181
N1062 G3 X7.7018 Y1.6161 I0.0011 J-0.0077
N1063 G1 X7.7 Y1.5672 F89.37
N1064 X7.6995 Y1.5591
N1065 X7.6989 Y1.5509
N1066 X7.6892 Y1.4612
N1067 X7.6881 Y1.4531
N1068 X7.6858 Y1.4368
N1069 X7.6847 Y1.4297
N1070 X7.6713 Y1.3552
N1071 X7.6697 Y1.3471
N1072 X7.6664 Y1.3307
N1073 X7.6646 Y1.3226
N1074 X7.6459 Y1.2492
N1075 X7.6438 Y1.241
N1076 X7.6394 Y1.2247
N1077 X7.6371 Y1.2166
N1078 X7.6344 Y1.2084
N1079 X7.6248 Y1.1738
N1080 X7.6166 Y1.1389
N1081 X7.611 Y1.1034
N1082 X7.607 Y1.0678
N1083 X7.6042 Y1.032
N1084 X7.6023 Y0.9961
N1085 X7.6009 Y0.9602
N1086 X7.5999 Y0.9244
N1087 X7.5992 Y0.8885
N1088 X7.5987 Y0.8526
N1089 X7.5984 Y0.8167
N1090 X7.5981 Y0.7808
N1091 X7.598 Y0.7449
N1092 X7.5977 Y0.6731
N1093 X7.5976 Y0.5654
N1094 X7.5975 Y0.4577
N1095 X7.5888 Y0.4229
N1096 X7.5704 Y0.392
N1097 X7.5455 Y0.3662
N1098 X7.5163 Y0.3454
N1099 X7.4844 Y0.3289
N1100 X7.4508 Y0.3161
N1101 X7.4163 Y0.3062
N1102 X7.3813 Y0.2986
N1103 X7.3458 Y0.2928
N1104 X7.3102 Y0.2884
N1105 X7.2744 Y0.2851
N1106 X7.2386 Y0.2826
N1107 X7.2028 Y0.2807
N1108 X7.1669 Y0.2793
N1109 X7.131 Y0.2783
N1110 X7.0951 Y0.2775
N1111 X7.0593 Y0.2769
N1112 X7.0234 Y0.2764
N1113 X6.9875 Y0.2761
N1114 X6.9516 Y0.2759
N1115 X6.8987 Y0.2756
N1116 X6.8888 Y0.2747
N1117 X6.8792 Y0.2722
N1118 X6.8701 Y0.268
N1119 X6.8691 Y0.2674
N1120 X6.8433 Y0.2544
N1121 X6.7944 Y0.2299
N1122 X6.7875 Y0.2265
N1123 X6.7712 Y0.2185
N1124 X6.7631 Y0.2146
N1125 X6.6689 Y0.1756
N1126 X6.6652 Y0.1741
N1127 X6.6584 Y0.1716
N1128 G3 X6.6503 Y0.1662 I0.0095 J-0.0231 F55
N1129 G1 X6.6475 Y0.1635 Z-0.1178
N1130 X6.6448 Y0.1608 Z-0.1169
N1131 X6.6422 Y0.1582 Z-0.1154
N1132 X6.6398 Y0.1559 Z-0.1133
N1133 X6.6377 Y0.1538 Z-0.1108
N1134 X6.6359 Y0.152 Z-0.1078
N1135 X6.6344 Y0.1505 Z-0.1045
N1136 X6.6334 Y0.1495 Z-0.1008
N1137 X6.6327 Y0.1488 Z-0.097
N1138 X6.6325 Y0.1486 Z-0.0931
N1139 G0 Z0.1969
N1140 X7.6676 Y1.2099
N1141 Z-0.0681
N1142 G1 Z-0.0931 F55
N1143 X7.6673 Z-0.097
N1144 X7.6664 Y1.21 Z-0.1008
N1145 X7.6649 Y1.2102 Z-0.1045
N1146 X7.6629 Y1.2105 Z-0.1078
N1147 X7.6604 Y1.2109 Z-0.1108
N1148 X7.6574 Y1.2113 Z-0.1133
N1149 X7.6541 Y1.2118 Z-0.1154
N1150 X7.6505 Y1.2123 Z-0.1169
N1151 X7.6467 Y1.2129 Z-0.1178
N1152 X7.6429 Y1.2134 Z-0.1181
N1153 G3 X7.6344 Y1.2084 I-0.0011 J-0.0077
N1154 G1 X7.61 Y1.135 F89.37
N1155 X7.6031 Y1.115
N1156 X7.6016 Y1.1106
N1157 X7.5678 Y1.029
N1158 X7.5644 Y1.0209
N1159 X7.5574 Y1.0046
N1160 X7.5492 Y0.9883
N1161 X7.5375 Y0.9615
N1162 X7.5283 Y0.9351
N1163 X7.5193 Y0.9004
N1164 X7.513 Y0.865
N1165 X7.5085 Y0.8294
N1166 X7.5054 Y0.7936
N1167 X7.5031 Y0.7578
N1168 X7.5015 Y0.7219
N1169 X7.5004 Y0.6861
N1170 X7.4996 Y0.6502
N1171 X7.499 Y0.6143
N1172 X7.4986 Y0.5784
N1173 X7.4947 Y0.5427
N1174 X7.4808 Y0.5096
N1175 X7.4589 Y0.4811
N1176 X7.4317 Y0.4577
N1177 X7.4011 Y0.4389
N1178 X7.3685 Y0.4241
N1179 X7.3345 Y0.4125
N1180 X7.2997 Y0.4036
N1181 X7.2645 Y0.3967
N1182 X7.2289 Y0.3915
N1183 X7.1933 Y0.3875
N1184 X7.1575 Y0.3845
N1185 X7.1217 Y0.3822
N1186 X7.0858 Y0.3804
N1187 X7.0615 Y0.3795
N1188 X7.0505 Y0.3781
N1189 X7.04 Y0.3746
N1190 X7.0303 Y0.3692
N1191 X6.9824 Y0.3359
N1192 X6.9751 Y0.331
N1193 X6.9507 Y0.3156
N1194 X6.8854 Y0.2769
N1195 X6.8748 Y0.2707
N1196 X6.8701 Y0.268
N1197 G3 X6.863 Y0.2613 I0.0131 J-0.0213 F55
N1198 G1 X6.8607 Y0.2582 Z-0.1178
N1199 X6.8584 Y0.2551 Z-0.1169
N1200 X6.8563 Y0.2521 Z-0.1154
N1201 X6.8544 Y0.2494 Z-0.1133
N1202 X6.8526 Y0.247 Z-0.1108
N1203 X6.8511 Y0.245 Z-0.1078
N1204 X6.8499 Y0.2433 Z-0.1045
N1205 X6.849 Y0.2421 Z-0.1008
N1206 X6.8485 Y0.2413 Z-0.097
N1207 X6.8483 Y0.2411 Z-0.0931
N1208 G0 Z0.1969
N1209 X7.5823 Y0.9849
N1210 Z-0.0681
N1211 G1 Z-0.0931 F55
N1212 X7.582 Y0.985 Z-0.097
N1213 X7.5811 Y0.9853 Z-0.1008
N1214 X7.5797 Y0.9857 Z-0.1045
N1215 X7.5777 Y0.9863 Z-0.1078
N1216 X7.5753 Y0.987 Z-0.1108
N1217 X7.5724 Y0.9879 Z-0.1133
N1218 X7.5692 Y0.9888 Z-0.1154
N1219 X7.5657 Y0.9898 Z-0.1169
N1220 X7.5621 Y0.9909 Z-0.1178
N1221 X7.5583 Y0.992 Z-0.1181
N1222 G3 X7.5492 Y0.9883 I-0.0022 J-0.0075
N1223 G1 X7.5125 Y0.9149 F89.37
N1224 X7.5053 Y0.9016
N1225 X7.5036 Y0.8986
N1226 X7.4971 Y0.8875
N1227 X7.4601 Y0.8252
N1228 X7.4469 Y0.8001
N1229 X7.4378 Y0.7788
N1230 X7.4282 Y0.7505
N1231 X7.4195 Y0.7157
N1232 X7.4134 Y0.6803
N1233 X7.4063 Y0.6451
N1234 X7.3911 Y0.6126
N1235 X7.369 Y0.5843
N1236 X7.3418 Y0.5609
N1237 X7.3113 Y0.5419
N1238 X7.2788 Y0.5267
N1239 X7.2449 Y0.5148
N1240 X7.2102 Y0.5055
N1241 X7.2092 Y0.5053
N1242 X7.199 Y0.5022
N1243 X7.1895 Y0.4974
N1244 X7.1811 Y0.4909
N1245 X7.1627 Y0.4737
N1246 X7.1545 Y0.4664
N1247 X7.1382 Y0.4526
N1248 X7.0845 Y0.4093
N1249 X7.0639 Y0.393
N1250 X7.0567 Y0.3874
N1251 X7.0303 Y0.3692
N1252 G3 X7.0238 Y0.3619 I0.015 J-0.02 F55
N1253 G1 X7.0218 Y0.3585 Z-0.1178
N1254 X7.0199 Y0.3553 Z-0.1169
N1255 X7.018 Y0.3522 Z-0.1154
N1256 X7.0163 Y0.3493 Z-0.1133
N1257 X7.0148 Y0.3467 Z-0.1108
N1258 X7.0135 Y0.3445 Z-0.1078
N1259 X7.0124 Y0.3428 Z-0.1045
N1260 X7.0117 Y0.3415 Z-0.1008
N1261 X7.0112 Y0.3407 Z-0.097
N1262 X7.011 Y0.3404 Z-0.0931
N1263 G0 Z0.1969
N1264 X7.4929 Y0.8195
N1265 Z-0.0681
N1266 G1 Z-0.0931 F55
N1267 X7.4926 Y0.8196 Z-0.097
N1268 X7.4917 Y0.8199 Z-0.1008
N1269 X7.4903 Y0.8205 Z-0.1045
N1270 X7.4884 Y0.8212 Z-0.1078
N1271 X7.486 Y0.8221 Z-0.1108
N1272 X7.4832 Y0.8231 Z-0.1133
N1273 X7.4801 Y0.8243 Z-0.1154
N1274 X7.4767 Y0.8256 Z-0.1169
N1275 X7.4731 Y0.8269 Z-0.1178
N1276 X7.4694 Y0.8283 Z-0.1181
N1277 G3 X7.4601 Y0.8252 I-0.0027 J-0.0073
N1278 G1 X7.4553 Y0.817 F89.37
N1279 X7.4392 Y0.7926
N1280 X7.4319 Y0.7819
N1281 X7.3992 Y0.7349
N1282 X7.3823 Y0.711
N1283 X7.3748 Y0.7016
N1284 X7.3167 Y0.6295
N1285 X7.3014 Y0.6125
N1286 X7.2932 Y0.6036
N1287 X7.2443 Y0.551
N1288 X7.2413 Y0.5479
N1289 X7.2198 Y0.527
N1290 X7.2161 Y0.5235
N1291 X7.1811 Y0.4909
N1292 G3 X7.1757 Y0.4828 I0.0177 J-0.0177 F55
N1293 G1 X7.1742 Y0.4791 Z-0.1178
N1294 X7.1727 Y0.4756 Z-0.1169
N1295 X7.1713 Y0.4723 Z-0.1154
N1296 X7.17 Y0.4692 Z-0.1133
N1297 X7.1689 Y0.4664 Z-0.1108
N1298 X7.1679 Y0.4641 Z-0.1078
N1299 X7.1671 Y0.4622 Z-0.1045
N1300 X7.1666 Y0.4608 Z-0.1008
N1301 X7.1662 Y0.4599 Z-0.097
N1302 X7.1661 Y0.4597 Z-0.0931
N1303 G0 Z0.1969
N1304 X6.5621 Y3.2394
N1305 Z-0.0681
N1306 G1 Z-0.0931 F55
N1307 X6.562 Y3.2391 Z-0.097
N1308 X6.5619 Y3.2382 Z-0.1008
N1309 X6.5617 Y3.2367 Z-0.1045
N1310 X6.5614 Y3.2347 Z-0.1078
N1311 X6.5611 Y3.2322 Z-0.1108
N1312 X6.5607 Y3.2292 Z-0.1133
N1313 X6.5602 Y3.2259 Z-0.1154
N1314 X6.5598 Y3.2223 Z-0.1169
N1315 X6.5593 Y3.2185 Z-0.1178
N1316 X6.5587 Y3.2146 Z-0.1181
N1317 G3 X6.5638 Y3.2063 I0.0077 J-0.001
N1318 G1 X6.5755 Y3.2025 F89.37
N1319 X6.657 Y3.1754
N1320 X6.6652 Y3.1724
N1321 X6.6819 Y3.1655
N1322 X6.7631 Y3.1319
N1323 X6.7794 Y3.1239
N1324 X6.7875 Y3.12
N1325 X6.8095 Y3.1104
N1326 X6.8362 Y3.1013
N1327 X6.871 Y3.0924
N1328 X6.9064 Y3.0862
N1329 X6.942 Y3.0818
N1330 X6.9777 Y3.0786
N1331 X7.0136 Y3.0764
N1332 X7.0494 Y3.0749
N1333 X7.0853 Y3.0737
N1334 X7.1212 Y3.0729
N1335 X7.1571 Y3.0724
N1336 X7.193 Y3.072
N1337 X7.2289 Y3.0717
N1338 X7.2648 Y3.0715
N1339 X7.3007 Y3.0713
N1340 X7.3725 Y3.0711
N1341 X7.4084
N1342 X7.4437 Y3.0648
N1343 X7.4756 Y3.0482
N1344 X7.5024 Y3.0244
N1345 X7.5241 Y2.9958
N1346 X7.5414 Y2.9643
N1347 X7.5548 Y2.931
N1348 X7.5652 Y2.8967
N1349 X7.5732 Y2.8617
N1350 X7.5793 Y2.8263
N1351 X7.5839 Y2.7907
N1352 X7.5874 Y2.755
N1353 X7.59 Y2.7192
N1354 X7.592 Y2.6833
N1355 X7.5935 Y2.6474
N1356 X7.5946 Y2.6116
N1357 X7.5954 Y2.5757
N1358 X7.596 Y2.5398
N1359 X7.5965 Y2.5039
N1360 X7.5968 Y2.468
N1361 X7.5971 Y2.4321
N1362 X7.5973 Y2.3962
N1363 X7.5975 Y2.3244
N1364 X7.5976 Y2.2558
N1365 X7.5981 Y2.249
N1366 X7.5994 Y2.2423
N1367 X7.6016 Y2.2359
N1368 X7.6031 Y2.2315
N1369 X7.6113 Y2.2075
N1370 X7.6371 Y2.1299
N1371 X7.6394 Y2.1217
N1372 X7.6439 Y2.1048
N1373 X7.648 Y2.0891
N1374 X7.6646 Y2.0239
N1375 X7.6664 Y2.0157
N1376 X7.6697 Y1.9994
N1377 X7.6713 Y1.9913
N1378 X7.6847 Y1.9168
N1379 X7.6858 Y1.9097
N1380 X7.6881 Y1.8934
N1381 X7.6892 Y1.8852
N1382 X7.6981 Y1.8031
N1383 G3 X7.7013 Y1.7939 I0.0247 J0.0035 F55
N1384 G1 X7.7033 Y1.7906 Z-0.1178
N1385 X7.7052 Y1.7873 Z-0.1169
N1386 X7.7071 Y1.7842 Z-0.1154
N1387 X7.7088 Y1.7813 Z-0.1133
N1388 X7.7103 Y1.7787 Z-0.1108
N1389 X7.7116 Y1.7765 Z-0.1078
N1390 X7.7126 Y1.7748 Z-0.1045
N1391 X7.7134 Y1.7735 Z-0.1008
N1392 X7.7139 Y1.7727 Z-0.097
N1393 X7.714 Y1.7724 Z-0.0931
N1394 G0 Z0.1969
N1395 X6.7907 Y3.153
N1396 Z-0.0681
N1397 G1 Z-0.0931 F55
N1398 X6.7906 Y3.1527 Z-0.097
N1399 X6.7904 Y3.1519 Z-0.1008
N1400 X6.79 Y3.1504 Z-0.1045
N1401 X6.7894 Y3.1484 Z-0.1078
N1402 X6.7887 Y3.146 Z-0.1108
N1403 X6.7878 Y3.1431 Z-0.1133
N1404 X6.7869 Y3.1399 Z-0.1154
N1405 X6.7859 Y3.1364 Z-0.1169
N1406 X6.7848 Y3.1328 Z-0.1178
N1407 X6.7837 Y3.129 Z-0.1181
N1408 G3 X6.7875 Y3.12 I0.0075 J-0.0022
N1409 G1 X6.8038 Y3.1118 F89.37
N1410 X6.8446 Y3.0914
N1411 X6.8691 Y3.079
N1412 X6.8748 Y3.0758
N1413 X6.9024 Y3.0595
N1414 X6.9507 Y3.0309
N1415 X6.9647 Y3.023
N1416 X6.9844 Y3.014
N1417 X7.0103 Y3.0045
N1418 X7.0449 Y2.995
N1419 X7.0802 Y2.9882
N1420 X7.1157 Y2.9834
N1421 X7.1515 Y2.9799
N1422 X7.1873 Y2.9774
N1423 X7.2231 Y2.9756
N1424 X7.259 Y2.9743
N1425 X7.2949 Y2.9734
N1426 X7.3306 Y2.9693
N1427 X7.3636 Y2.9551
N1428 X7.392 Y2.9332
N1429 X7.4154 Y2.906
N1430 X7.4342 Y2.8754
N1431 X7.449 Y2.8427
N1432 X7.4605 Y2.8087
N1433 X7.4695 Y2.7739
N1434 X7.4763 Y2.7387
N1435 X7.4815 Y2.7032
N1436 X7.4855 Y2.6675
N1437 X7.4886 Y2.6317
N1438 X7.4908 Y2.5959
N1439 X7.4926 Y2.5601
N1440 X7.4939 Y2.5242
N1441 X7.4949 Y2.4883
N1442 X7.4951 Y2.4771
N1443 X7.4961 Y2.4673
N1444 X7.4988 Y2.4577
N1445 X7.5031 Y2.4488
N1446 X7.5036 Y2.4479
N1447 X7.5081 Y2.4397
N1448 X7.5125 Y2.4316
N1449 X7.5574 Y2.3419
N1450 X7.5644 Y2.3256
N1451 X7.5712 Y2.3093
N1452 X7.6016 Y2.2359
N1453 G3 X7.6073 Y2.228 I0.0228 J0.0103 F55
N1454 G1 X7.6101 Y2.2253 Z-0.1178
N1455 X7.6129 Y2.2227 Z-0.1169
N1456 X7.6156 Y2.2202 Z-0.1154
N1457 X7.618 Y2.2179 Z-0.1133
N1458 X7.6202 Y2.2159 Z-0.1108
N1459 X7.622 Y2.2142 Z-0.1078
N1460 X7.6235 Y2.2128 Z-0.1045
N1461 X7.6246 Y2.2117 Z-0.1008
N1462 X7.6253 Y2.2111 Z-0.097
N1463 X7.6255 Y2.2109 Z-0.0931
N1464 G0 Z0.1969
N1465 X6.9571 Y3.0634
N1466 Z-0.0681
N1467 G1 Z-0.0931 F55
N1468 X6.957 Y3.0632 Z-0.097
N1469 X6.9567 Y3.0623 Z-0.1008
N1470 X6.9561 Y3.0609 Z-0.1045
N1471 X6.9553 Y3.059 Z-0.1078
N1472 X6.9544 Y3.0566 Z-0.1108
N1473 X6.9533 Y3.0539 Z-0.1133
N1474 X6.952 Y3.0508 Z-0.1154
N1475 X6.9507 Y3.0474 Z-0.1169
N1476 X6.9492 Y3.0439 Z-0.1178
N1477 X6.9478 Y3.0402 Z-0.1181
N1478 G3 X6.9507 Y3.0309 I0.0072 J-0.0029
N1479 G1 X6.9751 Y3.0155 F89.37
N1480 X6.9833 Y3.01
N1481 X7.0567 Y2.959
N1482 X7.0648 Y2.9527
N1483 X7.073 Y2.9463
N1484 X7.0861 Y2.9369
N1485 X7.1008 Y2.9282
N1486 X7.1198 Y2.9188
N1487 X7.1442 Y2.9092
N1488 X7.1785 Y2.8987
N1489 X7.2136 Y2.8909
N1490 X7.2471 Y2.8781
N1491 X7.277 Y2.8582
N1492 X7.3023 Y2.8327
N1493 X7.3231 Y2.8035
N1494 X7.3398 Y2.7717
N1495 X7.353 Y2.7383
N1496 X7.3634 Y2.704
N1497 X7.3714 Y2.669
N1498 X7.3735 Y2.6576
N1499 X7.3756 Y2.6492
N1500 X7.3789 Y2.6413
N1501 X7.3833 Y2.6339
N1502 X7.3996 Y2.611
N1503 X7.4336 Y2.5621
N1504 X7.4392 Y2.5539
N1505 X7.4553 Y2.5294
N1506 X7.4988 Y2.4561
N1507 X7.5031 Y2.4488
N1508 G3 X7.5098 Y2.4417 I0.0211 J0.0134 F55
N1509 G1 X7.513 Y2.4395 Z-0.1178
N1510 X7.5162 Y2.4373 Z-0.1169
N1511 X7.5191 Y2.4352 Z-0.1154
N1512 X7.5219 Y2.4333 Z-0.1133
N1513 X7.5243 Y2.4316 Z-0.1108
N1514 X7.5264 Y2.4301 Z-0.1078
N1515 X7.5281 Y2.4289 Z-0.1045
N1516 X7.5293 Y2.4281 Z-0.1008
N1517 X7.53 Y2.4275 Z-0.097
N1518 X7.5303 Y2.4274 Z-0.0931
N1519 G0 Z0.1969
N1520 X7.0829 Y2.978
N1521 Z-0.0681
N1522 G1 Z-0.0931 F55
N1523 X7.0828 Y2.9777 Z-0.097
N1524 X7.0824 Y2.9769 Z-0.1008
N1525 X7.0817 Y2.9756 Z-0.1045
N1526 X7.0807 Y2.9738 Z-0.1078
N1527 X7.0795 Y2.9715 Z-0.1108
N1528 X7.0781 Y2.9689 Z-0.1133
N1529 X7.0765 Y2.9659 Z-0.1154
N1530 X7.0748 Y2.9627 Z-0.1169
N1531 X7.073 Y2.9594 Z-0.1178
N1532 X7.0712 Y2.9559 Z-0.1181
N1533 G3 X7.073 Y2.9463 I0.0069 J-0.0037
N1534 G1 X7.0845 Y2.9372 F89.37
N1535 X7.1382 Y2.8939
N1536 X7.1546 Y2.8801
N1537 X7.1636 Y2.8719
N1538 X7.2161 Y2.823
N1539 X7.2198 Y2.8195
N1540 X7.2413 Y2.7985
N1541 X7.2443 Y2.7954
N1542 X7.2945 Y2.7415
N1543 X7.302 Y2.7333
N1544 X7.3167 Y2.717
N1545 X7.3758 Y2.6436
N1546 X7.3823 Y2.6354
N1547 X7.3833 Y2.6339
N1548 X7.3849 Y2.6325 Z-0.1179 F55
N1549 X7.3865 Y2.6311 Z-0.1171
N1550 X7.3878 Y2.6298 Z-0.116
N1551 X7.389 Y2.6288 Z-0.1144
N1552 X7.3898 Y2.628 Z-0.1126
N1553 X7.3904 Y2.6276 Z-0.1105
N1554 X7.3907 Y2.6275 Z-0.1083
N1555 G0 Z0.1969
N1556 X6.0551 Y1.5643
N1557 Z0.1235
N1558 G1 Z0.0985 F55
N1559 G3 X6.1496 Y1.7822 Z0.0855 I0.0472 J0.1089
N1560 X6.0551 Y1.5643 Z0.0725 I-0.0472 J-0.1089
N1561 X6.1496 Y1.7822 Z0.0595 I0.0472 J0.1089
N1562 X6.0551 Y1.5643 Z0.0464 I-0.0472 J-0.1089
N1563 X6.1496 Y1.7822 Z0.0334 I0.0472 J0.1089
N1564 X6.0551 Y1.5643 Z0.0204 I-0.0472 J-0.1089
N1565 X6.1496 Y1.7822 Z0.0073 I0.0472 J0.1089
N1566 X6.0551 Y1.5643 Z-0.0057 I-0.0472 J-0.1089
N1567 X6.1496 Y1.7822 Z-0.0187 I0.0472 J0.1089
N1568 X6.0551 Y1.5643 Z-0.0317 I-0.0472 J-0.1089
N1569 X6.1496 Y1.7822 Z-0.0448 I0.0472 J0.1089
N1570 X6.0551 Y1.5643 Z-0.0578 I-0.0472 J-0.1089
N1571 X6.1496 Y1.7822 Z-0.0708 I0.0472 J0.1089
N1572 X6.0551 Y1.5643 Z-0.0838 I-0.0472 J-0.1089
N1573 X6.1496 Y1.7822 Z-0.0969 I0.0472 J0.1089
N1574 X6.0551 Y1.5643 Z-0.1099 I-0.0472 J-0.1089
N1575 X6.2211 Y1.6732 Z-0.1181 I0.0472 J0.1089
N1576 X5.9836 I-0.1188 J0
N1577 X6.2169 Y1.6418 I0.1187 J0
N1578 X6.2211 Y1.6732 I-0.1145 J0.0314
N1579 G1 X6.2212 Y1.6822 F89.37
N1580 X6.2273 Y1.7176
N1581 X6.229 Y1.7218
N1582 X6.2306 Y1.7275
N1583 X6.2316 Y1.7333
N1584 X6.2321 Y1.7391
N1585 Y1.7453
N1586 X6.2316 Y1.7518
N1587 X6.2304 Y1.7588
N1588 X6.2286 Y1.7661
N1589 X6.2261 Y1.7736
N1590 X6.2228 Y1.7813
N1591 X6.2187 Y1.7892
N1592 X6.2137 Y1.797
N1593 X6.2079 Y1.8048
N1594 X6.2012 Y1.8124
N1595 X6.1936 Y1.8197
N1596 X6.1851 Y1.8267
N1597 X6.1758 Y1.8331
N1598 X6.1657 Y1.839
N1599 X6.1549 Y1.8441
N1600 X6.1434 Y1.8485
N1601 X6.1313 Y1.8521
N1602 X6.1187 Y1.8547
N1603 X6.1057 Y1.8563
N1604 X6.0924 Y1.8569
N1605 X6.0788 Y1.8564
N1606 X6.0652 Y1.8547
N1607 X6.0515 Y1.852
N1608 X6.038 Y1.8482
N1609 X6.0247 Y1.8432
N1610 X6.0117 Y1.8371
N1611 X5.9992 Y1.8299
N1612 X5.9871 Y1.8217
N1613 X5.9758 Y1.8125
N1614 X5.9651 Y1.8024
N1615 X5.9552 Y1.7914
N1616 X5.9463 Y1.7795
N1617 X5.9382 Y1.767
N1618 X5.9312 Y1.7538
N1619 X5.9253 Y1.7401
N1620 X5.9204 Y1.7259
N1621 X5.9167 Y1.7113
N1622 X5.9142 Y1.6964
N1623 X5.9129 Y1.6814
N1624 X5.9128 Y1.6662
N1625 X5.9139 Y1.6511
N1626 X5.9162 Y1.6361
N1627 X5.9197 Y1.6214
N1628 X5.9244 Y1.6069
N1629 X5.9302 Y1.5929
N1630 X5.9372 Y1.5794
N1631 X5.9452 Y1.5665
N1632 X5.9542 Y1.5542
N1633 X5.9642 Y1.5427
N1634 X5.9751 Y1.5321
N1635 X5.9868 Y1.5223
N1636 X5.9993 Y1.5135
N1637 X6.0124 Y1.5058
N1638 X6.0261 Y1.4991
N1639 X6.0403 Y1.4935
N1640 X6.055 Y1.4891
N1641 X6.0699 Y1.4859
N1642 X6.085 Y1.4839
N1643 X6.1002 Y1.4831
N1644 X6.1155 Y1.4836
N1645 X6.1307 Y1.4852
N1646 X6.1457 Y1.4881
N1647 X6.1604 Y1.4922
N1648 X6.1747 Y1.4974
N1649 X6.1886 Y1.5038
N1650 X6.2019 Y1.5113
N1651 X6.2146 Y1.5198
N1652 X6.2265 Y1.5293
N1653 X6.2377 Y1.5397
N1654 X6.248 Y1.551
N1655 X6.2573 Y1.5631
N1656 X6.2659 Y1.5762
N1657 X6.2813 Y1.6047
N1658 X6.293 Y1.631
N1659 X6.3006 Y1.6527
N1660 X6.3058 Y1.6723
N1661 X6.3091 Y1.6908
N1662 X6.3108 Y1.7086
N1663 X6.311 Y1.7259
N1664 X6.3099 Y1.7428
N1665 X6.3075 Y1.7592
N1666 X6.3039 Y1.7752
N1667 X6.2989 Y1.7909
N1668 X6.2927 Y1.8062
N1669 X6.2852 Y1.821
N1670 X6.2766 Y1.8352
N1671 X6.2667 Y1.8489
N1672 X6.2556 Y1.8618
N1673 X6.2435 Y1.8739
N1674 X6.2302 Y1.8851
N1675 X6.2158 Y1.8954
N1676 X6.2005 Y1.9046
N1677 X6.1843 Y1.9127
N1678 X6.1672 Y1.9196
N1679 X6.1494 Y1.9251
N1680 X6.131 Y1.9292
N1681 X6.1121 Y1.9319
N1682 X6.0928 Y1.933
N1683 X6.0733 Y1.9326
N1684 X6.0537 Y1.9306
N1685 X6.0341 Y1.9271
N1686 X6.0147 Y1.9219
N1687 X5.9957 Y1.9151
N1688 X5.9772 Y1.9068
N1689 X5.9593 Y1.8969
N1690 X5.9421 Y1.8856
N1691 X5.9258 Y1.8729
N1692 X5.9105 Y1.8588
N1693 X5.8963 Y1.8435
N1694 X5.8833 Y1.827
N1695 X5.8717 Y1.8094
N1696 X5.8615 Y1.791
N1697 X5.8527 Y1.7717
N1698 X5.8455 Y1.7517
N1699 X5.84 Y1.7311
N1700 X5.8361 Y1.7101
N1701 X5.8338 Y1.6889
N1702 X5.8333 Y1.6675
N1703 X5.8345 Y1.646
N1704 X5.8375 Y1.6248
N1705 X5.8421 Y1.6038
N1706 X5.8484 Y1.5832
N1707 X5.8564 Y1.5632
N1708 X5.8659 Y1.5438
N1709 X5.877 Y1.5253
N1710 X5.8895 Y1.5077
N1711 X5.9034 Y1.4912
N1712 X5.9186 Y1.4758
N1713 X5.935 Y1.4617
N1714 X5.9525 Y1.449
N1715 X5.9709 Y1.4377
N1716 X5.9902 Y1.4279
N1717 X6.0102 Y1.4197
N1718 X6.0308 Y1.4131
N1719 X6.0519 Y1.4082
N1720 X6.0733 Y1.405
N1721 X6.0949 Y1.4035
N1722 X6.1166 Y1.4038
N1723 X6.1382 Y1.4058
N1724 X6.1595 Y1.4095
N1725 X6.1805 Y1.415
N1726 X6.201 Y1.4221
N1727 X6.2208 Y1.4308
N1728 X6.2399 Y1.4411
N1729 X6.2581 Y1.4528
N1730 X6.2753 Y1.4661
N1731 X6.2939 Y1.4829
N1732 X6.3121 Y1.5023
N1733 X6.3292 Y1.5236
N1734 X6.3448 Y1.5468
N1735 X6.3584 Y1.5708
N1736 X6.3697 Y1.5953
N1737 X6.3788 Y1.62
N1738 X6.3858 Y1.6447
N1739 X6.3906 Y1.6693
N1740 X6.3933 Y1.6939
N1741 X6.3941 Y1.7183
N1742 X6.3929 Y1.7424
N1743 X6.3899 Y1.7661
N1744 X6.3849 Y1.7894
N1745 X6.3782 Y1.8121
N1746 X6.3696 Y1.8342
N1747 X6.3593 Y1.8555
N1748 X6.3473 Y1.876
N1749 X6.3336 Y1.8955
N1750 X6.3183 Y1.914
N1751 X6.3015 Y1.9312
N1752 X6.2833 Y1.9472
N1753 X6.2636 Y1.9618
N1754 X6.2427 Y1.9749
N1755 X6.2206 Y1.9863
N1756 X6.1975 Y1.996
N1757 X6.1735 Y2.0039
N1758 X6.1487 Y2.0099
N1759 X6.1233 Y2.0139
N1760 X6.0975 Y2.0159
N1761 X6.0714 Y2.0158
N1762 X6.0453 Y2.0135
N1763 X6.0192 Y2.0092
N1764 X5.9934 Y2.0028
N1765 X5.9681 Y1.9942
N1766 X5.9434 Y1.9836
N1767 X5.9195 Y1.971
N1768 X5.8965 Y1.9564
N1769 X5.8747 Y1.9399
N1770 X5.8543 Y1.9217
N1771 X5.8352 Y1.9018
N1772 X5.8178 Y1.8803
N1773 X5.8021 Y1.8575
N1774 X5.7882 Y1.8334
N1775 X5.7763 Y1.8082
N1776 X5.7664 Y1.782
N1777 X5.7586 Y1.7551
N1778 X5.753 Y1.7276
N1779 X5.7496 Y1.6996
N1780 X5.7485 Y1.6715
N1781 X5.7496 Y1.6433
N1782 X5.753 Y1.6153
N1783 X5.7587 Y1.5875
N1784 X5.7665 Y1.5603
N1785 X5.7765 Y1.5338
N1786 X5.7887 Y1.5082
N1787 X5.8028 Y1.4836
N1788 X5.8189 Y1.4602
N1789 X5.8368 Y1.4382
N1790 X5.8565 Y1.4177
N1791 X5.8777 Y1.3988
N1792 X5.9004 Y1.3816
N1793 X5.9244 Y1.3664
N1794 X5.9496 Y1.3531
N1795 X5.9757 Y1.3418
N1796 X6.0027 Y1.3327
N1797 X6.0303 Y1.3258
N1798 X6.0584 Y1.3212
N1799 X6.0868 Y1.3188
N1800 X6.1153 Y1.3186
N1801 X6.1437 Y1.3208
N1802 X6.1718 Y1.3253
N1803 X6.1995 Y1.3319
N1804 X6.2266 Y1.3408
N1805 X6.2529 Y1.3519
N1806 X6.2789 Y1.3654
N1807 X6.3046 Y1.3814
N1808 X6.3298 Y1.4001
N1809 X6.3539 Y1.4213
N1810 X6.3768 Y1.4447
N1811 X6.3978 Y1.4702
N1812 X6.4168 Y1.4973
N1813 X6.4335 Y1.5258
N1814 X6.4478 Y1.5553
N1815 X6.4596 Y1.5857
N1816 X6.4688 Y1.6166
N1817 X6.4754 Y1.6479
N1818 X6.4795 Y1.6793
N1819 X6.481 Y1.7108
N1820 X6.48 Y1.7421
N1821 X6.4765 Y1.773
N1822 X6.4706 Y1.8035
N1823 X6.4622 Y1.8332
N1824 X6.4515 Y1.8622
N1825 X6.4386 Y1.8903
N1826 X6.4233 Y1.9172
N1827 X6.406 Y1.9429
N1828 X6.3866 Y1.9671
N1829 X6.3652 Y1.9899
N1830 X6.3419 Y2.0109
N1831 X6.3169 Y2.0301
N1832 X6.2903 Y2.0473
N1833 X6.2623 Y2.0625
N1834 X6.2329 Y2.0754
N1835 X6.2024 Y2.0859
N1836 X6.171 Y2.0941
N1837 X6.1388 Y2.0997
N1838 X6.1061 Y2.1027
N1839 X6.0731 Y2.1031
N1840 X6.04 Y2.1009
N1841 X6.007 Y2.096
N1842 X5.9743 Y2.0883
N1843 X5.9422 Y2.0781
N1844 X5.9108 Y2.0652
N1845 X5.8805 Y2.0498
N1846 X5.8514 Y2.032
N1847 X5.8237 Y2.0118
N1848 X5.7976 Y1.9893
N1849 X5.7733 Y1.9647
N1850 X5.751 Y1.9382
N1851 X5.7309 Y1.9099
N1852 X5.713 Y1.88
N1853 X5.6975 Y1.8487
N1854 X5.6846 Y1.8162
N1855 X5.6743 Y1.7827
N1856 X5.6668 Y1.7484
N1857 X5.662 Y1.7135
N1858 X5.66 Y1.6784
N1859 X5.6608 Y1.6431
N1860 X5.6645 Y1.6079
N1861 X5.671 Y1.5732
N1862 X5.6802 Y1.539
N1863 X5.6922 Y1.5057
N1864 X5.7068 Y1.4734
N1865 X5.724 Y1.4424
N1866 X5.7437 Y1.4128
N1867 X5.7656 Y1.3849
N1868 X5.7898 Y1.3588
N1869 X5.8159 Y1.3348
N1870 X5.8439 Y1.3129
N1871 X5.8736 Y1.2933
N1872 X5.9048 Y1.2762
N1873 X5.9373 Y1.2616
N1874 X5.9708 Y1.2496
N1875 X6.0052 Y1.2404
N1876 X6.0402 Y1.234
N1877 X6.0756 Y1.2304
N1878 X6.1112 Y1.2297
N1879 X6.1468 Y1.2318
N1880 X6.182 Y1.2368
N1881 X6.2169 Y1.2446
N1882 X6.2512 Y1.2553
N1883 X6.2845 Y1.2686
N1884 X6.3167 Y1.2845
N1885 X6.3475 Y1.3029
N1886 X6.3769 Y1.3236
N1887 X6.4046 Y1.3465
N1888 X6.4305 Y1.3713
N1889 X6.4546 Y1.3979
N1890 X6.4767 Y1.4262
N1891 X6.4967 Y1.456
N1892 X6.5146 Y1.4871
N1893 X6.5301 Y1.5195
N1894 X6.5432 Y1.5529
N1895 X6.5539 Y1.5872
N1896 X6.5619 Y1.6222
N1897 X6.5673 Y1.6576
N1898 X6.5701 Y1.6934
N1899 X6.5702 Y1.7293
N1900 X6.5677 Y1.7651
N1901 X6.5624 Y1.8007
N1902 X6.5545 Y1.8357
N1903 X6.5441 Y1.87
N1904 X6.531 Y1.9035
N1905 X6.5155 Y1.9358
N1906 X6.4976 Y1.9669
N1907 X6.4774 Y1.9966
N1908 X6.455 Y2.0247
N1909 X6.4306 Y2.051
N1910 X6.4043 Y2.0754
N1911 X6.3762 Y2.0978
N1912 X6.3465 Y2.1179
N1913 X6.3154 Y2.1359
N1914 X6.2831 Y2.1514
N1915 X6.2497 Y2.1646
N1916 X6.2154 Y2.1754
N1917 X6.1805 Y2.1836
N1918 X6.145 Y2.1893
N1919 X6.1093 Y2.1925
N1920 X6.0734 Y2.193
N1921 X6.0375 Y2.191
N1922 X6.0019 Y2.1863
N1923 X5.9668 Y2.1792
N1924 X5.9322 Y2.1696
N1925 X5.8983 Y2.1576
N1926 X5.8654 Y2.1433
N1927 X5.8335 Y2.1268
N1928 X5.8029 Y2.108
N1929 X5.7737 Y2.0871
N1930 X5.7461 Y2.0642
N1931 X5.7201 Y2.0395
N1932 X5.6958 Y2.013
N1933 X5.6734 Y1.985
N1934 X5.6529 Y1.9555
N1935 X5.6345 Y1.9247
N1936 X5.6184 Y1.8926
N1937 X5.6044 Y1.8595
N1938 X5.5928 Y1.8256
N1939 X5.5835 Y1.7909
N1940 X5.5764 Y1.7557
N1941 X5.5718 Y1.7201
N1942 X5.5697 Y1.6843
N1943 X5.5701 Y1.6484
N1944 X5.5729 Y1.6126
N1945 X5.5781 Y1.5771
N1946 X5.5856 Y1.542
N1947 X5.5954 Y1.5075
N1948 X5.6076 Y1.4737
N1949 X5.6222 Y1.4409
N1950 X5.6389 Y1.4091
N1951 X5.6576 Y1.3785
N1952 X5.6784 Y1.3492
N1953 X5.701 Y1.3214
N1954 X5.7256 Y1.2951
N1955 X5.7518 Y1.2707
N1956 X5.7797 Y1.248
N1957 X5.809 Y1.2273
N1958 X5.8396 Y1.2085
N1959 X5.8714 Y1.1919
N1960 X5.9042 Y1.1774
N1961 X5.938 Y1.1652
N1962 X5.9725 Y1.1553
N1963 X6.0076 Y1.1478
N1964 X6.0431 Y1.1426
N1965 X6.0789 Y1.1397
N1966 X6.1148 Y1.1393
N1967 X6.1507 Y1.1414
N1968 X6.1863 Y1.1459
N1969 X6.2215 Y1.1527
N1970 X6.2562 Y1.1619
N1971 X6.2903 Y1.1732
N1972 X6.3235 Y1.1868
N1973 X6.3557 Y1.2026
N1974 X6.3869 Y1.2205
N1975 X6.4168 Y1.2404
N1976 X6.4454 Y1.262
N1977 X6.4726 Y1.2854
N1978 X6.4984 Y1.3104
N1979 X6.5225 Y1.337
N1980 X6.5449 Y1.365
N1981 X6.5656 Y1.3944
N1982 X6.5844 Y1.425
N1983 X6.6014 Y1.4566
N1984 X6.6164 Y1.4892
N1985 X6.6293 Y1.5227
N1986 X6.6401 Y1.557
N1987 X6.6487 Y1.5918
N1988 X6.6551 Y1.6271
N1989 X6.6593 Y1.6628
N1990 X6.6614 Y1.6986
N1991 X6.6612 Y1.7345
N1992 X6.6587 Y1.7703
N1993 X6.6539 Y1.8059
N1994 X6.6469 Y1.8411
N1995 X6.6377 Y1.8758
N1996 X6.6264 Y1.9099
N1997 X6.613 Y1.9432
N1998 X6.5974 Y1.9755
N1999 X6.5798 Y2.0068
N2000 X6.5603 Y2.037
N2001 X6.5389 Y2.0658
N2002 X6.5158 Y2.0933
N2003 X6.491 Y2.1192
N2004 X6.4646 Y2.1435
N2005 X6.4367 Y2.1661
N2006 X6.4074 Y2.1869
N2007 X6.3769 Y2.2058
N2008 X6.3453 Y2.2228
N2009 X6.3127 Y2.2379
N2010 X6.2792 Y2.2509
N2011 X6.245 Y2.2618
N2012 X6.2102 Y2.2706
N2013 X6.1749 Y2.2772
N2014 X6.1393 Y2.2817
N2015 X6.1035 Y2.284
N2016 X6.0676 Y2.2842
N2017 X6.0318 Y2.2821
N2018 X5.9961 Y2.2778
N2019 X5.9608 Y2.2714
N2020 X5.9259 Y2.2629
N2021 X5.8916 Y2.2524
N2022 X5.8579 Y2.2399
N2023 X5.8251 Y2.2255
N2024 X5.7932 Y2.209
N2025 X5.7624 Y2.1906
N2026 X5.7327 Y2.1705
N2027 X5.7042 Y2.1486
N2028 X5.677 Y2.1251
N2029 X5.6513 Y2.1001
N2030 X5.627 Y2.0736
N2031 X5.6044 Y2.0458
N2032 X5.5835 Y2.0166
N2033 X5.5643 Y1.9862
N2034 X5.5469 Y1.9548
N2035 X5.5314 Y1.9225
N2036 X5.5177 Y1.8893
N2037 X5.506 Y1.8553
N2038 X5.4963 Y1.8208
N2039 X5.4887 Y1.7857
N2040 X5.4831 Y1.7502
N2041 X5.4795 Y1.7145
N2042 X5.478 Y1.6787
N2043 X5.4786 Y1.6428
N2044 X5.4812 Y1.607
N2045 X5.486 Y1.5714
N2046 X5.4928 Y1.5361
N2047 X5.5016 Y1.5013
N2048 X5.5124 Y1.4671
N2049 X5.5251 Y1.4335
N2050 X5.5397 Y1.4007
N2051 X5.5562 Y1.3689
N2052 X5.5746 Y1.338
N2053 X5.5946 Y1.3082
N2054 X5.6164 Y1.2797
N2055 X5.6397 Y1.2524
N2056 X5.6646 Y1.2265
N2057 X5.6909 Y1.2021
N2058 X5.7186 Y1.1793
N2059 X5.7476 Y1.1581
N2060 X5.7777 Y1.1385
N2061 X5.8089 Y1.1208
N2062 X5.841 Y1.1048
N2063 X5.874 Y1.0907
N2064 X5.9078 Y1.0785
N2065 X5.9423 Y1.0684
N2066 X5.9772 Y1.0602
N2067 X6.0126 Y1.0541
N2068 X6.0482 Y1.0499
N2069 X6.0841 Y1.0478
N2070 X6.12 Y1.0477
N2071 X6.1558 Y1.0497
N2072 X6.1915 Y1.0538
N2073 X6.2268 Y1.06
N2074 X6.2618 Y1.0681
N2075 X6.2963 Y1.0782
N2076 X6.3301 Y1.0901
N2077 X6.3632 Y1.104
N2078 X6.3955 Y1.1197
N2079 X6.4268 Y1.1372
N2080 X6.4572 Y1.1564
N2081 X6.4864 Y1.1773
N2082 X6.5145 Y1.1996
N2083 X6.5414 Y1.2234
N2084 X6.5669 Y1.2486
N2085 X6.5911 Y1.2752
N2086 X6.6137 Y1.3031
N2087 X6.6349 Y1.3321
N2088 X6.6544 Y1.3622
N2089 X6.6724 Y1.3932
N2090 X6.6887 Y1.4252
N2091 X6.7033 Y1.458
N2092 X6.7161 Y1.4915
N2093 X6.7271 Y1.5257
N2094 X6.7362 Y1.5605
N2095 X6.7434 Y1.5956
N2096 X6.7487 Y1.6311
N2097 X6.7522 Y1.6669
N2098 X6.7537 Y1.7027
N2099 X6.7533 Y1.7386
N2100 X6.7509 Y1.7744
N2101 X6.7465 Y1.8101
N2102 X6.7403 Y1.8454
N2103 X6.7321 Y1.8804
N2104 X6.7221 Y1.9148
N2105 X6.7103 Y1.9487
N2106 X6.6966 Y1.9819
N2107 X6.6811 Y2.0143
N2108 X6.6639 Y2.0458
N2109 X6.6449 Y2.0763
N2110 X6.6244 Y2.1057
N2111 X6.6023 Y2.134
N2112 X6.5787 Y2.1611
N2113 X6.5537 Y2.1868
N2114 X6.5273 Y2.2112
N2115 X6.4996 Y2.234
N2116 X6.4707 Y2.2553
N2117 X6.4407 Y2.275
N2118 X6.4097 Y2.2931
N2119 X6.3778 Y2.3096
N2120 X6.3451 Y2.3244
N2121 X6.3116 Y2.3374
N2122 X6.2775 Y2.3485
N2123 X6.2428 Y2.3578
N2124 X6.2077 Y2.3652
N2125 X6.1722 Y2.3708
N2126 X6.1365 Y2.3746
N2127 X6.1007 Y2.3765
N2128 X6.0648
N2129 X6.0289 Y2.3746
N2130 X5.9933 Y2.3708
N2131 X5.9578 Y2.3651
N2132 X5.9227 Y2.3576
N2133 X5.888 Y2.3483
N2134 X5.8539 Y2.3373
N2135 X5.8203 Y2.3245
N2136 X5.7875 Y2.31
N2137 X5.7555 Y2.2938
N2138 X5.7243 Y2.2759
N2139 X5.6942 Y2.2564
N2140 X5.665 Y2.2355
N2141 X5.637 Y2.2131
N2142 X5.61 Y2.1893
N2143 X5.5844 Y2.1642
N2144 X5.5601 Y2.1378
N2145 X5.5372 Y2.1102
N2146 X5.5157 Y2.0814
N2147 X5.4958 Y2.0515
N2148 X5.4773 Y2.0207
N2149 X5.4604 Y1.9891
N2150 X5.4451 Y1.9566
N2151 X5.4315 Y1.9234
N2152 X5.4196 Y1.8895
N2153 X5.4095 Y1.8551
N2154 X5.4011 Y1.8202
N2155 X5.3945 Y1.7849
N2156 X5.3897 Y1.7493
N2157 X5.3866 Y1.7135
N2158 X5.3853 Y1.6777
N2159 X5.3858 Y1.6418
N2160 X5.3882 Y1.606
N2161 X5.3924 Y1.5703
N2162 X5.3984 Y1.5349
N2163 X5.4061 Y1.4999
N2164 X5.4155 Y1.4652
N2165 X5.4267 Y1.4311
N2166 X5.4395 Y1.3976
N2167 X5.4541 Y1.3648
N2168 X5.4703 Y1.3327
N2169 X5.4881 Y1.3016
N2170 X5.5074 Y1.2713
N2171 X5.5282 Y1.2421
N2172 X5.5504 Y1.2139
N2173 X5.574 Y1.1868
N2174 X5.5989 Y1.1609
N2175 X5.6251 Y1.1364
N2176 X5.6526 Y1.1132
N2177 X5.6811 Y1.0915
N2178 X5.7107 Y1.0712
N2179 X5.7413 Y1.0523
N2180 X5.7727 Y1.035
N2181 X5.805 Y1.0193
N2182 X5.838 Y1.0052
N2183 X5.8717 Y0.9928
N2184 X5.906 Y0.9822
N2185 X5.9408 Y0.9733
N2186 X5.9759 Y0.9661
N2187 X6.0114 Y0.9606
N2188 X6.0471 Y0.9569
N2189 X6.083 Y0.955
N2190 X6.1189 Y0.9549
N2191 X6.1547 Y0.9566
N2192 X6.1904 Y0.9601
N2193 X6.2259 Y0.9654
N2194 X6.2611 Y0.9725
N2195 X6.296 Y0.9812
N2196 X6.3303 Y0.9916
N2197 X6.3641 Y1.0037
N2198 X6.3973 Y1.0175
N2199 X6.4297 Y1.0329
N2200 X6.4613 Y1.0498
N2201 X6.4921 Y1.0683
N2202 X6.522 Y1.0882
N2203 X6.5509 Y1.1095
N2204 X6.5788 Y1.1321
N2205 X6.6056 Y1.156
N2206 X6.6312 Y1.1811
N2207 X6.6556 Y1.2075
N2208 X6.6787 Y1.235
N2209 X6.7004 Y1.2635
N2210 X6.7209 Y1.293
N2211 X6.7399 Y1.3235
N2212 X6.7575 Y1.3547
N2213 X6.7737 Y1.3868
N2214 X6.7883 Y1.4196
N2215 X6.8013 Y1.453
N2216 X6.8127 Y1.4871
N2217 X6.8225 Y1.5216
N2218 X6.8307 Y1.5566
N2219 X6.8372 Y1.5919
N2220 X6.8421 Y1.6274
N2221 X6.8453 Y1.6632
N2222 X6.8468 Y1.6991
N2223 X6.8466 Y1.735
N2224 X6.8446 Y1.7708
N2225 X6.841 Y1.8065
N2226 X6.8356 Y1.842
N2227 X6.8286 Y1.8772
N2228 X6.82 Y1.9121
N2229 X6.8098 Y1.9465
N2230 X6.7979 Y1.9803
N2231 X6.7844 Y2.0136
N2232 X6.7693 Y2.0462
N2233 X6.7526 Y2.078
N2234 X6.7344 Y2.1089
N2235 X6.7149 Y2.139
N2236 X6.6939 Y2.1682
N2237 X6.6716 Y2.1963
N2238 X6.648 Y2.2233
N2239 X6.6231 Y2.2492
N2240 X6.5969 Y2.2738
N2241 X6.5697 Y2.2971
N2242 X6.5413 Y2.3191
N2243 X6.512 Y2.3398
N2244 X6.4817 Y2.3591
N2245 X6.4506 Y2.377
N2246 X6.4187 Y2.3934
N2247 X6.386 Y2.4083
N2248 X6.3526 Y2.4216
N2249 X6.3187 Y2.4333
N2250 X6.2842 Y2.4434
N2251 X6.2494 Y2.4519
N2252 X6.2141 Y2.4588
N2253 X6.1786 Y2.464
N2254 X6.1429 Y2.4677
N2255 X6.1071 Y2.4697
N2256 X6.0712 Y2.4699
N2257 X6.0353 Y2.4685
N2258 X5.9995 Y2.4654
N2259 X5.9639 Y2.4607
N2260 X5.9286 Y2.4544
N2261 X5.8936 Y2.4465
N2262 X5.859 Y2.4371
N2263 X5.8248 Y2.4261
N2264 X5.7912 Y2.4135
N2265 X5.7582 Y2.3993
N2266 X5.7259 Y2.3837
N2267 X5.6943 Y2.3665
N2268 X5.6636 Y2.348
N2269 X5.6337 Y2.3282
N2270 X5.6047 Y2.307
N2271 X5.5767 Y2.2846
N2272 X5.5497 Y2.2609
N2273 X5.5238 Y2.2359
N2274 X5.4992 Y2.2099
N2275 X5.4757 Y2.1827
N2276 X5.4535 Y2.1545
N2277 X5.4325 Y2.1253
N2278 X5.4129 Y2.0953
N2279 X5.3946 Y2.0644
N2280 X5.3777 Y2.0328
N2281 X5.3622 Y2.0004
N2282 X5.3483 Y1.9673
N2283 X5.3358 Y1.9336
N2284 X5.3249 Y1.8994
N2285 X5.3155 Y1.8648
N2286 X5.3077 Y1.8297
N2287 X5.3013 Y1.7944
N2288 X5.2966 Y1.7588
N2289 X5.2934 Y1.7231
N2290 X5.2918 Y1.6872
N2291 X5.2919 Y1.6513
N2292 X5.2936 Y1.6154
N2293 X5.2969 Y1.5797
N2294 X5.3018 Y1.5441
N2295 X5.3082 Y1.5088
N2296 X5.3162 Y1.4738
N2297 X5.3256 Y1.4392
N2298 X5.3366 Y1.405
N2299 X5.3492 Y1.3714
N2300 X5.3633 Y1.3384
N2301 X5.3788 Y1.306
N2302 X5.3957 Y1.2743
N2303 X5.414 Y1.2435
N2304 X5.4337 Y1.2134
N2305 X5.4546 Y1.1842
N2306 X5.4768 Y1.156
N2307 X5.5002 Y1.1288
N2308 X5.5249 Y1.1027
N2309 X5.5507 Y1.0778
N2310 X5.5775 Y1.054
N2311 X5.6054 Y1.0314
N2312 X5.6343 Y1.01
N2313 X5.664 Y0.9899
N2314 X5.6946 Y0.9711
N2315 X5.726 Y0.9537
N2316 X5.7582 Y0.9378
N2317 X5.791 Y0.9233
N2318 X5.8245 Y0.9103
N2319 X5.8585 Y0.8988
N2320 X5.893 Y0.8888
N2321 X5.9279 Y0.8803
N2322 X5.9631 Y0.8733
N2323 X5.9986 Y0.8679
N2324 X6.0342 Y0.864
N2325 X6.0701 Y0.8618
N2326 X6.106 Y0.8612
N2327 X6.1419 Y0.8621
N2328 X6.1777 Y0.8647
N2329 X6.2133 Y0.8688
N2330 X6.2488 Y0.8745
N2331 X6.284 Y0.8816
N2332 X6.3188 Y0.8903
N2333 X6.3532 Y0.9005
N2334 X6.3871 Y0.9123
N2335 X6.4205 Y0.9255
N2336 X6.4533 Y0.9402
N2337 X6.4854 Y0.9562
N2338 X6.5168 Y0.9737
N2339 X6.5474 Y0.9924
N2340 X6.5772 Y1.0123
N2341 X6.6062 Y1.0335
N2342 X6.6342 Y1.056
N2343 X6.6612 Y1.0796
N2344 X6.6872 Y1.1044
N2345 X6.7121 Y1.1302
N2346 X6.736 Y1.1571
N2347 X6.7587 Y1.1849
N2348 X6.7802 Y1.2136
N2349 X6.8005 Y1.2432
N2350 X6.8196 Y1.2736
N2351 X6.8374 Y1.3048
N2352 X6.8538 Y1.3367
N2353 X6.8689 Y1.3693
N2354 X6.8826 Y1.4025
N2355 X6.8948 Y1.4362
N2356 X6.9057 Y1.4704
N2357 X6.9151 Y1.5051
N2358 X6.9231 Y1.5401
N2359 X6.9297 Y1.5753
N2360 X6.9348 Y1.6109
N2361 X6.9383 Y1.6466
N2362 X6.9403 Y1.6825
N2363 X6.9407 Y1.7184
N2364 X6.9397 Y1.7542
N2365 X6.9371 Y1.79
N2366 X6.9331 Y1.8257
N2367 X6.9276 Y1.8612
N2368 X6.9206 Y1.8964
N2369 X6.9121 Y1.9313
N2370 X6.9021 Y1.9658
N2371 X6.8907 Y1.9998
N2372 X6.8778 Y2.0333
N2373 X6.8635 Y2.0662
N2374 X6.8479 Y2.0985
N2375 X6.8308 Y2.1301
N2376 X6.8125 Y2.161
N2377 X6.793 Y2.1911
N2378 X6.7722 Y2.2204
N2379 X6.7501 Y2.2487
N2380 X6.7268 Y2.276
N2381 X6.7024 Y2.3023
N2382 X6.6769 Y2.3276
N2383 X6.6503 Y2.3517
N2384 X6.6228 Y2.3748
N2385 X6.5943 Y2.3967
N2386 X6.565 Y2.4173
N2387 X6.5348 Y2.4368
N2388 X6.5039 Y2.4549
N2389 X6.4721 Y2.4717
N2390 X6.4397 Y2.4872
N2391 X6.4067 Y2.5013
N2392 X6.3731 Y2.5139
N2393 X6.3391 Y2.5252
N2394 X6.3045 Y2.5351
N2395 X6.2697 Y2.5436
N2396 X6.2345 Y2.5507
N2397 X6.199 Y2.5562
N2398 X6.1633 Y2.5603
N2399 X6.1275 Y2.5628
N2400 X6.0916 Y2.5639
N2401 X6.0557 Y2.5635
N2402 X6.0199 Y2.5616
N2403 X5.9841 Y2.5583
N2404 X5.9486 Y2.5535
N2405 X5.9132 Y2.5473
N2406 X5.8781 Y2.5397
N2407 X5.8434 Y2.5306
N2408 X5.8091 Y2.52
N2409 X5.7752 Y2.5081
N2410 X5.7419 Y2.4948
N2411 X5.7091 Y2.4801
N2412 X5.677 Y2.4642
N2413 X5.6455 Y2.4469
N2414 X5.6147 Y2.4285
N2415 X5.5847 Y2.4088
N2416 X5.5555 Y2.3879
N2417 X5.5272 Y2.3658
N2418 X5.4998 Y2.3425
N2419 X5.4734 Y2.3182
N2420 X5.448 Y2.2929
N2421 X5.4237 Y2.2665
N2422 X5.4004 Y2.2392
N2423 X5.3782 Y2.211
N2424 X5.3571 Y2.1819
N2425 X5.3372 Y2.152
N2426 X5.3186 Y2.1213
N2427 X5.3012 Y2.0899
N2428 X5.2851 Y2.0578
N2429 X5.2704 Y2.0251
N2430 X5.2569 Y1.9918
N2431 X5.2448 Y1.958
N2432 X5.234 Y1.9238
N2433 X5.2245 Y1.8892
N2434 X5.2165 Y1.8542
N2435 X5.2098 Y1.8189
N2436 X5.2046 Y1.7834
N2437 X5.2009 Y1.7477
N2438 X5.1985 Y1.7119
N2439 X5.1976 Y1.676
N2440 X5.1981 Y1.6401
N2441 X5.2001 Y1.6042
N2442 X5.2034 Y1.5685
N2443 X5.2082 Y1.5329
N2444 X5.2143 Y1.4975
N2445 X5.2219 Y1.4625
N2446 X5.2309 Y1.4277
N2447 X5.2413 Y1.3933
N2448 X5.253 Y1.3594
N2449 X5.2661 Y1.326
N2450 X5.2805 Y1.2931
N2451 X5.2961 Y1.2608
N2452 X5.3131 Y1.2291
N2453 X5.3312 Y1.1982
N2454 X5.3506 Y1.1679
N2455 X5.3712 Y1.1385
N2456 X5.3929 Y1.11
N2457 X5.4158 Y1.0823
N2458 X5.4397 Y1.0555
N2459 X5.4647 Y1.0298
N2460 X5.4907 Y1.005
N2461 X5.5176 Y0.9813
N2462 X5.5455 Y0.9586
N2463 X5.5742 Y0.9371
N2464 X5.6037 Y0.9167
N2465 X5.6341 Y0.8975
N2466 X5.6652 Y0.8796
N2467 X5.697 Y0.8629
N2468 X5.7294 Y0.8475
N2469 X5.7624 Y0.8333
N2470 X5.7959 Y0.8205
N2471 X5.8299 Y0.809
N2472 X5.8644 Y0.7989
N2473 X5.8992 Y0.7901
N2474 X5.9343 Y0.7827
N2475 X5.9697 Y0.7768
N2476 X6.0053 Y0.7722
N2477 X6.0411 Y0.7691
N2478 X6.0769 Y0.7674
N2479 X6.1128 Y0.7671
N2480 X6.1487 Y0.7682
N2481 X6.1845 Y0.7707
N2482 X6.2202 Y0.7746
N2483 X6.2557 Y0.7799
N2484 X6.291 Y0.7866
N2485 X6.3259 Y0.7948
N2486 X6.3606 Y0.8042
N2487 X6.3948 Y0.8151
N2488 X6.4286 Y0.8272
N2489 X6.4618 Y0.8407
N2490 X6.4946 Y0.8554
N2491 X6.5267 Y0.8714
N2492 X6.5582 Y0.8886
N2493 X6.5891 Y0.907
N2494 X6.6192 Y0.9266
N2495 X6.6485 Y0.9473
N2496 X6.677 Y0.9691
N2497 X6.7046 Y0.992
N2498 X6.7314 Y1.0159
N2499 X6.7572 Y1.0409
N2500 X6.7821 Y1.0667
N2501 X6.806 Y1.0935
N2502 X6.8288 Y1.1212
N2503 X6.8506 Y1.1497
N2504 X6.8713 Y1.1791
N2505 X6.8909 Y1.2091
N2506 X6.9093 Y1.24
N2507 X6.9266 Y1.2714
N2508 X6.9426 Y1.3036
N2509 X6.9575 Y1.3362
N2510 X6.9711 Y1.3695
N2511 X6.9834 Y1.4032
N2512 X6.9945 Y1.4373
N2513 X7.0042 Y1.4719
N2514 X7.0127 Y1.5068
N2515 X7.0198 Y1.542
N2516 X7.0256 Y1.5774
N2517 X7.03 Y1.613
N2518 X7.033 Y1.6488
N2519 X7.0348 Y1.6846
N2520 X7.0351 Y1.7205
N2521 X7.0341 Y1.7564
N2522 X7.0318 Y1.7922
N2523 X7.0281 Y1.8279
N2524 X7.023 Y1.8635
N2525 X7.0166 Y1.8988
N2526 X7.0088 Y1.9338
N2527 X6.9997 Y1.9686
N2528 X6.9893 Y2.0029
N2529 X6.9776 Y2.0369
N2530 X6.9647 Y2.0703
N2531 X6.9504 Y2.1033
N2532 X6.935 Y2.1357
N2533 X6.9182 Y2.1675
N2534 X6.9003 Y2.1986
N2535 X6.8813 Y2.229
N2536 X6.861 Y2.2586
N2537 X6.8397 Y2.2875
N2538 X6.8172 Y2.3155
N2539 X6.7938 Y2.3427
N2540 X6.7693 Y2.3689
N2541 X6.7438 Y2.3943
N2542 X6.7174 Y2.4186
N2543 X6.6901 Y2.4419
N2544 X6.6619 Y2.4641
N2545 X6.6329 Y2.4853
N2546 X6.6032 Y2.5053
N2547 X6.5727 Y2.5242
N2548 X6.5415 Y2.542
N2549 X6.5096 Y2.5585
N2550 X6.4772 Y2.5739
N2551 X6.4442 Y2.588
N2552 X6.4107 Y2.6009
N2553 X6.3767 Y2.6125
N2554 X6.3423 Y2.6229
N2555 X6.3076 Y2.6319
N2556 X6.2725 Y2.6396
N2557 X6.2372 Y2.646
N2558 X6.2016 Y2.6511
N2559 X6.1659 Y2.6549
N2560 X6.1301 Y2.6573
N2561 X6.0942 Y2.6584
N2562 X6.0584 Y2.6582
N2563 X6.0225 Y2.6566
N2564 X5.9867 Y2.6537
N2565 X5.9511 Y2.6495
N2566 X5.9156 Y2.6439
N2567 X5.8804 Y2.6371
N2568 X5.8454 Y2.6289
N2569 X5.8108 Y2.6195
N2570 X5.7765 Y2.6088
N2571 X5.7426 Y2.5969
N2572 X5.7092 Y2.5837
N2573 X5.6764 Y2.5693
N2574 X5.644 Y2.5537
N2575 X5.6123 Y2.5369
N2576 X5.5812 Y2.519
N2577 X5.5508 Y2.4999
N2578 X5.5211 Y2.4797
N2579 X5.4921 Y2.4585
N2580 X5.464 Y2.4362
N2581 X5.4366 Y2.413
N2582 X5.4102 Y2.3887
N2583 X5.3846 Y2.3635
N2584 X5.36 Y2.3374
N2585 X5.3364 Y2.3104
N2586 X5.3137 Y2.2825
N2587 X5.2921 Y2.2538
N2588 X5.2715 Y2.2244
N2589 X5.2521 Y2.1943
N2590 X5.2337 Y2.1634
N2591 X5.2164 Y2.1319
N2592 X5.2003 Y2.0999
N2593 X5.1854 Y2.0672
N2594 X5.1717 Y2.0341
N2595 X5.1591 Y2.0004
N2596 X5.1478 Y1.9663
N2597 X5.1378 Y1.9319
N2598 X5.129 Y1.8971
N2599 X5.1215 Y1.862
N2600 X5.1152 Y1.8266
N2601 X5.1102 Y1.7911
N2602 X5.1065 Y1.7554
N2603 X5.1041 Y1.7196
N2604 X5.1029 Y1.6837
N2605 X5.1031 Y1.6478
N2606 X5.1046 Y1.6119
N2607 X5.1074 Y1.5761
N2608 X5.1114 Y1.5404
N2609 X5.1168 Y1.5049
N2610 X5.1234 Y1.4697
N2611 X5.1313 Y1.4346
N2612 X5.1404 Y1.3999
N2613 X5.1507 Y1.3655
N2614 X5.1623 Y1.3316
N2615 X5.1751 Y1.298
N2616 X5.1892 Y1.265
N2617 X5.2044 Y1.2325
N2618 X5.2207 Y1.2005
N2619 X5.2382 Y1.1692
N2620 X5.2568 Y1.1385
N2621 X5.2765 Y1.1085
N2622 X5.2973 Y1.0792
N2623 X5.3191 Y1.0507
N2624 X5.3419 Y1.0229
N2625 X5.3657 Y0.996
N2626 X5.3904 Y0.97
N2627 X5.4161 Y0.9449
N2628 X5.4427 Y0.9208
N2629 X5.4701 Y0.8976
N2630 X5.4983 Y0.8754
N2631 X5.5273 Y0.8542
N2632 X5.557 Y0.8341
N2633 X5.5874 Y0.8151
N2634 X5.6185 Y0.7971
N2635 X5.6502 Y0.7803
N2636 X5.6825 Y0.7647
N2637 X5.7154 Y0.7502
N2638 X5.7487 Y0.7369
N2639 X5.7825 Y0.7248
N2640 X5.8168 Y0.714
N2641 X5.8513 Y0.7043
N2642 X5.8862 Y0.6959
N2643 X5.9214 Y0.6888
N2644 X5.9568 Y0.6829
N2645 X5.9924 Y0.6783
N2646 X6.0282 Y0.675
N2647 X6.064 Y0.673
N2648 X6.0999 Y0.6722
N2649 X6.1358 Y0.6728
N2650 X6.1717 Y0.6746
N2651 X6.2074 Y0.6777
N2652 X6.2431 Y0.6821
N2653 X6.2785 Y0.6877
N2654 X6.3137 Y0.6946
N2655 X6.3487 Y0.7028
N2656 X6.3834 Y0.7121
N2657 X6.4177 Y0.7227
N2658 X6.4515 Y0.7346
N2659 X6.485 Y0.7476
N2660 X6.518 Y0.7618
N2661 X6.5504 Y0.7771
N2662 X6.5823 Y0.7935
N2663 X6.6137 Y0.8111
N2664 X6.6443 Y0.8297
N2665 X6.6744 Y0.8494
N2666 X6.7037 Y0.8701
N2667 X6.7323 Y0.8918
N2668 X6.7601 Y0.9145
N2669 X6.7871 Y0.9382
N2670 X6.8132 Y0.9628
N2671 X6.8385 Y0.9882
N2672 X6.863 Y1.0146
N2673 X6.8865 Y1.0417
N2674 X6.909 Y1.0696
N2675 X6.9306 Y1.0983
N2676 X6.9512 Y1.1277
N2677 X6.9708 Y1.1578
N2678 X6.9893 Y1.1885
N2679 X7.0068 Y1.2199
N2680 X7.0231 Y1.2518
N2681 X7.0384 Y1.2843
N2682 X7.0525 Y1.3173
N2683 X7.0655 Y1.3508
N2684 X7.0774 Y1.3847
N2685 X7.088 Y1.419
N2686 X7.0975 Y1.4536
N2687 X7.1059 Y1.4885
N2688 X7.113 Y1.5237
N2689 X7.1189 Y1.5591
N2690 X7.1235 Y1.5947
N2691 X7.1269 Y1.6304
N2692 X7.1291 Y1.6663
N2693 X7.1301 Y1.7022
N2694 X7.1298 Y1.7381
N2695 X7.1283 Y1.7739
N2696 X7.1255 Y1.8097
N2697 X7.1215 Y1.8454
N2698 X7.1163 Y1.8809
N2699 X7.1099 Y1.9162
N2700 X7.1023 Y1.9513
N2701 X7.0934 Y1.9861
N2702 X7.0834 Y2.0206
N2703 X7.0721 Y2.0546
N2704 X7.0597 Y2.0883
N2705 X7.0461 Y2.1216
N2706 X7.0314 Y2.1543
N2707 X7.0156 Y2.1865
N2708 X6.9986 Y2.2182
N2709 X6.9806 Y2.2492
N2710 X6.9615 Y2.2796
N2711 X6.9414 Y2.3094
N2712 X6.9203 Y2.3384
N2713 X6.9001 Y2.3641
N2714 X6.8998 Y2.3645
N2715 X6.8983 Y2.3664
N2716 X6.8936 Y2.3717
N2717 X6.8762 Y2.3908
N2718 X6.8685 Y2.399
N2719 X6.8445 Y2.4234
N2720 X6.8362 Y2.4316
N2721 X6.8194 Y2.4479
N2722 X6.812 Y2.4544
N2723 X6.7631 Y2.4968
N2724 X6.7523 Y2.505
N2725 X6.7468 Y2.5091
N2726 X6.7079 Y2.5376
N2727 X6.706 Y2.5389
N2728 X6.6815 Y2.5556
N2729 X6.6734 Y2.5608
N2730 X6.6244 Y2.5908
N2731 X6.6174 Y2.5947
N2732 X6.5999 Y2.6038
N2733 X6.5918 Y2.6081
N2734 X6.5673 Y2.6205
N2735 X6.5429 Y2.6328
N2736 X6.537 Y2.6354
N2737 X6.4858 Y2.6564
N2738 X6.4613 Y2.666
N2739 X6.4559 Y2.6681
N2740 X6.4042 Y2.6844
N2741 X6.396 Y2.6869
N2742 X6.377 Y2.6925
N2743 X6.3716 Y2.694
N2744 X6.3226 Y2.7052
N2745 X6.3145 Y2.707
N2746 X6.29 Y2.7122
N2747 X6.2656 Y2.7157
N2748 X6.2329 Y2.7204
N2749 X6.2085 Y2.7237
N2750 X6.2003 Y2.7243
N2751 X6.1514 Y2.7273
N2752 X6.1269 Y2.7288
N2753 X6.1187 Y2.7289
N2754 X6.0453 Y2.7274
N2755 X6.0372 Y2.7271
N2756 X6.0127 Y2.7247
N2757 X5.9638 Y2.7197
N2758 X5.9556 Y2.7188
N2759 X5.9312 Y2.7146
N2760 X5.9148 Y2.7116
N2761 X5.8741 Y2.704
N2762 X5.8659 Y2.7021
N2763 X5.8496 Y2.6979
N2764 X5.8414 Y2.6957
N2765 X5.7925 Y2.6824
N2766 X5.7843 Y2.6799
N2767 X5.7735 Y2.6762
N2768 X5.768 Y2.6743
N2769 X5.7109 Y2.6537
N2770 X5.7057 Y2.6518
N2771 X5.6946 Y2.647
N2772 X5.6375 Y2.6209
N2773 X5.6294 Y2.617
N2774 X5.6212 Y2.6131
N2775 X5.5723 Y2.5857
N2776 X5.5641 Y2.581
N2777 X5.5397 Y2.5663
N2778 X5.5315 Y2.5608
N2779 X5.4848 Y2.5294
N2780 X5.4826 Y2.5279
N2781 X5.4581 Y2.509
N2782 X5.4224 Y2.4805
N2783 X5.401 Y2.462
N2784 X5.3929 Y2.4544
N2785 X5.3684 Y2.4314
N2786 X5.36 Y2.4234
N2787 X5.3439 Y2.4077
N2788 X5.3113 Y2.3715
N2789 X5.2921 Y2.35
N2790 X5.2868 Y2.3437
N2791 X5.246 Y2.2904
N2792 X5.2419 Y2.2848
N2793 X5.2362 Y2.2767
N2794 X5.2307 Y2.2685
N2795 X5.2053 Y2.2289
N2796 X5.189 Y2.2027
N2797 X5.1849 Y2.1951
N2798 X5.1588 Y2.1462
N2799 X5.1504 Y2.1299
N2800 X5.1482 Y2.125
N2801 X5.1221 Y2.0646
N2802 X5.1189 Y2.0565
N2803 X5.1128 Y2.0402
N2804 X5.1099 Y2.032
N2805 X5.0933 Y1.9831
N2806 X5.0911 Y1.9758
N2807 X5.0841 Y1.9505
N2808 X5.0719 Y1.9016
N2809 X5.07 Y1.8934
N2810 X5.0666 Y1.8767
N2811 X5.0653 Y1.8689
N2812 X5.0572 Y1.82
N2813 X5.0559 Y1.8119
N2814 X5.0531 Y1.7874
N2815 X5.0524 Y1.7792
N2816 X5.0484 Y1.7303
N2817 X5.048 Y1.7222
N2818 X5.0474 Y1.7058
N2819 X5.0472 Y1.6977
N2820 Y1.6488
N2821 X5.0474 Y1.6406
N2822 X5.048 Y1.6243
N2823 X5.0484 Y1.6161
N2824 X5.0524 Y1.5672
N2825 X5.0531 Y1.5591
N2826 X5.0559 Y1.5346
N2827 X5.0585 Y1.5183
N2828 X5.0653 Y1.4775
N2829 X5.0667 Y1.4694
N2830 X5.07 Y1.4531
N2831 X5.0719 Y1.4449
N2832 X5.0841 Y1.396
N2833 X5.0911 Y1.3707
N2834 X5.0933 Y1.3634
N2835 X5.1099 Y1.3144
N2836 X5.1128 Y1.3063
N2837 X5.1189 Y1.29
N2838 X5.1221 Y1.2818
N2839 X5.1482 Y1.2214
N2840 X5.1504 Y1.2166
N2841 X5.1588 Y1.2003
N2842 X5.1849 Y1.1513
N2843 X5.189 Y1.1438
N2844 X5.2053 Y1.1175
N2845 X5.2307 Y1.078
N2846 X5.2362 Y1.0698
N2847 X5.2419 Y1.0616
N2848 X5.246 Y1.0561
N2849 X5.2868 Y1.0027
N2850 X5.2921 Y0.9964
N2851 X5.3113 Y0.9749
N2852 X5.3439 Y0.9388
N2853 X5.3602 Y0.9228
N2854 X5.3686 Y0.9149
N2855 X5.3946 Y0.8904
N2856 X5.401 Y0.8845
N2857 X5.4224 Y0.8659
N2858 X5.4581 Y0.8375
N2859 X5.4826 Y0.8186
N2860 X5.4848 Y0.817
N2861 X5.5333 Y0.7844
N2862 X5.5397 Y0.7802
N2863 X5.5641 Y0.7654
N2864 X5.5738 Y0.7599
N2865 X5.6212 Y0.7334
N2866 X5.6294 Y0.7294
N2867 X5.6375 Y0.7256
N2868 X5.6946 Y0.6995
N2869 X5.7057 Y0.6947
N2870 X5.7436 Y0.681
N2871 X5.768 Y0.6721
N2872 X5.7735 Y0.6702
N2873 X5.7843 Y0.6666
N2874 X5.7925 Y0.664
N2875 X5.8414 Y0.6508
N2876 X5.8604 Y0.6458
N2877 X5.8659 Y0.6443
N2878 X5.8741 Y0.6425
N2879 X5.923 Y0.6334
N2880 X5.9312 Y0.6319
N2881 X5.9556 Y0.6277
N2882 X5.9719 Y0.6259
N2883 X6.0127 Y0.6218
N2884 X6.0372 Y0.6194
N2885 X6.0453 Y0.6191
N2886 X6.1187 Y0.6176
N2887 X6.1269 Y0.6177
N2888 X6.1595 Y0.6196
N2889 X6.2003 Y0.6221
N2890 X6.2085 Y0.6228
N2891 X6.2329 Y0.626
N2892 X6.2819 Y0.6331
N2893 X6.29 Y0.6343
N2894 X6.3145 Y0.6394
N2895 X6.3226 Y0.6413
N2896 X6.3716 Y0.6524
N2897 X6.377 Y0.6539
N2898 X6.396 Y0.6596
N2899 X6.4043 Y0.6621
N2900 X6.4559 Y0.6784
N2901 X6.4613 Y0.6805
N2902 X6.4858 Y0.6901
N2903 X6.537 Y0.711
N2904 X6.5429 Y0.7137
N2905 X6.5755 Y0.7301
N2906 X6.5918 Y0.7384
N2907 X6.6019 Y0.7436
N2908 X6.6174 Y0.7518
N2909 X6.6244 Y0.7556
N2910 X6.6734 Y0.7857
N2911 X6.6815 Y0.7909
N2912 X6.706 Y0.8075
N2913 X6.7079 Y0.8089
N2914 X6.7468 Y0.8373
N2915 X6.7549 Y0.8434
N2916 X6.7631 Y0.8496
N2917 X6.812 Y0.892
N2918 X6.8194 Y0.8986
N2919 X6.8365 Y0.9152
N2920 X6.8446 Y0.9232
N2921 X6.8691 Y0.9481
N2922 X6.8762 Y0.9556
N2923 X6.8936 Y0.9747
N2924 X6.8983 Y0.9801
N2925 X6.9262 Y1.0137
N2926 X6.9388 Y1.029
N2927 X6.9425 Y1.0336
N2928 X6.9833 Y1.0917
N2929 X6.985 Y1.0943
N2930 X6.9953 Y1.1106
N2931 X6.9996 Y1.1174
N2932 X7.029 Y1.1677
N2933 X7.0322 Y1.1732
N2934 X7.0404 Y1.1893
N2935 X7.0653 Y1.241
N2936 X7.0692 Y1.2492
N2937 X7.073 Y1.2577
N2938 X7.0948 Y1.3144
N2939 X7.0979 Y1.3226
N2940 X7.1038 Y1.3389
N2941 X7.1086 Y1.3552
N2942 X7.123 Y1.4041
N2943 X7.1252 Y1.4123
N2944 X7.1274 Y1.4204
N2945 X7.1292 Y1.4286
N2946 X7.1393 Y1.4775
N2947 X7.1441 Y1.502
N2948 X7.1454 Y1.5101
N2949 X7.1514 Y1.5591
N2950 X7.1546 Y1.5863
N2951 X7.155 Y1.5917
N2952 X7.1583 Y1.6732
N2953 X7.155 Y1.7548
N2954 X7.1546 Y1.7601
N2955 X7.1514 Y1.7874
N2956 X7.1454 Y1.8363
N2957 X7.1441 Y1.8445
N2958 X7.1393 Y1.8689
N2959 X7.1292 Y1.9179
N2960 X7.1274 Y1.926
N2961 X7.1252 Y1.9342
N2962 X7.123 Y1.9423
N2963 X7.1056 Y2.0016
N2964 X7.1038 Y2.0076
N2965 X7.0975 Y2.025
N2966 X7.0948 Y2.032
N2967 X7.0729 Y2.0891
N2968 X7.0692 Y2.0973
N2969 X7.0614 Y2.1136
N2970 X7.0404 Y2.1572
N2971 X7.0322 Y2.1732
N2972 X7.029 Y2.1788
N2973 X6.9996 Y2.229
N2974 X6.9902 Y2.244
N2975 X6.985 Y2.2522
N2976 X6.9794 Y2.2603
N2977 X6.9425 Y2.3128
N2978 X6.9388 Y2.3174
N2979 X6.9254 Y2.3337
N2980 X6.8998 Y2.3645
N2981 X6.8981 Y2.3659 Z-0.1179 F55
N2982 X6.8964 Y2.3672 Z-0.1171
N2983 X6.895 Y2.3683 Z-0.116
N2984 X6.8938 Y2.3693 Z-0.1144
N2985 X6.8928 Y2.37 Z-0.1126
N2986 X6.8922 Y2.3703 Z-0.1105
N2987 X6.892 Y2.3704 Z-0.1083
N2988 G0 Z0.1969
N2989 X7.3846 Y2.8815
N2990 Z-0.0209
N2991 G1 Z-0.0459 F55
N2992 X7.3843 Y2.8813 Z-0.0498
N2993 X7.3835 Y2.8809 Z-0.0536
N2994 X7.3822 Y2.8802 Z-0.0572
N2995 X7.3805 Y2.8791 Z-0.0606
N2996 X7.3782 Y2.8779 Z-0.0635
N2997 X7.3757 Y2.8764 Z-0.0661
N2998 X7.3727 Y2.8747 Z-0.0681
N2999 X7.3696 Y2.873 Z-0.0696
N3000 X7.3663 Y2.8711 Z-0.0706
N3001 X7.3629 Y2.8691 Z-0.0709
N3002 G3 X7.2514 Y2.7886 I0.3157 J-0.5547
N3003 G1 X7.2472 Y2.7845 F89.37
N3004 X7.2453 Y2.779
N3005 X7.244 Y2.7732
N3006 X7.2432 Y2.7663
N3007 X7.2429 Y2.7575
N3008 X7.2434 Y2.7458
N3009 X7.2451 Y2.7316
N3010 X7.2486 Y2.7143
N3011 X7.2547 Y2.6931
N3012 X7.2667 Y2.6616
N3013 X7.2821 Y2.6291
N3014 X7.2991 Y2.5975
N3015 X7.3171 Y2.5664
N3016 X7.372 Y2.4738
N3017 X7.3898 Y2.4426
N3018 X7.4071 Y2.4112
N3019 X7.4241 Y2.3795
N3020 X7.4402 Y2.3475
N3021 X7.4556 Y2.3151
N3022 X7.4706 Y2.2824
N3023 X7.4846 Y2.2494
N3024 X7.4979 Y2.216
N3025 X7.5105 Y2.1824
N3026 X7.5222 Y2.1485
N3027 X7.5331 Y2.1143
N3028 X7.5434 Y2.0799
N3029 X7.5526 Y2.0452
N3030 X7.561 Y2.0103
N3031 X7.5688 Y1.9753
N3032 X7.5755 Y1.94
N3033 X7.5814 Y1.9046
N3034 X7.5867 Y1.8691
N3035 X7.5909 Y1.8334
N3036 X7.5943 Y1.7977
N3037 X7.597 Y1.7619
N3038 X7.5986 Y1.726
N3039 X7.5994 Y1.6901
N3040 X7.5995 Y1.6542
N3041 X7.5985 Y1.6184
N3042 X7.5967 Y1.5825
N3043 X7.5942 Y1.5467
N3044 X7.5907 Y1.511
N3045 X7.5863 Y1.4753
N3046 X7.5812 Y1.4398
N3047 X7.5751 Y1.4044
N3048 X7.5682 Y1.3692
N3049 X7.5607 Y1.3341
N3050 X7.552 Y1.2993
N3051 X7.5426 Y1.2646
N3052 X7.5326 Y1.2302
N3053 X7.5214 Y1.196
N3054 X7.5095 Y1.1622
N3055 X7.497 Y1.1285
N3056 X7.4835 Y1.0953
N3057 X7.4692 Y1.0623
N3058 X7.4542 Y1.0297
N3059 X7.4383 Y0.9975
N3060 X7.4217 Y0.9657
N3061 X7.4044 Y0.9342
N3062 X7.3863 Y0.9033
N3063 X7.3674 Y0.8727
N3064 X7.348 Y0.8425
N3065 X7.3276 Y0.813
N3066 X7.3066 Y0.7838
N3067 X7.285 Y0.7552
N3068 X7.2626 Y0.7271
N3069 X7.2396 Y0.6996
N3070 X7.2159 Y0.6726
N3071 X7.1916 Y0.6462
N3072 X7.1666 Y0.6204
N3073 X7.1412 Y0.5951
N3074 X7.115 Y0.5706
N3075 X7.0882 Y0.5466
N3076 X7.061 Y0.5232
N3077 X7.0331 Y0.5006
N3078 X7.0047 Y0.4786
N3079 X6.9758 Y0.4573
N3080 X6.9464 Y0.4368
N3081 X6.9165 Y0.4169
N3082 X6.8862 Y0.3977
N3083 X6.8554 Y0.3793
N3084 X6.8241 Y0.3616
N3085 X6.7925 Y0.3446
N3086 X6.7604 Y0.3285
N3087 X6.728 Y0.3131
N3088 X6.6952 Y0.2984
N3089 X6.6621 Y0.2847
N3090 X6.6286 Y0.2717
N3091 X6.5949 Y0.2594
N3092 X6.5608 Y0.2481
N3093 X6.5265 Y0.2375
N3094 X6.492 Y0.2277
N3095 X6.4572 Y0.2188
N3096 X6.4222 Y0.2107
N3097 X6.3871 Y0.2034
N3098 X6.3517 Y0.1971
N3099 X6.3163 Y0.1915
N3100 X6.2807 Y0.1867
N3101 X6.245 Y0.183
N3102 X6.2092 Y0.1799
N3103 X6.1734 Y0.1776
N3104 X6.1375 Y0.1759
N3105 X6.1017 Y0.1747
N3106 X6.0658 Y0.1739
N3107 X6.0299 Y0.1733
N3108 X5.994 Y0.1729
N3109 X5.9581 Y0.1726
N3110 X5.9222 Y0.1724
N3111 X5.8863 Y0.1722
N3112 X5.8145 Y0.172
N3113 X5.7068 Y0.1719
N3114 X5.6709
N3115 X5.2401
N3116 X3.6965
N3117 X1.8657
N3118 X1.8298 Y0.1722
N3119 X1.7939 Y0.1727
N3120 X1.758 Y0.1736
N3121 X1.7222 Y0.1751
N3122 X1.6863 Y0.1773
N3123 X1.6505 Y0.1801
N3124 X1.6148 Y0.1837
N3125 X1.5792 Y0.1881
N3126 X1.5437 Y0.1931
N3127 X1.5083 Y0.1992
N3128 X1.473 Y0.2061
N3129 X1.4379 Y0.2135
N3130 X1.4031 Y0.2221
N3131 X1.3684 Y0.2314
N3132 X1.3339 Y0.2413
N3133 X1.2997 Y0.2523
N3134 X1.2658 Y0.2641
N3135 X1.2321 Y0.2766
N3136 X1.1988 Y0.29
N3137 X1.1659 Y0.3042
N3138 X1.1331 Y0.3189
N3139 X1.1009 Y0.3347
N3140 X1.069 Y0.3512
N3141 X1.0375 Y0.3684
N3142 X1.0065 Y0.3864
N3143 X0.9759 Y0.4052
N3144 X0.9456 Y0.4245
N3145 X0.916 Y0.4448
N3146 X0.8868 Y0.4657
N3147 X0.858 Y0.4871
N3148 X0.8299 Y0.5094
N3149 X0.8023 Y0.5324
N3150 X0.7751 Y0.5559
N3151 X0.7487 Y0.5802
N3152 X0.7228 Y0.605
N3153 X0.6974 Y0.6304
N3154 X0.6727 Y0.6565
N3155 X0.6487 Y0.6832
N3156 X0.6252 Y0.7103
N3157 X0.6025 Y0.7381
N3158 X0.5805 Y0.7664
N3159 X0.559 Y0.7952
N3160 X0.5383 Y0.8246
N3161 X0.5184 Y0.8544
N3162 X0.499 Y0.8846
N3163 X0.4805 Y0.9154
N3164 X0.4627 Y0.9466
N3165 X0.4456 Y0.9781
N3166 X0.4294 Y1.0102
N3167 X0.4139 Y1.0425
N3168 X0.3991 Y1.0752
N3169 X0.3852 Y1.1083
N3170 X0.3721 Y1.1418
N3171 X0.3597 Y1.1754
N3172 X0.3482 Y1.2095
N3173 X0.3375 Y1.2437
N3174 X0.3275 Y1.2782
N3175 X0.3186 Y1.313
N3176 X0.3103 Y1.3479
N3177 X0.3029 Y1.383
N3178 X0.2964 Y1.4183
N3179 X0.2907 Y1.4538
N3180 X0.2858 Y1.4893
N3181 X0.2819 Y1.525
N3182 X0.2788 Y1.5608
N3183 X0.2764 Y1.5966
N3184 X0.2751 Y1.6325
N3185 X0.2746 Y1.6684
N3186 X0.2748 Y1.7043
N3187 X0.2761 Y1.7402
N3188 X0.2781 Y1.776
N3189 X0.2809 Y1.8118
N3190 X0.2847 Y1.8475
N3191 X0.2893 Y1.8831
N3192 X0.2947 Y1.9186
N3193 X0.3011 Y1.9539
N3194 X0.3082 Y1.9891
N3195 X0.3162 Y2.0241
N3196 X0.3251 Y2.0589
N3197 X0.3347 Y2.0934
N3198 X0.3452 Y2.1278
N3199 X0.3566 Y2.1618
N3200 X0.3686 Y2.1956
N3201 X0.3815 Y2.2291
N3202 X0.3953 Y2.2623
N3203 X0.4098 Y2.2951
N3204 X0.4251 Y2.3276
N3205 X0.4412 Y2.3597
N3206 X0.458 Y2.3914
N3207 X0.4756 Y2.4227
N3208 X0.494 Y2.4535
N3209 X0.5131 Y2.4839
N3210 X0.5328 Y2.5139
N3211 X0.5534 Y2.5433
N3212 X0.5746 Y2.5723
N3213 X0.5965 Y2.6008
N3214 X0.6191 Y2.6286
N3215 X0.6423 Y2.656
N3216 X0.6662 Y2.6829
N3217 X0.6908 Y2.709
N3218 X0.7158 Y2.7347
N3219 X0.7416 Y2.7597
N3220 X0.768 Y2.784
N3221 X0.7949 Y2.8078
N3222 X0.8224 Y2.8309
N3223 X0.8504 Y2.8533
N3224 X0.8789 Y2.8751
N3225 X0.908 Y2.8962
N3226 X0.9376 Y2.9164
N3227 X0.9676 Y2.9362
N3228 X0.9981 Y2.9551
N3229 X1.0291 Y2.9732
N3230 X1.0605 Y2.9907
N3231 X1.0923 Y3.0073
N3232 X1.1245 Y3.0232
N3233 X1.157 Y3.0384
N3234 X1.1899 Y3.0527
N3235 X1.2232 Y3.0662
N3236 X1.2567 Y3.079
N3237 X1.2906 Y3.091
N3238 X1.3247 Y3.102
N3239 X1.3591 Y3.1124
N3240 X1.3937 Y3.1219
N3241 X1.4286 Y3.1304
N3242 X1.4636 Y3.1384
N3243 X1.4988 Y3.1453
N3244 X1.5342 Y3.1513
N3245 X1.5697 Y3.1567
N3246 X1.6053 Y3.1611
N3247 X1.6411 Y3.1646
N3248 X1.6768 Y3.1674
N3249 X1.7127 Y3.1695
N3250 X1.7485 Y3.171
N3251 X1.7844 Y3.172
N3252 X1.8203 Y3.1728
N3253 X1.8562 Y3.1733
N3254 X1.8921 Y3.1737
N3255 X1.928 Y3.174
N3256 X1.9639 Y3.1742
N3257 X2.0357 Y3.1744
N3258 X2.1434 Y3.1745
N3259 X2.3588 Y3.1746
N3260 X3.0408
N3261 X5.0152
N3262 X5.9845
N3263 X6.0204 Y3.1745
N3264 X6.0563 Y3.1741
N3265 X6.0922 Y3.1735
N3266 X6.1281 Y3.1725
N3267 X6.1639 Y3.1707
N3268 X6.1997 Y3.1683
N3269 X6.2355 Y3.1653
N3270 X6.2712 Y3.1614
N3271 X6.3068 Y3.1567
N3272 X6.3423 Y3.1514
N3273 X6.3776 Y3.145
N3274 X6.4128 Y3.1379
N3275 X6.4478 Y3.1301
N3276 X6.4826 Y3.1213
N3277 X6.5172 Y3.1117
N3278 X6.5516 Y3.1015
N3279 X6.5857 Y3.0902
N3280 X6.6196 Y3.0782
N3281 X6.6531 Y3.0654
N3282 X6.6863 Y3.0517
N3283 X6.7192 Y3.0373
N3284 X6.7517 Y3.0222
N3285 X6.7839 Y3.0062
N3286 X6.8156 Y2.9895
N3287 X6.847 Y2.9721
N3288 X6.8779 Y2.9538
N3289 X6.9084 Y2.9348
N3290 X6.9384 Y2.9152
N3291 X6.9679 Y2.8947
N3292 X6.997 Y2.8736
N3293 X7.0256 Y2.8519
N3294 X7.0535 Y2.8293
N3295 X7.0783 Y2.8034
N3296 X7.0985 Y2.7737
N3297 X7.1159 Y2.7423
N3298 X7.1319 Y2.7102
N3299 X7.1475 Y2.6779
N3300 X7.1633 Y2.6456
N3301 X7.1796 Y2.6136
N3302 X7.1964 Y2.5819
N3303 X7.2137 Y2.5504
N3304 X7.2313 Y2.5191
N3305 X7.249 Y2.4879
N3306 X7.2644 Y2.4607
N3307 X7.2658 Y2.4585
N3308 X7.2942 Y2.4153
N3309 X7.3014 Y2.4041
N3310 X7.3046 Y2.399
N3311 X7.3095 Y2.3907
N3312 X7.3503 Y2.3168
N3313 X7.3542 Y2.3093
N3314 X7.3622 Y2.293
N3315 X7.3661 Y2.2848
N3316 X7.3995 Y2.2114
N3317 X7.403 Y2.2033
N3318 X7.412 Y2.1788
N3319 X7.4319 Y2.1242
N3320 X7.44 Y2.1013
N3321 X7.4412 Y2.0973
N3322 X7.4526 Y2.0565
N3323 X7.4617 Y2.0239
N3324 X7.4645 Y2.0136
N3325 X7.4683 Y1.9994
N3326 X7.4703 Y1.9913
N3327 X7.4847 Y1.9179
N3328 X7.4863 Y1.9097
N3329 X7.4893 Y1.8934
N3330 X7.4907 Y1.8852
N3331 X7.5002 Y1.8037
N3332 X7.502 Y1.7874
N3333 X7.5028 Y1.7792
N3334 X7.5045 Y1.7385
N3335 X7.506 Y1.6977
N3336 X7.5069 Y1.6732
N3337 X7.506 Y1.6488
N3338 X7.5035 Y1.5835
N3339 X7.5028 Y1.5672
N3340 X7.502 Y1.5591
N3341 X7.5002 Y1.5428
N3342 X7.4907 Y1.4612
N3343 X7.4893 Y1.4531
N3344 X7.4863 Y1.4368
N3345 X7.4831 Y1.4204
N3346 X7.4703 Y1.3552
N3347 X7.4683 Y1.3471
N3348 X7.4639 Y1.3307
N3349 X7.4617 Y1.3226
N3350 X7.4458 Y1.2655
N3351 X7.4412 Y1.2492
N3352 X7.44 Y1.2452
N3353 X7.4298 Y1.2166
N3354 X7.412 Y1.1677
N3355 X7.403 Y1.1432
N3356 X7.3992 Y1.1345
N3357 X7.3661 Y1.0616
N3358 X7.3622 Y1.0535
N3359 X7.3542 Y1.0372
N3360 X7.35 Y1.029
N3361 X7.3095 Y0.9556
N3362 X7.3046 Y0.9475
N3363 X7.2995 Y0.9393
N3364 X7.2942 Y0.9312
N3365 X7.2567 Y0.8741
N3366 X7.2512 Y0.8659
N3367 X7.2443 Y0.8557
N3368 X7.2398 Y0.8496
N3369 X7.1892 Y0.7844
N3370 X7.176 Y0.7681
N3371 X7.1709 Y0.7621
N3372 X7.1097 Y0.6947
N3373 X7.1056 Y0.6905
N3374 X7.1017 Y0.6865
N3375 X7.0975 Y0.6824
N3376 X7.0322 Y0.6209
N3377 X7.0241 Y0.6137
N3378 X7.0136 Y0.605
N3379 X6.9507 Y0.5542
N3380 X6.9423 Y0.5479
N3381 X6.9262 Y0.5364
N3382 X6.918 Y0.5307
N3383 X6.8691 Y0.4971
N3384 X6.8446 Y0.4812
N3385 X6.8365 Y0.4764
N3386 X6.7627 Y0.4338
N3387 X6.7549 Y0.4299
N3388 X6.7386 Y0.4217
N3389 X6.7297 Y0.4175
N3390 X6.6734 Y0.3905
N3391 X6.657 Y0.383
N3392 X6.6489 Y0.3797
N3393 X6.5755 Y0.3513
N3394 X6.551 Y0.3426
N3395 X6.5429 Y0.34
N3396 X6.4695 Y0.318
N3397 X6.445 Y0.3113
N3398 X6.3634 Y0.2937
N3399 X6.3553 Y0.2921
N3400 X6.339 Y0.2891
N3401 X6.3308 Y0.2878
N3402 X6.2574 Y0.2778
N3403 X6.2492 Y0.2769
N3404 X6.2329 Y0.2751
N3405 X6.2248 Y0.2744
N3406 X6.1514 Y0.2701
N3407 X6.1432 Y0.2698
N3408 X6.1269 Y0.2692
N3409 X6.1187 Y0.2691
N3410 X6.0617 Y0.2702
N3411 X6.0258 Y0.2691
N3412 X5.9899 Y0.27
N3413 X5.954 Y0.2707
N3414 X5.9181 Y0.2711
N3415 X5.8822 Y0.2713
N3416 X5.8463 Y0.2715
N3417 X5.8104 Y0.2716
N3418 X5.7386 Y0.2718
N3419 X5.595
N3420 X5.3989 Y0.2719
N3421 X5.395 Y0.2717
N3422 X5.3912 Y0.2713
N3423 X5.3873 Y0.2707
N3424 X5.3847 Y0.2703
N3425 X5.3684 Y0.2692
N3426 X5.3602 Y0.2687
N3427 X1.7797
N3428 X1.7553 Y0.2693
N3429 X1.7471 Y0.2695
N3430 X1.6737 Y0.2724
N3431 X1.6656 Y0.273
N3432 X1.6492 Y0.2745
N3433 X1.6411 Y0.2754
N3434 X1.5677 Y0.2839
N3435 X1.5595 Y0.285
N3436 X1.5432 Y0.2879
N3437 X1.5351 Y0.2894
N3438 X1.4617 Y0.3036
N3439 X1.4535 Y0.3055
N3440 X1.4372 Y0.3096
N3441 X1.429 Y0.3118
N3442 X1.3556 Y0.3319
N3443 X1.3475 Y0.3344
N3444 X1.3393 Y0.3372
N3445 X1.3312 Y0.3401
N3446 X1.2659 Y0.3635
N3447 X1.2496 Y0.3695
N3448 X1.2414 Y0.3728
N3449 X1.2007 Y0.391
N3450 X1.168 Y0.4057
N3451 X1.1599 Y0.4094
N3452 X1.143 Y0.4175
N3453 X1.1354 Y0.4215
N3454 X1.062 Y0.4614
N3455 X1.0535 Y0.4664
N3456 X1.0457 Y0.4712
N3457 X0.9775 Y0.5153
N3458 X0.9641 Y0.5241
N3459 X0.954 Y0.5316
N3460 X0.8989 Y0.5736
N3461 X0.89 Y0.5805
N3462 X0.8744 Y0.593
N3463 X0.8698 Y0.5968
N3464 X0.801 Y0.6582
N3465 X0.7929 Y0.6662
N3466 X0.7811 Y0.6784
N3467 X0.7358 Y0.7255
N3468 X0.7262 Y0.7355
N3469 X0.7191 Y0.7436
N3470 X0.7113 Y0.7529
N3471 X0.6584 Y0.817
N3472 X0.6542 Y0.8227
N3473 X0.6379 Y0.8454
N3474 X0.6005 Y0.8986
N3475 X0.5849 Y0.923
N3476 X0.5799 Y0.9312
N3477 X0.5508 Y0.9801
N3478 X0.5366 Y1.0046
N3479 X0.5319 Y1.014
N3480 X0.4961 Y1.0861
N3481 X0.4852 Y1.1106
N3482 X0.4829 Y1.116
N3483 X0.4523 Y1.1921
N3484 X0.4494 Y1.2003
N3485 X0.4467 Y1.2084
N3486 X0.444 Y1.2166
N3487 X0.4182 Y1.2981
N3488 X0.4177 Y1.2999
N3489 X0.4122 Y1.3226
N3490 X0.3988 Y1.3797
N3491 X0.3932 Y1.4042
N3492 X0.3917 Y1.4123
N3493 X0.3804 Y1.4857
N3494 X0.3767 Y1.5101
N3495 X0.3759 Y1.5183
N3496 X0.3733 Y1.5509
N3497 X0.3702 Y1.5917
N3498 X0.3684 Y1.6161
N3499 X0.3681 Y1.6243
N3500 Y1.6569
N3501 Y1.7058
N3502 Y1.7222
N3503 X0.3684 Y1.7303
N3504 X0.3702 Y1.7548
N3505 X0.3746 Y1.8119
N3506 X0.3759 Y1.8282
N3507 X0.3767 Y1.8363
N3508 X0.3804 Y1.8608
N3509 X0.3917 Y1.9342
N3510 X0.3932 Y1.9423
N3511 X0.3988 Y1.9668
N3512 X0.4122 Y2.0239
N3513 X0.4177 Y2.0465
N3514 X0.4182 Y2.0483
N3515 X0.444 Y2.1299
N3516 X0.4467 Y2.138
N3517 X0.4503 Y2.1487
N3518 X0.4523 Y2.1543
N3519 X0.4829 Y2.2304
N3520 X0.4852 Y2.2359
N3521 X0.4961 Y2.2603
N3522 X0.5325 Y2.3337
N3523 X0.5366 Y2.3419
N3524 X0.5508 Y2.3664
N3525 X0.5808 Y2.4168
N3526 X0.5849 Y2.4234
N3527 X0.6005 Y2.4479
N3528 X0.6379 Y2.501
N3529 X0.6542 Y2.5238
N3530 X0.6584 Y2.5294
N3531 X0.7122 Y2.5947
N3532 X0.7195 Y2.6033
N3533 X0.7262 Y2.611
N3534 X0.7418 Y2.6273
N3535 X0.7889 Y2.6762
N3536 X0.7929 Y2.6803
N3537 X0.801 Y2.6883
N3538 X0.8698 Y2.7496
N3539 X0.8744 Y2.7535
N3540 X0.8907 Y2.7665
N3541 X0.9005 Y2.7741
N3542 X0.954 Y2.8148
N3543 X0.9641 Y2.8223
N3544 X0.9805 Y2.8331
N3545 X1.0457 Y2.8753
N3546 X1.0539 Y2.8803
N3547 X1.062 Y2.885
N3548 X1.1354 Y2.9249
N3549 X1.143 Y2.929
N3550 X1.1602 Y2.9372
N3551 X1.168 Y2.9408
N3552 X1.2251 Y2.9664
N3553 X1.2414 Y2.9737
N3554 X1.2496 Y2.977
N3555 X1.2659 Y2.983
N3556 X1.3312 Y3.0064
N3557 X1.3393 Y3.0093
N3558 X1.3475 Y3.012
N3559 X1.3556 Y3.0145
N3560 X1.4302 Y3.035
N3561 X1.4372 Y3.0368
N3562 X1.4535 Y3.041
N3563 X1.4617 Y3.0428
N3564 X1.5351 Y3.0571
N3565 X1.5432 Y3.0586
N3566 X1.5595 Y3.0615
N3567 X1.5677 Y3.0626
N3568 X1.6411 Y3.0711
N3569 X1.6492 Y3.0719
N3570 X1.6656 Y3.0734
N3571 X1.6737 Y3.0741
N3572 X1.7471 Y3.0769
N3573 X1.7553 Y3.0772
N3574 X1.7797 Y3.0778
N3575 X5.3602
N3576 X5.3684 Y3.0773
N3577 X5.4043 Y3.0766
N3578 X5.4402 Y3.076
N3579 X5.4761 Y3.0756
N3580 X5.512 Y3.0753
N3581 X5.5479 Y3.0751
N3582 X5.5838 Y3.075
N3583 X5.6556 Y3.0748
N3584 X5.7633 Y3.0747
N3585 X5.9068 Y3.0746
N3586 X5.9427
N3587 X5.9786 Y3.0744
N3588 X6.0035 Y3.0741
N3589 X6.0055
N3590 X6.0076 Y3.0742
N3591 X6.0097 Y3.0744
N3592 X6.0127 Y3.0747
N3593 X6.0209 Y3.0752
N3594 X6.0389 Y3.0758
N3595 X6.0453 Y3.076
N3596 X6.1187 Y3.0774
N3597 X6.1269 Y3.0773
N3598 X6.1432 Y3.0767
N3599 X6.1514 Y3.0763
N3600 X6.2248 Y3.072
N3601 X6.2329 Y3.0714
N3602 X6.2492 Y3.0696
N3603 X6.2574 Y3.0687
N3604 X6.3308 Y3.0586
N3605 X6.339 Y3.0574
N3606 X6.3553 Y3.0543
N3607 X6.3634 Y3.0528
N3608 X6.445 Y3.0351
N3609 X6.4695 Y3.0284
N3610 X6.5429 Y3.0065
N3611 X6.551 Y3.0039
N3612 X6.5755 Y2.9951
N3613 X6.6489 Y2.9668
N3614 X6.657 Y2.9635
N3615 X6.6734 Y2.9559
N3616 X6.7304 Y2.9287
N3617 X6.7386 Y2.9247
N3618 X6.7549 Y2.9166
N3619 X6.7627 Y2.9127
N3620 X6.8365 Y2.8701
N3621 X6.8446 Y2.8652
N3622 X6.8691 Y2.8493
N3623 X6.9194 Y2.8148
N3624 X6.9262 Y2.8101
N3625 X6.9425 Y2.7984
N3626 X6.9507 Y2.7922
N3627 X7.0136 Y2.7415
N3628 X7.0241 Y2.7328
N3629 X7.0322 Y2.7256
N3630 X7.0975 Y2.664
N3631 X7.1017 Y2.6599
N3632 X7.1056 Y2.656
N3633 X7.1097 Y2.6518
N3634 X7.1709 Y2.5844
N3635 X7.176 Y2.5784
N3636 X7.1892 Y2.5621
N3637 X7.2398 Y2.4968
N3638 X7.2443 Y2.4907
N3639 X7.2524 Y2.4787
N3640 X7.2567 Y2.4724
N3641 X7.2658 Y2.4585
N3642 G3 X7.2729 Y2.4518 I0.0204 J0.0145 F55
N3643 G1 X7.2762 Y2.4497 Z-0.0706
N3644 X7.2794 Y2.4477 Z-0.0696
N3645 X7.2825 Y2.4458 Z-0.0681
N3646 X7.2853 Y2.444 Z-0.0661
N3647 X7.2879 Y2.4424 Z-0.0635
N3648 X7.29 Y2.441 Z-0.0606
N3649 X7.2918 Y2.4399 Z-0.0572
N3650 X7.293 Y2.4391 Z-0.0536
N3651 X7.2938 Y2.4387 Z-0.0498
N3652 X7.2941 Y2.4385 Z-0.0459
N3653 G0 Z0.1969
N3654 X5.3587 Y3.1091
N3655 Z-0.0209
N3656 G1 Z-0.0459 F55
N3657 Y3.1087 Z-0.0498
N3658 X5.3588 Y3.1078 Z-0.0536
N3659 X5.359 Y3.1063 Z-0.0572
N3660 X5.3592 Y3.1043 Z-0.0606
N3661 X5.3595 Y3.1018 Z-0.0635
N3662 X5.3598 Y3.0988 Z-0.0661
N3663 X5.3602 Y3.0955 Z-0.0681
N3664 X5.3606 Y3.0919 Z-0.0696
N3665 X5.361 Y3.0881 Z-0.0706
N3666 X5.3614 Y3.0842 Z-0.0709
N3667 G3 X5.3684 Y3.0773 I0.0078 J0.0008
N3668 G1 X5.3847 Y3.0762 F89.37
N3669 X5.3873 Y3.0758
N3670 X5.3929 Y3.0746
N3671 X5.401 Y3.0725
N3672 X5.4092 Y3.0699
N3673 X5.4173 Y3.0664
N3674 X5.4255 Y3.0625
N3675 X5.4308 Y3.0595
N3676 X5.4418 Y3.052
N3677 X5.4425 Y3.0513
N3678 X5.4499 Y3.0449
N3679 X5.4579 Y3.0386
N3680 X5.4692 Y3.0312
N3681 X5.4836 Y3.0232
N3682 X5.5023 Y3.0148
N3683 X5.527 Y3.0059
N3684 X5.561 Y2.9967
N3685 X5.5963 Y2.9901
N3686 X5.5969
N3687 X5.6058 Y2.9896
N3688 X5.6146 Y2.9905
N3689 X5.6232 Y2.9927
N3690 G3 X5.6315 Y2.9979 I-0.0089 J0.0234 F55
N3691 X5.6219 Y3.0399 I-0.0172 J0.0182 F89.37
N3692 G1 X5.4746 Y3.087
N3693 G3 X5.4443 Y3.0528 I-0.0076 J-0.0238
N3694 X5.4499 Y3.0449 I0.0228 J0.0104 F55
N3695 G1 X5.4519 Y3.0432 F89.37
N3696 X5.4581 Y3.0367
N3697 X5.4596 Y3.035
N3698 X5.4663 Y3.0268
N3699 X5.472 Y3.0187
N3700 X5.4744 Y3.0145
N3701 X5.4765 Y3.0106
N3702 X5.4802 Y3.0024
N3703 X5.4848 Y2.9934
N3704 X5.4891 Y2.9865
N3705 X5.498 Y2.9769
N3706 X5.5087 Y2.9695
N3707 X5.5208 Y2.9648
N3708 X5.5337 Y2.9628
N3709 X5.5467 Y2.9637
N3710 X5.5592 Y2.9675
N3711 G3 X5.567 Y2.9733 I-0.0107 J0.0226 F55
N3712 X5.5593 Y3.0126 I-0.0185 J0.0168 F89.37
N3713 G1 X5.5142 Y3.0344
N3714 G3 X5.4783 Y3.012 I-0.0109 J-0.0225
N3715 X5.4802 Y3.0024 I0.025 J-0.0001 F55
N3716 G1 X5.4826 Y2.9971 F89.37
N3717 X5.4836 Y2.9942
N3718 X5.4862 Y2.9861
N3719 X5.4881 Y2.9779
N3720 X5.4898 Y2.9698
N3721 X5.4907 Y2.967
N3722 X5.492 Y2.9643
N3723 X5.4937 Y2.9616
N3724 X5.496 Y2.9588
N3725 X5.4989 Y2.956
N3726 X5.5008 Y2.9546
N3727 X5.5028 Y2.9535
N3728 X5.5049 Y2.9525
N3729 X5.507 Y2.9517
N3730 X5.5111 Y2.9507
N3731 X5.5152 Y2.9505
N3732 X5.5193 Y2.9509
N3733 X5.5234 Y2.9521
N3734 X5.5315 Y2.9556
N3735 X5.5886 Y2.9802
N3736 X5.5968 Y2.9834
N3737 X5.6131 Y2.9892
N3738 X5.6375 Y2.9976
N3739 X5.6946 Y3.0172
N3740 X5.7028 Y3.0194
N3741 X5.7191 Y3.0239
N3742 X5.7354 Y3.0281
N3743 X5.8007 Y3.0449
N3744 X5.8088 Y3.0465
N3745 X5.8251 Y3.0495
N3746 X5.8414 Y3.0524
N3747 X5.9067 Y3.0639
N3748 X5.9148 Y3.065
N3749 X5.9312 Y3.0667
N3750 X5.9401 Y3.0676
N3751 X6.0097 Y3.0744
N3752 G3 X6.0189 Y3.0775 I-0.0033 J0.0248 F55
N3753 G1 X6.0223 Y3.0795 Z-0.0706
N3754 X6.0256 Y3.0814 Z-0.0696
N3755 X6.0287 Y3.0832 Z-0.0681
N3756 X6.0316 Y3.0849 Z-0.0661
N3757 X6.0342 Y3.0864 Z-0.0635
N3758 X6.0364 Y3.0877 Z-0.0606
N3759 X6.0382 Y3.0887 Z-0.0572
N3760 X6.0395 Y3.0895 Z-0.0536
N3761 X6.0403 Y3.0899 Z-0.0498
N3762 X6.0406 Y3.0901 Z-0.0459
N3763 G0 Z0.1969
N3764 X6.0729 Y0.2389
N3765 Z-0.0209
N3766 G1 Z-0.0459 F55
N3767 X6.0728 Y0.2392 Z-0.0498
N3768 X6.0727 Y0.2401 Z-0.0536
N3769 X6.0724 Y0.2416 Z-0.0572
N3770 X6.0721 Y0.2436 Z-0.0606
N3771 X6.0717 Y0.2462 Z-0.0635
N3772 X6.0713 Y0.2491 Z-0.0661
N3773 X6.0707 Y0.2524 Z-0.0681
N3774 X6.0702 Y0.256 Z-0.0696
N3775 X6.0696 Y0.2598 Z-0.0706
N3776 X6.0689 Y0.2636 Z-0.0709
N3777 G3 X6.0617 Y0.2702 I-0.0077 J-0.0012
N3778 G1 X6.0453 Y0.2705 F89.37
N3779 X6.0372 Y0.2707
N3780 X6.0209 Y0.2713
N3781 X6.0127 Y0.2718
N3782 X5.9393 Y0.2789
N3783 X5.9312 Y0.2797
N3784 X5.9148 Y0.2815
N3785 X5.9067 Y0.2825
N3786 X5.8333 Y0.2955
N3787 X5.8251 Y0.2969
N3788 X5.8088 Y0.3
N3789 X5.8007 Y0.3016
N3790 X5.7273 Y0.3205
N3791 X5.7191 Y0.3226
N3792 X5.7001 Y0.3278
N3793 X5.6946 Y0.3293
N3794 X5.6783 Y0.3349
N3795 X5.6438 Y0.3448
N3796 X5.6088 Y0.3529
N3797 X5.5734 Y0.3585
N3798 X5.5377 Y0.3625
N3799 X5.5306 Y0.363
N3800 X5.5193 Y0.3628
N3801 X5.5082 Y0.3604
N3802 X5.4979 Y0.3559
N3803 X5.4886 Y0.3495
N3804 X5.4806 Y0.3415
N3805 X5.4744 Y0.332
N3806 G3 X5.472 Y0.3226 I0.0225 J-0.0109 F55
N3807 X5.4956 Y0.2962 I0.025 J-0.0014 F89.37
N3808 G1 X5.668 Y0.2865
N3809 G3 X5.6866 Y0.3297 I0.0014 J0.025
N3810 X5.6783 Y0.3349 I-0.0172 J-0.0182 F55
N3811 G1 X5.6212 Y0.3544 F89.37
N3812 X5.6131 Y0.3572
N3813 X5.5968 Y0.3631
N3814 X5.5886 Y0.3663
N3815 X5.5315 Y0.3909
N3816 X5.5259 Y0.393
N3817 X5.5178 Y0.3941
N3818 X5.5097 Y0.3931
N3819 X5.5023 Y0.3898
N3820 X5.4959 Y0.3847
N3821 X5.4912 Y0.3781
N3822 X5.4885 Y0.3704
N3823 G3 X5.4883 Y0.3606 I0.0326 J-0.0057 F55
N3824 X5.4912 Y0.3505 I0.0329 J0.0041 F89.37
N3825 X5.5459 Y0.3765 I0.0273 J0.013
N3826 X5.5396 Y0.3853 I-0.0273 J-0.013
N3827 X5.5315 Y0.3909 I-0.021 J-0.0218 F55
N3828 G1 X5.5234 Y0.3944 F89.37
N3829 X5.5193 Y0.3955
N3830 X5.5152 Y0.396
N3831 X5.5111 Y0.3957
N3832 X5.507 Y0.3948
N3833 X5.5049 Y0.394
N3834 X5.5028 Y0.393
N3835 X5.5008 Y0.3918
N3836 X5.4989 Y0.3904
N3837 X5.496 Y0.3876
N3838 X5.4937 Y0.3848
N3839 X5.492 Y0.3822
N3840 X5.4907 Y0.3795
N3841 X5.4898 Y0.3767
N3842 X5.4889 Y0.3722
N3843 X5.4887 Y0.37 Z-0.0706 F55
N3844 X5.4885 Y0.3679 Z-0.0699
N3845 X5.4887 Y0.3661 Z-0.0687
N3846 X5.4889 Y0.3646 Z-0.0671
N3847 X5.489 Y0.3634 Z-0.0653
N3848 X5.4891 Y0.3627 Z-0.0632
N3849 Y0.3624 Z-0.0611
N3850 G0 Z0.1969
N3851 X5.9606 Y3.5014
N3852 Z-0.1861
N3853 G1 Z-0.2111 F55
N3854 X5.9609 Y3.5013 Z-0.215
N3855 X5.9618 Y3.5011 Z-0.2188
N3856 X5.9632 Y3.5007 Z-0.2225
N3857 X5.9652 Y3.5001 Z-0.2258
N3858 X5.9677 Y3.4994 Z-0.2288
N3859 X5.9705 Y3.4986 Z-0.2313
N3860 X5.9737 Y3.4976 Z-0.2334
N3861 X5.9772 Y3.4966 Z-0.2349
N3862 X5.9809 Y3.4956 Z-0.2358
N3863 X5.9846 Y3.4945 Z-0.2361
N3864 G3 X6.1201 Y3.4709 I0.1767 J0.6133
N3865 G1 X6.1351 Y3.4704 F89.37
N3866 X6.2003 Y3.4682
N3867 X6.2248 Y3.4671
N3868 X6.2329 Y3.4665
N3869 X6.3308 Y3.4565
N3870 X6.339 Y3.4555
N3871 X6.3634 Y3.452
N3872 X6.445 Y3.4379
N3873 X6.4695 Y3.4335
N3874 X6.4776 Y3.4316
N3875 X6.5755 Y3.4078
N3876 X6.5836 Y3.4055
N3877 X6.5918 Y3.4032
N3878 X6.6267 Y3.3949
N3879 X6.6619 Y3.3877
N3880 X6.6975 Y3.3827
N3881 X6.7332 Y3.3792
N3882 X6.769 Y3.3768
N3883 X6.8049 Y3.3751
N3884 X6.8407 Y3.3738
N3885 X6.8766 Y3.373
N3886 X6.9125 Y3.3724
N3887 X6.9484 Y3.372
N3888 X6.9843 Y3.3717
N3889 X7.0202 Y3.3714
N3890 X7.0561 Y3.3713
N3891 X7.1279 Y3.3711
N3892 X7.2356 Y3.371
N3893 X7.5228
N3894 X7.7561
N3895 X7.7738 Y3.3681
N3896 X7.79 Y3.3602
N3897 X7.8187 Y3.3387
N3898 X7.8404 Y3.3101
N3899 X7.8565 Y3.278
N3900 X7.8682 Y3.2441
N3901 X7.8767 Y3.2092
N3902 X7.8828 Y3.1738
N3903 X7.8872 Y3.1382
N3904 X7.8903 Y3.1025
N3905 X7.8925 Y3.0666
N3906 X7.8941 Y3.0308
N3907 X7.8952 Y2.9949
N3908 X7.896 Y2.959
N3909 X7.8965 Y2.9231
N3910 X7.8969 Y2.8872
N3911 X7.8972 Y2.8513
N3912 X7.8974 Y2.8154
N3913 X7.8975 Y2.7795
N3914 X7.8977 Y2.7077
N3915 X7.8978 Y2.6
N3916 Y2.2769
N3917 X7.8977 Y1.7593
N3918 Y1.7586
N3919 X7.8998 Y1.6977
N3920 X7.9006 Y1.6732
N3921 X7.9003 Y1.6651
N3922 X7.901 Y1.6292
N3923 X7.9 Y1.5933
N3924 X7.8993 Y1.5574
N3925 X7.8988 Y1.5215
N3926 X7.8985 Y1.4856
N3927 X7.8982 Y1.4497
N3928 X7.8981 Y1.4138
N3929 X7.8979 Y1.342
N3930 X7.8977 Y1.2343
N3931 X7.8976 Y0.983
N3932 X7.8974 Y0.1215
N3933 X7.8971 Y0.1125
N3934 X7.8954 Y0.1037
N3935 X7.8892 Y0.0868
N3936 X7.8689 Y0.0573
N3937 X7.8409 Y0.0348
N3938 X7.8091 Y0.0181
N3939 X7.7753 Y0.006
N3940 X7.7405 Y-0.0028
N3941 X7.7052 Y-0.0092
N3942 X7.6696 Y-0.0137
N3943 X7.6338 Y-0.017
N3944 X7.598 Y-0.0193
N3945 X7.5621 Y-0.0209
N3946 X7.5263 Y-0.0221
N3947 X7.4904 Y-0.0229
N3948 X7.4545 Y-0.0235
N3949 X7.4186 Y-0.0239
N3950 X7.3827 Y-0.0242
N3951 X7.3468 Y-0.0244
N3952 X7.3109 Y-0.0245
N3953 X7.2391 Y-0.0247
N3954 X7.1314 Y-0.0248
N3955 X6.8442
N3956 X6.7022
N3957 X6.696 Y-0.0252
N3958 X6.6899 Y-0.0261
N3959 X6.684 Y-0.0278
N3960 X6.6815 Y-0.0286
N3961 X6.6081 Y-0.0519
N3962 X6.5999 Y-0.0543
N3963 X6.5836 Y-0.0591
N3964 X6.5755 Y-0.0613
N3965 X6.4776 Y-0.0852
N3966 X6.4695 Y-0.0871
N3967 X6.445 Y-0.0915
N3968 X6.3634 Y-0.1055
N3969 X6.339 Y-0.1091
N3970 X6.3308 Y-0.11
N3971 X6.2329 Y-0.1201
N3972 X6.2248 Y-0.1207
N3973 X6.2003 Y-0.1217
N3974 X6.1269 Y-0.1242
N3975 X6.1187 Y-0.1245
N3976 X6.1106 Y-0.1247
N3977 G3 X6.1011 Y-0.1271 I0.0014 J-0.025 F55
N3978 G1 X6.0976 Y-0.1288 Z-0.2358
N3979 X6.0942 Y-0.1305 Z-0.2349
N3980 X6.0909 Y-0.132 Z-0.2334
N3981 X6.0879 Y-0.1335 Z-0.2313
N3982 X6.0852 Y-0.1348 Z-0.2288
N3983 X6.0829 Y-0.1359 Z-0.2258
N3984 X6.0811 Y-0.1368 Z-0.2225
N3985 X6.0797 Y-0.1374 Z-0.2188
N3986 X6.0789 Y-0.1378 Z-0.215
N3987 X6.0786 Y-0.138 Z-0.2111
N3988 G0 Z0.1969
N3989 X7.9317 Y1.6759
N3990 Z-0.1861
N3991 G1 Z-0.2111 F55
N3992 X7.9314 Z-0.215
N3993 X7.9305 Y1.6758 Z-0.2188
N3994 X7.929 Y1.6755 Z-0.2225
N3995 X7.927 Y1.6752 Z-0.2258
N3996 X7.9245 Y1.6749 Z-0.2288
N3997 X7.9215 Y1.6744 Z-0.2313
N3998 X7.9182 Y1.6739 Z-0.2334
N3999 X7.9146 Y1.6734 Z-0.2349
N4000 X7.9109 Y1.6729 Z-0.2358
N4001 X7.907 Y1.6723 Z-0.2361
N4002 G3 X7.9003 Y1.6651 I0.0011 J-0.0077
N4003 G1 X7.8995 Y1.6406 F89.37
N4004 X7.897 Y1.5672
N4005 X7.8966 Y1.5591
N4006 X7.8955 Y1.5428
N4007 X7.8948 Y1.5346
N4008 X7.8848 Y1.4368
N4009 X7.8837 Y1.4286
N4010 X7.8797 Y1.4041
N4011 X7.8657 Y1.3226
N4012 X7.8627 Y1.3063
N4013 X7.8608 Y1.2981
N4014 X7.835 Y1.1921
N4015 X7.8325 Y1.184
N4016 X7.8315 Y1.1807
N4017 X7.8226 Y1.1459
N4018 X7.8151 Y1.1108
N4019 X7.8099 Y1.0753
N4020 X7.8063 Y1.0396
N4021 X7.8037 Y1.0038
N4022 X7.8019 Y0.9679
N4023 X7.8006 Y0.932
N4024 X7.7997 Y0.8961
N4025 X7.7991 Y0.8602
N4026 X7.7986 Y0.8243
N4027 X7.7983 Y0.7885
N4028 X7.7981 Y0.7526
N4029 X7.7979 Y0.7167
N4030 X7.7977 Y0.6449
N4031 X7.7976 Y0.5372
N4032 X7.7975 Y0.2859
N4033 Y0.25
N4034 X7.7951 Y0.2322
N4035 X7.7836 Y0.1982
N4036 X7.7621 Y0.1694
N4037 X7.7345 Y0.1464
N4038 X7.7034 Y0.1286
N4039 X7.6702 Y0.1149
N4040 X7.6358 Y0.1046
N4041 X7.6008 Y0.0969
N4042 X7.5653 Y0.0911
N4043 X7.5297 Y0.0868
N4044 X7.4939 Y0.0837
N4045 X7.4581 Y0.0814
N4046 X7.4223 Y0.0797
N4047 X7.3864 Y0.0785
N4048 X7.3505 Y0.0776
N4049 X7.3146 Y0.0769
N4050 X7.2787 Y0.0764
N4051 X7.2428 Y0.0761
N4052 X7.2069 Y0.0758
N4053 X7.171 Y0.0756
N4054 X7.0992 Y0.0754
N4055 X6.9915 Y0.0753
N4056 X6.94 Y0.0752
N4057 X6.9315 Y0.0746
N4058 X6.9231 Y0.0727
N4059 X6.915 Y0.0696
N4060 X6.8406 Y0.0342
N4061 X6.8202 Y0.0246
N4062 X6.812 Y0.0212
N4063 X6.7794 Y0.0083
N4064 X6.7141 Y-0.0175
N4065 X6.706 Y-0.0204
N4066 X6.6865 Y-0.0269
N4067 X6.684 Y-0.0278
N4068 G3 X6.6757 Y-0.0328 I0.0086 J-0.0235 F55
N4069 G1 X6.6728 Y-0.0355 Z-0.2358
N4070 X6.67 Y-0.0381 Z-0.2349
N4071 X6.6673 Y-0.0405 Z-0.2334
N4072 X6.6649 Y-0.0428 Z-0.2313
N4073 X6.6627 Y-0.0448 Z-0.2288
N4074 X6.6608 Y-0.0466 Z-0.2258
N4075 X6.6593 Y-0.0479 Z-0.2225
N4076 X6.6582 Y-0.049 Z-0.2188
N4077 X6.6575 Y-0.0496 Z-0.215
N4078 X6.6573 Y-0.0498 Z-0.2111
N4079 G0 Z0.1969
N4080 X7.8647 Y1.1828
N4081 Z-0.1861
N4082 G1 Z-0.2111 F55
N4083 X7.8643 Z-0.215
N4084 X7.8634 Y1.183 Z-0.2188
N4085 X7.8619 Y1.1831 Z-0.2225
N4086 X7.8599 Y1.1834 Z-0.2258
N4087 X7.8574 Y1.1837 Z-0.2288
N4088 X7.8544 Y1.1841 Z-0.2313
N4089 X7.8511 Y1.1845 Z-0.2334
N4090 X7.8475 Y1.1849 Z-0.2349
N4091 X7.8437 Y1.1854 Z-0.2358
N4092 X7.8398 Y1.1859 Z-0.2361
N4093 G3 X7.8315 Y1.1807 I-0.001 J-0.0078
N4094 G1 X7.8275 Y1.1677 F89.37
N4095 X7.8172 Y1.135
N4096 X7.8016 Y1.0861
N4097 X7.7988 Y1.078
N4098 X7.793 Y1.0616
N4099 X7.7907 Y1.0555
N4100 X7.7578 Y0.9719
N4101 X7.7545 Y0.9638
N4102 X7.7499 Y0.9533
N4103 X7.7474 Y0.9475
N4104 X7.7435 Y0.9393
N4105 X7.7351 Y0.9191
N4106 X7.7259 Y0.8907
N4107 X7.7176 Y0.8558
N4108 X7.7117 Y0.8204
N4109 X7.7076 Y0.7847
N4110 X7.7047 Y0.7489
N4111 X7.7026 Y0.7131
N4112 X7.7012 Y0.6772
N4113 X7.7001 Y0.6413
N4114 X7.6994 Y0.6054
N4115 X7.6988 Y0.5695
N4116 X7.6985 Y0.5337
N4117 X7.6982 Y0.4978
N4118 X7.698 Y0.4619
N4119 X7.6977 Y0.3901
N4120 Y0.3542
N4121 X7.6897 Y0.3192
N4122 X7.6716 Y0.2882
N4123 X7.6465 Y0.2625
N4124 X7.617 Y0.242
N4125 X7.5849 Y0.2259
N4126 X7.5513 Y0.2134
N4127 X7.5166 Y0.2039
N4128 X7.4815 Y0.1967
N4129 X7.446 Y0.1912
N4130 X7.4103 Y0.1871
N4131 X7.3746 Y0.184
N4132 X7.3388 Y0.1817
N4133 X7.3029 Y0.18
N4134 X7.267 Y0.1788
N4135 X7.2311 Y0.1778
N4136 X7.1952 Y0.1771
N4137 X7.1593 Y0.1766
N4138 X7.1235 Y0.1762
N4139 X7.1138 Y0.1761
N4140 X7.1027 Y0.175
N4141 X7.0921 Y0.1718
N4142 X7.0823 Y0.1666
N4143 X7.0485 Y0.1445
N4144 X7.0322 Y0.1342
N4145 X6.9507 Y0.0883
N4146 X6.9262 Y0.0749
N4147 X6.915 Y0.0696
N4148 G3 X6.9074 Y0.0635 I0.0115 J-0.0222 F55
N4149 G1 X6.9049 Y0.0605 Z-0.2358
N4150 X6.9024 Y0.0576 Z-0.2349
N4151 X6.9001 Y0.0548 Z-0.2334
N4152 X6.898 Y0.0522 Z-0.2313
N4153 X6.896 Y0.0499 Z-0.2288
N4154 X6.8944 Y0.048 Z-0.2258
N4155 X6.8931 Y0.0464 Z-0.2225
N4156 X6.8921 Y0.0453 Z-0.2188
N4157 X6.8915 Y0.0446 Z-0.215
N4158 X6.8913 Y0.0443 Z-0.2111
N4159 G0 Z0.1969
N4160 X7.7766 Y0.9367
N4161 Z-0.1861
N4162 G1 Z-0.2111 F55
N4163 X7.7763 Y0.9368 Z-0.215
N4164 X7.7754 Y0.937 Z-0.2188
N4165 X7.774 Y0.9374 Z-0.2225
N4166 X7.772 Y0.9379 Z-0.2258
N4167 X7.7695 Y0.9386 Z-0.2288
N4168 X7.7667 Y0.9394 Z-0.2313
N4169 X7.7634 Y0.9403 Z-0.2334
N4170 X7.7599 Y0.9412 Z-0.2349
N4171 X7.7563 Y0.9422 Z-0.2358
N4172 X7.7525 Y0.9433 Z-0.2361
N4173 G3 X7.7435 Y0.9393 I-0.0021 J-0.0075
N4174 G1 X7.7047 Y0.8578 F89.37
N4175 X7.7008 Y0.8496
N4176 X7.6966 Y0.8415
N4177 X7.6553 Y0.7681
N4178 X7.6439 Y0.7453
N4179 X7.6347 Y0.7224
N4180 X7.6252 Y0.6917
N4181 X7.6173 Y0.6567
N4182 X7.6117 Y0.6212
N4183 X7.6077 Y0.5856
N4184 X7.6048 Y0.5498
N4185 X7.6028 Y0.5139
N4186 X7.6013 Y0.4781
N4187 X7.5981 Y0.4423
N4188 X7.5845 Y0.4091
N4189 X7.5629 Y0.3804
N4190 X7.5358 Y0.3569
N4191 X7.5052 Y0.338
N4192 X7.4725 Y0.3232
N4193 X7.4385 Y0.3117
N4194 X7.4037 Y0.3028
N4195 X7.3685 Y0.2961
N4196 X7.3329 Y0.2909
N4197 X7.2973 Y0.287
N4198 X7.2608 Y0.284
N4199 X7.2495 Y0.2821
N4200 X7.2387 Y0.2781
N4201 X7.2289 Y0.272
N4202 X7.2165 Y0.2625
N4203 X7.1627 Y0.2217
N4204 X7.1411 Y0.2054
N4205 X7.1382 Y0.2034
N4206 X7.1291 Y0.1973
N4207 X7.0823 Y0.1666
N4208 G3 X7.0756 Y0.1595 I0.0144 J-0.0204 F55
N4209 G1 X7.0735 Y0.1562 Z-0.2358
N4210 X7.0714 Y0.153 Z-0.2349
N4211 X7.0695 Y0.1499 Z-0.2334
N4212 X7.0677 Y0.1471 Z-0.2313
N4213 X7.0661 Y0.1446 Z-0.2288
N4214 X7.0648 Y0.1424 Z-0.2258
N4215 X7.0637 Y0.1407 Z-0.2225
N4216 X7.0629 Y0.1394 Z-0.2188
N4217 X7.0624 Y0.1386 Z-0.215
N4218 X7.0622 Y0.1384 Z-0.2111
N4219 G0 Z0.1969
N4220 X7.6882 Y0.7632
N4221 Z-0.1861
N4222 G1 Z-0.2111 F55
N4223 X7.6879 Y0.7633 Z-0.215
N4224 X7.687 Y0.7636 Z-0.2188
N4225 X7.6856 Y0.7641 Z-0.2225
N4226 X7.6836 Y0.7648 Z-0.2258
N4227 X7.6812 Y0.7656 Z-0.2288
N4228 X7.6784 Y0.7666 Z-0.2313
N4229 X7.6753 Y0.7677 Z-0.2334
N4230 X7.6718 Y0.7689 Z-0.2349
N4231 X7.6682 Y0.7701 Z-0.2358
N4232 X7.6645 Y0.7714 Z-0.2361
N4233 G3 X7.6553 Y0.7681 I-0.0026 J-0.0074
N4234 G1 X7.6507 Y0.7599 F89.37
N4235 X7.6461 Y0.7518
N4236 X7.6366 Y0.7355
N4237 X7.6358 Y0.7341
N4238 X7.5832 Y0.6539
N4239 X7.5705 Y0.6353
N4240 X7.5664 Y0.6295
N4241 X7.5607 Y0.6211
N4242 X7.5519 Y0.6057
N4243 X7.5422 Y0.5848
N4244 X7.5296 Y0.5512
N4245 X7.5137 Y0.5191
N4246 X7.4918 Y0.4906
N4247 X7.4652 Y0.4665
N4248 X7.4353 Y0.4466
N4249 X7.4085 Y0.4334
N4250 X7.403 Y0.4303
N4251 X7.3979 Y0.4266
N4252 X7.3932 Y0.4224
N4253 G3 X7.3881 Y0.4141 I0.0183 J-0.017 F55
N4254 X7.4307 Y0.3893 I0.0234 J-0.0088 F89.37
N4255 G1 X7.605 Y0.5976
N4256 G3 X7.5739 Y0.6357 I-0.0192 J0.016
N4257 X7.5664 Y0.6295 I0.0119 J-0.022 F55
N4258 G1 X7.5046 Y0.5479 F89.37
N4259 X7.4971 Y0.5388
N4260 X7.489 Y0.5288
N4261 X7.4843 Y0.5235
N4262 X7.4346 Y0.4664
N4263 X7.4126 Y0.4419
N4264 X7.4074 Y0.4366
N4265 X7.3475 Y0.3767
N4266 X7.3311 Y0.3604
N4267 X7.3258 Y0.3555
N4268 X7.2443 Y0.2844
N4269 X7.2378 Y0.2788
N4270 X7.2289 Y0.272
N4271 G3 X7.2228 Y0.2645 I0.0159 J-0.0193 F55
N4272 G1 X7.2209 Y0.261 Z-0.2358
N4273 X7.2191 Y0.2577 Z-0.2349
N4274 X7.2174 Y0.2545 Z-0.2334
N4275 X7.2159 Y0.2515 Z-0.2313
N4276 X7.2145 Y0.2489 Z-0.2288
N4277 X7.2133 Y0.2466 Z-0.2258
N4278 X7.2123 Y0.2448 Z-0.2225
N4279 X7.2116 Y0.2435 Z-0.2188
N4280 X7.2112 Y0.2427 Z-0.215
N4281 X7.211 Y0.2424 Z-0.2111
N4282 G0 Z0.1969
N4283 X6.589 Y3.4363
N4284 Z-0.1861
N4285 G1 Z-0.2111 F55
N4286 Y3.436 Z-0.215
N4287 X6.5889 Y3.435 Z-0.2188
N4288 X6.5888 Y3.4335 Z-0.2225
N4289 X6.5886 Y3.4315 Z-0.2258
N4290 X6.5883 Y3.429 Z-0.2288
N4291 X6.588 Y3.426 Z-0.2313
N4292 X6.5876 Y3.4227 Z-0.2334
N4293 X6.5873 Y3.4191 Z-0.2349
N4294 X6.5869 Y3.4153 Z-0.2358
N4295 X6.5865 Y3.4114 Z-0.2361
N4296 G3 X6.5918 Y3.4032 I0.0078 J-0.0008
N4297 G1 X6.5999 Y3.4008 F89.37
N4298 X6.6081 Y3.3983
N4299 X6.6815 Y3.375
N4300 X6.6897 Y3.3723
N4301 X6.706 Y3.3669
N4302 X6.7141 Y3.3639
N4303 X6.7957 Y3.3318
N4304 X6.812 Y3.3253
N4305 X6.8202 Y3.3219
N4306 X6.8233 Y3.3204
N4307 X6.8535 Y3.308
N4308 X6.8822 Y3.2988
N4309 X6.9171 Y3.2906
N4310 X6.9526 Y3.2849
N4311 X6.9882 Y3.2809
N4312 X7.024 Y3.278
N4313 X7.0599 Y3.276
N4314 X7.0957 Y3.2745
N4315 X7.1316 Y3.2735
N4316 X7.1675 Y3.2728
N4317 X7.2034 Y3.2722
N4318 X7.2393 Y3.2719
N4319 X7.2752 Y3.2716
N4320 X7.3111 Y3.2714
N4321 X7.3829 Y3.2712
N4322 X7.4906 Y3.271
N4323 X7.6342
N4324 X7.6688 Y3.2617
N4325 X7.6986 Y3.2416
N4326 X7.7226 Y3.2149
N4327 X7.7413 Y3.1843
N4328 X7.7557 Y3.1514
N4329 X7.7666 Y3.1172
N4330 X7.7748 Y3.0822
N4331 X7.7809 Y3.0469
