%
(YoYoJig)
(T1  D=0.5 CR=0 - ZMIN=-0.625 - flat end mill)
N0 G90
N1 G17
(2D Pocket2)
N2 T1 M6
N3 S10000 M3
N5 G0 X1.6995 Y1.6689
N6 Z0.6
N7 Z0.2894
N8 G1 Z0.1492 F25
N9 G3 X1.6991 Y1.6677 Z0.1377 I0.1167 J-0.0439
N10 X1.6978 Y1.6639 Z0.1268 I0.1172 J-0.0427
N11 X1.6959 Y1.6578 Z0.1171 I0.1185 J-0.0389
N12 X1.694 Y1.6496 Z0.1091 I0.1203 J-0.0328
N13 X1.6924 Y1.6397 Z0.1033 I0.1223 J-0.0246
N14 X1.6916 Y1.6286 Z0.1 I0.1239 J-0.0147
N15 X1.6915 Y1.625 Z0.0994 I0.1247 J-0.0036
N16 X1.8163 Y1.5003 Z0.0648 I0.1247 J0
N17 G1 X2.0038 Z0.0318
N18 G3 Y1.7497 Z-0.0373 I0 J0.1247
N19 G1 X1.8163 Z-0.0704
N20 G3 Y1.5003 Z-0.1395 I0 J-0.1247
N21 G1 X2.0038 Z-0.1725
N22 G3 Y1.7497 Z-0.2416 I0 J0.1247
N23 G1 X1.9563 Z-0.25
N24 X1.8163 F40
N25 G3 Y1.5003 I0 J-0.1247
N26 G1 X2.0038
N27 G3 Y1.7497 I0 J0.1247
N28 G1 X1.9563
N29 G2 X1.7863 Y1.8701 I0 J0.1802
N30 G3 X1.587 Y1.9305 I-0.1218 J-0.0428
N31 X1.8163 Y1.243 I0.2293 J-0.3055
N32 G1 X2.0038
N33 G3 Y2.007 I0 J0.382
N34 G1 X1.8163
N35 G3 X1.587 Y1.9305 I0 J-0.382
N36 G2 X1.2527 Y1.8847 I-0.2084 J0.2777
N37 G3 X0.9653 Y1.708 I-0.0768 J-0.1972
N38 X1.8163 Y0.77 I0.851 J-0.083
N39 G1 X2.0038
N40 G3 Y2.48 I0 J0.855
N41 G1 X1.8163
N42 G3 X0.9653 Y1.708 I0 J-0.855
N43 X0.9894 Y1.6806 I0.0249 J-0.0024
N44 G1 X1.5469 Y1.6629
N45 X2.0993 Y1.5877
N46 G3 X2.1275 Y1.6093 I0.0034 J0.0248
N47 X2.0038 Y1.7497 Z-0.2873 I-0.1237 J0.0157 F25
N48 G1 X1.8163 Z-0.3204
N49 G3 Y1.5003 Z-0.3895 I0 J-0.1247
N50 G1 X2.0038 Z-0.4225
N51 G3 Y1.7497 Z-0.4916 I0 J0.1247
N52 G1 X1.9563 Z-0.5
N53 X1.8163 F40
N54 G3 Y1.5003 I0 J-0.1247
N55 G1 X2.0038
N56 G3 Y1.7497 I0 J0.1247
N57 G1 X1.9563
N58 G2 X1.7863 Y1.8701 I0 J0.1802
N59 G3 X1.587 Y1.9305 I-0.1218 J-0.0428
N60 X1.8163 Y1.243 I0.2293 J-0.3055
N61 G1 X2.0038
N62 G3 Y2.007 I0 J0.382
N63 G1 X1.8163
N64 G3 X1.587 Y1.9305 I0 J-0.382
N65 G2 X1.2527 Y1.8847 I-0.2084 J0.2777
N66 G3 X0.9653 Y1.708 I-0.0768 J-0.1972
N67 X1.8163 Y0.77 I0.851 J-0.083
N68 G1 X2.0038
N69 G3 Y2.48 I0 J0.855
N70 G1 X1.8163
N71 G3 X0.9653 Y1.708 I0 J-0.855
N72 X0.9922 Y1.6806 I0.0249 J-0.0024
N73 G1 X1.6147 Y1.731
N74 G3 X1.6169 Y1.7313 I-0.002 J0.0249
N75 G2 X1.6436 Y1.7176 I0.0042 J-0.0246
N76 G1 X1.7328 Y1.5351
N77 G3 X1.74 Y1.5263 I0.0225 J0.011
N78 X1.8163 Y1.5003 Z-0.5145 I0.0763 J0.0987 F25
N79 G1 X2.0038 Z-0.5475
N80 G3 Y1.7497 Z-0.6166 I0 J0.1247
N81 G1 X1.9563 Z-0.625
N82 X1.8163 F40
N83 G3 Y1.5003 I0 J-0.1247
N84 G1 X2.0038
N85 G3 Y1.7497 I0 J0.1247
N86 G1 X1.9563
N87 G2 X1.7863 Y1.8701 I0 J0.1802
N88 G3 X1.587 Y1.9305 I-0.1218 J-0.0428
N89 X1.8163 Y1.243 I0.2293 J-0.3055
N90 G1 X2.0038
N91 G3 Y2.007 I0 J0.382
N92 G1 X1.8163
N93 G3 X1.587 Y1.9305 I0 J-0.382
N94 G2 X1.2527 Y1.8847 I-0.2084 J0.2777
N95 G3 X0.9653 Y1.708 I-0.0768 J-0.1972
N96 X1.8163 Y0.77 I0.851 J-0.083
N97 G1 X2.0038
N98 G3 Y2.48 I0 J0.855
N99 G1 X1.8163
N100 G3 X0.9653 Y1.708 I0 J-0.855
N101 X0.9654 Y1.6969 Z-0.6237 I0.0498 J-0.0049
N102 X0.9679 Y1.6866 Z-0.62 I0.0496 J0.0062
N103 X0.9718 Y1.678 Z-0.6141 I0.0472 J0.0165
N104 X0.9763 Y1.6715 Z-0.6062 I0.0432 J0.0251
N105 X0.9804 Y1.6671 Z-0.5967 I0.0387 J0.0316
N106 X0.9831 Y1.6647 Z-0.5861 I0.0347 J0.036
N107 X0.9841 Y1.6639 Z-0.575 I0.0319 J0.0385
N108 G0 Z0.6
N110 M30
N111 Z1
N112 M5
