%
(1001)
(AK plaque)
(T1  D=0.25 CR=0 - ZMIN=-0.28 - flat end mill)
N0 G90
N1 G17
(Adaptive2)
N2 T1 M6
N3 S10000 M3
N5 G0 X4.2462 Y1.3711
N6 Z0.6
N7 Z0.055
N8 G1 Z0.03 F40
N9 G3 X4.1495 Y1.4937 Z0.0212 I-0.1212 J0.0039
N10 X4.0125 Y1.4195 Z0.0123 I-0.0244 J-0.1184
N11 X4.0622 Y1.2723 Z0.0034 I0.1123 J-0.0441
N12 X4.2154 Y1.2962 Z-0.0055 I0.0624 J0.1029
N13 X4.2179 Y1.4508 Z-0.0144 I-0.0905 J0.0788
N14 X4.0664 Y1.4794 Z-0.0233 I-0.0928 J-0.0756
N15 X4.0125 Y1.3354 Z-0.0322 I0.0586 J-0.104
N16 X4.1449 Y1.258 Z-0.0411 I0.1122 J0.0399
N17 X4.2434 Y1.375 Z-0.05 I-0.0202 J0.117
N18 X4.0059 I-0.1188 J0
N19 X4.2392 Y1.3436 I0.1188 J0
N20 X4.2434 Y1.375 I-0.1145 J0.0314
N21 G1 X4.2436 Y1.3841
N22 X4.2498 Y1.4197
N23 G3 X4.2445 Y1.4838 I-0.0724 J0.0263
N24 X4.1643 Y1.5505 I-0.1162 J-0.0583
N25 X3.9866 Y1.5027 I-0.0514 J-0.1633
N26 X4.079 Y1.1908 I0.1364 J-0.1292
N27 X4.2895 Y1.2803 I0.0464 J0.1832
N28 G1 X4.3053 Y1.3096
N29 X4.3163 Y1.3353
N30 G3 X4.3297 Y1.4628 I-0.2134 J0.0868
N31 X4.1875 Y1.6218 I-0.2083 J-0.0432
N32 X3.9627 Y1.5858 I-0.0783 J-0.2307
N33 X3.8897 Y1.2436 I0.1565 J-0.2123
N34 X4.3182 Y1.187 I0.2353 J0.1306
N35 X4.416 Y1.3984 I-0.2323 J0.2358
N36 X4.2171 Y1.6985 I-0.298 J0.0186
N37 X3.9631 Y1.6839 I-0.11 J-0.3035
N38 X3.7719 Y1.3983 I0.1516 J-0.3083
N39 X4.2518 Y1.0439 I0.3525 J-0.0247
N40 X4.3548 Y1.1041 I-0.1294 J0.3395
N41 X4.5022 Y1.3846 I-0.2587 J0.3148
N42 X4.2813 Y1.7657 I-0.3859 J0.0309
N43 X4.0256 Y1.7969 I-0.1745 J-0.3662
N44 X3.7931 Y1.6636 I0.0833 J-0.4147
N45 X3.6835 Y1.3409 I0.3244 J-0.2901
N46 X4.0314 Y0.9414 I0.4406 J0.0324
N47 X4.311 Y0.9723 I0.0936 J0.4335
N48 X4.457 Y1.0773 I-0.1978 J0.429
N49 X4.5907 Y1.3678 I-0.3574 J0.3406
N50 X4.5328 Y1.647 I-0.4772 J0.0465
N51 X4.2244 Y1.8806 I-0.4206 J-0.2348
N52 X3.8414 Y1.8198 I-0.1186 J-0.4892
N53 X3.6481 Y1.6094 I0.268 J-0.4403
N54 X3.6551 Y1.1221 I0.4717 J-0.237
N55 X4.2717 Y0.8616 I0.4697 J0.2518
N56 X4.5645 Y1.0634 I-0.1558 J0.5392
N57 X4.6489 Y1.6118 I-0.4554 J0.3507
N58 X4.1924 Y1.9795 I-0.5375 J-0.2001
N59 X3.7482 Y1.8671 I-0.0873 J-0.5887
N60 X3.5012 Y1.4036 I0.3655 J-0.4924
N61 X4.3053 Y0.776 I0.6232 J-0.0304
N62 X4.651 Y1.0253 I-0.1879 J0.625
N63 X4.6493 Y1.8043 I-0.5396 J0.3883
N64 X4.1224 Y2.0782 I-0.5409 J-0.3967
N65 X3.579 Y1.8354 I-0.0163 J-0.6931
N66 X3.4817 Y1.056 I0.5392 J-0.4631
N67 X4.4051 Y0.7132 I0.6434 J0.318
N68 X4.7909 Y1.0782 I-0.2923 J0.6953
N69 X4.3077 Y2.1447 I-0.678 J0.3355
N70 X3.5956 Y1.9831 I-0.2034 J-0.7539
N71 X3.3765 Y1.0617 I0.5207 J-0.6106
N72 X4.4301 Y0.6223 I0.7485 J0.312
N73 X4.8552 Y0.9986 I-0.3148 J0.7838
N74 X4.618 Y2.0976 I-0.742 J0.415
N75 X4.4809 Y2.1741 I-0.5678 J-0.856
N76 G1 X4.4234 Y2.1969
N77 G3 X3.6587 Y2.1147 I-0.2984 J-0.8223
N78 X3.4868 Y1.9728 I0.4847 J-0.7626
N79 X3.3476 Y1.7756 I0.6628 J-0.6154
N80 X3.2903 Y1.6357 I0.8473 J-0.4287
N81 G1 X3.2722 Y1.5696
N82 G3 X3.2588 Y1.496 I2.3152 J-0.457
N83 X3.2508 Y1.4056 I1.5183 J-0.1805
N84 G1 X3.251 Y1.3562
N85 G3 X3.27 Y1.1918 I0.8736 J0.0175
N86 X3.6094 Y0.6689 I0.8558 J0.1839
N87 G1 X3.6624 Y0.6326
N88 X3.6669 Y0.6298
N89 X3.7244 Y0.5976
N90 G3 X3.8067 Y0.5603 I0.6592 J1.3426
N91 X3.9464 Y0.5188 I0.356 J0.9428
N92 X4.1191 Y0.5006 I0.183 J0.9075
N93 X4.5057 Y0.5878 I0.0052 J0.8779
N94 X4.7525 Y0.766 I-0.3838 J0.7916
N95 X4.8819 Y0.9369 I-0.6481 J0.6251
N96 X4.947 Y1.0767 I-0.836 J0.4746
N97 X4.988 Y1.2328 I-0.8908 J0.3168
N98 G1 X4.9933 Y1.274
N99 X4.9964 Y1.2987
N100 G3 X4.9993 Y1.3891 I-1.1727 J0.0834
N101 X4.9165 Y1.7467 I-0.8779 J-0.0149
N102 X4.8426 Y1.8742 I-0.7874 J-0.3708
N103 G1 X4.8312 Y1.8907
N104 X4.7927 Y1.94
N105 G3 X4.7308 Y2.0059 I-0.864 J-0.7507
N106 G1 X4.7029 Y2.0307
N107 X4.6783 Y2.0526
N108 G3 X4.6179 Y2.0974 I-1.0844 J-1.3963
N109 G1 X4.6159 Y2.0982 Z-0.0497
N110 X4.614 Y2.0989 Z-0.049
N111 X4.6122 Y2.0995 Z-0.0479
N112 X4.6108 Y2.1 Z-0.0463
N113 X4.6097 Y2.1004 Z-0.0445
N114 X4.6089 Y2.1005 Z-0.0424
N115 X4.6087 Y2.1006 Z-0.0402
N116 G0 Z0.2
N117 X4.2462 Y1.372
N118 Z0.005
N119 G1 Z-0.02 F40
N120 G3 X4.1487 Y1.4939 Z-0.0289 I-0.1212 J0.003
N121 X4.0122 Y1.4188 Z-0.0378 I-0.0236 J-0.1186
N122 X4.0627 Y1.272 Z-0.0467 I0.1125 J-0.0434
N123 X4.2157 Y1.2966 Z-0.0556 I0.0619 J0.1032
N124 X4.2176 Y1.4511 Z-0.0644 I-0.0909 J0.0784
N125 X4.0661 Y1.4793 Z-0.0733 I-0.0925 J-0.0759
N126 X4.0125 Y1.3352 Z-0.0822 I0.0588 J-0.1039
N127 X4.145 Y1.258 Z-0.0911 I0.1121 J0.0401
N128 X4.2434 Y1.375 Z-0.1 I-0.0203 J0.117
N129 X4.0059 I-0.1188 J0
N130 X4.2392 Y1.3436 I0.1188 J0
N131 X4.2434 Y1.375 I-0.1145 J0.0314
N132 G1 X4.2436 Y1.384
N133 X4.2498 Y1.4197
N134 G3 X4.2445 Y1.4838 I-0.0724 J0.0263
N135 X4.1643 Y1.5504 I-0.1162 J-0.0583
N136 X3.9866 Y1.5027 I-0.0514 J-0.1633
N137 X4.079 Y1.1908 I0.1364 J-0.1292
N138 X4.2895 Y1.2803 I0.0464 J0.1832
N139 G1 X4.3052 Y1.3096
N140 X4.3163 Y1.3353
N141 G3 X4.3297 Y1.4628 I-0.2134 J0.0868
N142 X4.1875 Y1.6218 I-0.2083 J-0.0432
N143 X3.9627 Y1.5858 I-0.0783 J-0.2307
N144 X3.8897 Y1.2436 I0.1565 J-0.2123
N145 X4.3182 Y1.187 I0.2353 J0.1306
N146 X4.416 Y1.3984 I-0.2323 J0.2358
N147 X4.2171 Y1.6985 I-0.298 J0.0186
N148 X3.9631 Y1.6839 I-0.11 J-0.3035
N149 X3.7719 Y1.3983 I0.1516 J-0.3083
N150 X4.2518 Y1.0439 I0.3525 J-0.0247
N151 X4.3548 Y1.1041 I-0.1294 J0.3395
N152 X4.5022 Y1.3846 I-0.2587 J0.3148
N153 X4.2813 Y1.7657 I-0.3859 J0.0309
N154 X4.0256 Y1.7969 I-0.1745 J-0.3662
N155 X3.7931 Y1.6636 I0.0833 J-0.4147
N156 X3.6835 Y1.3409 I0.3244 J-0.2901
N157 X4.0314 Y0.9414 I0.4406 J0.0324
N158 X4.311 Y0.9723 I0.0936 J0.4335
N159 X4.457 Y1.0773 I-0.1978 J0.429
N160 X4.5907 Y1.3678 I-0.3574 J0.3406
N161 X4.5328 Y1.647 I-0.4772 J0.0465
N162 X4.2244 Y1.8806 I-0.4206 J-0.2348
N163 X3.8414 Y1.8198 I-0.1186 J-0.4892
N164 X3.6481 Y1.6094 I0.268 J-0.4403
N165 X3.6551 Y1.1221 I0.4717 J-0.237
N166 X4.2717 Y0.8616 I0.4697 J0.2518
N167 X4.5645 Y1.0634 I-0.1558 J0.5392
N168 X4.6489 Y1.6118 I-0.4554 J0.3507
N169 X4.1924 Y1.9795 I-0.5375 J-0.2001
N170 X3.7482 Y1.8671 I-0.0873 J-0.5887
N171 X3.5012 Y1.4036 I0.3655 J-0.4924
N172 X4.3053 Y0.776 I0.6232 J-0.0304
N173 X4.651 Y1.0253 I-0.1879 J0.625
N174 X4.6493 Y1.8043 I-0.5396 J0.3883
N175 X4.1224 Y2.0782 I-0.5409 J-0.3967
N176 X3.579 Y1.8354 I-0.0163 J-0.6931
N177 X3.4817 Y1.056 I0.5392 J-0.4631
N178 X4.4051 Y0.7132 I0.6434 J0.318
N179 X4.7909 Y1.0782 I-0.2923 J0.6953
N180 X4.3077 Y2.1447 I-0.678 J0.3355
N181 X3.5956 Y1.9831 I-0.2033 J-0.7539
N182 X3.3765 Y1.0617 I0.5207 J-0.6106
N183 X4.4301 Y0.6223 I0.7485 J0.312
N184 X4.8552 Y0.9986 I-0.3148 J0.7838
N185 X4.618 Y2.0976 I-0.742 J0.4149
N186 X4.4809 Y2.1741 I-0.5677 J-0.8558
N187 G1 X4.4234 Y2.1969
N188 G3 X3.6587 Y2.1147 I-0.2984 J-0.8223
N189 X3.4868 Y1.9728 I0.4847 J-0.7626
N190 X3.3476 Y1.7756 I0.6628 J-0.6154
N191 X3.2903 Y1.6357 I0.8473 J-0.4287
N192 G1 X3.2722 Y1.5696
N193 G3 X3.2588 Y1.496 I2.3152 J-0.457
N194 X3.2508 Y1.4056 I1.5183 J-0.1805
N195 G1 X3.251 Y1.3562
N196 G3 X3.27 Y1.1918 I0.8736 J0.0175
N197 X3.6094 Y0.6689 I0.8558 J0.1839
N198 G1 X3.6624 Y0.6326
N199 X3.6669 Y0.6298
N200 X3.7244 Y0.5976
N201 G3 X3.8067 Y0.5603 I0.6592 J1.3426
N202 X3.9464 Y0.5188 I0.356 J0.9428
N203 X4.1191 Y0.5006 I0.183 J0.9075
N204 X4.5057 Y0.5878 I0.0052 J0.8779
N205 X4.7525 Y0.766 I-0.3838 J0.7916
N206 X4.8819 Y0.9369 I-0.6481 J0.6251
N207 X4.947 Y1.0767 I-0.836 J0.4746
N208 X4.988 Y1.2328 I-0.8908 J0.3168
N209 G1 X4.9933 Y1.274
N210 X4.9964 Y1.2987
N211 G3 X4.9993 Y1.3891 I-1.1727 J0.0834
N212 X4.9165 Y1.7467 I-0.8779 J-0.0149
N213 X4.8426 Y1.8742 I-0.7874 J-0.3708
N214 G1 X4.8312 Y1.8907
N215 X4.7927 Y1.94
N216 G3 X4.7308 Y2.0059 I-0.864 J-0.7507
N217 G1 X4.7029 Y2.0307
N218 X4.6783 Y2.0526
N219 G3 X4.6179 Y2.0974 I-1.0807 J-1.3913
N220 G1 X4.6159 Y2.0982 Z-0.0997
N221 X4.6139 Y2.0989 Z-0.099
N222 X4.6122 Y2.0995 Z-0.0979
N223 X4.6107 Y2.1 Z-0.0963
N224 X4.6096 Y2.1004 Z-0.0945
N225 X4.6089 Y2.1006 Z-0.0924
N226 X4.6087 Z-0.0902
N227 G0 Z-0.045
N228 X4.2462 Y1.372
N229 G1 Z-0.07 F40
N230 G3 X4.1487 Y1.4939 Z-0.0789 I-0.1212 J0.003
N231 X4.0123 Y1.4188 Z-0.0878 I-0.0236 J-0.1186
N232 X4.0628 Y1.272 Z-0.0967 I0.1125 J-0.0434
N233 X4.2157 Y1.2966 Z-0.1056 I0.0619 J0.1032
N234 X4.2176 Y1.4511 Z-0.1144 I-0.0909 J0.0784
N235 X4.0661 Y1.4793 Z-0.1233 I-0.0925 J-0.0759
N236 X4.0126 Y1.3352 Z-0.1322 I0.0588 J-0.1039
N237 X4.145 Y1.258 Z-0.1411 I0.1121 J0.0401
N238 X4.2435 Y1.375 Z-0.15 I-0.0203 J0.117
N239 X4.006 I-0.1188 J0
N240 X4.2393 Y1.3436 I0.1188 J0
N241 X4.2435 Y1.375 I-0.1145 J0.0314
N242 G1 X4.2436 Y1.384
N243 X4.2498 Y1.4197
N244 G3 X4.2445 Y1.4838 I-0.0724 J0.0263
N245 X4.1644 Y1.5504 I-0.1162 J-0.0583
N246 X3.9866 Y1.5027 I-0.0514 J-0.1633
N247 X4.0791 Y1.1908 I0.1364 J-0.1292
N248 X4.2896 Y1.2803 I0.0464 J0.1832
N249 G1 X4.3053 Y1.3096
N250 X4.3164 Y1.3353
N251 G3 X4.3297 Y1.4628 I-0.2134 J0.0868
N252 X4.1875 Y1.6218 I-0.2083 J-0.0432
N253 X3.9628 Y1.5858 I-0.0783 J-0.2307
N254 X3.8897 Y1.2436 I0.1565 J-0.2123
N255 X4.3182 Y1.187 I0.2353 J0.1306
N256 X4.416 Y1.3984 I-0.2323 J0.2358
N257 X4.2172 Y1.6985 I-0.298 J0.0186
N258 X3.9631 Y1.6839 I-0.11 J-0.3035
N259 X3.7719 Y1.3983 I0.1516 J-0.3083
N260 X4.2519 Y1.0439 I0.3525 J-0.0247
N261 X4.3549 Y1.1041 I-0.1294 J0.3395
N262 X4.5022 Y1.3846 I-0.2587 J0.3148
N263 X4.2814 Y1.7657 I-0.3859 J0.0309
N264 X4.0257 Y1.7969 I-0.1745 J-0.3662
N265 X3.7931 Y1.6636 I0.0833 J-0.4147
N266 X3.6835 Y1.3409 I0.3244 J-0.2901
N267 X4.0315 Y0.9414 I0.4406 J0.0324
N268 X4.311 Y0.9723 I0.0936 J0.4335
N269 X4.457 Y1.0773 I-0.1978 J0.429
N270 X4.5908 Y1.3678 I-0.3574 J0.3406
N271 X4.5328 Y1.647 I-0.4772 J0.0465
N272 X4.2244 Y1.8806 I-0.4206 J-0.2348
N273 X3.8414 Y1.8198 I-0.1186 J-0.4892
N274 X3.6481 Y1.6094 I0.268 J-0.4403
N275 X3.6551 Y1.1221 I0.4717 J-0.237
N276 X4.2717 Y0.8616 I0.4697 J0.2518
N277 X4.5645 Y1.0634 I-0.1558 J0.5392
N278 X4.6489 Y1.6118 I-0.4554 J0.3507
N279 X4.1925 Y1.9795 I-0.5375 J-0.2001
N280 X3.7482 Y1.8671 I-0.0873 J-0.5887
N281 X3.5174 Y1.2329 I0.3653 J-0.492
N282 G1 X3.5208 Y1.2164
N283 X3.5232 Y1.2082
N284 X3.539 Y1.1589
N285 G3 X3.6064 Y1.0272 I0.6279 J0.2383
N286 G1 X3.6299 Y0.9944
N287 X3.634 Y0.9889
N288 X3.636 Y0.9862
N289 X3.6721 Y0.9451
N290 G3 X3.7819 Y0.8532 I0.4831 J0.4659
N291 G1 X3.7984 Y0.8432
N292 X3.8231 Y0.8284
N293 G3 X4.1191 Y0.7509 I0.3015 J0.5474
N294 X4.2178 Y0.7577 I0.0111 J0.5617
N295 X4.5548 Y1.8276 I-0.0927 J0.6172
N296 X4.0862 Y1.9981 I-0.4301 J-0.4529
N297 X3.8889 Y1.9533 I0.0439 J-0.65
N298 G1 X3.856 Y1.9381
N299 X3.8313 Y1.9264
N300 X3.8265 Y1.9236
N301 X3.782 Y1.8969
N302 G3 X3.6032 Y1.718 I0.3504 J-0.5291
N303 X3.5051 Y1.4501 I0.5326 J-0.347
N304 G1 X3.5054 Y1.4483 Z-0.1499
N305 X3.5057 Y1.4462 Z-0.1492
N306 X3.506 Y1.4442 Z-0.148
N307 X3.5063 Y1.4426 Z-0.1465
N308 X3.5065 Y1.4414 Z-0.1446
N309 X3.5066 Y1.4406 Z-0.1424
N310 X3.5067 Y1.4403 Z-0.1402
N311 G0 Z-0.075
N312 X3.9884 Y1.8184
N313 G1 Z-0.0999 F40
N314 Y1.8187 Z-0.1039
N315 Y1.8196 Z-0.1077
N316 Y1.8211 Z-0.1113
N317 Y1.8231 Z-0.1146
N318 Y1.8257 Z-0.1176
N319 Y1.8287 Z-0.1202
N320 X3.9885 Y1.832 Z-0.1222
N321 Y1.8356 Z-0.1237
N322 Y1.8395 Z-0.1246
N323 Y1.8434 Z-0.1249
N324 G3 X3.9747 Y1.9802 I-0.6382 J0.0047
N325 G1 X3.9733 Y1.986
N326 G3 X3.9365 Y2.0069 I-0.0537 J-0.0518
N327 X3.8646 Y2.0116 I-0.0474 J-0.1709
N328 G1 X3.842 Y2.0081
N329 X3.818 Y2.0023
N330 X3.7919 Y1.9938
N331 X3.7609 Y1.9808
N332 G3 X3.6409 Y1.9008 I0.2203 J-0.4608
N333 X3.445 Y1.6016 I0.457 J-0.513
N334 X4.8054 Y1.1481 I0.6802 J-0.2267
N335 X4.1163 Y2.0918 I-0.6802 J0.2267
N336 G1 X4.0802 Y2.0926
N337 X4.0442 Y2.0963
N338 X4.0083 Y2.1007
N339 X3.9723 Y2.1044
N340 G3 X3.8282 Y2.0968 I-0.0462 J-0.4916
N341 X3.6614 Y2.0291 I0.1072 J-0.5033
N342 X3.455 Y1.8292 I0.3669 J-0.5855
N343 X3.4819 Y0.8818 I0.6658 J-0.4552
N344 X4.7684 Y1.8682 I0.6433 J0.4932
N345 X4.1943 Y2.1826 I-0.6433 J-0.4932
N346 X3.978 Y2.2018 I-0.5699 J-5.194
N347 X3.7984 Y2.1845 I-0.0218 J-0.7162
N348 X3.7738 Y2.1754 I0.0266 J-0.1094
N349 X3.7162 Y2.1478 I0.2881 J-0.6753
N350 G1 X3.6669 Y2.1202
N351 G3 X3.5461 Y2.0304 I0.5391 J-0.8506
N352 X3.2904 Y1.6357 I0.5815 J-0.657
N353 G1 X3.2722 Y1.5696
N354 G3 X3.2588 Y1.496 I2.3152 J-0.457
N355 X3.2508 Y1.4056 I1.5183 J-0.1805
N356 G1 X3.251 Y1.3562
N357 G3 X3.27 Y1.1918 I0.8736 J0.0175
N358 X3.6094 Y0.6689 I0.8558 J0.1839
N359 G1 X3.6624 Y0.6326
N360 X3.6669 Y0.6298
N361 X3.7244 Y0.5976
N362 G3 X3.8067 Y0.5603 I0.6592 J1.3426
N363 X3.9464 Y0.5188 I0.356 J0.9428
N364 X4.1191 Y0.5006 I0.183 J0.9075
N365 X4.5057 Y0.5878 I0.0052 J0.8779
N366 X4.7525 Y0.766 I-0.3838 J0.7916
N367 X4.8819 Y0.9369 I-0.6481 J0.6251
N368 X4.947 Y1.0767 I-0.836 J0.4746
N369 X4.988 Y1.2328 I-0.8908 J0.3168
N370 G1 X4.9933 Y1.274
N371 X4.9964 Y1.2987
N372 G3 X4.9993 Y1.3891 I-1.1727 J0.0834
N373 X4.9165 Y1.7467 I-0.8779 J-0.0149
N374 X4.8426 Y1.8742 I-0.7874 J-0.3708
N375 G1 X4.8312 Y1.8907
N376 X4.7927 Y1.94
N377 G3 X4.7308 Y2.0059 I-0.864 J-0.7507
N378 G1 X4.7029 Y2.0307
N379 X4.6783 Y2.0526
N380 X4.6749 Y2.0552
N381 X4.6289 Y2.0895
N382 G3 X4.5381 Y2.1456 I-0.5463 J-0.7828
N383 G1 X4.4889 Y2.1703
N384 X4.4809 Y2.1741
N385 X4.4234 Y2.1969
N386 G3 X3.7837 Y2.18 I-0.2984 J-0.8218
N387 G1 X3.782 Y2.1787 Z-0.1247
N388 X3.7803 Y2.1775 Z-0.124
N389 X3.7789 Y2.1763 Z-0.1228
N390 X3.7776 Y2.1754 Z-0.1213
N391 X3.7767 Y2.1747 Z-0.1194
N392 X3.7762 Y2.1741 Z-0.1173
N393 X3.776 Y2.1739 Z-0.1151
N394 G0 Z-0.095
N395 X4.2462 Y1.372
N396 G1 Z-0.12 F40
N397 G3 X4.1487 Y1.4939 Z-0.1289 I-0.1212 J0.003
N398 X4.0123 Y1.4188 Z-0.1378 I-0.0236 J-0.1186
N399 X4.0628 Y1.272 Z-0.1467 I0.1125 J-0.0434
N400 X4.2157 Y1.2966 Z-0.1556 I0.0619 J0.1032
N401 X4.2176 Y1.4511 Z-0.1644 I-0.0909 J0.0784
N402 X4.0661 Y1.4793 Z-0.1733 I-0.0925 J-0.0759
N403 X4.0126 Y1.3352 Z-0.1822 I0.0588 J-0.1039
N404 X4.145 Y1.258 Z-0.1911 I0.1121 J0.0401
N405 X4.2435 Y1.375 Z-0.2 I-0.0203 J0.117
N406 X4.006 I-0.1188 J0
N407 X4.2393 Y1.3436 I0.1188 J0
N408 X4.2435 Y1.375 I-0.1145 J0.0314
N409 G1 X4.2436 Y1.384
N410 X4.2498 Y1.4197
N411 G3 X4.2445 Y1.4838 I-0.0724 J0.0263
N412 X4.1644 Y1.5504 I-0.1162 J-0.0583
N413 X3.9866 Y1.5027 I-0.0514 J-0.1633
N414 X4.0791 Y1.1908 I0.1364 J-0.1292
N415 X4.2896 Y1.2803 I0.0464 J0.1832
N416 G1 X4.3053 Y1.3096
N417 X4.3164 Y1.3353
N418 G3 X4.3297 Y1.4628 I-0.2134 J0.0868
N419 X4.1875 Y1.6218 I-0.2083 J-0.0432
N420 X3.9628 Y1.5858 I-0.0783 J-0.2307
N421 X3.8897 Y1.2436 I0.1565 J-0.2123
N422 X4.3182 Y1.187 I0.2353 J0.1306
N423 X4.416 Y1.3984 I-0.2323 J0.2358
N424 X4.2172 Y1.6985 I-0.298 J0.0186
N425 X3.9631 Y1.6839 I-0.11 J-0.3035
N426 X3.7719 Y1.3983 I0.1516 J-0.3083
N427 X4.2519 Y1.0439 I0.3525 J-0.0247
N428 X4.3549 Y1.1041 I-0.1294 J0.3395
N429 X4.5022 Y1.3846 I-0.2587 J0.3148
N430 X4.2814 Y1.7657 I-0.3859 J0.0309
N431 X4.0257 Y1.7969 I-0.1745 J-0.3662
N432 X3.7931 Y1.6636 I0.0833 J-0.4147
N433 X3.6835 Y1.3409 I0.3244 J-0.2901
N434 X4.0315 Y0.9414 I0.4406 J0.0324
N435 X4.311 Y0.9723 I0.0936 J0.4335
N436 X4.457 Y1.0773 I-0.1978 J0.429
N437 X4.5908 Y1.3678 I-0.3574 J0.3406
N438 X4.5328 Y1.647 I-0.4772 J0.0465
N439 X4.2244 Y1.8806 I-0.4206 J-0.2348
N440 X3.8414 Y1.8198 I-0.1186 J-0.4892
N441 X3.6481 Y1.6094 I0.268 J-0.4403
N442 X3.6551 Y1.1221 I0.4717 J-0.237
N443 X4.2717 Y0.8616 I0.4697 J0.2518
N444 X4.5645 Y1.0634 I-0.1558 J0.5392
N445 X4.6489 Y1.6118 I-0.4554 J0.3507
N446 X4.1925 Y1.9795 I-0.5375 J-0.2001
N447 X3.7482 Y1.8671 I-0.0873 J-0.5887
N448 X3.5174 Y1.2329 I0.3653 J-0.492
N449 G1 X3.5208 Y1.2164
N450 X3.5232 Y1.2082
N451 X3.539 Y1.1589
N452 G3 X3.6064 Y1.0272 I0.6279 J0.2383
N453 G1 X3.6299 Y0.9944
N454 X3.634 Y0.9889
N455 X3.636 Y0.9862
N456 X3.6721 Y0.9451
N457 G3 X3.7819 Y0.8532 I0.4831 J0.4659
N458 G1 X3.7984 Y0.8432
N459 X3.8231 Y0.8284
N460 G3 X4.1191 Y0.7509 I0.3015 J0.5474
N461 X4.2178 Y0.7577 I0.0111 J0.5617
N462 X4.5548 Y1.8276 I-0.0927 J0.6172
N463 X4.0862 Y1.9981 I-0.4301 J-0.4529
N464 X3.8889 Y1.9533 I0.0439 J-0.65
N465 G1 X3.856 Y1.9381
N466 X3.8313 Y1.9264
N467 X3.8265 Y1.9236
N468 X3.782 Y1.8969
N469 G3 X3.6032 Y1.718 I0.3504 J-0.5291
N470 X3.5051 Y1.4501 I0.5326 J-0.347
N471 G1 X3.5054 Y1.4483 Z-0.1999
N472 X3.5057 Y1.4462 Z-0.1992
N473 X3.506 Y1.4442 Z-0.198
N474 X3.5063 Y1.4426 Z-0.1965
N475 X3.5065 Y1.4414 Z-0.1946
N476 X3.5066 Y1.4406 Z-0.1924
N477 X3.5067 Y1.4403 Z-0.1902
N478 G0 Z-0.145
N479 X4.2462 Y1.372
N480 G1 Z-0.17 F40
N481 G3 X4.1487 Y1.4939 Z-0.1789 I-0.1212 J0.003
N482 X4.0123 Y1.4188 Z-0.1878 I-0.0236 J-0.1186
N483 X4.0628 Y1.272 Z-0.1967 I0.1125 J-0.0434
N484 X4.2157 Y1.2966 Z-0.2056 I0.0619 J0.1032
N485 X4.2176 Y1.4511 Z-0.2144 I-0.0909 J0.0784
N486 X4.0661 Y1.4793 Z-0.2233 I-0.0925 J-0.0759
N487 X4.0126 Y1.3352 Z-0.2322 I0.0588 J-0.1039
N488 X4.145 Y1.258 Z-0.2411 I0.1121 J0.0401
N489 X4.2435 Y1.375 Z-0.25 I-0.0203 J0.117
N490 X4.006 I-0.1188 J0
N491 X4.2393 Y1.3436 I0.1188 J0
N492 X4.2435 Y1.375 I-0.1145 J0.0314
N493 G1 X4.2436 Y1.384
N494 X4.2498 Y1.4197
N495 G3 X4.2445 Y1.4838 I-0.0724 J0.0263
N496 X4.1644 Y1.5504 I-0.1162 J-0.0583
N497 X3.9866 Y1.5027 I-0.0514 J-0.1633
N498 X4.0791 Y1.1908 I0.1364 J-0.1292
N499 X4.2896 Y1.2803 I0.0464 J0.1832
N500 G1 X4.3053 Y1.3096
N501 X4.3164 Y1.3353
N502 G3 X4.3297 Y1.4628 I-0.2134 J0.0868
N503 X4.1875 Y1.6218 I-0.2083 J-0.0432
N504 X3.9628 Y1.5858 I-0.0783 J-0.2307
N505 X3.8897 Y1.2436 I0.1565 J-0.2123
N506 X4.3182 Y1.187 I0.2353 J0.1306
N507 X4.416 Y1.3984 I-0.2323 J0.2358
N508 X4.2172 Y1.6985 I-0.298 J0.0186
N509 X3.9631 Y1.6839 I-0.11 J-0.3035
N510 X3.7719 Y1.3983 I0.1516 J-0.3083
N511 X4.2519 Y1.0439 I0.3525 J-0.0247
N512 X4.3549 Y1.1041 I-0.1294 J0.3395
N513 X4.5022 Y1.3846 I-0.2587 J0.3148
N514 X4.2814 Y1.7657 I-0.3859 J0.0309
N515 X4.0257 Y1.7969 I-0.1745 J-0.3662
N516 X3.7931 Y1.6636 I0.0833 J-0.4147
N517 X3.6835 Y1.3409 I0.3244 J-0.2901
N518 X4.0315 Y0.9414 I0.4406 J0.0324
N519 X4.311 Y0.9723 I0.0936 J0.4335
N520 X4.457 Y1.0773 I-0.1978 J0.429
N521 X4.5908 Y1.3678 I-0.3574 J0.3406
N522 X4.5328 Y1.647 I-0.4772 J0.0465
N523 X4.2244 Y1.8806 I-0.4206 J-0.2348
N524 X3.8414 Y1.8198 I-0.1186 J-0.4892
N525 X3.6481 Y1.6094 I0.268 J-0.4403
N526 X3.6551 Y1.1221 I0.4717 J-0.237
N527 X4.2717 Y0.8616 I0.4697 J0.2518
N528 X4.5645 Y1.0634 I-0.1558 J0.5392
N529 X4.6489 Y1.6118 I-0.4554 J0.3507
N530 X4.1925 Y1.9795 I-0.5375 J-0.2001
N531 X3.7482 Y1.8671 I-0.0873 J-0.5887
N532 X3.5174 Y1.2329 I0.3653 J-0.492
N533 G1 X3.5208 Y1.2164
N534 X3.5232 Y1.2082
N535 X3.539 Y1.1589
N536 G3 X3.6064 Y1.0272 I0.6279 J0.2383
N537 G1 X3.6299 Y0.9944
N538 X3.634 Y0.9889
N539 X3.636 Y0.9862
N540 X3.6721 Y0.9451
N541 G3 X3.7819 Y0.8532 I0.4831 J0.4659
N542 G1 X3.7984 Y0.8432
N543 X3.8231 Y0.8284
N544 G3 X4.1191 Y0.7509 I0.3015 J0.5474
N545 X4.2178 Y0.7577 I0.0111 J0.5617
N546 X4.5548 Y1.8276 I-0.0927 J0.6172
N547 X4.0862 Y1.9981 I-0.4301 J-0.4529
N548 X3.8889 Y1.9533 I0.0439 J-0.65
N549 G1 X3.856 Y1.9381
N550 X3.8313 Y1.9264
N551 X3.8265 Y1.9236
N552 X3.782 Y1.8969
N553 G3 X3.6032 Y1.718 I0.3504 J-0.5291
N554 X3.5051 Y1.4501 I0.5326 J-0.347
N555 G1 X3.5054 Y1.4483 Z-0.2499
N556 X3.5057 Y1.4462 Z-0.2492
N557 X3.506 Y1.4442 Z-0.248
N558 X3.5063 Y1.4426 Z-0.2465
N559 X3.5065 Y1.4414 Z-0.2446
N560 X3.5066 Y1.4406 Z-0.2424
N561 X3.5067 Y1.4403 Z-0.2402
N562 G0 Z-0.195
N563 X4.0047 Y1.3826
N564 G1 Z-0.22 F40
N565 G3 X4.0919 Y1.2591 Z-0.2286 I0.1203 J-0.0076
N566 X4.2309 Y1.3177 Z-0.2371 I0.0331 J0.1156
N567 X4.2033 Y1.4656 Z-0.2457 I-0.1056 J0.0569
N568 X4.0534 Y1.4703 Z-0.2543 I-0.0779 J-0.0908
N569 X4.0168 Y1.3252 Z-0.2628 I0.0719 J-0.0953
N570 X4.1504 Y1.2586 Z-0.2714 I0.1082 J0.0497
N571 X4.2438 Y1.3746 Z-0.28 I-0.0254 J0.116
N572 X4.0063 I-0.1188 J0
N573 X4.2438 I0.1188 J0
N574 G1 X4.2439 Y1.3837
N575 X4.2501 Y1.4193
N576 G3 X4.2448 Y1.4835 I-0.0724 J0.0263
N577 X4.1647 Y1.5501 I-0.1162 J-0.0582
N578 X3.9869 Y1.5024 I-0.0515 J-0.1633
N579 X4.0793 Y1.1904 I0.1364 J-0.1293
N580 X4.2899 Y1.2799 I0.0464 J0.1832
N581 G1 X4.3056 Y1.3092
N582 X4.3167 Y1.3349
N583 G3 X4.33 Y1.4624 I-0.2135 J0.0868
N584 X4.1879 Y1.6214 I-0.2084 J-0.0432
N585 X3.9631 Y1.5855 I-0.0784 J-0.2307
N586 X3.89 Y1.2432 I0.1565 J-0.2123
N587 X4.3185 Y1.1865 I0.2353 J0.1305
N588 X4.4163 Y1.398 I-0.2323 J0.2359
N589 X4.2175 Y1.6982 I-0.298 J0.0186
N590 X3.9634 Y1.6836 I-0.11 J-0.3036
N591 X3.7722 Y1.3979 I0.1516 J-0.3083
N592 X4.2521 Y1.0435 I0.3526 J-0.0248
N593 X4.3552 Y1.1037 I-0.1294 J0.3395
N594 X4.5025 Y1.3842 I-0.2587 J0.3149
N595 X4.2817 Y1.7653 I-0.3859 J0.0309
N596 X4.026 Y1.7966 I-0.1745 J-0.3662
N597 X3.7934 Y1.6633 I0.0832 J-0.4147
N598 X3.6838 Y1.3406 I0.3244 J-0.2902
N599 X4.0317 Y0.941 I0.4406 J0.0324
N600 X4.3113 Y0.9718 I0.0937 J0.4335
N601 X4.4573 Y1.0768 I-0.1978 J0.429
N602 X4.5911 Y1.3673 I-0.3574 J0.3407
N603 X4.5332 Y1.6465 I-0.4772 J0.0466
N604 X4.2249 Y1.8802 I-0.4207 J-0.2348
N605 X3.8418 Y1.8195 I-0.1188 J-0.4892
N606 X3.6485 Y1.6092 I0.2679 J-0.4404
N607 X3.6553 Y1.1218 I0.4716 J-0.2371
N608 X4.2718 Y0.8611 I0.4698 J0.2516
N609 X4.5647 Y1.0629 I-0.1556 J0.5393
N610 X4.6493 Y1.6112 I-0.4552 J0.351
N611 X4.1931 Y1.9791 I-0.5376 J-0.1998
N612 X3.7487 Y1.8669 I-0.0876 J-0.5887
N613 X3.5235 Y1.2083 I0.3661 J-0.4931
N614 G1 X3.539 Y1.1589
N615 G3 X3.6064 Y1.0272 I0.6279 J0.2383
N616 G1 X3.6299 Y0.9944
N617 X3.634 Y0.9889
N618 X3.636 Y0.9862
N619 X3.6721 Y0.9451
N620 G3 X3.7819 Y0.8532 I0.4831 J0.4659
N621 G1 X3.7984 Y0.8432
N622 X3.8231 Y0.8284
N623 G3 X4.1191 Y0.7509 I0.3015 J0.5474
N624 X4.2178 Y0.7577 I0.0111 J0.5617
N625 X4.5548 Y1.8276 I-0.0927 J0.6172
N626 X4.0862 Y1.9981 I-0.4301 J-0.4529
N627 X3.8889 Y1.9533 I0.0439 J-0.65
N628 G1 X3.856 Y1.9381
N629 X3.8313 Y1.9264
N630 X3.8265 Y1.9236
N631 X3.782 Y1.8969
N632 G3 X3.6032 Y1.718 I0.3504 J-0.5291
N633 X3.5067 Y1.4631 I0.5365 J-0.3489
N634 G1 X3.5045 Y1.4415
N635 G3 X3.5058 Y1.4318 I0.0249 J-0.0017
N636 G1 X3.507 Y1.4281 Z-0.2796
N637 X3.5083 Y1.4245 Z-0.2787
N638 X3.5094 Y1.421 Z-0.2772
N639 X3.5105 Y1.4179 Z-0.2752
N640 X3.5114 Y1.415 Z-0.2726
N641 X3.5122 Y1.4126 Z-0.2696
N642 X3.5129 Y1.4107 Z-0.2663
N643 X3.5134 Y1.4092 Z-0.2627
N644 X3.5137 Y1.4084 Z-0.2589
N645 X3.5138 Y1.4081 Z-0.2549
N646 G0 Z0.6
(Contour1)
N648 X3.4788 Y1.9649
N649 Z0.41
N650 Z0.2894
N651 G1 Z-0.0625 F40
N652 X3.4677 Y1.9525 Z-0.064
N653 X3.461 Y1.9447 Z-0.0649
N654 X3.4518 Y1.9339 Z-0.0661
N655 X3.4476 Y1.9288 Z-0.0667
N656 X3.4359 Y1.9141 Z-0.0683
N657 X3.4349 Y1.9129 Z-0.0685
N658 X3.4228 Y1.8969 Z-0.0702
N659 X3.4199 Y1.8932 Z-0.0706
N660 X3.4113 Y1.881 Z-0.0719
N661 X3.4056 Y1.873 Z-0.0728
N662 X3.3949 Y1.8571 Z-0.0745
N663 X3.3897 Y1.8491 Z-0.0753
N664 X3.3796 Y1.8332 Z-0.077
N665 X3.3748 Y1.8252 Z-0.0778
N666 X3.3701 Y1.8172 Z-0.0786
N667 X3.3654 Y1.8093 Z-0.0794
N668 X3.3562 Y1.7927 Z-0.081
N669 X3.3523 Y1.7854 Z-0.0818
N670 X3.344 Y1.7694 Z-0.0833
N671 X3.3403 Y1.7619 Z-0.0841
N672 X3.3323 Y1.7454 Z-0.0857
N673 X3.3287 Y1.7376 Z-0.0864
N674 X3.3243 Y1.7278 Z-0.0874
N675 X3.3216 Y1.7216 Z-0.088
N676 X3.315 Y1.7057 Z-0.0895
N677 X3.3117 Y1.6977 Z-0.0902
N678 X3.3056 Y1.6818 Z-0.0917
N679 X3.3027 Y1.6738 Z-0.0925
N680 X3.2971 Y1.6579 Z-0.0939
N681 X3.2944 Y1.6499 Z-0.0947
N682 X3.2893 Y1.634 Z-0.0961
N683 X3.2868 Y1.626 Z-0.0969
N684 X3.2822 Y1.6101 Z-0.0983
N685 X3.2801 Y1.6021 Z-0.099
N686 X3.2759 Y1.5862 Z-0.1005
N687 X3.274 Y1.5782 Z-0.1012
N688 X3.2703 Y1.5623 Z-0.1026
N689 X3.2686 Y1.5543 Z-0.1033
N690 X3.2654 Y1.5384 Z-0.1048
N691 X3.264 Y1.5304 Z-0.1055
N692 X3.2606 Y1.5107 Z-0.1072
N693 X3.26 Y1.5065 Z-0.1076
N694 X3.2577 Y1.4905 Z-0.109
N695 X3.2567 Y1.4826 Z-0.1097
N696 X3.2549 Y1.4666 Z-0.1111
N697 X3.2541 Y1.4587 Z-0.1118
N698 X3.2526 Y1.4419 Z-0.1133
N699 X3.2521 Y1.4348 Z-0.1139
N700 X3.2512 Y1.4188 Z-0.1153
N701 X3.2508 Y1.4109 Z-0.116
N702 X3.2503 Y1.3949 Z-0.1174
N703 X3.2501 Y1.387 Z-0.1181
N704 Y1.363 Z-0.1202
N705 X3.2503 Y1.3551 Z-0.1209
N706 X3.2508 Y1.3391 Z-0.1223
N707 X3.2512 Y1.3312 Z-0.123
N708 X3.2521 Y1.3152 Z-0.1244
N709 X3.2526 Y1.3081 Z-0.125
N710 X3.2541 Y1.2913
N711 X3.2549 Y1.2834
N712 X3.2567 Y1.2674
N713 X3.2577 Y1.2595
N714 X3.26 Y1.2435
N715 X3.2606 Y1.2393
N716 X3.264 Y1.2196
N717 X3.2654 Y1.2116
N718 X3.2686 Y1.1957
N719 X3.2703 Y1.1877
N720 X3.274 Y1.1718
N721 X3.2759 Y1.1638
N722 X3.2801 Y1.1479
N723 X3.2822 Y1.1399
N724 X3.2868 Y1.124
N725 X3.2893 Y1.116
N726 X3.2944 Y1.1001
N727 X3.2971 Y1.0921
N728 X3.3027 Y1.0762
N729 X3.3056 Y1.0682
N730 X3.3117 Y1.0523
N731 X3.315 Y1.0443
N732 X3.3216 Y1.0284
N733 X3.3243 Y1.0222
N734 X3.3287 Y1.0124
N735 X3.3323 Y1.0046
N736 X3.3403 Y0.9881
N737 X3.344 Y0.9806
N738 X3.3523 Y0.9646
N739 X3.3562 Y0.9573
N740 X3.3654 Y0.9407
N741 X3.3701 Y0.9328
N742 X3.3748 Y0.9248
N743 X3.3796 Y0.9168
N744 X3.3897 Y0.9009
N745 X3.3949 Y0.8929
N746 X3.4056 Y0.877
N747 X3.4113 Y0.869
N748 X3.4199 Y0.8568
N749 X3.4228 Y0.8531
N750 X3.4349 Y0.8371
N751 X3.4359 Y0.8359
N752 X3.4476 Y0.8212
N753 X3.4518 Y0.8161
N754 X3.461 Y0.8053
N755 X3.4677 Y0.7975
N756 X3.4822 Y0.7814
N757 X3.4837 Y0.7798
N758 X3.4996 Y0.7631
N759 X3.5052 Y0.7575
N760 X3.5155 Y0.7472
N761 X3.5215 Y0.7415
N762 X3.5315 Y0.7322
N763 X3.5387 Y0.7256
N764 X3.5477 Y0.7176
N765 X3.5554 Y0.7109
N766 X3.5713 Y0.6975
N767 X3.576 Y0.6937
N768 X3.5872 Y0.6849
N769 X3.5952 Y0.6787
N770 X3.6111 Y0.6668
N771 X3.6182 Y0.6618
N772 X3.6295 Y0.6539
N773 X3.635 Y0.6501
N774 X3.651 Y0.6396
N775 X3.6535 Y0.6379
N776 X3.6669 Y0.6296
N777 X3.6749 Y0.6247
N778 X3.6932 Y0.614
N779 X3.6988 Y0.6109
N780 X3.7147 Y0.6022
N781 X3.7227 Y0.5981
N782 X3.7306 Y0.594
N783 X3.7383 Y0.5901
N784 X3.755 Y0.5821
N785 X3.7625 Y0.5787
N786 X3.7784 Y0.5716
N787 X3.7864 Y0.5682
N788 X3.8023 Y0.5617
N789 X3.8103 Y0.5586
N790 X3.8262 Y0.5526
N791 X3.8329 Y0.5503
N792 X3.8501 Y0.5443
N793 X3.8564 Y0.5423
N794 X3.874 Y0.5368
N795 X3.882 Y0.5345
N796 X3.8979 Y0.53
N797 X3.9059 Y0.528
N798 X3.9218 Y0.5239
N799 X3.9298 Y0.5221
N800 X3.9466 Y0.5184
N801 X3.9537 Y0.517
N802 X3.9696 Y0.5139
N803 X3.9776 Y0.5126
N804 X3.9935 Y0.51
N805 X4.0015 Y0.5088
N806 X4.0174 Y0.5067
N807 X4.0254 Y0.5058
N808 X4.0413 Y0.5041
N809 X4.0493 Y0.5033
N810 X4.0652 Y0.5021
N811 X4.0732 Y0.5016
N812 X4.0891 Y0.5008
N813 X4.0971 Y0.5005
N814 X4.113 Y0.5002
N815 X4.121 Y0.5
N816 X4.137 Y0.5002
N817 X4.1449 Y0.5003
N818 X4.1609 Y0.5008
N819 X4.1688 Y0.5011
N820 X4.1927 Y0.5026
N821 X4.2087 Y0.5041
N822 X4.2166 Y0.5048
N823 X4.2246 Y0.5058
N824 X4.2405 Y0.5077
N825 X4.2485 Y0.5088
N826 X4.2644 Y0.5112
N827 X4.2724 Y0.5126
N828 X4.2883 Y0.5154
N829 X4.2963 Y0.517
N830 X4.3122 Y0.5203
N831 X4.3202 Y0.5221
N832 X4.3381 Y0.5264
N833 X4.3441 Y0.5279
N834 X4.36 Y0.5322
N835 X4.3675 Y0.5343
N836 X4.3839 Y0.5392
N837 X4.3919 Y0.5418
N838 X4.4078 Y0.547
N839 X4.4158 Y0.5498
N840 X4.4317 Y0.5555
N841 X4.4387 Y0.5582
N842 X4.4477 Y0.5618
N843 X4.4556 Y0.5649
N844 X4.4775 Y0.5742
N845 X4.4795 Y0.5751
N846 X4.4955 Y0.5824
N847 X4.5034 Y0.5861
N848 X4.5194 Y0.594
N849 X4.5273 Y0.5981
N850 X4.5433 Y0.6065
N851 X4.5512 Y0.6109
N852 X4.5592 Y0.6154
N853 X4.5672 Y0.62
N854 X4.5837 Y0.63
N855 X4.5911 Y0.6345
N856 X4.607 Y0.6448
N857 X4.6087 Y0.6459
N858 X4.6229 Y0.6556
N859 X4.6309 Y0.6611
N860 X4.6468 Y0.6727
N861 X4.6535 Y0.6778
N862 X4.6639 Y0.6857
N863 X4.6707 Y0.6911
N864 X4.6867 Y0.7041
N865 X4.6931 Y0.7096
N866 X4.7026 Y0.7178
N867 X4.7106 Y0.7249
N868 X4.72 Y0.7335
N869 X4.7265 Y0.7396
N870 X4.7367 Y0.7495
N871 X4.7424 Y0.755
N872 X4.7584 Y0.7713
N873 X4.7603 Y0.7734
N874 X4.7751 Y0.7893
N875 X4.782 Y0.7973
N876 X4.7902 Y0.8066
N877 X4.7957 Y0.8132
N878 X4.8062 Y0.8258
N879 X4.8088 Y0.8292
N880 X4.8221 Y0.8462
N881 X4.8272 Y0.8531
N882 X4.833 Y0.861
N883 X4.838 Y0.8679
N884 X4.8498 Y0.8849
N885 X4.854 Y0.8911
N886 X4.8619 Y0.9034
N887 X4.8655 Y0.9089
N888 X4.8752 Y0.9248
N889 X4.8779 Y0.9291
N890 X4.8891 Y0.9487
N891 X4.8934 Y0.9567
N892 X4.8977 Y0.9646
N893 X4.9018 Y0.9722
N894 X4.9099 Y0.9885
N895 X4.9138 Y0.9965
N896 X4.9213 Y1.0124
N897 X4.9249 Y1.0204
N898 X4.9318 Y1.0363
N899 X4.9336 Y1.0408
N900 X4.9416 Y1.0608
N901 X4.9444 Y1.0682
N902 X4.9502 Y1.0842
N903 X4.9529 Y1.0921
N904 X4.9583 Y1.1081
N905 X4.9607 Y1.116
N906 X4.9631 Y1.124
N907 X4.9655 Y1.1318
N908 X4.9699 Y1.1479
N909 X4.9721 Y1.1559
N910 X4.976 Y1.1718
N911 X4.9779 Y1.1798
N912 X4.9814 Y1.1961
N913 X4.983 Y1.2037
N914 X4.9875 Y1.2276
N915 X4.9887 Y1.2356
N916 X4.9912 Y1.2515
N917 X4.9923 Y1.2595
N918 X4.9943 Y1.2754
N919 X4.9951 Y1.2834
N920 X4.9967 Y1.2993
N921 X4.9973 Y1.3073
N922 X4.9984 Y1.3232
N923 X4.9988 Y1.3312
N924 X4.9995 Y1.3471
N925 X4.9997 Y1.3551
N926 X4.9999 Y1.371
N927 Y1.379
N928 X4.9997 Y1.3949
N929 X4.9995 Y1.4029
N930 X4.9988 Y1.4188
N931 X4.9984 Y1.4268
N932 X4.9973 Y1.4427
N933 X4.9967 Y1.4507
N934 X4.9951 Y1.4666
N935 X4.9943 Y1.4746
N936 X4.9923 Y1.4905
N937 X4.9912 Y1.4985
N938 X4.9887 Y1.5144
N939 X4.9875 Y1.5224
N940 X4.983 Y1.5463
N941 X4.9813 Y1.5543
N942 X4.9779 Y1.5702
N943 X4.976 Y1.5782
N944 X4.9721 Y1.5941
N945 X4.9699 Y1.6021
N946 X4.9655 Y1.6182
N947 X4.9631 Y1.626
N948 X4.9607 Y1.634
N949 X4.9583 Y1.6419
N950 X4.9529 Y1.6579
N951 X4.9502 Y1.6658
N952 X4.9444 Y1.6818
N953 X4.9416 Y1.6892
N954 X4.9336 Y1.7092
N955 X4.9318 Y1.7137
N956 X4.9249 Y1.7296
N957 X4.9213 Y1.7376
N958 X4.9138 Y1.7535
N959 X4.9099 Y1.7615
N960 X4.9018 Y1.7778
N961 X4.8977 Y1.7854
N962 X4.8934 Y1.7933
N963 X4.8891 Y1.8013
N964 X4.8779 Y1.8209
N965 X4.8752 Y1.8252
N966 X4.8655 Y1.8411
N967 X4.8619 Y1.8466
N968 X4.854 Y1.8589
N969 X4.8498 Y1.8651
N970 X4.838 Y1.8821
N971 X4.833 Y1.889
N972 X4.8272 Y1.8969
N973 X4.8221 Y1.9038
N974 X4.8088 Y1.9208
N975 X4.8062 Y1.9242
N976 X4.7957 Y1.9368
N977 X4.7902 Y1.9434
N978 X4.782 Y1.9527
N979 X4.7751 Y1.9607
N980 X4.7603 Y1.9766
N981 X4.7584 Y1.9787
N982 X4.7424 Y1.995
N983 X4.7367 Y2.0005
N984 X4.7265 Y2.0104
N985 X4.72 Y2.0165
N986 X4.7106 Y2.0251
N987 X4.7026 Y2.0322
N988 X4.6931 Y2.0404
N989 X4.6867 Y2.0459
N990 X4.6707 Y2.0589
N991 X4.6639 Y2.0643
N992 X4.6535 Y2.0722
N993 X4.6468 Y2.0773
N994 X4.6309 Y2.0889
N995 X4.6229 Y2.0944
N996 X4.6087 Y2.1041
N997 X4.607 Y2.1052
N998 X4.5911 Y2.1155
N999 X4.5837 Y2.12
N1000 X4.5672 Y2.13
N1001 X4.5592 Y2.1346
N1002 X4.5512 Y2.1391
N1003 X4.5433 Y2.1435
N1004 X4.5273 Y2.1519
N1005 X4.5194 Y2.156
N1006 X4.5034 Y2.1639
N1007 X4.4955 Y2.1676
N1008 X4.4795 Y2.1749
N1009 X4.4775 Y2.1758
N1010 X4.4556 Y2.1851
N1011 X4.4477 Y2.1882
N1012 X4.4387 Y2.1918
N1013 X4.4317 Y2.1945
N1014 X4.4158 Y2.2002
N1015 X4.4078 Y2.203
N1016 X4.3919 Y2.2082
N1017 X4.3839 Y2.2108
N1018 X4.3675 Y2.2157
N1019 X4.36 Y2.2178
N1020 X4.3441 Y2.2221
N1021 X4.3381 Y2.2236
N1022 X4.3202 Y2.2279
N1023 X4.3122 Y2.2297
N1024 X4.2963 Y2.233
N1025 X4.2883 Y2.2346
N1026 X4.2724 Y2.2374
N1027 X4.2644 Y2.2388
N1028 X4.2485 Y2.2412
N1029 X4.2405 Y2.2423
N1030 X4.2246 Y2.2442
N1031 X4.2166 Y2.2452
N1032 X4.2007 Y2.2466
N1033 X4.1927 Y2.2474
N1034 X4.1688 Y2.2489
N1035 X4.1609 Y2.2492
N1036 X4.1449 Y2.2497
N1037 X4.137 Y2.2498
N1038 X4.121 Y2.25
N1039 X4.113 Y2.2498
N1040 X4.0971 Y2.2495
N1041 X4.0891 Y2.2492
N1042 X4.0732 Y2.2484
N1043 X4.0652 Y2.2479
N1044 X4.0493 Y2.2467
N1045 X4.0413 Y2.2459
N1046 X4.0254 Y2.2442
N1047 X4.0174 Y2.2433
N1048 X4.0015 Y2.2412
N1049 X3.9935 Y2.24
N1050 X3.9776 Y2.2374
N1051 X3.9696 Y2.2361
N1052 X3.9537 Y2.233
N1053 X3.9466 Y2.2316
N1054 X3.9298 Y2.2279
N1055 X3.9218 Y2.2261
N1056 X3.9059 Y2.222
N1057 X3.8979 Y2.22
N1058 X3.882 Y2.2155
N1059 X3.874 Y2.2132
N1060 X3.8564 Y2.2077
N1061 X3.8501 Y2.2057
N1062 X3.8329 Y2.1997
N1063 X3.8262 Y2.1974
N1064 X3.8103 Y2.1914
N1065 X3.8023 Y2.1883
N1066 X3.7864 Y2.1818
N1067 X3.7784 Y2.1784
N1068 X3.7625 Y2.1713
N1069 X3.755 Y2.1679
N1070 X3.7383 Y2.1599
N1071 X3.7306 Y2.156
N1072 X3.7227 Y2.1519
N1073 X3.7147 Y2.1478
N1074 X3.6988 Y2.1391
N1075 X3.6932 Y2.136
N1076 X3.6749 Y2.1253
N1077 X3.6669 Y2.1204
N1078 X3.6535 Y2.1121
N1079 X3.651 Y2.1104
N1080 X3.635 Y2.0999
N1081 X3.6295 Y2.0961
N1082 X3.6182 Y2.0882
N1083 X3.6111 Y2.0832
N1084 X3.5952 Y2.0713
N1085 X3.5872 Y2.0651
N1086 X3.576 Y2.0563
N1087 X3.5713 Y2.0525
N1088 X3.5554 Y2.0391
N1089 X3.5477 Y2.0324
N1090 X3.5387 Y2.0244
N1091 X3.5315 Y2.0178
N1092 X3.5215 Y2.0085
N1093 X3.5155 Y2.0028
N1094 X3.5052 Y1.9925
N1095 X3.4996 Y1.9869
N1096 X3.4837 Y1.9702
N1097 X3.4822 Y1.9686
N1098 X3.4677 Y1.9525
N1099 X3.461 Y1.9447
N1100 X3.4518 Y1.9339
N1101 X3.4476 Y1.9288
N1102 X3.4359 Y1.9141
N1103 X3.4349 Y1.9129
N1104 X3.4228 Y1.8969
N1105 X3.4199 Y1.8932
N1106 X3.4113 Y1.881
N1107 X3.4056 Y1.873
N1108 X3.3949 Y1.8571
N1109 X3.3897 Y1.8491
N1110 X3.3796 Y1.8332
N1111 X3.3748 Y1.8252
N1112 X3.3701 Y1.8172
N1113 X3.3654 Y1.8093
N1114 X3.3562 Y1.7927
N1115 X3.3523 Y1.7854
N1116 X3.344 Y1.7694
N1117 X3.3403 Y1.7619
N1118 X3.3323 Y1.7454
N1119 X3.3287 Y1.7376
N1120 X3.3243 Y1.7278
N1121 X3.3216 Y1.7216
N1122 X3.315 Y1.7057
N1123 X3.3117 Y1.6977
N1124 X3.3056 Y1.6818
N1125 X3.3027 Y1.6738
N1126 X3.2971 Y1.6579
N1127 X3.2944 Y1.6499
N1128 X3.2893 Y1.634
N1129 X3.2868 Y1.626
N1130 X3.2822 Y1.6101
N1131 X3.2801 Y1.6021
N1132 X3.2759 Y1.5862
N1133 X3.274 Y1.5782
N1134 X3.2703 Y1.5623
N1135 X3.2686 Y1.5543
N1136 X3.2654 Y1.5384
N1137 X3.264 Y1.5304
N1138 X3.2606 Y1.5107
N1139 X3.26 Y1.5065
N1140 X3.2577 Y1.4905
N1141 X3.2567 Y1.4826
N1142 X3.2549 Y1.4666
N1143 X3.2541 Y1.4587
N1144 X3.2526 Y1.4419
N1145 X3.2521 Y1.4348
N1146 X3.2512 Y1.4188
N1147 X3.2508 Y1.4109
N1148 X3.2503 Y1.3949
N1149 X3.2501 Y1.387
N1150 Y1.363
N1151 X3.2503 Y1.3551
N1152 X3.2508 Y1.3391
N1153 X3.2512 Y1.3312
N1154 X3.2521 Y1.3152
N1155 X3.2526 Y1.3081
N1156 G0 Z0.41
(Contour1 (2))
N1158 Z0.6
N1159 X3.5764 Y0.6934
N1160 Z0.2894
N1161 G1 Z-0.0625 F40
N1162 X3.576 Y0.6937
N1163 X3.5713 Y0.6975 Z-0.0631
N1164 X3.5554 Y0.7109 Z-0.0649
N1165 X3.5477 Y0.7176 Z-0.0658
N1166 X3.5387 Y0.7256 Z-0.0668
N1167 X3.5315 Y0.7322 Z-0.0677
N1168 X3.5215 Y0.7415 Z-0.0689
N1169 X3.5155 Y0.7472 Z-0.0696
N1170 X3.5052 Y0.7575 Z-0.0709
N1171 X3.4996 Y0.7631 Z-0.0716
N1172 X3.4837 Y0.7798 Z-0.0736
N1173 X3.4822 Y0.7814 Z-0.0738
N1174 X3.4677 Y0.7975 Z-0.0757
N1175 X3.461 Y0.8053 Z-0.0766
N1176 X3.4518 Y0.8161 Z-0.0778
N1177 X3.4476 Y0.8212 Z-0.0784
N1178 X3.4359 Y0.8359 Z-0.08
N1179 X3.4349 Y0.8371 Z-0.0802
N1180 X3.4228 Y0.8531 Z-0.0819
N1181 X3.4199 Y0.8568 Z-0.0823
N1182 X3.4113 Y0.869 Z-0.0837
N1183 X3.4056 Y0.877 Z-0.0845
N1184 X3.3949 Y0.8929 Z-0.0862
N1185 X3.3897 Y0.9009 Z-0.087
N1186 X3.3796 Y0.9168 Z-0.0887
N1187 X3.3748 Y0.9248 Z-0.0895
N1188 X3.3701 Y0.9328 Z-0.0903
N1189 X3.3654 Y0.9407 Z-0.0911
N1190 X3.3562 Y0.9573 Z-0.0928
N1191 X3.3523 Y0.9646 Z-0.0935
N1192 X3.344 Y0.9806 Z-0.0951
N1193 X3.3403 Y0.9881 Z-0.0958
N1194 X3.3323 Y1.0046 Z-0.0974
N1195 X3.3287 Y1.0124 Z-0.0982
N1196 X3.3243 Y1.0222 Z-0.0991
N1197 X3.3216 Y1.0284 Z-0.0997
N1198 X3.315 Y1.0443 Z-0.1012
N1199 X3.3117 Y1.0523 Z-0.1019
N1200 X3.3056 Y1.0682 Z-0.1034
N1201 X3.3027 Y1.0762 Z-0.1042
N1202 X3.2971 Y1.0921 Z-0.1057
N1203 X3.2944 Y1.1001 Z-0.1064
N1204 X3.2893 Y1.116 Z-0.1079
N1205 X3.2868 Y1.124 Z-0.1086
N1206 X3.2822 Y1.1399 Z-0.11
N1207 X3.2801 Y1.1479 Z-0.1108
N1208 X3.2759 Y1.1638 Z-0.1122
N1209 X3.274 Y1.1718 Z-0.1129
N1210 X3.2703 Y1.1877 Z-0.1144
N1211 X3.2686 Y1.1957 Z-0.1151
N1212 X3.2654 Y1.2116 Z-0.1165
N1213 X3.264 Y1.2196 Z-0.1172
N1214 X3.2606 Y1.2393 Z-0.1189
N1215 X3.26 Y1.2435 Z-0.1193
N1216 X3.2577 Y1.2595 Z-0.1207
N1217 X3.2567 Y1.2674 Z-0.1214
N1218 X3.2549 Y1.2834 Z-0.1228
N1219 X3.2541 Y1.2913 Z-0.1235
N1220 X3.2526 Y1.3081 Z-0.125
N1221 X3.2521 Y1.3152
N1222 X3.2512 Y1.3312
N1223 X3.2508 Y1.3391
N1224 X3.2503 Y1.3551
N1225 X3.2501 Y1.363
N1226 Y1.387
N1227 X3.2503 Y1.3949
N1228 X3.2508 Y1.4109
N1229 X3.2512 Y1.4188
N1230 X3.2521 Y1.4348
N1231 X3.2526 Y1.4419
N1232 X3.2541 Y1.4587
N1233 X3.2549 Y1.4666
N1234 X3.2567 Y1.4826
N1235 X3.2577 Y1.4905
N1236 X3.26 Y1.5065
N1237 X3.2606 Y1.5107
N1238 X3.264 Y1.5304
N1239 X3.2654 Y1.5384
N1240 X3.2686 Y1.5543
N1241 X3.2703 Y1.5623
N1242 X3.274 Y1.5782
N1243 X3.2759 Y1.5862
N1244 X3.2801 Y1.6021
N1245 X3.2822 Y1.6101
N1246 X3.2868 Y1.626
N1247 X3.2893 Y1.634
N1248 X3.2944 Y1.6499
N1249 X3.2971 Y1.6579
N1250 X3.3027 Y1.6738
N1251 X3.3056 Y1.6818
N1252 X3.3117 Y1.6977
N1253 X3.315 Y1.7057
N1254 X3.3216 Y1.7216
N1255 X3.3243 Y1.7278
N1256 X3.3287 Y1.7376
N1257 X3.3323 Y1.7454
N1258 X3.3403 Y1.7619
N1259 X3.344 Y1.7694
N1260 X3.3523 Y1.7854
N1261 X3.3562 Y1.7927
N1262 X3.3654 Y1.8093
N1263 X3.3701 Y1.8172
N1264 X3.3748 Y1.8252
N1265 X3.3796 Y1.8332
N1266 X3.3897 Y1.8491
N1267 X3.3949 Y1.8571
N1268 X3.4056 Y1.873
N1269 X3.4113 Y1.881
N1270 X3.4199 Y1.8932
N1271 X3.4228 Y1.8969
N1272 X3.4349 Y1.9129
N1273 X3.4359 Y1.9141
N1274 X3.4476 Y1.9288
N1275 X3.4518 Y1.9339
N1276 X3.461 Y1.9447
N1277 X3.4677 Y1.9525
N1278 X3.4822 Y1.9686
N1279 X3.4837 Y1.9702
N1280 X3.4996 Y1.9869
N1281 X3.5052 Y1.9925
N1282 X3.5155 Y2.0028
N1283 X3.5215 Y2.0085
N1284 X3.5315 Y2.0178
N1285 X3.5387 Y2.0244
N1286 X3.5477 Y2.0324
N1287 X3.5554 Y2.0391
N1288 X3.5713 Y2.0525
N1289 X3.576 Y2.0563
N1290 X3.5872 Y2.0651
N1291 X3.5952 Y2.0713
N1292 X3.6111 Y2.0832
N1293 X3.6182 Y2.0882
N1294 X3.6295 Y2.0961
N1295 X3.635 Y2.0999
N1296 X3.651 Y2.1104
N1297 X3.6535 Y2.1121
N1298 X3.6669 Y2.1204
N1299 X3.6749 Y2.1253
N1300 X3.6932 Y2.136
N1301 X3.6988 Y2.1391
N1302 X3.7147 Y2.1478
N1303 X3.7227 Y2.1519
N1304 X3.7306 Y2.156
N1305 X3.7383 Y2.1599
N1306 X3.755 Y2.1679
N1307 X3.7625 Y2.1713
N1308 X3.7784 Y2.1784
N1309 X3.7864 Y2.1818
N1310 X3.8023 Y2.1883
N1311 X3.8103 Y2.1914
N1312 X3.8262 Y2.1974
N1313 X3.8329 Y2.1997
N1314 X3.8501 Y2.2057
N1315 X3.8564 Y2.2077
N1316 X3.874 Y2.2132
N1317 X3.882 Y2.2155
N1318 X3.8979 Y2.22
N1319 X3.9059 Y2.222
N1320 X3.9218 Y2.2261
N1321 X3.9298 Y2.2279
N1322 X3.9466 Y2.2316
N1323 X3.9537 Y2.233
N1324 X3.9696 Y2.2361
N1325 X3.9776 Y2.2374
N1326 X3.9935 Y2.24
N1327 X4.0015 Y2.2412
N1328 X4.0174 Y2.2433
N1329 X4.0254 Y2.2442
N1330 X4.0413 Y2.2459
N1331 X4.0493 Y2.2467
N1332 X4.0652 Y2.2479
N1333 X4.0732 Y2.2484
N1334 X4.0891 Y2.2492
N1335 X4.0971 Y2.2495
N1336 X4.113 Y2.2498
N1337 X4.121 Y2.25
N1338 X4.137 Y2.2498
N1339 X4.1449 Y2.2497
N1340 X4.1609 Y2.2492
N1341 X4.1688 Y2.2489
N1342 X4.1927 Y2.2474
N1343 X4.2007 Y2.2466
N1344 X4.2166 Y2.2452
N1345 X4.2246 Y2.2442
N1346 X4.2405 Y2.2423
N1347 X4.2485 Y2.2412
N1348 X4.2644 Y2.2388
N1349 X4.2724 Y2.2374
N1350 X4.2883 Y2.2346
N1351 X4.2963 Y2.233
N1352 X4.3122 Y2.2297
N1353 X4.3202 Y2.2279
N1354 X4.3381 Y2.2236
N1355 X4.3441 Y2.2221
N1356 X4.36 Y2.2178
N1357 X4.3675 Y2.2157
N1358 X4.3839 Y2.2108
N1359 X4.3919 Y2.2082
N1360 X4.4078 Y2.203
N1361 X4.4158 Y2.2002
N1362 X4.4317 Y2.1945
N1363 X4.4387 Y2.1918
N1364 X4.4477 Y2.1882
N1365 X4.4556 Y2.1851
N1366 X4.4775 Y2.1758
N1367 X4.4795 Y2.1749
N1368 X4.4955 Y2.1676
N1369 X4.5034 Y2.1639
N1370 X4.5194 Y2.156
N1371 X4.5273 Y2.1519
N1372 X4.5433 Y2.1435
N1373 X4.5512 Y2.1391
N1374 X4.5592 Y2.1346
N1375 X4.5672 Y2.13
N1376 X4.5837 Y2.12
N1377 X4.5911 Y2.1155
N1378 X4.607 Y2.1052
N1379 X4.6087 Y2.1041
N1380 X4.6229 Y2.0944
N1381 X4.6309 Y2.0889
N1382 X4.6468 Y2.0773
N1383 X4.6535 Y2.0722
N1384 X4.6639 Y2.0643
N1385 X4.6707 Y2.0589
N1386 X4.6867 Y2.0459
N1387 X4.6931 Y2.0404
N1388 X4.7026 Y2.0322
N1389 X4.7106 Y2.0251
N1390 X4.72 Y2.0165
N1391 X4.7265 Y2.0104
N1392 X4.7367 Y2.0005
N1393 X4.7424 Y1.995
N1394 X4.7584 Y1.9787
N1395 X4.7603 Y1.9766
N1396 X4.7751 Y1.9607
N1397 X4.782 Y1.9527
N1398 X4.7902 Y1.9434
N1399 X4.7957 Y1.9368
N1400 X4.8062 Y1.9242
N1401 X4.8088 Y1.9208
N1402 X4.8221 Y1.9038
N1403 X4.8272 Y1.8969
N1404 X4.833 Y1.889
N1405 X4.838 Y1.8821
N1406 X4.8498 Y1.8651
N1407 X4.854 Y1.8589
N1408 X4.8619 Y1.8466
N1409 X4.8655 Y1.8411
N1410 X4.8752 Y1.8252
N1411 X4.8779 Y1.8209
N1412 X4.8891 Y1.8013
N1413 X4.8934 Y1.7933
N1414 X4.8977 Y1.7854
N1415 X4.9018 Y1.7778
N1416 X4.9099 Y1.7615
N1417 X4.9138 Y1.7535
N1418 X4.9213 Y1.7376
N1419 X4.9249 Y1.7296
N1420 X4.9318 Y1.7137
N1421 X4.9336 Y1.7092
N1422 X4.9416 Y1.6892
N1423 X4.9444 Y1.6818
N1424 X4.9502 Y1.6658
N1425 X4.9529 Y1.6579
N1426 X4.9583 Y1.6419
N1427 X4.9607 Y1.634
N1428 X4.9631 Y1.626
N1429 X4.9655 Y1.6182
N1430 X4.9699 Y1.6021
N1431 X4.9721 Y1.5941
N1432 X4.976 Y1.5782
N1433 X4.9779 Y1.5702
N1434 X4.9813 Y1.5543
N1435 X4.983 Y1.5463
N1436 X4.9875 Y1.5224
N1437 X4.9887 Y1.5144
N1438 X4.9912 Y1.4985
N1439 X4.9923 Y1.4905
N1440 X4.9943 Y1.4746
N1441 X4.9951 Y1.4666
N1442 X4.9967 Y1.4507
N1443 X4.9973 Y1.4427
N1444 X4.9984 Y1.4268
N1445 X4.9988 Y1.4188
N1446 X4.9995 Y1.4029
N1447 X4.9997 Y1.3949
N1448 X4.9999 Y1.379
N1449 Y1.371
N1450 X4.9997 Y1.3551
N1451 X4.9995 Y1.3471
N1452 X4.9988 Y1.3312
N1453 X4.9984 Y1.3232
N1454 X4.9973 Y1.3073
N1455 X4.9967 Y1.2993
N1456 X4.9951 Y1.2834
N1457 X4.9943 Y1.2754
N1458 X4.9923 Y1.2595
N1459 X4.9912 Y1.2515
N1460 X4.9887 Y1.2356
N1461 X4.9875 Y1.2276
N1462 X4.983 Y1.2037
N1463 X4.9814 Y1.1961
N1464 X4.9779 Y1.1798
N1465 X4.976 Y1.1718
N1466 X4.9721 Y1.1559
N1467 X4.9699 Y1.1479
N1468 X4.9655 Y1.1318
N1469 X4.9631 Y1.124
N1470 X4.9607 Y1.116
N1471 X4.9583 Y1.1081
N1472 X4.9529 Y1.0921
N1473 X4.9502 Y1.0842
N1474 X4.9444 Y1.0682
N1475 X4.9416 Y1.0608
N1476 X4.9336 Y1.0408
N1477 X4.9318 Y1.0363
N1478 X4.9249 Y1.0204
N1479 X4.9213 Y1.0124
N1480 X4.9138 Y0.9965
N1481 X4.9099 Y0.9885
N1482 X4.9018 Y0.9722
N1483 X4.8977 Y0.9646
N1484 X4.8934 Y0.9567
N1485 X4.8891 Y0.9487
N1486 X4.8779 Y0.9291
N1487 X4.8752 Y0.9248
N1488 X4.8655 Y0.9089
N1489 X4.8619 Y0.9034
N1490 X4.854 Y0.8911
N1491 X4.8498 Y0.8849
N1492 X4.838 Y0.8679
N1493 X4.833 Y0.861
N1494 X4.8272 Y0.8531
N1495 X4.8221 Y0.8462
N1496 X4.8088 Y0.8292
N1497 X4.8062 Y0.8258
N1498 X4.7957 Y0.8132
N1499 X4.7902 Y0.8066
N1500 X4.782 Y0.7973
N1501 X4.7751 Y0.7893
N1502 X4.7603 Y0.7734
N1503 X4.7584 Y0.7713
N1504 X4.7424 Y0.755
N1505 X4.7367 Y0.7495
N1506 X4.7265 Y0.7396
N1507 X4.72 Y0.7335
N1508 X4.7106 Y0.7249
N1509 X4.7026 Y0.7178
N1510 X4.6931 Y0.7096
N1511 X4.6867 Y0.7041
N1512 X4.6707 Y0.6911
N1513 X4.6639 Y0.6857
N1514 X4.6535 Y0.6778
N1515 X4.6468 Y0.6727
N1516 X4.6309 Y0.6611
N1517 X4.6229 Y0.6556
N1518 X4.6087 Y0.6459
N1519 X4.607 Y0.6448
N1520 X4.5911 Y0.6345
N1521 X4.5837 Y0.63
N1522 X4.5672 Y0.62
N1523 X4.5592 Y0.6154
N1524 X4.5512 Y0.6109
N1525 X4.5433 Y0.6065
N1526 X4.5273 Y0.5981
N1527 X4.5194 Y0.594
N1528 X4.5034 Y0.5861
N1529 X4.4955 Y0.5824
N1530 X4.4795 Y0.5751
N1531 X4.4775 Y0.5742
N1532 X4.4556 Y0.5649
N1533 X4.4477 Y0.5618
N1534 X4.4387 Y0.5582
N1535 X4.4317 Y0.5555
N1536 X4.4158 Y0.5498
N1537 X4.4078 Y0.547
N1538 X4.3919 Y0.5418
N1539 X4.3839 Y0.5392
N1540 X4.3675 Y0.5343
N1541 X4.36 Y0.5322
N1542 X4.3441 Y0.5279
N1543 X4.3381 Y0.5264
N1544 X4.3202 Y0.5221
N1545 X4.3122 Y0.5203
N1546 X4.2963 Y0.517
N1547 X4.2883 Y0.5154
N1548 X4.2724 Y0.5126
N1549 X4.2644 Y0.5112
N1550 X4.2485 Y0.5088
N1551 X4.2405 Y0.5077
N1552 X4.2246 Y0.5058
N1553 X4.2166 Y0.5048
N1554 X4.2087 Y0.5041
N1555 X4.1927 Y0.5026
N1556 X4.1688 Y0.5011
N1557 X4.1609 Y0.5008
N1558 X4.1449 Y0.5003
N1559 X4.137 Y0.5002
N1560 X4.121 Y0.5
N1561 X4.113 Y0.5002
N1562 X4.0971 Y0.5005
N1563 X4.0891 Y0.5008
N1564 X4.0732 Y0.5016
N1565 X4.0652 Y0.5021
N1566 X4.0493 Y0.5033
N1567 X4.0413 Y0.5041
N1568 X4.0254 Y0.5058
N1569 X4.0174 Y0.5067
N1570 X4.0015 Y0.5088
N1571 X3.9935 Y0.51
N1572 X3.9776 Y0.5126
N1573 X3.9696 Y0.5139
N1574 X3.9537 Y0.517
N1575 X3.9466 Y0.5184
N1576 X3.9298 Y0.5221
N1577 X3.9218 Y0.5239
N1578 X3.9059 Y0.528
N1579 X3.8979 Y0.53
N1580 X3.882 Y0.5345
N1581 X3.874 Y0.5368
N1582 X3.8564 Y0.5423
N1583 X3.8501 Y0.5443
N1584 X3.8329 Y0.5503
N1585 X3.8262 Y0.5526
N1586 X3.8103 Y0.5586
N1587 X3.8023 Y0.5617
N1588 X3.7864 Y0.5682
N1589 X3.7784 Y0.5716
N1590 X3.7625 Y0.5787
N1591 X3.755 Y0.5821
N1592 X3.7383 Y0.5901
N1593 X3.7306 Y0.594
N1594 X3.7227 Y0.5981
N1595 X3.7147 Y0.6022
N1596 X3.6988 Y0.6109
N1597 X3.6932 Y0.614
N1598 X3.6749 Y0.6247
N1599 X3.6669 Y0.6296
N1600 X3.6535 Y0.6379
N1601 X3.651 Y0.6396
N1602 X3.635 Y0.6501
N1603 X3.6295 Y0.6539
N1604 X3.6182 Y0.6618
N1605 X3.6111 Y0.6668
N1606 X3.5952 Y0.6787
N1607 X3.5872 Y0.6849
N1608 X3.576 Y0.6937
N1609 X3.5713 Y0.6975
N1610 X3.5554 Y0.7109
N1611 X3.5477 Y0.7176
N1612 X3.5387 Y0.7256
N1613 X3.5315 Y0.7322
N1614 X3.5215 Y0.7415
N1615 X3.5155 Y0.7472
N1616 X3.5052 Y0.7575
N1617 X3.4996 Y0.7631
N1618 X3.4837 Y0.7798
N1619 X3.4822 Y0.7814
N1620 X3.4677 Y0.7975
N1621 X3.461 Y0.8053
N1622 X3.4518 Y0.8161
N1623 X3.4476 Y0.8212
N1624 X3.4359 Y0.8359
N1625 X3.4349 Y0.8371
N1626 X3.4228 Y0.8531
N1627 X3.4199 Y0.8568
N1628 X3.4113 Y0.869
N1629 X3.4056 Y0.877
N1630 X3.3949 Y0.8929
N1631 X3.3897 Y0.9009
N1632 X3.3796 Y0.9168
N1633 X3.3748 Y0.9248
N1634 X3.3701 Y0.9328
N1635 X3.3654 Y0.9407
N1636 X3.3562 Y0.9573
N1637 X3.3523 Y0.9646
N1638 X3.344 Y0.9806
N1639 X3.3403 Y0.9881
N1640 X3.3323 Y1.0046
N1641 X3.3287 Y1.0124
N1642 X3.3243 Y1.0222
N1643 X3.3216 Y1.0284
N1644 X3.315 Y1.0443
N1645 X3.3117 Y1.0523
N1646 X3.3056 Y1.0682
N1647 X3.3027 Y1.0762
N1648 X3.2971 Y1.0921
N1649 X3.2944 Y1.1001
N1650 X3.2893 Y1.116
N1651 X3.2868 Y1.124
N1652 X3.2822 Y1.1399
N1653 X3.2801 Y1.1479
N1654 X3.2759 Y1.1638
N1655 X3.274 Y1.1718
N1656 X3.2703 Y1.1877
N1657 X3.2686 Y1.1957
N1658 X3.2654 Y1.2116
N1659 X3.264 Y1.2196
N1660 X3.2606 Y1.2393
N1661 X3.26 Y1.2435
N1662 X3.2577 Y1.2595
N1663 X3.2567 Y1.2674
N1664 X3.2549 Y1.2834
N1665 X3.2541 Y1.2913
N1666 X3.2526 Y1.3081
N1667 G0 Z0.6
N1669 Z1
N1670 M5
N1671 M30
