%
(1001)
(AK plaque)
(T1  D=6.35 CR=0 - ZMIN=-7.111 - flat end mill)
N0 G90
N1 G17
(Adaptive2)
N3 S10000 M3
N5 G0 X107.853 Y34.825
N6 Z15.24
N7 Z1.398
N8 G1 Z0.763 F1016
N9 G3 X105.397 Y37.941 Z0.537 I-3.078 J0.1
N10 X101.918 Y36.056 Z0.311 I-0.62 J-3.008
N11 X103.18 Y32.316 Z0.086 I2.852 J-1.12
N12 X107.07 Y32.923 Z-0.14 I1.585 J2.613
N13 X107.134 Y36.849 Z-0.366 I-2.299 J2.001
N14 X103.286 Y37.578 Z-0.592 I-2.357 J-1.92
N15 X101.917 Y33.919 Z-0.818 I1.488 J-2.642
N16 X105.28 Y31.953 Z-1.044 I2.849 J1.014
N17 X107.784 Y34.925 Z-1.27 I-0.513 J2.972
N18 X101.751 I-3.016 J0
N19 X107.676 Y34.128 I3.016 J0
N20 X107.784 Y34.925 I-2.909 J0.798
N21 G1 X107.787 Y35.155
N22 X107.945 Y36.06
N23 G3 X107.809 Y37.69 I-1.839 J0.667
N24 X105.774 Y39.381 I-2.951 J-1.48
N25 X101.259 Y38.169 I-1.307 J-4.147
N26 X103.607 Y30.246 I3.464 J-3.283
N27 X108.954 Y32.52 I1.178 J4.652
N28 G1 X109.353 Y33.265
N29 X109.635 Y33.916
N30 G3 X109.974 Y37.155 I-5.421 J2.204
N31 X106.362 Y41.193 I-5.292 J-1.098
N32 X100.653 Y40.28 I-1.99 J-5.86
N33 X98.797 Y31.588 I3.975 J-5.393
N34 X109.682 Y30.149 I5.976 J3.316
N35 X112.166 Y35.519 I-5.9 J5.989
N36 X107.115 Y43.143 I-7.568 J0.471
N37 X100.662 Y42.771 I-2.793 J-7.71
N38 X95.806 Y35.516 I3.85 J-7.83
N39 X107.997 Y26.515 I8.954 J-0.628
N40 X110.613 Y28.045 I-3.287 J8.624
N41 X114.356 Y35.169 I-6.57 J7.997
N42 X108.745 Y44.849 I-9.802 J0.784
N43 X102.251 Y45.642 I-4.432 J-9.301
N44 X96.345 Y42.256 I2.115 J-10.534
N45 X93.56 Y34.059 I8.239 J-7.37
N46 X102.398 Y23.912 I11.19 J0.824
N47 X109.499 Y24.695 I2.379 J11.012
N48 X113.207 Y27.363 I-5.025 J10.896
N49 X116.605 Y34.742 I-9.079 J8.652
N50 X115.132 Y41.834 I-12.12 J1.181
N51 X107.3 Y47.768 I-10.683 J-5.965
N52 X97.572 Y46.223 I-3.013 J-12.426
N53 X92.661 Y40.879 I6.807 J-11.184
N54 X92.838 Y28.501 I11.981 J-6.019
N55 X108.501 Y21.885 I11.93 J6.395
N56 X115.938 Y27.011 I-3.956 J13.697
N57 X118.082 Y40.94 I-11.566 J8.909
N58 X106.488 Y50.28 I-13.653 J-5.082
N59 X95.204 Y47.424 I-2.219 J-14.954
N60 X88.929 Y35.651 I9.283 J-12.506
N61 X109.354 Y19.71 I15.83 J-0.773
N62 X118.135 Y26.042 I-4.773 J15.875
N63 X118.092 Y45.828 I-13.705 J9.863
N64 X104.709 Y52.785 I-13.738 J-10.077
N65 X90.907 Y46.62 I-0.413 J-17.606
N66 X88.435 Y26.821 I13.696 J-11.764
N67 X111.89 Y18.116 I16.341 J8.078
N68 X121.689 Y27.387 I-7.423 J17.66
N69 X109.416 Y54.475 I-17.221 J8.522
N70 X91.328 Y50.372 I-5.165 J-19.148
N71 X85.763 Y26.967 I13.226 J-15.509
N72 X112.525 Y15.807 I19.012 J7.924
N73 X123.321 Y25.364 I-7.997 J19.91
N74 X117.298 Y53.278 I-18.848 J10.54
N75 X113.815 Y55.222 I-14.421 J-21.741
N76 G1 X112.353 Y55.801
N77 G3 X92.931 Y53.714 I-7.579 J-20.886
N78 X88.564 Y50.11 I12.311 J-19.369
N79 X85.029 Y45.1 I16.834 J-15.63
N80 X83.574 Y41.548 I21.521 J-10.889
N81 G1 X83.113 Y39.868
N82 G3 X82.775 Y37.998 I58.806 J-11.607
N83 X82.57 Y35.701 I38.566 J-4.585
N84 G1 X82.575 Y34.448
N85 G3 X83.057 Y30.271 I22.19 J0.446
N86 X91.678 Y16.989 I21.738 J4.671
N87 G1 X93.026 Y16.068
N88 X93.138 Y15.996
N89 X94.6 Y15.18
N90 G3 X96.689 Y14.232 I16.744 J34.101
N91 X100.239 Y13.177 I9.043 J23.948
N92 X104.626 Y12.715 I4.648 J23.05
N93 X114.446 Y14.93 I0.131 J22.298
N94 X120.713 Y19.455 I-9.75 J20.106
N95 X124.001 Y23.797 I-16.462 J15.878
N96 X125.655 Y27.348 I-21.234 J12.054
N97 X126.694 Y31.314 I-22.626 J8.047
N98 G1 X126.829 Y32.359
N99 X126.908 Y32.986
N100 G3 X126.982 Y35.283 I-29.787 J2.118
N101 X124.879 Y44.366 I-22.299 J-0.379
N102 X123.003 Y47.605 I-20 J-9.419
N103 G1 X122.713 Y48.024
N104 X121.734 Y49.277
N105 G3 X120.161 Y50.949 I-21.945 J-19.067
N106 G1 X119.455 Y51.58
N107 X118.828 Y52.136
N108 G3 X117.296 Y53.275 I-27.544 J-35.467
N109 G1 X117.244 Y53.293 Z-1.264
N110 X117.194 Y53.311 Z-1.245
N111 X117.15 Y53.327 Z-1.216
N112 X117.113 Y53.341 Z-1.176
N113 X117.085 Y53.351 Z-1.129
N114 X117.067 Y53.354 Z-1.076
N115 X117.061 Y53.355 Z-1.021
N116 G0 Z5.08
N117 X107.853 Y34.849
N118 Z0.127
N119 G1 Z-0.508 F1016
N120 G3 X105.376 Y37.945 Z-0.734 I-3.078 J0.076
N121 X101.911 Y36.039 Z-0.96 I-0.6 J-3.012
N122 X103.194 Y32.308 Z-1.185 I2.858 J-1.103
N123 X107.079 Y32.933 Z-1.411 I1.571 J2.621
N124 X107.127 Y36.857 Z-1.637 I-2.308 J1.991
N125 X103.279 Y37.574 Z-1.863 I-2.35 J-1.928
N126 X101.918 Y33.914 Z-2.088 I1.494 J-2.638
N127 X105.283 Y31.953 Z-2.314 I2.848 J1.019
N128 X107.784 Y34.925 Z-2.54 I-0.516 J2.972
N129 X101.751 I-3.016 J0
N130 X107.676 Y34.128 I3.016 J0
N131 X107.784 Y34.925 I-2.909 J0.798
N132 G1 X107.787 Y35.155
N133 X107.945 Y36.06
N134 G3 X107.809 Y37.69 I-1.839 J0.667
N135 X105.774 Y39.381 I-2.951 J-1.48
N136 X101.259 Y38.169 I-1.307 J-4.147
N137 X103.607 Y30.246 I3.464 J-3.283
N138 X108.954 Y32.52 I1.178 J4.652
N139 G1 X109.353 Y33.265
N140 X109.635 Y33.916
N141 G3 X109.974 Y37.155 I-5.421 J2.203
N142 X106.362 Y41.193 I-5.292 J-1.098
N143 X100.653 Y40.28 I-1.99 J-5.86
N144 X98.797 Y31.588 I3.975 J-5.393
N145 X109.682 Y30.149 I5.976 J3.316
N146 X112.166 Y35.519 I-5.9 J5.989
N147 X107.115 Y43.143 I-7.568 J0.471
N148 X100.662 Y42.771 I-2.793 J-7.71
N149 X95.806 Y35.516 I3.85 J-7.83
N150 X107.997 Y26.515 I8.954 J-0.628
N151 X110.613 Y28.045 I-3.287 J8.624
N152 X114.356 Y35.169 I-6.57 J7.997
N153 X108.745 Y44.849 I-9.802 J0.784
N154 X102.251 Y45.642 I-4.432 J-9.301
N155 X96.344 Y42.256 I2.115 J-10.534
N156 X93.56 Y34.059 I8.239 J-7.37
N157 X102.398 Y23.912 I11.19 J0.824
N158 X109.499 Y24.695 I2.379 J11.012
N159 X113.207 Y27.363 I-5.025 J10.897
N160 X116.605 Y34.742 I-9.079 J8.652
N161 X115.132 Y41.834 I-12.12 J1.181
N162 X107.3 Y47.768 I-10.683 J-5.965
N163 X97.572 Y46.223 I-3.013 J-12.426
N164 X92.661 Y40.879 I6.807 J-11.184
N165 X92.838 Y28.5 I11.981 J-6.019
N166 X108.501 Y21.885 I11.93 J6.395
N167 X115.938 Y27.011 I-3.956 J13.697
N168 X118.081 Y40.94 I-11.566 J8.909
N169 X106.488 Y50.28 I-13.653 J-5.082
N170 X95.204 Y47.424 I-2.218 J-14.954
N171 X88.929 Y35.651 I9.283 J-12.506
N172 X109.354 Y19.71 I15.83 J-0.773
N173 X118.135 Y26.042 I-4.774 J15.875
N174 X118.092 Y45.828 I-13.705 J9.863
N175 X104.709 Y52.785 I-13.738 J-10.077
N176 X90.907 Y46.62 I-0.413 J-17.606
N177 X88.435 Y26.821 I13.696 J-11.763
N178 X111.89 Y18.116 I16.341 J8.078
N179 X121.689 Y27.388 I-7.424 J17.66
N180 X109.416 Y54.475 I-17.221 J8.522
N181 X91.328 Y50.372 I-5.165 J-19.148
N182 X85.763 Y26.966 I13.226 J-15.509
N183 X112.525 Y15.807 I19.012 J7.924
N184 X123.321 Y25.364 I-7.997 J19.91
N185 X117.298 Y53.278 I-18.848 J10.54
N186 X113.815 Y55.222 I-14.419 J-21.738
N187 G1 X112.353 Y55.801
N188 G3 X92.931 Y53.714 I-7.579 J-20.886
N189 X88.564 Y50.11 I12.311 J-19.369
N190 X85.029 Y45.1 I16.834 J-15.63
N191 X83.574 Y41.548 I21.521 J-10.889
N192 G1 X83.113 Y39.868
N193 G3 X82.775 Y37.998 I58.806 J-11.607
N194 X82.57 Y35.701 I38.566 J-4.585
N195 G1 X82.575 Y34.448
N196 G3 X83.057 Y30.271 I22.19 J0.446
N197 X91.678 Y16.989 I21.738 J4.671
N198 G1 X93.026 Y16.068
N199 X93.138 Y15.996
N200 X94.6 Y15.18
N201 G3 X96.689 Y14.232 I16.744 J34.101
N202 X100.239 Y13.177 I9.043 J23.948
N203 X104.626 Y12.715 I4.648 J23.05
N204 X114.446 Y14.93 I0.131 J22.298
N205 X120.713 Y19.455 I-9.75 J20.106
N206 X124.001 Y23.797 I-16.462 J15.878
N207 X125.655 Y27.348 I-21.234 J12.054
N208 X126.694 Y31.314 I-22.626 J8.047
N209 G1 X126.829 Y32.359
N210 X126.908 Y32.986
N211 G3 X126.982 Y35.283 I-29.787 J2.118
N212 X124.879 Y44.366 I-22.299 J-0.379
N213 X123.003 Y47.605 I-20 J-9.419
N214 G1 X122.713 Y48.024
N215 X121.734 Y49.277
N216 G3 X120.161 Y50.949 I-21.945 J-19.067
N217 G1 X119.455 Y51.58
N218 X118.828 Y52.136
N219 G3 X117.295 Y53.275 I-27.449 J-35.34
N220 G1 X117.243 Y53.294 Z-2.534
N221 X117.194 Y53.312 Z-2.515
N222 X117.15 Y53.328 Z-2.486
N223 X117.113 Y53.341 Z-2.446
N224 X117.085 Y53.351 Z-2.399
N225 X117.066 Y53.354 Z-2.346
N226 X117.06 Y53.355 Z-2.291
N227 G0 Z-1.143
N228 X107.854 Y34.849
N229 G1 Z-1.778 F1016
N230 G3 X105.377 Y37.945 Z-2.004 I-3.078 J0.076
N231 X101.912 Y36.039 Z-2.23 I-0.6 J-3.012
N232 X103.195 Y32.308 Z-2.455 I2.858 J-1.103
N233 X107.08 Y32.933 Z-2.681 I1.571 J2.621
N234 X107.128 Y36.857 Z-2.907 I-2.308 J1.991
N235 X103.28 Y37.574 Z-3.133 I-2.35 J-1.928
N236 X101.919 Y33.914 Z-3.358 I1.494 J-2.638
N237 X105.284 Y31.953 Z-3.584 I2.848 J1.019
N238 X107.785 Y34.925 Z-3.81 I-0.516 J2.972
N239 X101.752 I-3.016 J0
N240 X107.677 Y34.128 I3.016 J0
N241 X107.785 Y34.925 I-2.909 J0.798
N242 G1 X107.788 Y35.155
N243 X107.946 Y36.06
N244 G3 X107.81 Y37.69 I-1.839 J0.667
N245 X105.775 Y39.381 I-2.951 J-1.48
N246 X101.26 Y38.169 I-1.307 J-4.147
N247 X103.608 Y30.246 I3.464 J-3.283
N248 X108.955 Y32.52 I1.178 J4.652
N249 G1 X109.354 Y33.265
N250 X109.636 Y33.916
N251 G3 X109.975 Y37.155 I-5.421 J2.203
N252 X106.363 Y41.193 I-5.292 J-1.098
N253 X100.654 Y40.28 I-1.99 J-5.86
N254 X98.798 Y31.588 I3.975 J-5.393
N255 X109.683 Y30.149 I5.976 J3.316
N256 X112.167 Y35.519 I-5.9 J5.989
N257 X107.116 Y43.143 I-7.568 J0.471
N258 X100.663 Y42.771 I-2.793 J-7.71
N259 X95.807 Y35.516 I3.85 J-7.83
N260 X107.998 Y26.515 I8.954 J-0.628
N261 X110.614 Y28.045 I-3.287 J8.624
N262 X114.357 Y35.169 I-6.57 J7.997
N263 X108.746 Y44.849 I-9.802 J0.784
N264 X102.252 Y45.642 I-4.432 J-9.301
N265 X96.345 Y42.255 I2.115 J-10.534
N266 X93.561 Y34.059 I8.239 J-7.37
N267 X102.399 Y23.912 I11.19 J0.824
N268 X109.5 Y24.695 I2.379 J11.012
N269 X113.208 Y27.363 I-5.025 J10.896
N270 X116.606 Y34.742 I-9.079 J8.652
N271 X115.133 Y41.834 I-12.12 J1.181
N272 X107.301 Y47.768 I-10.683 J-5.965
N273 X97.573 Y46.223 I-3.013 J-12.426
N274 X92.662 Y40.879 I6.807 J-11.184
N275 X92.839 Y28.5 I11.981 J-6.019
N276 X108.502 Y21.885 I11.93 J6.395
N277 X115.939 Y27.011 I-3.956 J13.697
N278 X118.082 Y40.94 I-11.566 J8.909
N279 X106.489 Y50.28 I-13.653 J-5.082
N280 X95.205 Y47.424 I-2.218 J-14.954
N281 X89.342 Y31.316 I9.278 J-12.498
N282 G1 X89.429 Y30.897
N283 X89.49 Y30.688
N284 X89.89 Y29.435
N285 G3 X91.602 Y26.09 I15.949 J6.053
N286 G1 X92.201 Y25.258
N287 X92.303 Y25.118
N288 X92.354 Y25.049
N289 X93.271 Y24.005
N290 G3 X96.06 Y21.672 I12.271 J11.835
N291 G1 X96.48 Y21.418
N292 X97.107 Y21.042
N293 G3 X104.626 Y19.073 I7.657 J13.903
N294 X107.132 Y19.245 I0.281 J14.267
N295 X115.692 Y46.422 I-2.354 J15.678
N296 X103.79 Y50.752 I-10.924 J-11.503
N297 X98.779 Y49.613 I1.116 J-16.51
N298 G1 X97.942 Y49.227
N299 X97.315 Y48.931
N300 X97.192 Y48.859
N301 X96.062 Y48.18
N302 G3 X91.522 Y43.638 I8.901 J-13.438
N303 X89.029 Y36.832 I13.527 J-8.814
N304 G1 X89.036 Y36.787 Z-3.806
N305 X89.045 Y36.733 Z-3.789
N306 X89.053 Y36.684 Z-3.76
N307 X89.06 Y36.642 Z-3.721
N308 X89.065 Y36.611 Z-3.672
N309 X89.068 Y36.591 Z-3.618
N310 X89.069 Y36.585 Z-3.561
N311 G0 Z-1.904
N312 X101.304 Y46.186
N313 G1 Z-2.539 F1016
N314 Y46.194 Z-2.638
N315 X101.305 Y46.218 Z-2.735
N316 Y46.256 Z-2.827
N317 Y46.308 Z-2.912
N318 X101.306 Y46.372 Z-2.988
N319 Y46.448 Z-3.052
N320 X101.307 Y46.533 Z-3.105
N321 X101.308 Y46.625 Z-3.143
N322 Y46.722 Z-3.166
N323 X101.309 Y46.821 Z-3.174
N324 G3 X100.959 Y50.296 I-16.211 J0.12
N325 G1 X100.922 Y50.444
N326 G3 X99.988 Y50.975 I-1.365 J-1.316
N327 X98.161 Y51.095 I-1.203 J-4.341
N328 G1 X97.588 Y51.007
N329 X96.978 Y50.86
N330 X96.314 Y50.642
N331 X95.528 Y50.312
N332 G3 X92.479 Y48.28 I5.597 J-11.703
N333 X87.502 Y40.68 I11.607 J-13.03
N334 X122.056 Y29.163 I17.277 J-5.758
N335 X104.555 Y53.131 I-17.277 J5.758
N336 G1 X103.636 Y53.153
N337 X102.722 Y53.245
N338 X101.81 Y53.358
N339 X100.896 Y53.451
N340 G3 X97.237 Y53.258 I-1.174 J-12.488
N341 X93 Y51.538 I2.722 J-12.784
N342 X87.756 Y46.461 I9.318 J-14.872
N343 X88.439 Y22.397 I16.911 J-11.562
N344 X121.117 Y47.451 I16.339 J12.527
N345 X106.534 Y55.438 I-16.339 J-12.527
N346 X101.042 Y55.925 I-14.475 J-131.929
N347 X96.479 Y55.486 I-0.553 J-18.191
N348 X95.853 Y55.254 I0.675 J-2.78
N349 X94.391 Y54.554 I7.316 J-17.152
N350 G1 X93.138 Y53.854
N351 G3 X90.071 Y51.573 I13.692 J-21.606
N352 X83.575 Y41.547 I14.771 J-16.688
N353 G1 X83.113 Y39.868
N354 G3 X82.775 Y37.998 I58.806 J-11.607
N355 X82.57 Y35.701 I38.566 J-4.585
N356 G1 X82.575 Y34.448
N357 G3 X83.057 Y30.271 I22.19 J0.446
N358 X91.678 Y16.989 I21.738 J4.671
N359 G1 X93.026 Y16.068
N360 X93.138 Y15.996
N361 X94.6 Y15.18
N362 G3 X96.689 Y14.232 I16.744 J34.101
N363 X100.239 Y13.177 I9.043 J23.948
N364 X104.626 Y12.715 I4.648 J23.05
N365 X114.446 Y14.93 I0.131 J22.298
N366 X120.713 Y19.455 I-9.75 J20.106
N367 X124.001 Y23.797 I-16.462 J15.878
N368 X125.655 Y27.348 I-21.234 J12.054
N369 X126.694 Y31.314 I-22.626 J8.047
N370 G1 X126.829 Y32.359
N371 X126.908 Y32.986
N372 G3 X126.982 Y35.283 I-29.787 J2.118
N373 X124.879 Y44.366 I-22.299 J-0.379
N374 X123.003 Y47.605 I-20 J-9.419
N375 G1 X122.713 Y48.024
N376 X121.734 Y49.277
N377 G3 X120.161 Y50.949 I-21.945 J-19.067
N378 G1 X119.455 Y51.58
N379 X118.828 Y52.136
N380 X118.743 Y52.201
N381 X117.575 Y53.074
N382 G3 X115.268 Y54.499 I-13.877 J-19.882
N383 G1 X114.017 Y55.125
N384 X113.815 Y55.223
N385 X112.353 Y55.801
N386 G3 X96.107 Y55.372 I-7.578 J-20.873
N387 G1 X96.063 Y55.339 Z-3.168
N388 X96.021 Y55.307 Z-3.149
N389 X95.983 Y55.279 Z-3.119
N390 X95.951 Y55.255 Z-3.08
N391 X95.928 Y55.236 Z-3.033
N392 X95.915 Y55.223 Z-2.98
N393 X95.911 Y55.218 Z-2.924
N394 G0 Z-2.413
N395 X107.854 Y34.849
N396 G1 Z-3.048 F1016
N397 G3 X105.377 Y37.945 Z-3.274 I-3.078 J0.076
N398 X101.912 Y36.039 Z-3.5 I-0.6 J-3.012
N399 X103.195 Y32.308 Z-3.725 I2.858 J-1.103
N400 X107.08 Y32.933 Z-3.951 I1.571 J2.621
N401 X107.128 Y36.857 Z-4.177 I-2.308 J1.991
N402 X103.28 Y37.574 Z-4.403 I-2.35 J-1.928
N403 X101.919 Y33.914 Z-4.628 I1.494 J-2.638
N404 X105.284 Y31.953 Z-4.854 I2.848 J1.019
N405 X107.785 Y34.925 Z-5.08 I-0.516 J2.972
N406 X101.752 I-3.016 J0
N407 X107.677 Y34.128 I3.016 J0
N408 X107.785 Y34.925 I-2.909 J0.798
N409 G1 X107.788 Y35.155
N410 X107.946 Y36.06
N411 G3 X107.81 Y37.69 I-1.839 J0.667
N412 X105.775 Y39.381 I-2.951 J-1.48
N413 X101.26 Y38.169 I-1.307 J-4.147
N414 X103.608 Y30.246 I3.464 J-3.283
N415 X108.955 Y32.52 I1.178 J4.652
N416 G1 X109.354 Y33.265
N417 X109.636 Y33.916
N418 G3 X109.975 Y37.155 I-5.421 J2.203
N419 X106.363 Y41.193 I-5.292 J-1.098
N420 X100.654 Y40.28 I-1.99 J-5.86
N421 X98.798 Y31.588 I3.975 J-5.393
N422 X109.683 Y30.149 I5.976 J3.316
N423 X112.167 Y35.519 I-5.9 J5.989
N424 X107.116 Y43.143 I-7.568 J0.471
N425 X100.663 Y42.771 I-2.793 J-7.71
N426 X95.807 Y35.516 I3.85 J-7.83
N427 X107.998 Y26.515 I8.954 J-0.628
N428 X110.614 Y28.045 I-3.287 J8.624
N429 X114.357 Y35.169 I-6.57 J7.997
N430 X108.746 Y44.849 I-9.802 J0.784
N431 X102.252 Y45.642 I-4.432 J-9.301
N432 X96.345 Y42.255 I2.115 J-10.534
N433 X93.561 Y34.059 I8.239 J-7.37
N434 X102.399 Y23.912 I11.19 J0.824
N435 X109.5 Y24.695 I2.379 J11.012
N436 X113.208 Y27.363 I-5.025 J10.896
N437 X116.606 Y34.742 I-9.079 J8.652
N438 X115.133 Y41.834 I-12.12 J1.181
N439 X107.301 Y47.768 I-10.683 J-5.965
N440 X97.573 Y46.223 I-3.013 J-12.426
N441 X92.662 Y40.879 I6.807 J-11.184
N442 X92.839 Y28.5 I11.981 J-6.019
N443 X108.502 Y21.885 I11.93 J6.395
N444 X115.939 Y27.011 I-3.956 J13.697
N445 X118.082 Y40.94 I-11.566 J8.909
N446 X106.489 Y50.28 I-13.653 J-5.082
N447 X95.205 Y47.424 I-2.218 J-14.954
N448 X89.342 Y31.316 I9.278 J-12.498
N449 G1 X89.429 Y30.897
N450 X89.49 Y30.688
N451 X89.89 Y29.435
N452 G3 X91.602 Y26.09 I15.949 J6.053
N453 G1 X92.201 Y25.258
N454 X92.303 Y25.118
N455 X92.354 Y25.049
N456 X93.271 Y24.005
N457 G3 X96.06 Y21.672 I12.271 J11.835
N458 G1 X96.48 Y21.418
N459 X97.107 Y21.042
N460 G3 X104.626 Y19.073 I7.657 J13.903
N461 X107.132 Y19.245 I0.281 J14.267
N462 X115.692 Y46.422 I-2.354 J15.678
N463 X103.79 Y50.752 I-10.924 J-11.503
N464 X98.779 Y49.613 I1.116 J-16.51
N465 G1 X97.942 Y49.227
N466 X97.315 Y48.931
N467 X97.192 Y48.859
N468 X96.062 Y48.18
N469 G3 X91.522 Y43.638 I8.901 J-13.438
N470 X89.029 Y36.832 I13.527 J-8.814
N471 G1 X89.036 Y36.787 Z-5.076
N472 X89.045 Y36.733 Z-5.059
N473 X89.053 Y36.684 Z-5.03
N474 X89.06 Y36.642 Z-4.991
N475 X89.065 Y36.611 Z-4.942
N476 X89.068 Y36.591 Z-4.888
N477 X89.069 Y36.585 Z-4.831
N478 G0 Z-3.683
N479 X107.854 Y34.849
N480 G1 Z-4.318 F1016
N481 G3 X105.377 Y37.945 Z-4.544 I-3.078 J0.076
N482 X101.912 Y36.039 Z-4.77 I-0.6 J-3.012
N483 X103.195 Y32.308 Z-4.995 I2.858 J-1.103
N484 X107.08 Y32.933 Z-5.221 I1.571 J2.621
N485 X107.128 Y36.857 Z-5.447 I-2.308 J1.991
N486 X103.28 Y37.574 Z-5.673 I-2.35 J-1.928
N487 X101.919 Y33.914 Z-5.898 I1.494 J-2.638
N488 X105.284 Y31.953 Z-6.124 I2.848 J1.019
N489 X107.785 Y34.925 Z-6.35 I-0.516 J2.972
N490 X101.752 I-3.016 J0
N491 X107.677 Y34.128 I3.016 J0
N492 X107.785 Y34.925 I-2.909 J0.798
N493 G1 X107.788 Y35.155
N494 X107.946 Y36.06
N495 G3 X107.81 Y37.69 I-1.839 J0.667
N496 X105.775 Y39.381 I-2.951 J-1.48
N497 X101.26 Y38.169 I-1.307 J-4.147
N498 X103.608 Y30.246 I3.464 J-3.283
N499 X108.955 Y32.52 I1.178 J4.652
N500 G1 X109.354 Y33.265
N501 X109.636 Y33.916
N502 G3 X109.975 Y37.155 I-5.421 J2.203
N503 X106.363 Y41.193 I-5.292 J-1.098
N504 X100.654 Y40.28 I-1.99 J-5.86
N505 X98.798 Y31.588 I3.975 J-5.393
N506 X109.683 Y30.149 I5.976 J3.316
N507 X112.167 Y35.519 I-5.9 J5.989
N508 X107.116 Y43.143 I-7.568 J0.471
N509 X100.663 Y42.771 I-2.793 J-7.71
N510 X95.807 Y35.516 I3.85 J-7.83
N511 X107.998 Y26.515 I8.954 J-0.628
N512 X110.614 Y28.045 I-3.287 J8.624
N513 X114.357 Y35.169 I-6.57 J7.997
N514 X108.746 Y44.849 I-9.802 J0.784
N515 X102.252 Y45.642 I-4.432 J-9.301
N516 X96.345 Y42.255 I2.115 J-10.534
N517 X93.561 Y34.059 I8.239 J-7.37
N518 X102.399 Y23.912 I11.19 J0.824
N519 X109.5 Y24.695 I2.379 J11.012
N520 X113.208 Y27.363 I-5.025 J10.896
N521 X116.606 Y34.742 I-9.079 J8.652
N522 X115.133 Y41.834 I-12.12 J1.181
N523 X107.301 Y47.768 I-10.683 J-5.965
N524 X97.573 Y46.223 I-3.013 J-12.426
N525 X92.662 Y40.879 I6.807 J-11.184
N526 X92.839 Y28.5 I11.981 J-6.019
N527 X108.502 Y21.885 I11.93 J6.395
N528 X115.939 Y27.011 I-3.956 J13.697
N529 X118.082 Y40.94 I-11.566 J8.909
N530 X106.489 Y50.28 I-13.653 J-5.082
N531 X95.205 Y47.424 I-2.218 J-14.954
N532 X89.342 Y31.316 I9.278 J-12.498
N533 G1 X89.429 Y30.897
N534 X89.49 Y30.688
N535 X89.89 Y29.435
N536 G3 X91.602 Y26.09 I15.949 J6.053
N537 G1 X92.201 Y25.258
N538 X92.303 Y25.118
N539 X92.354 Y25.049
N540 X93.271 Y24.005
N541 G3 X96.06 Y21.672 I12.271 J11.835
N542 G1 X96.48 Y21.418
N543 X97.107 Y21.042
N544 G3 X104.626 Y19.073 I7.657 J13.903
N545 X107.132 Y19.245 I0.281 J14.267
N546 X115.692 Y46.422 I-2.354 J15.678
N547 X103.79 Y50.752 I-10.924 J-11.503
N548 X98.779 Y49.613 I1.116 J-16.51
N549 G1 X97.942 Y49.227
N550 X97.315 Y48.931
N551 X97.192 Y48.859
N552 X96.062 Y48.18
N553 G3 X91.522 Y43.638 I8.901 J-13.438
N554 X89.029 Y36.832 I13.527 J-8.814
N555 G1 X89.036 Y36.787 Z-6.346
N556 X89.045 Y36.733 Z-6.329
N557 X89.053 Y36.684 Z-6.3
N558 X89.06 Y36.642 Z-6.261
N559 X89.065 Y36.611 Z-6.212
N560 X89.068 Y36.591 Z-6.158
N561 X89.069 Y36.585 Z-6.101
N562 G0 Z-4.953
N563 X101.72 Y35.118
N564 G1 Z-5.588 F1016
N565 G3 X103.934 Y31.981 Z-5.806 I3.056 J-0.193
N566 X107.464 Y33.47 Z-6.023 I0.84 J2.937
N567 X106.765 Y37.227 Z-6.241 I-2.683 J1.444
N568 X102.955 Y37.347 Z-6.458 I-1.98 J-2.307
N569 X102.026 Y33.66 Z-6.676 I1.826 J-2.421
N570 X105.42 Y31.968 Z-6.893 I2.748 J1.263
N571 X107.792 Y34.915 Z-7.111 I-0.645 J2.947
N572 X101.759 I-3.017 J0
N573 X107.792 I3.017 J0
N574 G1 X107.796 Y35.145
N575 X107.954 Y36.051
N576 G3 X107.818 Y37.68 I-1.839 J0.668
N577 X105.783 Y39.372 I-2.951 J-1.48
N578 X101.267 Y38.16 I-1.307 J-4.147
N579 X103.615 Y30.236 I3.464 J-3.283
N580 X108.962 Y32.509 I1.179 J4.652
N581 G1 X109.362 Y33.254
N582 X109.644 Y33.906
N583 G3 X109.983 Y37.145 I-5.422 J2.204
N584 X106.372 Y41.184 I-5.292 J-1.098
N585 X100.662 Y40.271 I-1.991 J-5.86
N586 X98.805 Y31.578 I3.975 J-5.394
N587 X109.69 Y30.138 I5.977 J3.316
N588 X112.175 Y35.508 I-5.901 J5.991
N589 X107.125 Y43.134 I-7.569 J0.472
N590 X100.671 Y42.762 I-2.794 J-7.71
N591 X95.814 Y35.507 I3.85 J-7.831
N592 X108.005 Y26.504 I8.955 J-0.629
N593 X110.621 Y28.034 I-3.286 J8.625
N594 X114.365 Y35.159 I-6.57 J7.998
N595 X108.755 Y44.839 I-9.803 J0.785
N596 X102.26 Y45.633 I-4.433 J-9.301
N597 X96.353 Y42.247 I2.114 J-10.535
N598 X93.568 Y34.05 I8.239 J-7.371
N599 X102.405 Y23.902 I11.191 J0.823
N600 X109.507 Y24.685 I2.38 J11.012
N601 X113.215 Y27.352 I-5.024 J10.897
N602 X116.614 Y34.731 I-9.078 J8.654
N603 X115.142 Y41.822 I-12.121 J1.183
N604 X107.311 Y47.758 I-10.685 J-5.963
N605 X97.583 Y46.215 I-3.016 J-12.425
N606 X92.671 Y40.873 I6.804 J-11.186
N607 X92.844 Y28.494 I11.98 J-6.023
N608 X108.504 Y21.873 I11.933 J6.391
N609 X115.944 Y26.997 I-3.951 J13.699
N610 X118.093 Y40.924 I-11.563 J8.914
N611 X106.504 Y50.27 I-13.656 J-5.076
N612 X95.218 Y47.419 I-2.226 J-14.953
N613 X89.496 Y30.69 I9.299 J-12.524
N614 G1 X89.89 Y29.435
N615 G3 X91.602 Y26.09 I15.949 J6.053
N616 G1 X92.201 Y25.258
N617 X92.303 Y25.118
N618 X92.354 Y25.049
N619 X93.271 Y24.005
N620 G3 X96.06 Y21.672 I12.271 J11.835
N621 G1 X96.48 Y21.418
N622 X97.107 Y21.042
N623 G3 X104.626 Y19.073 I7.657 J13.903
N624 X107.132 Y19.245 I0.281 J14.267
N625 X115.692 Y46.422 I-2.354 J15.678
N626 X103.79 Y50.752 I-10.924 J-11.503
N627 X98.779 Y49.613 I1.116 J-16.51
N628 G1 X97.942 Y49.227
N629 X97.315 Y48.931
N630 X97.192 Y48.859
N631 X96.062 Y48.18
N632 G3 X91.522 Y43.638 I8.901 J-13.438
N633 X89.07 Y37.163 I13.626 J-8.861
N634 G1 X89.015 Y36.613
N635 G3 X89.047 Y36.367 I0.634 J-0.043
N636 G1 X89.079 Y36.273 Z-7.103
N637 X89.11 Y36.181 Z-7.08
N638 X89.139 Y36.094 Z-7.042
N639 X89.166 Y36.013 Z-6.989
N640 X89.19 Y35.942 Z-6.925
N641 X89.211 Y35.88 Z-6.849
N642 X89.227 Y35.831 Z-6.764
N643 X89.24 Y35.795 Z-6.672
N644 X89.247 Y35.773 Z-6.575
N645 X89.249 Y35.765 Z-6.476
N646 G0 Z15.24
(Contour1)
N648 X88.363 Y49.908
N649 Z10.414
N650 Z7.35
N651 G1 Z-1.587 F1016
N652 X88.081 Y49.595 Z-1.624
N653 X87.91 Y49.396 Z-1.647
N654 X87.676 Y49.121 Z-1.679
N655 X87.57 Y48.992 Z-1.694
N656 X87.271 Y48.619 Z-1.735
N657 X87.245 Y48.587 Z-1.739
N658 X86.939 Y48.182 Z-1.783
N659 X86.866 Y48.086 Z-1.794
N660 X86.646 Y47.777 Z-1.827
N661 X86.502 Y47.575 Z-1.849
N662 X86.23 Y47.17 Z-1.891
N663 X86.097 Y46.968 Z-1.913
N664 X85.842 Y46.563 Z-1.955
N665 X85.72 Y46.36 Z-1.975
N666 X85.6 Y46.158 Z-1.996
N667 X85.482 Y45.956 Z-2.016
N668 X85.248 Y45.535 Z-2.058
N669 X85.148 Y45.348 Z-2.077
N670 X84.937 Y44.944 Z-2.117
N671 X84.843 Y44.752 Z-2.136
N672 X84.641 Y44.334 Z-2.176
N673 X84.55 Y44.134 Z-2.195
N674 X84.438 Y43.885 Z-2.219
N675 X84.369 Y43.729 Z-2.234
N676 X84.2 Y43.324 Z-2.273
N677 X84.118 Y43.122 Z-2.292
N678 X83.963 Y42.717 Z-2.33
N679 X83.888 Y42.515 Z-2.348
N680 X83.745 Y42.11 Z-2.386
N681 X83.677 Y41.908 Z-2.405
N682 X83.547 Y41.503 Z-2.442
N683 X83.486 Y41.3 Z-2.46
N684 X83.369 Y40.896 Z-2.497
N685 X83.313 Y40.693 Z-2.516
N686 X83.208 Y40.288 Z-2.552
N687 X83.159 Y40.086 Z-2.57
N688 X83.066 Y39.681 Z-2.607
N689 X83.023 Y39.479 Z-2.625
N690 X82.942 Y39.074 Z-2.661
N691 X82.905 Y38.872 Z-2.679
N692 X82.819 Y38.371 Z-2.723
N693 X82.804 Y38.265 Z-2.733
N694 X82.746 Y37.86 Z-2.769
N695 X82.72 Y37.657 Z-2.786
N696 X82.674 Y37.253 Z-2.822
N697 X82.653 Y37.05 Z-2.84
N698 X82.617 Y36.625 Z-2.877
N699 X82.603 Y36.443 Z-2.893
N700 X82.58 Y36.038 Z-2.929
N701 X82.569 Y35.836 Z-2.946
N702 X82.558 Y35.431 Z-2.982
N703 X82.553 Y35.229 Z-3
N704 Y34.621 Z-3.053
N705 X82.558 Y34.419 Z-3.07
N706 X82.569 Y34.014 Z-3.106
N707 X82.58 Y33.812 Z-3.124
N708 X82.603 Y33.407 Z-3.159
N709 X82.617 Y33.225 Z-3.175
N710 X82.653 Y32.8
N711 X82.674 Y32.597
N712 X82.72 Y32.193
N713 X82.746 Y31.99
N714 X82.804 Y31.585
N715 X82.819 Y31.479
N716 X82.905 Y30.978
N717 X82.942 Y30.776
N718 X83.023 Y30.371
N719 X83.066 Y30.169
N720 X83.159 Y29.764
N721 X83.208 Y29.562
N722 X83.313 Y29.157
N723 X83.369 Y28.954
N724 X83.486 Y28.55
N725 X83.547 Y28.347
N726 X83.677 Y27.942
N727 X83.745 Y27.74
N728 X83.888 Y27.335
N729 X83.963 Y27.133
N730 X84.118 Y26.728
N731 X84.2 Y26.526
N732 X84.369 Y26.121
N733 X84.438 Y25.965
N734 X84.55 Y25.716
N735 X84.641 Y25.516
N736 X84.843 Y25.098
N737 X84.937 Y24.906
N738 X85.148 Y24.502
N739 X85.248 Y24.315
N740 X85.482 Y23.894
N741 X85.6 Y23.692
N742 X85.72 Y23.49
N743 X85.842 Y23.287
N744 X86.097 Y22.882
N745 X86.23 Y22.68
N746 X86.502 Y22.275
N747 X86.646 Y22.073
N748 X86.866 Y21.764
N749 X86.939 Y21.668
N750 X87.245 Y21.263
N751 X87.271 Y21.231
N752 X87.57 Y20.858
N753 X87.676 Y20.729
N754 X87.91 Y20.454
N755 X88.081 Y20.255
N756 X88.448 Y19.846
N757 X88.485 Y19.807
N758 X88.89 Y19.382
N759 X89.033 Y19.239
N760 X89.295 Y18.979
N761 X89.447 Y18.835
N762 X89.699 Y18.597
N763 X89.883 Y18.43
N764 X90.111 Y18.227
N765 X90.306 Y18.056
N766 X90.711 Y17.717
N767 X90.832 Y17.62
N768 X91.116 Y17.395
N769 X91.318 Y17.239
N770 X91.723 Y16.937
N771 X91.902 Y16.811
N772 X92.19 Y16.608
N773 X92.33 Y16.513
N774 X92.735 Y16.245
N775 X92.799 Y16.203
N776 X93.139 Y15.992
N777 X93.342 Y15.867
N778 X93.807 Y15.596
N779 X93.949 Y15.517
N780 X94.354 Y15.296
N781 X94.556 Y15.191
N782 X94.758 Y15.088
N783 X94.952 Y14.989
N784 X95.378 Y14.787
N785 X95.568 Y14.698
N786 X95.972 Y14.519
N787 X96.175 Y14.433
N788 X96.58 Y14.268
N789 X96.782 Y14.189
N790 X97.187 Y14.037
N791 X97.355 Y13.977
N792 X97.794 Y13.826
N793 X97.953 Y13.775
N794 X98.401 Y13.635
N795 X98.603 Y13.576
N796 X99.008 Y13.462
N797 X99.21 Y13.41
N798 X99.615 Y13.308
N799 X99.817 Y13.262
N800 X100.244 Y13.167
N801 X100.424 Y13.132
N802 X100.829 Y13.054
N803 X101.031 Y13.02
N804 X101.436 Y12.953
N805 X101.638 Y12.924
N806 X102.043 Y12.87
N807 X102.246 Y12.846
N808 X102.65 Y12.803
N809 X102.853 Y12.785
N810 X103.257 Y12.753
N811 X103.46 Y12.74
N812 X103.864 Y12.72
N813 X104.067 Y12.713
N814 X104.471 Y12.704
N815 X104.674 Y12.701
N816 X105.079 Y12.704
N817 X105.281 Y12.707
N818 X105.686 Y12.721
N819 X105.888 Y12.728
N820 X106.495 Y12.767
N821 X106.9 Y12.804
N822 X107.102 Y12.823
N823 X107.304 Y12.847
N824 X107.709 Y12.895
N825 X107.912 Y12.925
N826 X108.316 Y12.985
N827 X108.519 Y13.02
N828 X108.923 Y13.092
N829 X109.126 Y13.132
N830 X109.53 Y13.216
N831 X109.733 Y13.262
N832 X110.188 Y13.37
N833 X110.34 Y13.41
N834 X110.745 Y13.518
N835 X110.934 Y13.572
N836 X111.352 Y13.696
N837 X111.554 Y13.761
N838 X111.959 Y13.894
N839 X112.161 Y13.965
N840 X112.566 Y14.111
N841 X112.742 Y14.179
N842 X112.97 Y14.269
N843 X113.173 Y14.348
N844 X113.729 Y14.584
N845 X113.78 Y14.607
N846 X114.185 Y14.792
N847 X114.387 Y14.887
N848 X114.792 Y15.087
N849 X114.994 Y15.191
N850 X115.399 Y15.404
N851 X115.601 Y15.518
N852 X115.803 Y15.632
N853 X116.006 Y15.747
N854 X116.427 Y16.001
N855 X116.613 Y16.117
N856 X117.018 Y16.377
N857 X117.062 Y16.406
N858 X117.422 Y16.652
N859 X117.625 Y16.793
N860 X118.029 Y17.086
N861 X118.2 Y17.215
N862 X118.463 Y17.418
N863 X118.636 Y17.554
N864 X119.041 Y17.884
N865 X119.205 Y18.025
N866 X119.446 Y18.232
N867 X119.648 Y18.413
N868 X119.888 Y18.632
N869 X120.053 Y18.786
N870 X120.313 Y19.037
N871 X120.458 Y19.178
N872 X120.862 Y19.591
N873 X120.912 Y19.644
N874 X121.286 Y20.049
N875 X121.464 Y20.251
N876 X121.672 Y20.489
N877 X121.812 Y20.656
N878 X122.076 Y20.976
N879 X122.144 Y21.061
N880 X122.481 Y21.493
N881 X122.611 Y21.668
N882 X122.759 Y21.87
N883 X122.886 Y22.044
N884 X123.186 Y22.478
N885 X123.291 Y22.635
N886 X123.493 Y22.945
N887 X123.583 Y23.085
N888 X123.83 Y23.49
N889 X123.898 Y23.6
N890 X124.183 Y24.097
N891 X124.293 Y24.299
N892 X124.402 Y24.502
N893 X124.505 Y24.694
N894 X124.713 Y25.109
N895 X124.812 Y25.311
N896 X125.001 Y25.716
N897 X125.091 Y25.918
N898 X125.267 Y26.323
N899 X125.314 Y26.437
N900 X125.517 Y26.943
N901 X125.587 Y27.133
N902 X125.736 Y27.538
N903 X125.804 Y27.74
N904 X125.94 Y28.145
N905 X126.002 Y28.347
N906 X126.064 Y28.55
N907 X126.124 Y28.747
N908 X126.236 Y29.157
N909 X126.291 Y29.359
N910 X126.39 Y29.764
N911 X126.439 Y29.966
N912 X126.528 Y30.381
N913 X126.569 Y30.573
N914 X126.682 Y31.181
N915 X126.714 Y31.383
N916 X126.777 Y31.788
N917 X126.803 Y31.99
N918 X126.855 Y32.395
N919 X126.876 Y32.597
N920 X126.916 Y33.002
N921 X126.931 Y33.205
N922 X126.96 Y33.609
N923 X126.97 Y33.812
N924 X126.987 Y34.217
N925 X126.993 Y34.419
N926 X126.998 Y34.824
N927 Y35.026
N928 X126.993 Y35.431
N929 X126.987 Y35.633
N930 X126.97 Y36.038
N931 X126.96 Y36.241
N932 X126.931 Y36.645
N933 X126.916 Y36.848
N934 X126.876 Y37.253
N935 X126.855 Y37.455
N936 X126.803 Y37.86
N937 X126.777 Y38.062
N938 X126.714 Y38.467
N939 X126.682 Y38.669
N940 X126.569 Y39.277
N941 X126.526 Y39.479
N942 X126.439 Y39.884
N943 X126.39 Y40.086
N944 X126.291 Y40.491
N945 X126.236 Y40.693
N946 X126.124 Y41.103
N947 X126.064 Y41.3
N948 X126.002 Y41.503
N949 X125.94 Y41.705
N950 X125.804 Y42.11
N951 X125.736 Y42.312
N952 X125.587 Y42.717
N953 X125.517 Y42.907
N954 X125.314 Y43.413
N955 X125.267 Y43.527
N956 X125.091 Y43.932
N957 X125.001 Y44.134
N958 X124.812 Y44.539
N959 X124.713 Y44.741
N960 X124.505 Y45.156
N961 X124.402 Y45.348
N962 X124.293 Y45.551
N963 X124.183 Y45.753
N964 X123.898 Y46.25
N965 X123.83 Y46.36
N966 X123.583 Y46.765
N967 X123.493 Y46.905
N968 X123.291 Y47.215
N969 X123.186 Y47.372
N970 X122.886 Y47.806
N971 X122.759 Y47.98
N972 X122.611 Y48.182
N973 X122.481 Y48.357
N974 X122.144 Y48.789
N975 X122.076 Y48.874
N976 X121.812 Y49.194
N977 X121.672 Y49.361
N978 X121.464 Y49.599
N979 X121.286 Y49.801
N980 X120.912 Y50.206
N981 X120.862 Y50.259
N982 X120.458 Y50.672
N983 X120.313 Y50.813
N984 X120.053 Y51.064
N985 X119.888 Y51.218
N986 X119.648 Y51.437
N987 X119.446 Y51.618
N988 X119.205 Y51.825
N989 X119.041 Y51.966
N990 X118.636 Y52.296
N991 X118.463 Y52.432
N992 X118.2 Y52.635
N993 X118.029 Y52.764
N994 X117.625 Y53.057
N995 X117.422 Y53.198
N996 X117.062 Y53.444
N997 X117.018 Y53.473
N998 X116.613 Y53.733
N999 X116.427 Y53.849
N1000 X116.006 Y54.103
N1001 X115.803 Y54.218
N1002 X115.601 Y54.332
N1003 X115.399 Y54.446
N1004 X114.994 Y54.659
N1005 X114.792 Y54.763
N1006 X114.387 Y54.963
N1007 X114.185 Y55.058
N1008 X113.78 Y55.243
N1009 X113.729 Y55.266
N1010 X113.173 Y55.502
N1011 X112.97 Y55.581
N1012 X112.742 Y55.671
N1013 X112.566 Y55.739
N1014 X112.161 Y55.885
N1015 X111.959 Y55.956
N1016 X111.554 Y56.089
N1017 X111.352 Y56.154
N1018 X110.934 Y56.278
N1019 X110.745 Y56.332
N1020 X110.34 Y56.44
N1021 X110.188 Y56.48
N1022 X109.733 Y56.588
N1023 X109.53 Y56.634
N1024 X109.126 Y56.718
N1025 X108.923 Y56.758
N1026 X108.519 Y56.83
N1027 X108.316 Y56.865
N1028 X107.912 Y56.925
N1029 X107.709 Y56.955
N1030 X107.304 Y57.003
N1031 X107.102 Y57.027
N1032 X106.697 Y57.064
N1033 X106.495 Y57.083
N1034 X105.888 Y57.122
N1035 X105.686 Y57.129
N1036 X105.281 Y57.143
N1037 X105.079 Y57.146
N1038 X104.674 Y57.149
N1039 X104.471 Y57.146
N1040 X104.067 Y57.137
N1041 X103.864 Y57.13
N1042 X103.46 Y57.11
N1043 X103.257 Y57.097
N1044 X102.853 Y57.065
N1045 X102.65 Y57.047
N1046 X102.246 Y57.004
N1047 X102.043 Y56.98
N1048 X101.638 Y56.926
N1049 X101.436 Y56.897
N1050 X101.031 Y56.83
N1051 X100.829 Y56.796
N1052 X100.424 Y56.718
N1053 X100.244 Y56.683
N1054 X99.817 Y56.588
N1055 X99.615 Y56.542
N1056 X99.21 Y56.44
N1057 X99.008 Y56.388
N1058 X98.603 Y56.274
N1059 X98.401 Y56.215
N1060 X97.953 Y56.075
N1061 X97.794 Y56.024
N1062 X97.355 Y55.873
N1063 X97.187 Y55.813
N1064 X96.782 Y55.661
N1065 X96.58 Y55.582
N1066 X96.175 Y55.417
N1067 X95.972 Y55.331
N1068 X95.568 Y55.152
N1069 X95.378 Y55.063
N1070 X94.952 Y54.861
N1071 X94.758 Y54.762
N1072 X94.555 Y54.659
N1073 X94.354 Y54.554
N1074 X93.949 Y54.333
N1075 X93.807 Y54.254
N1076 X93.342 Y53.983
N1077 X93.139 Y53.858
N1078 X92.799 Y53.647
N1079 X92.735 Y53.605
N1080 X92.33 Y53.337
N1081 X92.19 Y53.242
N1082 X91.902 Y53.039
N1083 X91.723 Y52.913
N1084 X91.318 Y52.611
N1085 X91.116 Y52.455
N1086 X90.832 Y52.23
N1087 X90.711 Y52.133
N1088 X90.306 Y51.794
N1089 X90.111 Y51.623
N1090 X89.883 Y51.42
N1091 X89.699 Y51.253
N1092 X89.447 Y51.015
N1093 X89.295 Y50.871
N1094 X89.033 Y50.611
N1095 X88.89 Y50.468
N1096 X88.485 Y50.043
N1097 X88.448 Y50.004
N1098 X88.081 Y49.595
N1099 X87.91 Y49.396
N1100 X87.676 Y49.121
N1101 X87.57 Y48.992
N1102 X87.271 Y48.619
N1103 X87.245 Y48.587
N1104 X86.939 Y48.182
N1105 X86.866 Y48.086
N1106 X86.646 Y47.777
N1107 X86.502 Y47.575
N1108 X86.23 Y47.17
N1109 X86.097 Y46.968
N1110 X85.842 Y46.563
N1111 X85.72 Y46.36
N1112 X85.6 Y46.158
N1113 X85.482 Y45.956
N1114 X85.248 Y45.535
N1115 X85.148 Y45.348
N1116 X84.937 Y44.944
N1117 X84.843 Y44.752
N1118 X84.641 Y44.334
N1119 X84.55 Y44.134
N1120 X84.438 Y43.885
N1121 X84.369 Y43.729
N1122 X84.2 Y43.324
N1123 X84.118 Y43.122
N1124 X83.963 Y42.717
N1125 X83.888 Y42.515
N1126 X83.745 Y42.11
N1127 X83.677 Y41.908
N1128 X83.547 Y41.503
N1129 X83.486 Y41.3
N1130 X83.369 Y40.896
N1131 X83.313 Y40.693
N1132 X83.208 Y40.288
N1133 X83.159 Y40.086
N1134 X83.066 Y39.681
N1135 X83.023 Y39.479
N1136 X82.942 Y39.074
N1137 X82.905 Y38.872
N1138 X82.819 Y38.371
N1139 X82.804 Y38.265
N1140 X82.746 Y37.86
N1141 X82.72 Y37.657
N1142 X82.674 Y37.253
N1143 X82.653 Y37.05
N1144 X82.617 Y36.625
N1145 X82.603 Y36.443
N1146 X82.58 Y36.038
N1147 X82.569 Y35.836
N1148 X82.558 Y35.431
N1149 X82.553 Y35.229
N1150 Y34.621
N1151 X82.558 Y34.419
N1152 X82.569 Y34.014
N1153 X82.58 Y33.812
N1154 X82.603 Y33.407
N1155 X82.617 Y33.225
N1156 G0 Z10.414
(Contour1 (2))
N1158 Z15.24
N1159 X90.84 Y17.613
N1160 Z7.35
N1161 G1 Z-1.587 F1016
N1162 X90.832 Y17.62 Z-1.588
N1163 X90.711 Y17.717 Z-1.602
N1164 X90.306 Y18.056 Z-1.648
N1165 X90.111 Y18.227 Z-1.671
N1166 X89.883 Y18.43 Z-1.698
N1167 X89.699 Y18.597 Z-1.719
N1168 X89.447 Y18.835 Z-1.75
N1169 X89.295 Y18.979 Z-1.768
N1170 X89.033 Y19.239 Z-1.8
N1171 X88.89 Y19.382 Z-1.818
N1172 X88.485 Y19.807 Z-1.869
N1173 X88.448 Y19.846 Z-1.874
N1174 X88.081 Y20.255 Z-1.922
N1175 X87.91 Y20.454 Z-1.945
N1176 X87.676 Y20.729 Z-1.977
N1177 X87.57 Y20.858 Z-1.991
N1178 X87.271 Y21.231 Z-2.033
N1179 X87.245 Y21.263 Z-2.037
N1180 X86.939 Y21.668 Z-2.081
N1181 X86.866 Y21.764 Z-2.092
N1182 X86.646 Y22.073 Z-2.125
N1183 X86.502 Y22.275 Z-2.147
N1184 X86.23 Y22.68 Z-2.189
N1185 X86.097 Y22.882 Z-2.21
N1186 X85.842 Y23.287 Z-2.252
N1187 X85.72 Y23.49 Z-2.273
N1188 X85.6 Y23.692 Z-2.294
N1189 X85.482 Y23.894 Z-2.314
N1190 X85.248 Y24.315 Z-2.356
N1191 X85.148 Y24.502 Z-2.375
N1192 X84.937 Y24.906 Z-2.415
N1193 X84.843 Y25.098 Z-2.433
N1194 X84.641 Y25.516 Z-2.474
N1195 X84.55 Y25.716 Z-2.493
N1196 X84.438 Y25.965 Z-2.517
N1197 X84.369 Y26.121 Z-2.532
N1198 X84.2 Y26.526 Z-2.57
N1199 X84.118 Y26.728 Z-2.589
N1200 X83.963 Y27.133 Z-2.627
N1201 X83.888 Y27.335 Z-2.646
N1202 X83.745 Y27.74 Z-2.684
N1203 X83.677 Y27.942 Z-2.702
N1204 X83.547 Y28.347 Z-2.74
N1205 X83.486 Y28.55 Z-2.758
N1206 X83.369 Y28.954 Z-2.795
N1207 X83.313 Y29.157 Z-2.813
N1208 X83.208 Y29.562 Z-2.85
N1209 X83.159 Y29.764 Z-2.868
N1210 X83.066 Y30.169 Z-2.905
N1211 X83.023 Y30.371 Z-2.923
N1212 X82.942 Y30.776 Z-2.959
N1213 X82.905 Y30.978 Z-2.977
N1214 X82.819 Y31.479 Z-3.021
N1215 X82.804 Y31.585 Z-3.031
N1216 X82.746 Y31.99 Z-3.066
N1217 X82.72 Y32.193 Z-3.084
N1218 X82.674 Y32.597 Z-3.12
N1219 X82.653 Y32.8 Z-3.138
N1220 X82.617 Y33.225 Z-3.175
N1221 X82.603 Y33.407
N1222 X82.58 Y33.812
N1223 X82.569 Y34.014
N1224 X82.558 Y34.419
N1225 X82.553 Y34.621
N1226 Y35.229
N1227 X82.558 Y35.431
N1228 X82.569 Y35.836
N1229 X82.58 Y36.038
N1230 X82.603 Y36.443
N1231 X82.617 Y36.625
N1232 X82.653 Y37.05
N1233 X82.674 Y37.253
N1234 X82.72 Y37.657
N1235 X82.746 Y37.86
N1236 X82.804 Y38.265
N1237 X82.819 Y38.371
N1238 X82.905 Y38.872
N1239 X82.942 Y39.074
N1240 X83.023 Y39.479
N1241 X83.066 Y39.681
N1242 X83.159 Y40.086
N1243 X83.208 Y40.288
N1244 X83.313 Y40.693
N1245 X83.369 Y40.896
N1246 X83.486 Y41.3
N1247 X83.547 Y41.503
N1248 X83.677 Y41.908
N1249 X83.745 Y42.11
N1250 X83.888 Y42.515
N1251 X83.963 Y42.717
N1252 X84.118 Y43.122
N1253 X84.2 Y43.324
N1254 X84.369 Y43.729
N1255 X84.438 Y43.885
N1256 X84.55 Y44.134
N1257 X84.641 Y44.334
N1258 X84.843 Y44.752
N1259 X84.937 Y44.944
N1260 X85.148 Y45.348
N1261 X85.248 Y45.535
N1262 X85.482 Y45.956
N1263 X85.6 Y46.158
N1264 X85.72 Y46.36
N1265 X85.842 Y46.563
N1266 X86.097 Y46.968
N1267 X86.23 Y47.17
N1268 X86.502 Y47.575
N1269 X86.646 Y47.777
N1270 X86.866 Y48.086
N1271 X86.939 Y48.182
N1272 X87.245 Y48.587
N1273 X87.271 Y48.619
N1274 X87.57 Y48.992
N1275 X87.676 Y49.121
N1276 X87.91 Y49.396
N1277 X88.081 Y49.595
N1278 X88.448 Y50.004
N1279 X88.485 Y50.043
N1280 X88.89 Y50.468
N1281 X89.033 Y50.611
N1282 X89.295 Y50.871
N1283 X89.447 Y51.015
N1284 X89.699 Y51.253
N1285 X89.883 Y51.42
N1286 X90.111 Y51.623
N1287 X90.306 Y51.794
N1288 X90.711 Y52.133
N1289 X90.832 Y52.23
N1290 X91.116 Y52.455
N1291 X91.318 Y52.611
N1292 X91.723 Y52.913
N1293 X91.902 Y53.039
N1294 X92.19 Y53.242
N1295 X92.33 Y53.337
N1296 X92.735 Y53.605
N1297 X92.799 Y53.647
N1298 X93.139 Y53.858
N1299 X93.342 Y53.983
N1300 X93.807 Y54.254
N1301 X93.949 Y54.333
N1302 X94.354 Y54.554
N1303 X94.555 Y54.659
N1304 X94.758 Y54.762
N1305 X94.952 Y54.861
N1306 X95.378 Y55.063
N1307 X95.568 Y55.152
N1308 X95.972 Y55.331
N1309 X96.175 Y55.417
N1310 X96.58 Y55.582
N1311 X96.782 Y55.661
N1312 X97.187 Y55.813
N1313 X97.355 Y55.873
N1314 X97.794 Y56.024
N1315 X97.953 Y56.075
N1316 X98.401 Y56.215
N1317 X98.603 Y56.274
N1318 X99.008 Y56.388
N1319 X99.21 Y56.44
N1320 X99.615 Y56.542
N1321 X99.817 Y56.588
N1322 X100.244 Y56.683
N1323 X100.424 Y56.718
N1324 X100.829 Y56.796
N1325 X101.031 Y56.83
N1326 X101.436 Y56.897
N1327 X101.638 Y56.926
N1328 X102.043 Y56.98
N1329 X102.246 Y57.004
N1330 X102.65 Y57.047
N1331 X102.853 Y57.065
N1332 X103.257 Y57.097
N1333 X103.46 Y57.11
N1334 X103.864 Y57.13
N1335 X104.067 Y57.137
N1336 X104.471 Y57.146
N1337 X104.674 Y57.149
N1338 X105.079 Y57.146
N1339 X105.281 Y57.143
N1340 X105.686 Y57.129
N1341 X105.888 Y57.122
N1342 X106.495 Y57.083
N1343 X106.697 Y57.064
N1344 X107.102 Y57.027
N1345 X107.304 Y57.003
N1346 X107.709 Y56.955
N1347 X107.912 Y56.925
N1348 X108.316 Y56.865
N1349 X108.519 Y56.83
N1350 X108.923 Y56.758
N1351 X109.126 Y56.718
N1352 X109.53 Y56.634
N1353 X109.733 Y56.588
N1354 X110.188 Y56.48
N1355 X110.34 Y56.44
N1356 X110.745 Y56.332
N1357 X110.934 Y56.278
N1358 X111.352 Y56.154
N1359 X111.554 Y56.089
N1360 X111.959 Y55.956
N1361 X112.161 Y55.885
N1362 X112.566 Y55.739
N1363 X112.742 Y55.671
N1364 X112.97 Y55.581
N1365 X113.173 Y55.502
N1366 X113.729 Y55.266
N1367 X113.78 Y55.243
N1368 X114.185 Y55.058
N1369 X114.387 Y54.963
N1370 X114.792 Y54.763
N1371 X114.994 Y54.659
N1372 X115.399 Y54.446
N1373 X115.601 Y54.332
N1374 X115.803 Y54.218
N1375 X116.006 Y54.103
N1376 X116.427 Y53.849
N1377 X116.613 Y53.733
N1378 X117.018 Y53.473
N1379 X117.062 Y53.444
N1380 X117.422 Y53.198
N1381 X117.625 Y53.057
N1382 X118.029 Y52.764
N1383 X118.2 Y52.635
N1384 X118.463 Y52.432
N1385 X118.636 Y52.296
N1386 X119.041 Y51.966
N1387 X119.205 Y51.825
N1388 X119.446 Y51.618
N1389 X119.648 Y51.437
N1390 X119.888 Y51.218
N1391 X120.053 Y51.064
N1392 X120.313 Y50.813
N1393 X120.458 Y50.672
N1394 X120.862 Y50.259
N1395 X120.912 Y50.206
N1396 X121.286 Y49.801
N1397 X121.464 Y49.599
N1398 X121.672 Y49.361
N1399 X121.812 Y49.194
N1400 X122.076 Y48.874
N1401 X122.144 Y48.789
N1402 X122.481 Y48.357
N1403 X122.611 Y48.182
N1404 X122.759 Y47.98
N1405 X122.886 Y47.806
N1406 X123.186 Y47.372
N1407 X123.291 Y47.215
N1408 X123.493 Y46.905
N1409 X123.583 Y46.765
N1410 X123.83 Y46.36
N1411 X123.898 Y46.25
N1412 X124.183 Y45.753
N1413 X124.293 Y45.551
N1414 X124.402 Y45.348
N1415 X124.505 Y45.156
N1416 X124.713 Y44.741
N1417 X124.812 Y44.539
N1418 X125.001 Y44.134
N1419 X125.091 Y43.932
N1420 X125.267 Y43.527
N1421 X125.314 Y43.413
N1422 X125.517 Y42.907
N1423 X125.587 Y42.717
N1424 X125.736 Y42.312
N1425 X125.804 Y42.11
N1426 X125.94 Y41.705
N1427 X126.002 Y41.503
N1428 X126.064 Y41.3
N1429 X126.124 Y41.103
N1430 X126.236 Y40.693
N1431 X126.291 Y40.491
N1432 X126.39 Y40.086
N1433 X126.439 Y39.884
N1434 X126.526 Y39.479
N1435 X126.569 Y39.277
N1436 X126.682 Y38.669
N1437 X126.714 Y38.467
N1438 X126.777 Y38.062
N1439 X126.803 Y37.86
N1440 X126.855 Y37.455
N1441 X126.876 Y37.253
N1442 X126.916 Y36.848
N1443 X126.931 Y36.645
N1444 X126.96 Y36.241
N1445 X126.97 Y36.038
N1446 X126.987 Y35.633
N1447 X126.993 Y35.431
N1448 X126.998 Y35.026
N1449 Y34.824
N1450 X126.993 Y34.419
N1451 X126.987 Y34.217
N1452 X126.97 Y33.812
N1453 X126.96 Y33.609
N1454 X126.931 Y33.205
N1455 X126.916 Y33.002
N1456 X126.876 Y32.597
N1457 X126.855 Y32.395
N1458 X126.803 Y31.99
N1459 X126.777 Y31.788
N1460 X126.714 Y31.383
N1461 X126.682 Y31.181
N1462 X126.569 Y30.573
N1463 X126.528 Y30.381
N1464 X126.439 Y29.966
N1465 X126.39 Y29.764
N1466 X126.291 Y29.359
N1467 X126.236 Y29.157
N1468 X126.124 Y28.747
N1469 X126.064 Y28.55
N1470 X126.002 Y28.347
N1471 X125.94 Y28.145
N1472 X125.804 Y27.74
N1473 X125.736 Y27.538
N1474 X125.587 Y27.133
N1475 X125.517 Y26.943
N1476 X125.314 Y26.437
N1477 X125.267 Y26.323
N1478 X125.091 Y25.918
N1479 X125.001 Y25.716
N1480 X124.812 Y25.311
N1481 X124.713 Y25.109
N1482 X124.505 Y24.694
N1483 X124.402 Y24.502
N1484 X124.293 Y24.299
N1485 X124.183 Y24.097
N1486 X123.898 Y23.6
N1487 X123.83 Y23.49
N1488 X123.583 Y23.085
N1489 X123.493 Y22.945
N1490 X123.291 Y22.635
N1491 X123.186 Y22.478
N1492 X122.886 Y22.044
N1493 X122.759 Y21.87
N1494 X122.611 Y21.668
N1495 X122.481 Y21.493
N1496 X122.144 Y21.061
N1497 X122.076 Y20.976
N1498 X121.812 Y20.656
N1499 X121.672 Y20.489
N1500 X121.464 Y20.251
N1501 X121.286 Y20.049
N1502 X120.912 Y19.644
N1503 X120.862 Y19.591
N1504 X120.458 Y19.178
N1505 X120.313 Y19.037
N1506 X120.053 Y18.786
N1507 X119.888 Y18.632
N1508 X119.648 Y18.413
N1509 X119.446 Y18.232
N1510 X119.205 Y18.025
N1511 X119.041 Y17.884
N1512 X118.636 Y17.554
N1513 X118.463 Y17.418
N1514 X118.2 Y17.215
N1515 X118.029 Y17.086
N1516 X117.625 Y16.793
N1517 X117.422 Y16.652
N1518 X117.062 Y16.406
N1519 X117.018 Y16.377
N1520 X116.613 Y16.117
N1521 X116.427 Y16.001
N1522 X116.006 Y15.747
N1523 X115.803 Y15.632
N1524 X115.601 Y15.518
N1525 X115.399 Y15.404
N1526 X114.994 Y15.191
N1527 X114.792 Y15.087
N1528 X114.387 Y14.887
N1529 X114.185 Y14.792
N1530 X113.78 Y14.607
N1531 X113.729 Y14.584
N1532 X113.173 Y14.348
N1533 X112.97 Y14.269
N1534 X112.742 Y14.179
N1535 X112.566 Y14.111
N1536 X112.161 Y13.965
N1537 X111.959 Y13.894
N1538 X111.554 Y13.761
N1539 X111.352 Y13.696
N1540 X110.934 Y13.572
N1541 X110.745 Y13.518
N1542 X110.34 Y13.41
N1543 X110.188 Y13.37
N1544 X109.733 Y13.262
N1545 X109.53 Y13.216
N1546 X109.126 Y13.132
N1547 X108.923 Y13.092
N1548 X108.519 Y13.02
N1549 X108.316 Y12.985
N1550 X107.912 Y12.925
N1551 X107.709 Y12.895
N1552 X107.304 Y12.847
N1553 X107.102 Y12.823
N1554 X106.9 Y12.804
N1555 X106.495 Y12.767
N1556 X105.888 Y12.728
N1557 X105.686 Y12.721
N1558 X105.281 Y12.707
N1559 X105.079 Y12.704
N1560 X104.674 Y12.701
N1561 X104.471 Y12.704
N1562 X104.067 Y12.713
N1563 X103.864 Y12.72
N1564 X103.46 Y12.74
N1565 X103.257 Y12.753
N1566 X102.853 Y12.785
N1567 X102.65 Y12.803
N1568 X102.246 Y12.846
N1569 X102.043 Y12.87
N1570 X101.638 Y12.924
N1571 X101.436 Y12.953
N1572 X101.031 Y13.02
N1573 X100.829 Y13.054
N1574 X100.424 Y13.132
N1575 X100.244 Y13.167
N1576 X99.817 Y13.262
N1577 X99.615 Y13.308
N1578 X99.21 Y13.41
N1579 X99.008 Y13.462
N1580 X98.603 Y13.576
N1581 X98.401 Y13.635
N1582 X97.953 Y13.775
N1583 X97.794 Y13.826
N1584 X97.355 Y13.977
N1585 X97.187 Y14.037
N1586 X96.782 Y14.189
N1587 X96.58 Y14.268
N1588 X96.175 Y14.433
N1589 X95.972 Y14.519
N1590 X95.568 Y14.698
N1591 X95.378 Y14.787
N1592 X94.952 Y14.989
N1593 X94.758 Y15.088
N1594 X94.556 Y15.191
N1595 X94.354 Y15.296
N1596 X93.949 Y15.517
N1597 X93.807 Y15.596
N1598 X93.342 Y15.867
N1599 X93.139 Y15.992
N1600 X92.799 Y16.203
N1601 X92.735 Y16.245
N1602 X92.33 Y16.513
N1603 X92.19 Y16.608
N1604 X91.902 Y16.811
N1605 X91.723 Y16.937
N1606 X91.318 Y17.239
N1607 X91.116 Y17.395
N1608 X90.832 Y17.62
N1609 X90.711 Y17.717
N1610 X90.306 Y18.056
N1611 X90.111 Y18.227
N1612 X89.883 Y18.43
N1613 X89.699 Y18.597
N1614 X89.447 Y18.835
N1615 X89.295 Y18.979
N1616 X89.033 Y19.239
N1617 X88.89 Y19.382
N1618 X88.485 Y19.807
N1619 X88.448 Y19.846
N1620 X88.081 Y20.255
N1621 X87.91 Y20.454
N1622 X87.676 Y20.729
N1623 X87.57 Y20.858
N1624 X87.271 Y21.231
N1625 X87.245 Y21.263
N1626 X86.939 Y21.668
N1627 X86.866 Y21.764
N1628 X86.646 Y22.073
N1629 X86.502 Y22.275
N1630 X86.23 Y22.68
N1631 X86.097 Y22.882
N1632 X85.842 Y23.287
N1633 X85.72 Y23.49
N1634 X85.6 Y23.692
N1635 X85.482 Y23.894
N1636 X85.248 Y24.315
N1637 X85.148 Y24.502
N1638 X84.937 Y24.906
N1639 X84.843 Y25.098
N1640 X84.641 Y25.516
N1641 X84.55 Y25.716
N1642 X84.438 Y25.965
N1643 X84.369 Y26.121
N1644 X84.2 Y26.526
N1645 X84.118 Y26.728
N1646 X83.963 Y27.133
N1647 X83.888 Y27.335
N1648 X83.745 Y27.74
N1649 X83.677 Y27.942
N1650 X83.547 Y28.347
N1651 X83.486 Y28.55
N1652 X83.369 Y28.954
N1653 X83.313 Y29.157
N1654 X83.208 Y29.562
N1655 X83.159 Y29.764
N1656 X83.066 Y30.169
N1657 X83.023 Y30.371
N1658 X82.942 Y30.776
N1659 X82.905 Y30.978
N1660 X82.819 Y31.479
N1661 X82.804 Y31.585
N1662 X82.746 Y31.99
N1663 X82.72 Y32.193
N1664 X82.674 Y32.597
N1665 X82.653 Y32.8
N1666 X82.617 Y33.225
N1667 G0 Z15.24
N1669 Z20
N1670 M5
N1671 M30
