%
(1001)
(AK plaque finsih)
(T1  D=6.223 CR=0 - ZMIN=-7.112 - flat end mill)
N0 G90
N1 G17
(Contour1)
N2 T1 M6
N5 G0 X87.98 Y49.576
N6 Z10.414
N7 Z7.35
N8 G1 Z-1.587 F1016
N9 X87.9 Y49.482 Z-1.598
N10 X87.611 Y49.142 Z-1.637
N11 X87.56 Y49.081 Z-1.644
N12 X87.209 Y48.643 Z-1.693
N13 X87.084 Y48.479 Z-1.712
N14 X86.932 Y48.278 Z-1.734
N15 X86.808 Y48.113 Z-1.752
N16 X86.495 Y47.675 Z-1.799
N17 X86.406 Y47.546 Z-1.812
N18 X86.205 Y47.248 Z-1.844
N19 X86.089 Y47.073 Z-1.862
N20 X85.804 Y46.622 Z-1.909
N21 X85.712 Y46.471 Z-1.924
N22 X85.474 Y46.069 Z-1.965
N23 X85.402 Y45.944 Z-1.978
N24 X85.202 Y45.582 Z-2.014
N25 X85.137 Y45.467 Z-2.026
N26 X84.929 Y45.065 Z-2.065
N27 X84.827 Y44.864 Z-2.085
N28 X84.599 Y44.395 Z-2.131
N29 X84.538 Y44.262 Z-2.143
N30 X84.357 Y43.86 Z-2.182
N31 X84.271 Y43.659 Z-2.201
N32 X84.104 Y43.258 Z-2.239
N33 X84.025 Y43.057 Z-2.258
N34 X83.871 Y42.656 Z-2.296
N35 X83.799 Y42.455 Z-2.314
N36 X83.658 Y42.053 Z-2.351
N37 X83.596 Y41.862 Z-2.369
N38 X83.464 Y41.451 Z-2.407
N39 X83.405 Y41.25 Z-2.425
N40 X83.289 Y40.848 Z-2.462
N41 X83.236 Y40.648 Z-2.48
N42 X83.132 Y40.246 Z-2.516
N43 X83.085 Y40.045 Z-2.534
N44 X82.993 Y39.644 Z-2.57
N45 X82.951 Y39.443 Z-2.588
N46 X82.871 Y39.041 Z-2.624
N47 X82.835 Y38.84 Z-2.642
N48 X82.766 Y38.439 Z-2.677
N49 X82.736 Y38.238 Z-2.695
N50 X82.679 Y37.836 Z-2.731
N51 X82.654 Y37.636 Z-2.748
N52 X82.608 Y37.234 Z-2.784
N53 X82.592 Y37.08 Z-2.797
N54 X82.554 Y36.632 Z-2.837
N55 X82.539 Y36.431 Z-2.854
N56 X82.516 Y36.029 Z-2.89
N57 X82.506 Y35.829 Z-2.907
N58 X82.494 Y35.427 Z-2.942
N59 X82.489 Y35.226 Z-2.96
N60 Y34.624 Z-3.013
N61 X82.494 Y34.423 Z-3.03
N62 X82.506 Y34.021 Z-3.065
N63 X82.516 Y33.821 Z-3.083
N64 X82.539 Y33.419 Z-3.118
N65 X82.554 Y33.218 Z-3.136
N66 X82.592 Y32.77 Z-3.175
N67 X82.608 Y32.616
N68 X82.654 Y32.214
N69 X82.679 Y32.014
N70 X82.736 Y31.612
N71 X82.766 Y31.411
N72 X82.835 Y31.01
N73 X82.871 Y30.809
N74 X82.951 Y30.407
N75 X82.993 Y30.206
N76 X83.085 Y29.805
N77 X83.132 Y29.604
N78 X83.236 Y29.202
N79 X83.289 Y29.002
N80 X83.405 Y28.6
N81 X83.464 Y28.399
N82 X83.596 Y27.988
N83 X83.658 Y27.797
N84 X83.799 Y27.395
N85 X83.871 Y27.194
N86 X84.025 Y26.793
N87 X84.104 Y26.592
N88 X84.271 Y26.191
N89 X84.357 Y25.99
N90 X84.538 Y25.588
N91 X84.599 Y25.455
N92 X84.827 Y24.986
N93 X84.929 Y24.785
N94 X85.137 Y24.383
N95 X85.202 Y24.268
N96 X85.402 Y23.906
N97 X85.474 Y23.781
N98 X85.712 Y23.379
N99 X85.804 Y23.228
N100 X86.089 Y22.777
N101 X86.205 Y22.602
N102 X86.406 Y22.304
N103 X86.495 Y22.175
N104 X86.808 Y21.737
N105 X86.932 Y21.572
N106 X87.084 Y21.371
N107 X87.209 Y21.207
N108 X87.56 Y20.769
N109 X87.611 Y20.708
N110 X87.9 Y20.368
N111 X88.012 Y20.236
N112 X88.414 Y19.79
N113 X88.437 Y19.765
N114 X88.819 Y19.364
N115 X89.016 Y19.167
N116 X89.222 Y18.962
N117 X89.417 Y18.775
N118 X89.646 Y18.56
N119 X89.819 Y18.401
N120 X90.22 Y18.045
N121 X90.324 Y17.958
N122 X90.622 Y17.709
N123 X90.81 Y17.556
N124 X91.064 Y17.356
N125 X91.224 Y17.23
N126 X91.626 Y16.93
N127 X91.826 Y16.786
N128 X92.159 Y16.552
N129 X92.228 Y16.504
N130 X92.629 Y16.239
N131 X92.763 Y16.151
N132 X93.232 Y15.86
N133 X93.418 Y15.749
N134 X93.762 Y15.549
N135 X93.834 Y15.507
N136 X94.235 Y15.288
N137 X94.436 Y15.181
N138 X94.896 Y14.946
N139 X95.038 Y14.878
N140 X95.44 Y14.687
N141 X95.641 Y14.596
N142 X96.042 Y14.419
N143 X96.225 Y14.344
N144 X96.644 Y14.173
N145 X96.724 Y14.143
N146 X97.046 Y14.022
N147 X97.247 Y13.947
N148 X97.648 Y13.809
N149 X97.846 Y13.741
N150 X98.251 Y13.615
N151 X98.451 Y13.553
N152 X98.853 Y13.44
N153 X99.054 Y13.384
N154 X99.455 Y13.283
N155 X99.656 Y13.233
N156 X100.079 Y13.139
N157 X100.258 Y13.099
N158 X100.86 Y12.983
N159 X101.061 Y12.95
N160 X101.463 Y12.885
N161 X101.663 Y12.857
N162 X102.065 Y12.803
N163 X102.266 Y12.78
N164 X102.669 Y12.737
N165 X102.868 Y12.72
N166 X103.269 Y12.689
N167 X103.47 Y12.676
N168 X103.872 Y12.656
N169 X104.072 Y12.649
N170 X104.474 Y12.64
N171 X104.675 Y12.638
N172 X105.076 Y12.641
N173 X105.277 Y12.643
N174 X105.678 Y12.657
N175 X105.879 Y12.664
N176 X106.481 Y12.702
N177 X106.682 Y12.72
N178 X107.084 Y12.757
N179 X107.284 Y12.78
N180 X107.686 Y12.829
N181 X107.887 Y12.857
N182 X108.288 Y12.916
N183 X108.424 Y12.938
N184 X108.89 Y13.021
N185 X109.091 Y13.06
N186 X109.493 Y13.143
N187 X109.693 Y13.187
N188 X110.095 Y13.282
N189 X110.296 Y13.332
N190 X110.697 Y13.44
N191 X110.898 Y13.495
N192 X111.299 Y13.615
N193 X111.5 Y13.677
N194 X111.902 Y13.808
N195 X112.103 Y13.877
N196 X112.504 Y14.021
N197 X112.705 Y14.096
N198 X113.106 Y14.254
N199 X113.307 Y14.336
N200 X113.709 Y14.506
N201 X113.796 Y14.545
N202 X114.311 Y14.78
N203 X114.512 Y14.878
N204 X114.712 Y14.977
N205 X114.913 Y15.076
N206 X115.427 Y15.348
N207 X115.515 Y15.396
N208 X115.917 Y15.623
N209 X116.118 Y15.74
N210 X116.519 Y15.982
N211 X116.72 Y16.11
N212 X116.921 Y16.239
N213 X117.095 Y16.352
N214 X117.523 Y16.644
N215 X117.678 Y16.753
N216 X117.956 Y16.954
N217 X118.125 Y17.078
N218 X118.527 Y17.386
N219 X118.727 Y17.546
N220 X118.986 Y17.757
N221 X119.129 Y17.875
N222 X119.53 Y18.221
N223 X119.684 Y18.36
N224 X119.932 Y18.586
N225 X120.119 Y18.761
N226 X120.333 Y18.968
N227 X120.532 Y19.163
N228 X120.735 Y19.37
N229 X120.925 Y19.564
N230 X121.337 Y20.01
N231 X121.474 Y20.167
N232 X121.739 Y20.469
N233 X121.822 Y20.568
N234 X122.154 Y20.97
N235 X122.31 Y21.171
N236 X122.542 Y21.467
N237 X122.619 Y21.572
N238 X122.914 Y21.974
N239 X122.943 Y22.016
N240 X123.192 Y22.375
N241 X123.328 Y22.576
N242 X123.59 Y22.978
N243 X123.714 Y23.179
N244 X123.837 Y23.379
N245 X123.947 Y23.559
N246 X124.19 Y23.982
N247 X124.302 Y24.183
N248 X124.549 Y24.642
N249 X124.621 Y24.785
N250 X124.823 Y25.187
N251 X124.917 Y25.387
N252 X125.011 Y25.588
N253 X125.105 Y25.789
N254 X125.278 Y26.191
N255 X125.352 Y26.361
N256 X125.553 Y26.863
N257 X125.604 Y26.994
N258 X125.754 Y27.402
N259 X125.823 Y27.596
N260 X125.958 Y27.998
N261 X126.023 Y28.198
N262 X126.155 Y28.633
N263 X126.204 Y28.801
N264 X126.314 Y29.202
N265 X126.356 Y29.356
N266 X126.465 Y29.805
N267 X126.513 Y30.006
N268 X126.599 Y30.407
N269 X126.64 Y30.608
N270 X126.715 Y31.01
N271 X126.751 Y31.21
N272 X126.814 Y31.612
N273 X126.845 Y31.813
N274 X126.921 Y32.415
N275 X126.941 Y32.616
N276 X126.981 Y33.017
N277 X126.996 Y33.218
N278 X127.024 Y33.62
N279 X127.034 Y33.821
N280 X127.051 Y34.222
N281 X127.056 Y34.423
N282 X127.062 Y34.825
N283 Y35.025
N284 X127.056 Y35.427
N285 X127.051 Y35.628
N286 X127.034 Y36.029
N287 X127.024 Y36.23
N288 X126.996 Y36.632
N289 X126.981 Y36.833
N290 X126.941 Y37.234
N291 X126.921 Y37.435
N292 X126.845 Y38.037
N293 X126.814 Y38.238
N294 X126.751 Y38.64
N295 X126.715 Y38.84
N296 X126.64 Y39.242
N297 X126.599 Y39.443
N298 X126.513 Y39.844
N299 X126.465 Y40.045
N300 X126.356 Y40.494
N301 X126.314 Y40.648
N302 X126.204 Y41.049
N303 X126.155 Y41.217
N304 X126.023 Y41.652
N305 X125.958 Y41.852
N306 X125.823 Y42.254
N307 X125.754 Y42.448
N308 X125.604 Y42.856
N309 X125.553 Y42.987
N310 X125.352 Y43.489
N311 X125.278 Y43.659
N312 X125.105 Y44.061
N313 X125.011 Y44.262
N314 X124.917 Y44.463
N315 X124.823 Y44.663
N316 X124.621 Y45.065
N317 X124.549 Y45.208
N318 X124.302 Y45.667
N319 X124.19 Y45.868
N320 X123.947 Y46.291
N321 X123.837 Y46.471
N322 X123.714 Y46.671
N323 X123.59 Y46.872
N324 X123.328 Y47.274
N325 X123.192 Y47.475
N326 X122.943 Y47.834
N327 X122.914 Y47.876
N328 X122.619 Y48.278
N329 X122.542 Y48.383
N330 X122.31 Y48.679
N331 X122.154 Y48.88
N332 X121.822 Y49.282
N333 X121.739 Y49.381
N334 X121.474 Y49.683
N335 X121.337 Y49.84
N336 X120.925 Y50.286
N337 X120.735 Y50.48
N338 X120.532 Y50.687
N339 X120.333 Y50.882
N340 X120.119 Y51.089
N341 X119.932 Y51.264
N342 X119.684 Y51.49
N343 X119.53 Y51.629
N344 X119.129 Y51.975
N345 X118.986 Y52.093
N346 X118.727 Y52.304
N347 X118.527 Y52.464
N348 X118.125 Y52.772
N349 X117.956 Y52.896
N350 X117.678 Y53.097
N351 X117.523 Y53.206
N352 X117.095 Y53.498
N353 X116.921 Y53.611
N354 X116.72 Y53.74
N355 X116.519 Y53.868
N356 X116.118 Y54.11
N357 X115.917 Y54.227
N358 X115.515 Y54.454
N359 X115.427 Y54.502
N360 X114.913 Y54.774
N361 X114.712 Y54.873
N362 X114.512 Y54.972
N363 X114.311 Y55.07
N364 X113.796 Y55.305
N365 X113.709 Y55.344
N366 X113.307 Y55.514
N367 X113.106 Y55.596
N368 X112.705 Y55.754
N369 X112.504 Y55.829
N370 X112.103 Y55.973
N371 X111.902 Y56.042
N372 X111.5 Y56.173
N373 X111.299 Y56.235
N374 X110.898 Y56.355
N375 X110.697 Y56.41
N376 X110.296 Y56.518
N377 X110.095 Y56.568
N378 X109.693 Y56.663
N379 X109.493 Y56.707
N380 X109.091 Y56.79
N381 X108.89 Y56.829
N382 X108.424 Y56.912
N383 X108.288 Y56.934
N384 X107.887 Y56.993
N385 X107.686 Y57.021
N386 X107.284 Y57.07
N387 X107.084 Y57.093
N388 X106.682 Y57.13
N389 X106.481 Y57.148
N390 X105.879 Y57.186
N391 X105.678 Y57.193
N392 X105.277 Y57.207
N393 X105.076 Y57.209
N394 X104.675 Y57.212
N395 X104.474 Y57.21
N396 X104.072 Y57.201
N397 X103.872 Y57.194
N398 X103.47 Y57.174
N399 X103.269 Y57.161
N400 X102.868 Y57.13
N401 X102.669 Y57.113
N402 X102.266 Y57.07
N403 X102.065 Y57.047
N404 X101.663 Y56.993
N405 X101.463 Y56.965
N406 X101.061 Y56.9
N407 X100.86 Y56.867
N408 X100.258 Y56.751
N409 X100.079 Y56.711
N410 X99.656 Y56.617
N411 X99.455 Y56.567
N412 X99.054 Y56.466
N413 X98.853 Y56.41
N414 X98.451 Y56.297
N415 X98.251 Y56.235
N416 X97.846 Y56.109
N417 X97.648 Y56.041
N418 X97.247 Y55.903
N419 X97.046 Y55.828
N420 X96.724 Y55.707
N421 X96.644 Y55.677
N422 X96.225 Y55.506
N423 X96.042 Y55.431
N424 X95.641 Y55.254
N425 X95.44 Y55.163
N426 X95.038 Y54.972
N427 X94.896 Y54.904
N428 X94.436 Y54.669
N429 X94.235 Y54.562
N430 X93.834 Y54.343
N431 X93.762 Y54.302
N432 X93.418 Y54.101
N433 X93.232 Y53.99
N434 X92.763 Y53.699
N435 X92.629 Y53.611
N436 X92.228 Y53.346
N437 X92.159 Y53.298
N438 X91.826 Y53.064
N439 X91.626 Y52.92
N440 X91.224 Y52.62
N441 X91.064 Y52.494
N442 X90.81 Y52.294
N443 X90.622 Y52.141
N444 X90.324 Y51.892
N445 X90.22 Y51.805
N446 X89.819 Y51.449
N447 X89.646 Y51.29
N448 X89.417 Y51.075
N449 X89.222 Y50.888
N450 X89.016 Y50.683
N451 X88.819 Y50.486
N452 X88.437 Y50.085
N453 X88.414 Y50.06
N454 X88.012 Y49.614
N455 X87.9 Y49.482
N456 X87.611 Y49.142
N457 X87.56 Y49.081
N458 X87.209 Y48.643
N459 X87.084 Y48.479
N460 X86.932 Y48.278
N461 X86.808 Y48.113
N462 X86.495 Y47.675
N463 X86.406 Y47.546
N464 X86.205 Y47.248
N465 X86.089 Y47.073
N466 X85.804 Y46.622
N467 X85.712 Y46.471
N468 X85.474 Y46.069
N469 X85.402 Y45.944
N470 X85.202 Y45.582
N471 X85.137 Y45.467
N472 X84.929 Y45.065
N473 X84.827 Y44.864
N474 X84.599 Y44.395
N475 X84.538 Y44.262
N476 X84.357 Y43.86
N477 X84.271 Y43.659
N478 X84.104 Y43.258
N479 X84.025 Y43.057
N480 X83.871 Y42.656
N481 X83.799 Y42.455
N482 X83.658 Y42.053
N483 X83.596 Y41.862
N484 X83.464 Y41.451
N485 X83.405 Y41.25
N486 X83.289 Y40.848
N487 X83.236 Y40.648
N488 X83.132 Y40.246
N489 X83.085 Y40.045
N490 X82.993 Y39.644
N491 X82.951 Y39.443
N492 X82.871 Y39.041
N493 X82.835 Y38.84
N494 X82.766 Y38.439
N495 X82.736 Y38.238
N496 X82.679 Y37.836
N497 X82.654 Y37.636
N498 X82.608 Y37.234
N499 X82.592 Y37.08
N500 X82.554 Y36.632
N501 X82.539 Y36.431
N502 X82.516 Y36.029
N503 X82.506 Y35.829
N504 X82.494 Y35.427
N505 X82.489 Y35.226
N506 Y34.624
N507 X82.494 Y34.423
N508 X82.506 Y34.021
N509 X82.516 Y33.821
N510 X82.539 Y33.419
N511 X82.554 Y33.218
N512 X82.592 Y32.77
N513 G0 Z10.414
(Contour1 (2))
N515 Z15.24
N516 X91.114 Y17.316
N517 Z7.35
N518 G1 Z-1.587 F1016
N519 X91.064 Y17.356 Z-1.593
N520 X90.81 Y17.556 Z-1.621
N521 X90.622 Y17.709 Z-1.643
N522 X90.324 Y17.958 Z-1.677
N523 X90.22 Y18.045 Z-1.688
N524 X89.819 Y18.401 Z-1.735
N525 X89.646 Y18.56 Z-1.756
N526 X89.417 Y18.775 Z-1.783
N527 X89.222 Y18.962 Z-1.807
N528 X89.016 Y19.167 Z-1.832
N529 X88.819 Y19.364 Z-1.857
N530 X88.437 Y19.765 Z-1.905
N531 X88.414 Y19.79 Z-1.908
N532 X88.012 Y20.236 Z-1.961
N533 X87.9 Y20.368 Z-1.976
N534 X87.611 Y20.708 Z-2.015
N535 X87.56 Y20.769 Z-2.022
N536 X87.209 Y21.207 Z-2.071
N537 X87.084 Y21.371 Z-2.089
N538 X86.932 Y21.572 Z-2.111
N539 X86.808 Y21.737 Z-2.129
N540 X86.495 Y22.175 Z-2.176
N541 X86.406 Y22.304 Z-2.19
N542 X86.205 Y22.602 Z-2.221
N543 X86.089 Y22.777 Z-2.24
N544 X85.804 Y23.228 Z-2.286
N545 X85.712 Y23.379 Z-2.302
N546 X85.474 Y23.781 Z-2.343
N547 X85.402 Y23.906 Z-2.355
N548 X85.202 Y24.268 Z-2.392
N549 X85.137 Y24.383 Z-2.403
N550 X84.929 Y24.785 Z-2.443
N551 X84.827 Y24.986 Z-2.462
N552 X84.599 Y25.455 Z-2.508
N553 X84.538 Y25.588 Z-2.521
N554 X84.357 Y25.99 Z-2.559
N555 X84.271 Y26.191 Z-2.579
N556 X84.104 Y26.592 Z-2.617
N557 X84.025 Y26.793 Z-2.636
N558 X83.871 Y27.194 Z-2.673
N559 X83.799 Y27.395 Z-2.692
N560 X83.658 Y27.797 Z-2.729
N561 X83.596 Y27.988 Z-2.747
N562 X83.464 Y28.399 Z-2.784
N563 X83.405 Y28.6 Z-2.803
N564 X83.289 Y29.002 Z-2.839
N565 X83.236 Y29.202 Z-2.857
N566 X83.132 Y29.604 Z-2.894
N567 X83.085 Y29.805 Z-2.912
N568 X82.993 Y30.206 Z-2.948
N569 X82.951 Y30.407 Z-2.966
N570 X82.871 Y30.809 Z-3.002
N571 X82.835 Y31.01 Z-3.019
N572 X82.766 Y31.411 Z-3.055
N573 X82.736 Y31.612 Z-3.073
N574 X82.679 Y32.014 Z-3.108
N575 X82.654 Y32.214 Z-3.126
N576 X82.608 Y32.616 Z-3.161
N577 X82.592 Y32.77 Z-3.175
N578 X82.554 Y33.218
N579 X82.539 Y33.419
N580 X82.516 Y33.821
N581 X82.506 Y34.021
N582 X82.494 Y34.423
N583 X82.489 Y34.624
N584 Y35.226
N585 X82.494 Y35.427
N586 X82.506 Y35.829
N587 X82.516 Y36.029
N588 X82.539 Y36.431
N589 X82.554 Y36.632
N590 X82.592 Y37.08
N591 X82.608 Y37.234
N592 X82.654 Y37.636
N593 X82.679 Y37.836
N594 X82.736 Y38.238
N595 X82.766 Y38.439
N596 X82.835 Y38.84
N597 X82.871 Y39.041
N598 X82.951 Y39.443
N599 X82.993 Y39.644
N600 X83.085 Y40.045
N601 X83.132 Y40.246
N602 X83.236 Y40.648
N603 X83.289 Y40.848
N604 X83.405 Y41.25
N605 X83.464 Y41.451
N606 X83.596 Y41.862
N607 X83.658 Y42.053
N608 X83.799 Y42.455
N609 X83.871 Y42.656
N610 X84.025 Y43.057
N611 X84.104 Y43.258
N612 X84.271 Y43.659
N613 X84.357 Y43.86
N614 X84.538 Y44.262
N615 X84.599 Y44.395
N616 X84.827 Y44.864
N617 X84.929 Y45.065
N618 X85.137 Y45.467
N619 X85.202 Y45.582
N620 X85.402 Y45.944
N621 X85.474 Y46.069
N622 X85.712 Y46.471
N623 X85.804 Y46.622
N624 X86.089 Y47.073
N625 X86.205 Y47.248
N626 X86.406 Y47.546
N627 X86.495 Y47.675
N628 X86.808 Y48.113
N629 X86.932 Y48.278
N630 X87.084 Y48.479
N631 X87.209 Y48.643
N632 X87.56 Y49.081
N633 X87.611 Y49.142
N634 X87.9 Y49.482
N635 X88.012 Y49.614
N636 X88.414 Y50.06
N637 X88.437 Y50.085
N638 X88.819 Y50.486
N639 X89.016 Y50.683
N640 X89.222 Y50.888
N641 X89.417 Y51.075
N642 X89.646 Y51.29
N643 X89.819 Y51.449
N644 X90.22 Y51.805
N645 X90.324 Y51.892
N646 X90.622 Y52.141
N647 X90.81 Y52.294
N648 X91.064 Y52.494
N649 X91.224 Y52.62
N650 X91.626 Y52.92
N651 X91.826 Y53.064
N652 X92.159 Y53.298
N653 X92.228 Y53.346
N654 X92.629 Y53.611
N655 X92.763 Y53.699
N656 X93.232 Y53.99
N657 X93.418 Y54.101
N658 X93.762 Y54.302
N659 X93.834 Y54.343
N660 X94.235 Y54.562
N661 X94.436 Y54.669
N662 X94.896 Y54.904
N663 X95.038 Y54.972
N664 X95.44 Y55.163
N665 X95.641 Y55.254
N666 X96.042 Y55.431
N667 X96.225 Y55.506
N668 X96.644 Y55.677
N669 X96.724 Y55.707
N670 X97.046 Y55.828
N671 X97.247 Y55.903
N672 X97.648 Y56.041
N673 X97.846 Y56.109
N674 X98.251 Y56.235
N675 X98.451 Y56.297
N676 X98.853 Y56.41
N677 X99.054 Y56.466
N678 X99.455 Y56.567
N679 X99.656 Y56.617
N680 X100.079 Y56.711
N681 X100.258 Y56.751
N682 X100.86 Y56.867
N683 X101.061 Y56.9
N684 X101.463 Y56.965
N685 X101.663 Y56.993
N686 X102.065 Y57.047
N687 X102.266 Y57.07
N688 X102.669 Y57.113
N689 X102.868 Y57.13
N690 X103.269 Y57.161
N691 X103.47 Y57.174
N692 X103.872 Y57.194
N693 X104.072 Y57.201
N694 X104.474 Y57.21
N695 X104.675 Y57.212
N696 X105.076 Y57.209
N697 X105.277 Y57.207
N698 X105.678 Y57.193
N699 X105.879 Y57.186
N700 X106.481 Y57.148
N701 X106.682 Y57.13
N702 X107.084 Y57.093
N703 X107.284 Y57.07
N704 X107.686 Y57.021
N705 X107.887 Y56.993
N706 X108.288 Y56.934
N707 X108.424 Y56.912
N708 X108.89 Y56.829
N709 X109.091 Y56.79
N710 X109.493 Y56.707
N711 X109.693 Y56.663
N712 X110.095 Y56.568
N713 X110.296 Y56.518
N714 X110.697 Y56.41
N715 X110.898 Y56.355
N716 X111.299 Y56.235
N717 X111.5 Y56.173
N718 X111.902 Y56.042
N719 X112.103 Y55.973
N720 X112.504 Y55.829
N721 X112.705 Y55.754
N722 X113.106 Y55.596
N723 X113.307 Y55.514
N724 X113.709 Y55.344
N725 X113.796 Y55.305
N726 X114.311 Y55.07
N727 X114.512 Y54.972
N728 X114.712 Y54.873
N729 X114.913 Y54.774
N730 X115.427 Y54.502
N731 X115.515 Y54.454
N732 X115.917 Y54.227
N733 X116.118 Y54.11
N734 X116.519 Y53.868
N735 X116.72 Y53.74
N736 X116.921 Y53.611
N737 X117.095 Y53.498
N738 X117.523 Y53.206
N739 X117.678 Y53.097
N740 X117.956 Y52.896
N741 X118.125 Y52.772
N742 X118.527 Y52.464
N743 X118.727 Y52.304
N744 X118.986 Y52.093
N745 X119.129 Y51.975
N746 X119.53 Y51.629
N747 X119.684 Y51.49
N748 X119.932 Y51.264
N749 X120.119 Y51.089
N750 X120.333 Y50.882
N751 X120.532 Y50.687
N752 X120.735 Y50.48
N753 X120.925 Y50.286
N754 X121.337 Y49.84
N755 X121.474 Y49.683
N756 X121.739 Y49.381
N757 X121.822 Y49.282
N758 X122.154 Y48.88
N759 X122.31 Y48.679
N760 X122.542 Y48.383
N761 X122.619 Y48.278
N762 X122.914 Y47.876
N763 X122.943 Y47.834
N764 X123.192 Y47.475
N765 X123.328 Y47.274
N766 X123.59 Y46.872
N767 X123.714 Y46.671
N768 X123.837 Y46.471
N769 X123.947 Y46.291
N770 X124.19 Y45.868
N771 X124.302 Y45.667
N772 X124.549 Y45.208
N773 X124.621 Y45.065
N774 X124.823 Y44.663
N775 X124.917 Y44.463
N776 X125.011 Y44.262
N777 X125.105 Y44.061
N778 X125.278 Y43.659
N779 X125.352 Y43.489
N780 X125.553 Y42.987
N781 X125.604 Y42.856
N782 X125.754 Y42.448
N783 X125.823 Y42.254
N784 X125.958 Y41.852
N785 X126.023 Y41.652
N786 X126.155 Y41.217
N787 X126.204 Y41.049
N788 X126.314 Y40.648
N789 X126.356 Y40.494
N790 X126.465 Y40.045
N791 X126.513 Y39.844
N792 X126.599 Y39.443
N793 X126.64 Y39.242
N794 X126.715 Y38.84
N795 X126.751 Y38.64
N796 X126.814 Y38.238
N797 X126.845 Y38.037
N798 X126.921 Y37.435
N799 X126.941 Y37.234
N800 X126.981 Y36.833
N801 X126.996 Y36.632
N802 X127.024 Y36.23
N803 X127.034 Y36.029
N804 X127.051 Y35.628
N805 X127.056 Y35.427
N806 X127.062 Y35.025
N807 Y34.825
N808 X127.056 Y34.423
N809 X127.051 Y34.222
N810 X127.034 Y33.821
N811 X127.024 Y33.62
N812 X126.996 Y33.218
N813 X126.981 Y33.017
N814 X126.941 Y32.616
N815 X126.921 Y32.415
N816 X126.845 Y31.813
N817 X126.814 Y31.612
N818 X126.751 Y31.21
N819 X126.715 Y31.01
N820 X126.64 Y30.608
N821 X126.599 Y30.407
N822 X126.513 Y30.006
N823 X126.465 Y29.805
N824 X126.356 Y29.356
N825 X126.314 Y29.202
N826 X126.204 Y28.801
N827 X126.155 Y28.633
N828 X126.023 Y28.198
N829 X125.958 Y27.998
N830 X125.823 Y27.596
N831 X125.754 Y27.402
N832 X125.604 Y26.994
N833 X125.553 Y26.863
N834 X125.352 Y26.361
N835 X125.278 Y26.191
N836 X125.105 Y25.789
N837 X125.011 Y25.588
N838 X124.917 Y25.387
N839 X124.823 Y25.187
N840 X124.621 Y24.785
N841 X124.549 Y24.642
N842 X124.302 Y24.183
N843 X124.19 Y23.982
N844 X123.947 Y23.559
N845 X123.837 Y23.379
N846 X123.714 Y23.179
N847 X123.59 Y22.978
N848 X123.328 Y22.576
N849 X123.192 Y22.375
N850 X122.943 Y22.016
N851 X122.914 Y21.974
N852 X122.619 Y21.572
N853 X122.542 Y21.467
N854 X122.31 Y21.171
N855 X122.154 Y20.97
N856 X121.822 Y20.568
N857 X121.739 Y20.469
N858 X121.474 Y20.167
N859 X121.337 Y20.01
N860 X120.925 Y19.564
N861 X120.735 Y19.37
N862 X120.532 Y19.163
N863 X120.333 Y18.968
N864 X120.119 Y18.761
N865 X119.932 Y18.586
N866 X119.684 Y18.36
N867 X119.53 Y18.221
N868 X119.129 Y17.875
N869 X118.986 Y17.757
N870 X118.727 Y17.546
N871 X118.527 Y17.386
N872 X118.125 Y17.078
N873 X117.956 Y16.954
N874 X117.678 Y16.753
N875 X117.523 Y16.644
N876 X117.095 Y16.352
N877 X116.921 Y16.239
N878 X116.72 Y16.11
N879 X116.519 Y15.982
N880 X116.118 Y15.74
N881 X115.917 Y15.623
N882 X115.515 Y15.396
N883 X115.427 Y15.348
N884 X114.913 Y15.076
N885 X114.712 Y14.977
N886 X114.512 Y14.878
N887 X114.311 Y14.78
N888 X113.796 Y14.545
N889 X113.709 Y14.506
N890 X113.307 Y14.336
N891 X113.106 Y14.254
N892 X112.705 Y14.096
N893 X112.504 Y14.021
N894 X112.103 Y13.877
N895 X111.902 Y13.808
N896 X111.5 Y13.677
N897 X111.299 Y13.615
N898 X110.898 Y13.495
N899 X110.697 Y13.44
N900 X110.296 Y13.332
N901 X110.095 Y13.282
N902 X109.693 Y13.187
N903 X109.493 Y13.143
N904 X109.091 Y13.06
N905 X108.89 Y13.021
N906 X108.424 Y12.938
N907 X108.288 Y12.916
N908 X107.887 Y12.857
N909 X107.686 Y12.829
N910 X107.284 Y12.78
N911 X107.084 Y12.757
N912 X106.682 Y12.72
N913 X106.481 Y12.702
N914 X105.879 Y12.664
N915 X105.678 Y12.657
N916 X105.277 Y12.643
N917 X105.076 Y12.641
N918 X104.675 Y12.638
N919 X104.474 Y12.64
N920 X104.072 Y12.649
N921 X103.872 Y12.656
N922 X103.47 Y12.676
N923 X103.269 Y12.689
N924 X102.868 Y12.72
N925 X102.669 Y12.737
N926 X102.266 Y12.78
N927 X102.065 Y12.803
N928 X101.663 Y12.857
N929 X101.463 Y12.885
N930 X101.061 Y12.95
N931 X100.86 Y12.983
N932 X100.258 Y13.099
N933 X100.079 Y13.139
N934 X99.656 Y13.233
N935 X99.455 Y13.283
N936 X99.054 Y13.384
N937 X98.853 Y13.44
N938 X98.451 Y13.553
N939 X98.251 Y13.615
N940 X97.846 Y13.741
N941 X97.648 Y13.809
N942 X97.247 Y13.947
N943 X97.046 Y14.022
N944 X96.724 Y14.143
N945 X96.644 Y14.173
N946 X96.225 Y14.344
N947 X96.042 Y14.419
N948 X95.641 Y14.596
N949 X95.44 Y14.687
N950 X95.038 Y14.878
N951 X94.896 Y14.946
N952 X94.436 Y15.181
N953 X94.235 Y15.288
N954 X93.834 Y15.507
N955 X93.762 Y15.549
N956 X93.418 Y15.749
N957 X93.232 Y15.86
N958 X92.763 Y16.151
N959 X92.629 Y16.239
N960 X92.228 Y16.504
N961 X92.159 Y16.552
N962 X91.826 Y16.786
N963 X91.626 Y16.93
N964 X91.224 Y17.23
N965 X91.064 Y17.356
N966 X90.81 Y17.556
N967 X90.622 Y17.709
N968 X90.324 Y17.958
N969 X90.22 Y18.045
N970 X89.819 Y18.401
N971 X89.646 Y18.56
N972 X89.417 Y18.775
N973 X89.222 Y18.962
N974 X89.016 Y19.167
N975 X88.819 Y19.364
N976 X88.437 Y19.765
N977 X88.414 Y19.79
N978 X88.012 Y20.236
N979 X87.9 Y20.368
N980 X87.611 Y20.708
N981 X87.56 Y20.769
N982 X87.209 Y21.207
N983 X87.084 Y21.371
N984 X86.932 Y21.572
N985 X86.808 Y21.737
N986 X86.495 Y22.175
N987 X86.406 Y22.304
N988 X86.205 Y22.602
N989 X86.089 Y22.777
N990 X85.804 Y23.228
N991 X85.712 Y23.379
N992 X85.474 Y23.781
N993 X85.402 Y23.906
N994 X85.202 Y24.268
N995 X85.137 Y24.383
N996 X84.929 Y24.785
N997 X84.827 Y24.986
N998 X84.599 Y25.455
N999 X84.538 Y25.588
N1000 X84.357 Y25.99
N1001 X84.271 Y26.191
N1002 X84.104 Y26.592
N1003 X84.025 Y26.793
N1004 X83.871 Y27.194
N1005 X83.799 Y27.395
N1006 X83.658 Y27.797
N1007 X83.596 Y27.988
N1008 X83.464 Y28.399
N1009 X83.405 Y28.6
N1010 X83.289 Y29.002
N1011 X83.236 Y29.202
N1012 X83.132 Y29.604
N1013 X83.085 Y29.805
N1014 X82.993 Y30.206
N1015 X82.951 Y30.407
N1016 X82.871 Y30.809
N1017 X82.835 Y31.01
N1018 X82.766 Y31.411
N1019 X82.736 Y31.612
N1020 X82.679 Y32.014
N1021 X82.654 Y32.214
N1022 X82.608 Y32.616
N1023 X82.592 Y32.77
N1024 G0 Z15.24
(2D Contour1)
N1026 X118.847 Y34.303
N1027 Z15.24
N1028 Z5.08
N1029 G1 Z1 F1016
N1030 Z-6.49
N1031 G18 G2 X119.469 Z-7.112 I0.622 K0
N1032 G1 X120.091
N1033 G17 G3 X120.714 Y34.925 I0 J0.622
N1034 X88.837 I-15.938 J0
N1035 X120.714 I15.938 J0
N1036 X120.091 Y35.547 I-0.622 J0
N1037 G1 X119.469
N1038 G18 G3 X118.847 Z-6.49 I0 K0.622
N1039 G0 Z15.24
N1040 G17
N1041 Z20
N1042 M5
N1043 M30
