%
(Plaque top cirlce pass)
(plaque)
(T1  D=0.25 CR=0 - ZMIN=-0.125 - flat end mill)
N0 G90
N1 G17
(Contour1)
N2 T1 M6
N3 S10000 M3
N5 G0 X2.6038 Y2.3399
N6 Z0.41
N7 Z0.2894
N8 G1 Z-0.0625 F40
N9 X2.5927 Y2.3275 Z-0.064
N10 X2.586 Y2.3197 Z-0.0649
N11 X2.5768 Y2.3089 Z-0.0661
N12 X2.5726 Y2.3038 Z-0.0667
N13 X2.5609 Y2.2891 Z-0.0683
N14 X2.5599 Y2.2879 Z-0.0685
N15 X2.5478 Y2.2719 Z-0.0702
N16 X2.5449 Y2.2682 Z-0.0706
N17 X2.5363 Y2.256 Z-0.0719
N18 X2.5306 Y2.248 Z-0.0728
N19 X2.5199 Y2.2321 Z-0.0745
N20 X2.5147 Y2.2241 Z-0.0753
N21 X2.5046 Y2.2082 Z-0.077
N22 X2.4998 Y2.2002 Z-0.0778
N23 X2.4951 Y2.1922 Z-0.0786
N24 X2.4904 Y2.1843 Z-0.0794
N25 X2.4812 Y2.1677 Z-0.081
N26 X2.4773 Y2.1604 Z-0.0818
N27 X2.469 Y2.1444 Z-0.0833
N28 X2.4653 Y2.1369 Z-0.0841
N29 X2.4573 Y2.1204 Z-0.0857
N30 X2.4537 Y2.1126 Z-0.0864
N31 X2.4493 Y2.1028 Z-0.0874
N32 X2.4466 Y2.0966 Z-0.088
N33 X2.44 Y2.0807 Z-0.0895
N34 X2.4367 Y2.0727 Z-0.0902
N35 X2.4306 Y2.0568 Z-0.0917
N36 X2.4277 Y2.0488 Z-0.0925
N37 X2.4221 Y2.0329 Z-0.0939
N38 X2.4194 Y2.0249 Z-0.0947
N39 X2.4143 Y2.009 Z-0.0961
N40 X2.4118 Y2.001 Z-0.0969
N41 X2.4072 Y1.9851 Z-0.0983
N42 X2.4051 Y1.9771 Z-0.099
N43 X2.4009 Y1.9612 Z-0.1005
N44 X2.399 Y1.9532 Z-0.1012
N45 X2.3953 Y1.9373 Z-0.1026
N46 X2.3936 Y1.9293 Z-0.1033
N47 X2.3904 Y1.9134 Z-0.1048
N48 X2.389 Y1.9054 Z-0.1055
N49 X2.3856 Y1.8857 Z-0.1072
N50 X2.385 Y1.8815 Z-0.1076
N51 X2.3827 Y1.8655 Z-0.109
N52 X2.3817 Y1.8576 Z-0.1097
N53 X2.3799 Y1.8416 Z-0.1111
N54 X2.3791 Y1.8337 Z-0.1118
N55 X2.3776 Y1.8169 Z-0.1133
N56 X2.3771 Y1.8098 Z-0.1139
N57 X2.3762 Y1.7938 Z-0.1153
N58 X2.3758 Y1.7859 Z-0.116
N59 X2.3753 Y1.7699 Z-0.1174
N60 X2.3751 Y1.762 Z-0.1181
N61 Y1.738 Z-0.1202
N62 X2.3753 Y1.7301 Z-0.1209
N63 X2.3758 Y1.7141 Z-0.1223
N64 X2.3762 Y1.7062 Z-0.123
N65 X2.3771 Y1.6902 Z-0.1244
N66 X2.3776 Y1.6831 Z-0.125
N67 X2.3791 Y1.6663
N68 X2.3799 Y1.6584
N69 X2.3817 Y1.6424
N70 X2.3827 Y1.6345
N71 X2.385 Y1.6185
N72 X2.3856 Y1.6143
N73 X2.389 Y1.5946
N74 X2.3904 Y1.5866
N75 X2.3936 Y1.5707
N76 X2.3953 Y1.5627
N77 X2.399 Y1.5468
N78 X2.4009 Y1.5388
N79 X2.4051 Y1.5229
N80 X2.4072 Y1.5149
N81 X2.4118 Y1.499
N82 X2.4143 Y1.491
N83 X2.4194 Y1.4751
N84 X2.4221 Y1.4671
N85 X2.4277 Y1.4512
N86 X2.4306 Y1.4432
N87 X2.4367 Y1.4273
N88 X2.44 Y1.4193
N89 X2.4466 Y1.4034
N90 X2.4493 Y1.3972
N91 X2.4537 Y1.3874
N92 X2.4573 Y1.3796
N93 X2.4653 Y1.3631
N94 X2.469 Y1.3556
N95 X2.4773 Y1.3396
N96 X2.4812 Y1.3323
N97 X2.4904 Y1.3157
N98 X2.4951 Y1.3078
N99 X2.4998 Y1.2998
N100 X2.5046 Y1.2918
N101 X2.5147 Y1.2759
N102 X2.5199 Y1.2679
N103 X2.5306 Y1.252
N104 X2.5363 Y1.244
N105 X2.5449 Y1.2318
N106 X2.5478 Y1.2281
N107 X2.5599 Y1.2121
N108 X2.5609 Y1.2109
N109 X2.5726 Y1.1962
N110 X2.5768 Y1.1911
N111 X2.586 Y1.1803
N112 X2.5927 Y1.1725
N113 X2.6072 Y1.1564
N114 X2.6087 Y1.1548
N115 X2.6246 Y1.1381
N116 X2.6302 Y1.1325
N117 X2.6405 Y1.1222
N118 X2.6465 Y1.1165
N119 X2.6565 Y1.1072
N120 X2.6637 Y1.1006
N121 X2.6727 Y1.0926
N122 X2.6804 Y1.0859
N123 X2.6963 Y1.0725
N124 X2.701 Y1.0687
N125 X2.7122 Y1.0598
N126 X2.7202 Y1.0537
N127 X2.7361 Y1.0418
N128 X2.7432 Y1.0368
N129 X2.7545 Y1.0289
N130 X2.76 Y1.0251
N131 X2.776 Y1.0146
N132 X2.7785 Y1.0129
N133 X2.7919 Y1.0046
N134 X2.7999 Y0.9997
N135 X2.8182 Y0.989
N136 X2.8238 Y0.9859
N137 X2.8397 Y0.9772
N138 X2.8477 Y0.9731
N139 X2.8556 Y0.969
N140 X2.8633 Y0.9651
N141 X2.88 Y0.9571
N142 X2.8875 Y0.9537
N143 X2.9034 Y0.9466
N144 X2.9114 Y0.9432
N145 X2.9273 Y0.9367
N146 X2.9353 Y0.9336
N147 X2.9512 Y0.9276
N148 X2.9579 Y0.9253
N149 X2.9751 Y0.9193
N150 X2.9814 Y0.9173
N151 X2.999 Y0.9118
N152 X3.007 Y0.9095
N153 X3.0229 Y0.905
N154 X3.0309 Y0.903
N155 X3.0468 Y0.8989
N156 X3.0548 Y0.8971
N157 X3.0716 Y0.8934
N158 X3.0787 Y0.892
N159 X3.0946 Y0.8889
N160 X3.1026 Y0.8876
N161 X3.1185 Y0.885
N162 X3.1265 Y0.8838
N163 X3.1424 Y0.8817
N164 X3.1504 Y0.8808
N165 X3.1663 Y0.8791
N166 X3.1743 Y0.8783
N167 X3.1902 Y0.8771
N168 X3.1982 Y0.8766
N169 X3.2141 Y0.8758
N170 X3.2221 Y0.8755
N171 X3.238 Y0.8752
N172 X3.246 Y0.875
N173 X3.262 Y0.8752
N174 X3.2699 Y0.8753
N175 X3.2859 Y0.8758
N176 X3.2938 Y0.8761
N177 X3.3177 Y0.8776
N178 X3.3337 Y0.8791
N179 X3.3416 Y0.8798
N180 X3.3496 Y0.8808
N181 X3.3655 Y0.8827
N182 X3.3735 Y0.8838
N183 X3.3894 Y0.8862
N184 X3.3974 Y0.8876
N185 X3.4133 Y0.8904
N186 X3.4213 Y0.892
N187 X3.4372 Y0.8953
N188 X3.4452 Y0.8971
N189 X3.4631 Y0.9014
N190 X3.4691 Y0.9029
N191 X3.485 Y0.9072
N192 X3.4925 Y0.9093
N193 X3.5089 Y0.9142
N194 X3.5169 Y0.9168
N195 X3.5328 Y0.922
N196 X3.5408 Y0.9248
N197 X3.5567 Y0.9305
N198 X3.5637 Y0.9332
N199 X3.5727 Y0.9368
N200 X3.5806 Y0.9399
N201 X3.6025 Y0.9492
N202 X3.6045 Y0.9501
N203 X3.6205 Y0.9574
N204 X3.6284 Y0.9611
N205 X3.6444 Y0.969
N206 X3.6523 Y0.9731
N207 X3.6683 Y0.9815
N208 X3.6762 Y0.9859
N209 X3.6842 Y0.9904
N210 X3.6922 Y0.995
N211 X3.7087 Y1.005
N212 X3.7161 Y1.0095
N213 X3.732 Y1.0198
N214 X3.7337 Y1.0209
N215 X3.7479 Y1.0306
N216 X3.7559 Y1.0361
N217 X3.7718 Y1.0477
N218 X3.7785 Y1.0528
N219 X3.7889 Y1.0607
N220 X3.7957 Y1.0661
N221 X3.8117 Y1.0791
N222 X3.8181 Y1.0846
N223 X3.8276 Y1.0928
N224 X3.8356 Y1.0999
N225 X3.845 Y1.1085
N226 X3.8515 Y1.1146
N227 X3.8617 Y1.1245
N228 X3.8674 Y1.13
N229 X3.8834 Y1.1463
N230 X3.8853 Y1.1484
N231 X3.9001 Y1.1643
N232 X3.907 Y1.1723
N233 X3.9152 Y1.1816
N234 X3.9207 Y1.1882
N235 X3.9312 Y1.2008
N236 X3.9338 Y1.2042
N237 X3.9471 Y1.2212
N238 X3.9522 Y1.2281
N239 X3.958 Y1.236
N240 X3.963 Y1.2429
N241 X3.9748 Y1.2599
N242 X3.979 Y1.2661
N243 X3.9869 Y1.2784
N244 X3.9905 Y1.2839
N245 X4.0002 Y1.2998
N246 X4.0029 Y1.3041
N247 X4.0141 Y1.3237
N248 X4.0184 Y1.3317
N249 X4.0227 Y1.3396
N250 X4.0268 Y1.3472
N251 X4.0349 Y1.3635
N252 X4.0388 Y1.3715
N253 X4.0463 Y1.3874
N254 X4.0499 Y1.3954
N255 X4.0568 Y1.4113
N256 X4.0586 Y1.4158
N257 X4.0666 Y1.4358
N258 X4.0694 Y1.4432
N259 X4.0752 Y1.4592
N260 X4.0779 Y1.4671
N261 X4.0833 Y1.4831
N262 X4.0857 Y1.491
N263 X4.0881 Y1.499
N264 X4.0905 Y1.5068
N265 X4.0949 Y1.5229
N266 X4.0971 Y1.5309
N267 X4.101 Y1.5468
N268 X4.1029 Y1.5548
N269 X4.1064 Y1.5711
N270 X4.108 Y1.5787
N271 X4.1125 Y1.6026
N272 X4.1137 Y1.6106
N273 X4.1162 Y1.6265
N274 X4.1173 Y1.6345
N275 X4.1193 Y1.6504
N276 X4.1201 Y1.6584
N277 X4.1217 Y1.6743
N278 X4.1223 Y1.6823
N279 X4.1234 Y1.6982
N280 X4.1238 Y1.7062
N281 X4.1245 Y1.7221
N282 X4.1247 Y1.7301
N283 X4.1249 Y1.746
N284 Y1.754
N285 X4.1247 Y1.7699
N286 X4.1245 Y1.7779
N287 X4.1238 Y1.7938
N288 X4.1234 Y1.8018
N289 X4.1223 Y1.8177
N290 X4.1217 Y1.8257
N291 X4.1201 Y1.8416
N292 X4.1193 Y1.8496
N293 X4.1173 Y1.8655
N294 X4.1162 Y1.8735
N295 X4.1137 Y1.8894
N296 X4.1125 Y1.8974
N297 X4.108 Y1.9213
N298 X4.1063 Y1.9293
N299 X4.1029 Y1.9452
N300 X4.101 Y1.9532
N301 X4.0971 Y1.9691
N302 X4.0949 Y1.9771
N303 X4.0905 Y1.9932
N304 X4.0881 Y2.001
N305 X4.0857 Y2.009
N306 X4.0833 Y2.0169
N307 X4.0779 Y2.0329
N308 X4.0752 Y2.0408
N309 X4.0694 Y2.0568
N310 X4.0666 Y2.0642
N311 X4.0586 Y2.0842
N312 X4.0568 Y2.0887
N313 X4.0499 Y2.1046
N314 X4.0463 Y2.1126
N315 X4.0388 Y2.1285
N316 X4.0349 Y2.1365
N317 X4.0268 Y2.1528
N318 X4.0227 Y2.1604
N319 X4.0184 Y2.1683
N320 X4.0141 Y2.1763
N321 X4.0029 Y2.1959
N322 X4.0002 Y2.2002
N323 X3.9905 Y2.2161
N324 X3.9869 Y2.2216
N325 X3.979 Y2.2339
N326 X3.9748 Y2.2401
N327 X3.963 Y2.2571
N328 X3.958 Y2.264
N329 X3.9522 Y2.2719
N330 X3.9471 Y2.2788
N331 X3.9338 Y2.2958
N332 X3.9312 Y2.2992
N333 X3.9207 Y2.3118
N334 X3.9152 Y2.3184
N335 X3.907 Y2.3277
N336 X3.9001 Y2.3357
N337 X3.8853 Y2.3516
N338 X3.8834 Y2.3537
N339 X3.8674 Y2.37
N340 X3.8617 Y2.3755
N341 X3.8515 Y2.3854
N342 X3.845 Y2.3915
N343 X3.8356 Y2.4001
N344 X3.8276 Y2.4072
N345 X3.8181 Y2.4154
N346 X3.8117 Y2.4209
N347 X3.7957 Y2.4339
N348 X3.7889 Y2.4393
N349 X3.7785 Y2.4472
N350 X3.7718 Y2.4523
N351 X3.7559 Y2.4639
N352 X3.7479 Y2.4694
N353 X3.7337 Y2.4791
N354 X3.732 Y2.4802
N355 X3.7161 Y2.4905
N356 X3.7087 Y2.495
N357 X3.6922 Y2.505
N358 X3.6842 Y2.5096
N359 X3.6762 Y2.5141
N360 X3.6683 Y2.5185
N361 X3.6523 Y2.5269
N362 X3.6444 Y2.531
N363 X3.6284 Y2.5389
N364 X3.6205 Y2.5426
N365 X3.6045 Y2.5499
N366 X3.6025 Y2.5508
N367 X3.5806 Y2.5601
N368 X3.5727 Y2.5632
N369 X3.5637 Y2.5668
N370 X3.5567 Y2.5695
N371 X3.5408 Y2.5752
N372 X3.5328 Y2.578
N373 X3.5169 Y2.5832
N374 X3.5089 Y2.5858
N375 X3.4925 Y2.5907
N376 X3.485 Y2.5928
N377 X3.4691 Y2.5971
N378 X3.4631 Y2.5986
N379 X3.4452 Y2.6029
N380 X3.4372 Y2.6047
N381 X3.4213 Y2.608
N382 X3.4133 Y2.6096
N383 X3.3974 Y2.6124
N384 X3.3894 Y2.6138
N385 X3.3735 Y2.6162
N386 X3.3655 Y2.6173
N387 X3.3496 Y2.6192
N388 X3.3416 Y2.6202
N389 X3.3257 Y2.6216
N390 X3.3177 Y2.6224
N391 X3.2938 Y2.6239
N392 X3.2859 Y2.6242
N393 X3.2699 Y2.6247
N394 X3.262 Y2.6248
N395 X3.246 Y2.625
N396 X3.238 Y2.6248
N397 X3.2221 Y2.6245
N398 X3.2141 Y2.6242
N399 X3.1982 Y2.6234
N400 X3.1902 Y2.6229
N401 X3.1743 Y2.6217
N402 X3.1663 Y2.6209
N403 X3.1504 Y2.6192
N404 X3.1424 Y2.6183
N405 X3.1265 Y2.6162
N406 X3.1185 Y2.615
N407 X3.1026 Y2.6124
N408 X3.0946 Y2.6111
N409 X3.0787 Y2.608
N410 X3.0716 Y2.6066
N411 X3.0548 Y2.6029
N412 X3.0468 Y2.6011
N413 X3.0309 Y2.597
N414 X3.0229 Y2.595
N415 X3.007 Y2.5905
N416 X2.999 Y2.5882
N417 X2.9814 Y2.5827
N418 X2.9751 Y2.5807
N419 X2.9579 Y2.5747
N420 X2.9512 Y2.5724
N421 X2.9353 Y2.5664
N422 X2.9273 Y2.5633
N423 X2.9114 Y2.5568
N424 X2.9034 Y2.5534
N425 X2.8875 Y2.5463
N426 X2.88 Y2.5429
N427 X2.8633 Y2.5349
N428 X2.8556 Y2.531
N429 X2.8477 Y2.5269
N430 X2.8397 Y2.5228
N431 X2.8238 Y2.5141
N432 X2.8182 Y2.511
N433 X2.7999 Y2.5003
N434 X2.7919 Y2.4954
N435 X2.7785 Y2.4871
N436 X2.776 Y2.4854
N437 X2.76 Y2.4749
N438 X2.7545 Y2.4711
N439 X2.7432 Y2.4632
N440 X2.7361 Y2.4582
N441 X2.7202 Y2.4463
N442 X2.7122 Y2.4401
N443 X2.701 Y2.4313
N444 X2.6963 Y2.4275
N445 X2.6804 Y2.4141
N446 X2.6727 Y2.4074
N447 X2.6637 Y2.3994
N448 X2.6565 Y2.3928
N449 X2.6465 Y2.3835
N450 X2.6405 Y2.3778
N451 X2.6302 Y2.3675
N452 X2.6246 Y2.3619
N453 X2.6087 Y2.3452
N454 X2.6072 Y2.3436
N455 X2.5927 Y2.3275
N456 X2.586 Y2.3197
N457 X2.5768 Y2.3089
N458 X2.5726 Y2.3038
N459 X2.5609 Y2.2891
N460 X2.5599 Y2.2879
N461 X2.5478 Y2.2719
N462 X2.5449 Y2.2682
N463 X2.5363 Y2.256
N464 X2.5306 Y2.248
N465 X2.5199 Y2.2321
N466 X2.5147 Y2.2241
N467 X2.5046 Y2.2082
N468 X2.4998 Y2.2002
N469 X2.4951 Y2.1922
N470 X2.4904 Y2.1843
N471 X2.4812 Y2.1677
N472 X2.4773 Y2.1604
N473 X2.469 Y2.1444
N474 X2.4653 Y2.1369
N475 X2.4573 Y2.1204
N476 X2.4537 Y2.1126
N477 X2.4493 Y2.1028
N478 X2.4466 Y2.0966
N479 X2.44 Y2.0807
N480 X2.4367 Y2.0727
N481 X2.4306 Y2.0568
N482 X2.4277 Y2.0488
N483 X2.4221 Y2.0329
N484 X2.4194 Y2.0249
N485 X2.4143 Y2.009
N486 X2.4118 Y2.001
N487 X2.4072 Y1.9851
N488 X2.4051 Y1.9771
N489 X2.4009 Y1.9612
N490 X2.399 Y1.9532
N491 X2.3953 Y1.9373
N492 X2.3936 Y1.9293
N493 X2.3904 Y1.9134
N494 X2.389 Y1.9054
N495 X2.3856 Y1.8857
N496 X2.385 Y1.8815
N497 X2.3827 Y1.8655
N498 X2.3817 Y1.8576
N499 X2.3799 Y1.8416
N500 X2.3791 Y1.8337
N501 X2.3776 Y1.8169
N502 X2.3771 Y1.8098
N503 X2.3762 Y1.7938
N504 X2.3758 Y1.7859
N505 X2.3753 Y1.7699
N506 X2.3751 Y1.762
N507 Y1.738
N508 X2.3753 Y1.7301
N509 X2.3758 Y1.7141
N510 X2.3762 Y1.7062
N511 X2.3771 Y1.6902
N512 X2.3776 Y1.6831
N513 G0 Z0.41
N515 Z1
N516 M5
N517 M30
