%
(Plaque)
(plaque)
(T1  D=6.35 CR=0 - ZMIN=-7.111 - flat end mill)
N0 G90
N1 G17
(Adaptive2)
N3 S10000 M3
N5 G0 X85.627 Y44.35
N6 Z15.24
N7 Z1.398
N8 G1 Z0.763 F1016
N9 G3 X83.171 Y47.466 Z0.537 I-3.078 J0.1
N10 X79.692 Y45.58 Z0.311 I-0.62 J-3.008
N11 X80.955 Y41.841 Z0.086 I2.852 J-1.12
N12 X84.845 Y42.448 Z-0.14 I1.585 J2.613
N13 X84.909 Y46.374 Z-0.366 I-2.299 J2.001
N14 X81.06 Y47.102 Z-0.592 I-2.357 J-1.92
N15 X79.691 Y43.444 Z-0.818 I1.488 J-2.642
N16 X83.055 Y41.477 Z-1.044 I2.849 J1.014
N17 X85.558 Y44.45 Z-1.27 I-0.513 J2.972
N18 X79.526 I-3.016 J0
N19 X85.558 I3.016 J0
N20 G1 X85.562 Y44.68
N21 X85.719 Y45.585
N22 G3 X85.56 Y47.263 I-1.845 J0.671
N23 X83.771 Y48.828 I-2.886 J-1.493
N24 X79.233 Y47.89 I-1.533 J-4.034
N25 X80.386 Y40.138 I3.251 J-3.478
N26 X86.807 Y42.185 I2.168 J4.294
N27 G1 X87.216 Y42.98
N28 G3 X87.814 Y45.062 I-6.14 J2.89
N29 X84.465 Y50.592 I-5.29 J0.575
N30 X79.199 Y50.291 I-2.319 J-5.636
N31 X75.992 Y42.497 I3.165 J-5.859
N32 X87.571 Y39.795 I6.556 J1.931
N33 X89.949 Y45.199 I-5.96 J5.848
N34 X85.336 Y52.493 I-7.566 J0.32
N35 X78.904 Y52.508 I-3.233 J-7.506
N36 X73.635 Y45.574 I3.367 J-8.027
N37 X84.561 Y35.67 I8.895 J-1.165
N38 X87.912 Y37.203 I-1.996 J8.795
N39 X92.145 Y44.895 I-6.083 J8.358
N40 X87.062 Y54.096 I-9.81 J0.585
N41 X80.654 Y55.273 I-4.965 J-8.995
N42 X74.573 Y52.257 I1.475 J-10.611
N43 X71.306 Y44.256 I7.769 J-7.839
N44 X78.654 Y33.877 I11.211 J0.148
N45 X86.639 Y33.951 I3.895 J10.557
N46 X90.494 Y36.401 I-4.306 J11.032
N47 X94.293 Y43.583 I-8.628 J9.16
N48 X92.794 Y51.558 I-12.029 J1.867
N49 X84.851 Y57.345 I-10.575 J-6.171
N50 X75.944 Y56.093 I-2.79 J-12.461
N51 X70.335 Y50.199 I6.239 J-11.553
N52 X70.723 Y37.824 I12.089 J-5.814
N53 X86.496 Y31.474 I11.821 J6.598
N54 X93.85 Y36.719 I-4.196 J13.662
N55 X95.776 Y50.679 I-11.694 J8.725
N56 X84.037 Y59.836 I-13.577 J-5.301
N57 X72.796 Y56.812 I-1.992 J-14.995
N58 X66.694 Y44.948 I9.473 J-12.374
N59 X87.347 Y29.301 I15.841 J-0.544
N60 X96.041 Y35.753 I-5.005 J15.83
N61 X95.732 Y55.536 I-13.83 J9.678
N62 X83.175 Y62.28 I-13.595 J-10.251
N63 X69.143 Y56.66 I-1.111 J-17.554
N64 X66.312 Y36.144 I13.231 J-12.279
N65 X89.873 Y27.73 I16.24 J8.281
N66 X99.563 Y37.116 I-7.639 J17.581
N67 X86.972 Y64.058 I-17.32 J8.319
N68 X69.638 Y60.337 I-4.948 J-19.186
N69 X63.282 Y37.135 I12.681 J-15.945
N70 X90.509 Y25.417 I19.268 J7.279
N71 X101.205 Y35.086 I-8.208 J19.831
N72 X95.262 Y62.664 I-18.96 J10.343
N73 X93.359 Y63.864 I-20.664 J-30.68
N74 G1 X91.981 Y64.556
N75 G3 X89.686 Y65.491 I-11.186 J-24.164
N76 X87.599 Y66.079 I-10.415 J-32.962
N77 X84.261 Y66.596 I-5.243 J-22.816
N78 X77.583 Y66.095 I-1.683 J-22.323
N79 G1 X76.332 Y65.78
N80 G3 X74.246 Y65.054 I10.57 J-33.75
N81 G1 X72.785 Y64.402
N82 G3 X67.668 Y60.943 I10.194 J-20.59
N83 X63.811 Y56.385 I15.811 J-17.291
N84 X61.969 Y52.799 I20.548 J-12.825
N85 G1 X61.505 Y51.546
N86 G3 X60.855 Y49.25 I28.838 J-9.4
N87 G1 X60.632 Y47.997
N88 G3 X65.072 Y30.748 I21.89 J-3.562
N89 G1 X65.124 Y30.668
N90 X66.197 Y29.416
N91 G3 X67.982 Y27.678 I20.533 J19.317
N92 X72.368 Y24.711 I15.07 J17.546
N93 G1 X72.576 Y24.595
N94 G3 X76.222 Y23.153 I11.388 J23.457
N95 X79.879 Y22.402 I6.735 J23.53
N96 X84.261 Y22.303 I2.709 J22.986
N97 X87.808 Y22.871 I-1.9 J23.254
N98 X89.895 Y23.48 I-8.863 J34.227
N99 X91.982 Y24.343 I-9.957 J27.051
N100 G1 X93.35 Y25.031
N101 X93.442 Y25.084
N102 G3 X96.444 Y27.12 I-12.832 J22.155
N103 X98.104 Y28.581 I-22.617 J27.377
N104 G1 X99.284 Y29.841
N105 X99.464 Y30.042
N106 X100.536 Y31.411
N107 G3 X102.681 Y35.053 I-20.683 J14.634
N108 G1 X103.248 Y36.4
N109 X103.38 Y36.723
N110 X103.457 Y36.943
N111 X103.921 Y38.393
N112 G3 X104.665 Y46.535 I-21.751 J6.093
N113 X104.366 Y48.623 I-33.188 J-3.69
N114 X103.254 Y52.502 I-23.285 J-4.576
N115 X101.566 Y55.931 I-22.181 J-8.79
N116 G1 X100.744 Y57.195
N117 G3 X96.78 Y61.505 I-18.678 J-13.201
N118 X95.258 Y62.659 I-18.89 J-23.326
N119 G1 X95.207 Y62.681 Z-1.264
N120 X95.159 Y62.702 Z-1.245
N121 X95.116 Y62.721 Z-1.215
N122 X95.08 Y62.736 Z-1.176
N123 X95.053 Y62.748 Z-1.129
N124 X95.035 Y62.752 Z-1.076
N125 X95.029 Y62.753 Z-1.021
N126 G0 Z5.08
N127 X85.628 Y44.374
N128 Z0.127
N129 G1 Z-0.508 F1016
N130 G3 X83.151 Y47.47 Z-0.734 I-3.078 J0.076
N131 X79.686 Y45.563 Z-0.96 I-0.6 J-3.012
N132 X80.968 Y41.833 Z-1.185 I2.858 J-1.103
N133 X84.853 Y42.457 Z-1.411 I1.571 J2.621
N134 X84.902 Y46.382 Z-1.637 I-2.308 J1.991
N135 X81.054 Y47.098 Z-1.863 I-2.35 J-1.928
N136 X79.693 Y43.439 Z-2.088 I1.494 J-2.638
N137 X83.057 Y41.478 Z-2.314 I2.847 J1.019
N138 X85.558 Y44.45 Z-2.54 I-0.516 J2.972
N139 X79.525 I-3.016 J0
N140 X85.451 Y43.652 I3.016 J0
N141 X85.558 Y44.45 I-2.909 J0.798
N142 G1 X85.562 Y44.679
N143 X85.719 Y45.585
N144 G3 X85.56 Y47.263 I-1.845 J0.671
N145 X83.771 Y48.828 I-2.886 J-1.493
N146 X79.233 Y47.89 I-1.533 J-4.034
N147 X80.386 Y40.138 I3.251 J-3.478
N148 X86.807 Y42.185 I2.168 J4.294
N149 G1 X87.216 Y42.98
N150 G3 X87.814 Y45.062 I-6.14 J2.89
N151 X84.465 Y50.592 I-5.29 J0.575
N152 X79.199 Y50.291 I-2.319 J-5.636
N153 X75.992 Y42.497 I3.165 J-5.859
N154 X87.571 Y39.795 I6.556 J1.931
N155 X89.949 Y45.199 I-5.96 J5.848
N156 X85.336 Y52.493 I-7.566 J0.32
N157 X78.904 Y52.508 I-3.233 J-7.506
N158 X73.635 Y45.574 I3.367 J-8.027
N159 X84.561 Y35.67 I8.895 J-1.165
N160 X87.912 Y37.202 I-1.996 J8.795
N161 X92.145 Y44.895 I-6.083 J8.358
N162 X87.062 Y54.096 I-9.81 J0.585
N163 X80.654 Y55.273 I-4.965 J-8.995
N164 X74.573 Y52.257 I1.475 J-10.611
N165 X71.306 Y44.256 I7.769 J-7.839
N166 X78.654 Y33.877 I11.211 J0.148
N167 X86.639 Y33.951 I3.895 J10.557
N168 X90.494 Y36.401 I-4.306 J11.032
N169 X94.293 Y43.583 I-8.628 J9.16
N170 X92.794 Y51.558 I-12.029 J1.867
N171 X84.851 Y57.345 I-10.575 J-6.171
N172 X75.944 Y56.093 I-2.79 J-12.461
N173 X70.335 Y50.199 I6.239 J-11.553
N174 X70.723 Y37.824 I12.089 J-5.814
N175 X86.496 Y31.474 I11.821 J6.599
N176 X93.85 Y36.719 I-4.196 J13.662
N177 X95.776 Y50.679 I-11.694 J8.725
N178 X84.036 Y59.836 I-13.577 J-5.302
N179 X72.796 Y56.811 I-1.992 J-14.995
N180 X66.694 Y44.947 I9.473 J-12.374
N181 X87.347 Y29.301 I15.841 J-0.544
N182 X96.041 Y35.753 I-5.005 J15.83
N183 X95.732 Y55.536 I-13.83 J9.678
N184 X83.175 Y62.28 I-13.595 J-10.251
N185 X69.143 Y56.66 I-1.111 J-17.554
N186 X66.312 Y36.143 I13.232 J-12.279
N187 X89.873 Y27.73 I16.24 J8.281
N188 X99.563 Y37.116 I-7.64 J17.581
N189 X86.971 Y64.058 I-17.32 J8.318
N190 X69.637 Y60.336 I-4.948 J-19.186
N191 X63.282 Y37.135 I12.681 J-15.945
N192 X90.509 Y25.417 I19.268 J7.279
N193 X101.205 Y35.087 I-8.208 J19.831
N194 X95.26 Y62.665 I-18.96 J10.343
N195 X93.359 Y63.864 I-20.717 J-30.768
N196 G1 X91.981 Y64.556
N197 G3 X89.686 Y65.491 I-11.186 J-24.164
N198 X87.599 Y66.079 I-10.415 J-32.962
N199 X84.261 Y66.596 I-5.243 J-22.816
N200 X77.583 Y66.095 I-1.683 J-22.323
N201 G1 X76.332 Y65.78
N202 G3 X74.246 Y65.054 I10.57 J-33.75
N203 G1 X72.785 Y64.402
N204 G3 X67.668 Y60.943 I10.194 J-20.59
N205 X63.811 Y56.385 I15.811 J-17.291
N206 X61.969 Y52.799 I20.548 J-12.825
N207 G1 X61.505 Y51.546
N208 G3 X60.855 Y49.25 I28.838 J-9.4
N209 G1 X60.632 Y47.997
N210 G3 X65.072 Y30.748 I21.89 J-3.562
N211 G1 X65.124 Y30.668
N212 X66.197 Y29.416
N213 G3 X67.982 Y27.678 I20.533 J19.317
N214 X72.368 Y24.711 I15.07 J17.546
N215 G1 X72.576 Y24.595
N216 G3 X76.222 Y23.153 I11.388 J23.457
N217 X79.879 Y22.402 I6.735 J23.53
N218 X84.261 Y22.303 I2.709 J22.986
N219 X87.808 Y22.871 I-1.9 J23.254
N220 X89.895 Y23.48 I-8.863 J34.227
N221 X91.982 Y24.343 I-9.957 J27.051
N222 G1 X93.35 Y25.031
N223 X93.442 Y25.084
N224 G3 X96.444 Y27.12 I-12.832 J22.155
N225 X98.104 Y28.581 I-22.617 J27.377
N226 G1 X99.284 Y29.841
N227 X99.464 Y30.042
N228 X100.536 Y31.411
N229 G3 X102.681 Y35.053 I-20.683 J14.634
N230 G1 X103.248 Y36.4
N231 X103.38 Y36.723
N232 X103.457 Y36.943
N233 X103.921 Y38.393
N234 G3 X104.665 Y46.535 I-21.751 J6.093
N235 X104.366 Y48.623 I-33.188 J-3.69
N236 X103.254 Y52.502 I-23.285 J-4.576
N237 X101.566 Y55.931 I-22.181 J-8.79
N238 G1 X100.744 Y57.195
N239 G3 X96.78 Y61.505 I-18.678 J-13.201
N240 X95.256 Y62.66 I-18.895 J-23.334
N241 G1 X95.206 Y62.682 Z-2.534
N242 X95.158 Y62.703 Z-2.515
N243 X95.115 Y62.722 Z-2.485
N244 X95.079 Y62.737 Z-2.446
N245 X95.051 Y62.749 Z-2.399
N246 X95.033 Y62.753 Z-2.346
N247 X95.027 Y62.754 Z-2.291
N248 G0 Z-1.143
N249 X85.628 Y44.375
N250 G1 Z-1.778 F1016
N251 G3 X83.151 Y47.471 Z-2.004 I-3.078 J0.076
N252 X79.685 Y45.564 Z-2.23 I-0.6 J-3.012
N253 X80.968 Y41.834 Z-2.455 I2.858 J-1.103
N254 X84.853 Y42.458 Z-2.681 I1.571 J2.621
N255 X84.902 Y46.383 Z-2.907 I-2.308 J1.991
N256 X81.053 Y47.099 Z-3.133 I-2.35 J-1.928
N257 X79.693 Y43.44 Z-3.358 I1.494 J-2.638
N258 X83.057 Y41.479 Z-3.584 I2.848 J1.019
N259 X85.558 Y44.451 Z-3.81 I-0.516 J2.972
N260 X79.525 I-3.016 J0
N261 X85.558 I3.016 J0
N262 G1 X85.562 Y44.68
N263 X85.719 Y45.586
N264 G3 X85.559 Y47.264 I-1.845 J0.671
N265 X83.771 Y48.829 I-2.886 J-1.493
N266 X79.233 Y47.891 I-1.533 J-4.034
N267 X80.386 Y40.139 I3.251 J-3.478
N268 X86.807 Y42.186 I2.168 J4.294
N269 G1 X87.216 Y42.981
N270 G3 X87.813 Y45.063 I-6.14 J2.89
N271 X84.465 Y50.592 I-5.29 J0.575
N272 X79.199 Y50.291 I-2.319 J-5.636
N273 X75.991 Y42.498 I3.165 J-5.859
N274 X87.571 Y39.796 I6.556 J1.931
N275 X89.949 Y45.2 I-5.96 J5.848
N276 X85.335 Y52.494 I-7.566 J0.32
N277 X78.904 Y52.509 I-3.233 J-7.506
N278 X73.635 Y45.575 I3.367 J-8.027
N279 X84.561 Y35.671 I8.895 J-1.165
N280 X87.912 Y37.203 I-1.996 J8.795
N281 X92.144 Y44.896 I-6.083 J8.358
N282 X87.062 Y54.097 I-9.81 J0.585
N283 X80.653 Y55.274 I-4.965 J-8.995
N284 X74.573 Y52.258 I1.475 J-10.611
N285 X71.306 Y44.256 I7.769 J-7.839
N286 X78.654 Y33.878 I11.211 J0.148
N287 X86.639 Y33.952 I3.895 J10.557
N288 X90.494 Y36.402 I-4.306 J11.032
N289 X94.293 Y43.584 I-8.628 J9.16
N290 X92.793 Y51.559 I-12.029 J1.867
N291 X84.851 Y57.346 I-10.575 J-6.171
N292 X75.944 Y56.094 I-2.79 J-12.461
N293 X70.334 Y50.199 I6.239 J-11.553
N294 X70.722 Y37.825 I12.089 J-5.814
N295 X86.495 Y31.475 I11.821 J6.599
N296 X93.85 Y36.72 I-4.196 J13.662
N297 X95.775 Y50.68 I-11.694 J8.725
N298 X84.036 Y59.837 I-13.577 J-5.301
N299 X72.796 Y56.812 I-1.992 J-14.995
N300 X66.694 Y44.948 I9.473 J-12.374
N301 X87.346 Y29.302 I15.841 J-0.544
N302 X96.041 Y35.754 I-5.005 J15.83
N303 X99.066 Y46.327 I-13.856 J9.683
N304 X98.406 Y49.459 I-18.21 J-2.198
N305 G1 X97.95 Y50.711
N306 X97.867 Y50.92
N307 G3 X97.162 Y52.381 I-21.584 J-9.505
N308 X95.142 Y55.305 I-15.606 J-8.625
N309 G1 X94.276 Y56.236
N310 G3 X85.722 Y60.768 I-11.825 J-11.98
N311 X80.505 Y60.952 I-3.219 J-17.27
N312 X77.167 Y60.181 I2.518 J-18.511
N313 G1 X76.123 Y59.773
N314 G3 X67.149 Y50.686 I6.384 J-15.279
N315 G1 X66.943 Y50.181
N316 X66.904 Y50.085
N317 X66.517 Y48.832
N318 G3 X65.958 Y43.404 I16.654 J-4.459
N319 X68.563 Y35.468 I16.814 J1.126
N320 X70.531 Y32.961 I15.831 J10.396
N321 X71.738 Y31.819 I17.097 J16.873
N322 X75.47 Y29.414 I11.306 J13.447
N323 X81.966 Y27.838 I7.106 J15.11
N324 X85.722 Y28.131 I0.47 J18.172
N325 X99.172 Y44.448 I-3.19 J16.331
N326 X99.072 Y46.226 I-21.366 J-0.307
N327 G1 X99.055 Y46.279 Z-3.804
N328 X99.038 Y46.329 Z-3.785
N329 X99.023 Y46.373 Z-3.756
N330 X99.011 Y46.411 Z-3.716
N331 X99.001 Y46.439 Z-3.669
N332 X98.992 Y46.455 Z-3.616
N333 X98.989 Y46.46 Z-3.561
N334 G0 Z-1.904
N335 X92.755 Y37.3
N336 G1 Z-2.539 F1016
N337 X92.759 Y37.294 Z-2.638
N338 X92.774 Y37.276 Z-2.735
N339 X92.797 Y37.246 Z-2.827
N340 X92.829 Y37.204 Z-2.912
N341 X92.868 Y37.153 Z-2.988
N342 X92.914 Y37.093 Z-3.052
N343 X92.966 Y37.026 Z-3.105
N344 X93.022 Y36.953 Z-3.143
N345 X93.081 Y36.876 Z-3.166
N346 X93.142 Y36.797 Z-3.174
N347 G3 X95.559 Y34.276 I12.843 J9.892
N348 G1 X95.679 Y34.182
N349 G3 X96.705 Y34.268 I0.388 J1.526
N350 X98.174 Y35.177 I-1.4 J3.904
N351 G1 X98.534 Y35.525
N352 X98.937 Y35.986
N353 X99.343 Y36.534
N354 X99.762 Y37.206
N355 X100.184 Y38.023
N356 G3 X101.391 Y42.437 I-13.357 J6.025
N357 X95.586 Y58.244 I-18.647 J2.122
N358 X69.508 Y30.654 I-13.039 J-13.795
N359 X94.788 Y29.941 I13.039 J13.795
N360 G1 X95.535 Y30.476
N361 X96.315 Y30.963
N362 X97.099 Y31.442
N363 X97.869 Y31.943
N364 G3 X100.587 Y34.401 I-7.043 J10.518
N365 X102.819 Y38.394 I-10.692 J8.597
N366 X103.879 Y44.705 I-16.88 J6.081
N367 X93.28 Y62.918 I-21.178 J-0.133
N368 X71.811 Y25.978 I-10.734 J-18.47
N369 X94.447 Y26.707 I10.734 J18.47
N370 X98.297 Y29.215 I-540.5 J834.18
N371 G1 X99.044 Y29.751
N372 G3 X99.647 Y30.272 I-1.608 J2.471
N373 X102.678 Y35.054 I-17.788 J14.625
N374 G1 X103.248 Y36.4
N375 X103.38 Y36.723
N376 X103.457 Y36.943
N377 X103.921 Y38.393
N378 G3 X104.665 Y46.535 I-21.751 J6.093
N379 X104.366 Y48.623 I-33.188 J-3.69
N380 X103.254 Y52.502 I-23.285 J-4.576
N381 X101.566 Y55.931 I-22.181 J-8.79
N382 G1 X100.744 Y57.195
N383 G3 X96.78 Y61.505 I-18.678 J-13.201
N384 X93.358 Y63.862 I-15.811 J-19.286
N385 G1 X91.981 Y64.556
N386 G3 X89.686 Y65.491 I-11.186 J-24.164
N387 X87.599 Y66.079 I-10.415 J-32.962
N388 X84.261 Y66.596 I-5.243 J-22.816
N389 X77.583 Y66.095 I-1.683 J-22.323
N390 G1 X76.332 Y65.78
N391 G3 X74.246 Y65.054 I10.57 J-33.75
N392 G1 X72.785 Y64.402
N393 G3 X67.668 Y60.943 I10.194 J-20.59
N394 X63.811 Y56.385 I15.811 J-17.291
N395 X61.969 Y52.799 I20.548 J-12.825
N396 G1 X61.505 Y51.546
N397 G3 X60.855 Y49.25 I28.838 J-9.4
N398 G1 X60.632 Y47.997
N399 G3 X65.072 Y30.748 I21.89 J-3.562
N400 G1 X65.124 Y30.668
N401 X66.197 Y29.416
N402 G3 X67.982 Y27.678 I20.533 J19.317
N403 X72.368 Y24.711 I15.07 J17.546
N404 G1 X72.576 Y24.595
N405 G3 X76.222 Y23.153 I11.388 J23.457
N406 X79.879 Y22.402 I6.735 J23.53
N407 X84.261 Y22.303 I2.709 J22.986
N408 X87.808 Y22.871 I-1.9 J23.254
N409 X89.895 Y23.48 I-8.863 J34.227
N410 X91.982 Y24.343 I-9.957 J27.051
N411 G1 X93.35 Y25.031
N412 X93.442 Y25.084
N413 G3 X96.444 Y27.12 I-12.832 J22.155
N414 X98.104 Y28.581 I-22.617 J27.377
N415 G1 X99.284 Y29.841
N416 X99.464 Y30.042
N417 X99.645 Y30.273
N418 X99.67 Y30.323 Z-3.167
N419 X99.692 Y30.37 Z-3.149
N420 X99.713 Y30.412 Z-3.119
N421 X99.73 Y30.447 Z-3.08
N422 X99.743 Y30.474 Z-3.033
N423 X99.748 Y30.492 Z-2.98
N424 X99.749 Y30.498 Z-2.924
N425 G0 Z-2.413
N426 X85.628 Y44.375
N427 G1 Z-3.048 F1016
N428 G3 X83.151 Y47.471 Z-3.274 I-3.078 J0.076
N429 X79.685 Y45.564 Z-3.5 I-0.6 J-3.012
N430 X80.968 Y41.834 Z-3.725 I2.858 J-1.103
N431 X84.853 Y42.458 Z-3.951 I1.571 J2.621
N432 X84.902 Y46.383 Z-4.177 I-2.308 J1.991
N433 X81.053 Y47.099 Z-4.403 I-2.35 J-1.928
N434 X79.693 Y43.44 Z-4.628 I1.494 J-2.638
N435 X83.057 Y41.479 Z-4.854 I2.848 J1.019
N436 X85.558 Y44.451 Z-5.08 I-0.516 J2.972
N437 X79.525 I-3.016 J0
N438 X85.558 I3.016 J0
N439 G1 X85.562 Y44.68
N440 X85.719 Y45.586
N441 G3 X85.559 Y47.264 I-1.845 J0.671
N442 X83.771 Y48.829 I-2.886 J-1.493
N443 X79.233 Y47.891 I-1.533 J-4.034
N444 X80.386 Y40.139 I3.251 J-3.478
N445 X86.807 Y42.186 I2.168 J4.294
N446 G1 X87.216 Y42.981
N447 G3 X87.813 Y45.063 I-6.14 J2.89
N448 X84.465 Y50.592 I-5.29 J0.575
N449 X79.199 Y50.291 I-2.319 J-5.636
N450 X75.991 Y42.498 I3.165 J-5.859
N451 X87.571 Y39.796 I6.556 J1.931
N452 X89.949 Y45.2 I-5.96 J5.848
N453 X85.335 Y52.494 I-7.566 J0.32
N454 X78.904 Y52.509 I-3.233 J-7.506
N455 X73.635 Y45.575 I3.367 J-8.027
N456 X84.561 Y35.671 I8.895 J-1.165
N457 X87.912 Y37.203 I-1.996 J8.795
N458 X92.144 Y44.896 I-6.083 J8.358
N459 X87.062 Y54.097 I-9.81 J0.585
N460 X80.653 Y55.274 I-4.965 J-8.995
N461 X74.573 Y52.258 I1.475 J-10.611
N462 X71.306 Y44.256 I7.769 J-7.839
N463 X78.654 Y33.878 I11.211 J0.148
N464 X86.639 Y33.952 I3.895 J10.557
N465 X90.494 Y36.402 I-4.306 J11.032
N466 X94.293 Y43.584 I-8.628 J9.16
N467 X92.793 Y51.559 I-12.029 J1.867
N468 X84.851 Y57.346 I-10.575 J-6.171
N469 X75.944 Y56.094 I-2.79 J-12.461
N470 X70.334 Y50.199 I6.239 J-11.553
N471 X70.722 Y37.825 I12.089 J-5.814
N472 X86.495 Y31.475 I11.821 J6.599
N473 X93.85 Y36.72 I-4.196 J13.662
N474 X95.775 Y50.68 I-11.694 J8.725
N475 X84.036 Y59.837 I-13.577 J-5.301
N476 X72.796 Y56.812 I-1.992 J-14.995
N477 X66.694 Y44.948 I9.473 J-12.374
N478 X87.346 Y29.302 I15.841 J-0.544
N479 X96.041 Y35.754 I-5.005 J15.83
N480 X99.066 Y46.327 I-13.856 J9.683
N481 X98.406 Y49.459 I-18.21 J-2.198
N482 G1 X97.95 Y50.711
N483 X97.867 Y50.92
N484 G3 X97.162 Y52.381 I-21.584 J-9.505
N485 X95.142 Y55.305 I-15.606 J-8.625
N486 G1 X94.276 Y56.236
N487 G3 X85.722 Y60.768 I-11.825 J-11.98
N488 X80.505 Y60.952 I-3.219 J-17.27
N489 X77.167 Y60.181 I2.518 J-18.511
N490 G1 X76.123 Y59.773
N491 G3 X67.149 Y50.686 I6.384 J-15.279
N492 G1 X66.943 Y50.181
N493 X66.904 Y50.085
N494 X66.517 Y48.832
N495 G3 X65.958 Y43.404 I16.654 J-4.459
N496 X68.563 Y35.468 I16.814 J1.126
N497 X70.531 Y32.961 I15.831 J10.396
N498 X71.738 Y31.819 I17.097 J16.873
N499 X75.47 Y29.414 I11.306 J13.447
N500 X81.966 Y27.838 I7.106 J15.11
N501 X85.722 Y28.131 I0.47 J18.172
N502 X99.172 Y44.448 I-3.19 J16.331
N503 X99.072 Y46.226 I-21.366 J-0.307
N504 G1 X99.055 Y46.279 Z-5.074
N505 X99.038 Y46.329 Z-5.055
N506 X99.023 Y46.373 Z-5.026
N507 X99.011 Y46.411 Z-4.986
N508 X99.001 Y46.439 Z-4.939
N509 X98.992 Y46.455 Z-4.886
N510 X98.989 Y46.46 Z-4.831
N511 G0 Z-3.683
N512 X85.628 Y44.375
N513 G1 Z-4.318 F1016
N514 G3 X83.151 Y47.471 Z-4.544 I-3.078 J0.076
N515 X79.685 Y45.564 Z-4.77 I-0.6 J-3.012
N516 X80.968 Y41.834 Z-4.995 I2.858 J-1.103
N517 X84.853 Y42.458 Z-5.221 I1.571 J2.621
N518 X84.902 Y46.383 Z-5.447 I-2.308 J1.991
N519 X81.053 Y47.099 Z-5.673 I-2.35 J-1.928
N520 X79.693 Y43.44 Z-5.898 I1.494 J-2.638
N521 X83.057 Y41.479 Z-6.124 I2.848 J1.019
N522 X85.558 Y44.451 Z-6.35 I-0.516 J2.972
N523 X79.525 I-3.016 J0
N524 X85.558 I3.016 J0
N525 G1 X85.562 Y44.68
N526 X85.719 Y45.586
N527 G3 X85.559 Y47.264 I-1.845 J0.671
N528 X83.771 Y48.829 I-2.886 J-1.493
N529 X79.233 Y47.891 I-1.533 J-4.034
N530 X80.386 Y40.139 I3.251 J-3.478
N531 X86.807 Y42.186 I2.168 J4.294
N532 G1 X87.216 Y42.981
N533 G3 X87.813 Y45.063 I-6.14 J2.89
N534 X84.465 Y50.592 I-5.29 J0.575
N535 X79.199 Y50.291 I-2.319 J-5.636
N536 X75.991 Y42.498 I3.165 J-5.859
N537 X87.571 Y39.796 I6.556 J1.931
N538 X89.949 Y45.2 I-5.96 J5.848
N539 X85.335 Y52.494 I-7.566 J0.32
N540 X78.904 Y52.509 I-3.233 J-7.506
N541 X73.635 Y45.575 I3.367 J-8.027
N542 X84.561 Y35.671 I8.895 J-1.165
N543 X87.912 Y37.203 I-1.996 J8.795
N544 X92.144 Y44.896 I-6.083 J8.358
N545 X87.062 Y54.097 I-9.81 J0.585
N546 X80.653 Y55.274 I-4.965 J-8.995
N547 X74.573 Y52.258 I1.475 J-10.611
N548 X71.306 Y44.256 I7.769 J-7.839
N549 X78.654 Y33.878 I11.211 J0.148
N550 X86.639 Y33.952 I3.895 J10.557
N551 X90.494 Y36.402 I-4.306 J11.032
N552 X94.293 Y43.584 I-8.628 J9.16
N553 X92.793 Y51.559 I-12.029 J1.867
N554 X84.851 Y57.346 I-10.575 J-6.171
N555 X75.944 Y56.094 I-2.79 J-12.461
N556 X70.334 Y50.199 I6.239 J-11.553
N557 X70.722 Y37.825 I12.089 J-5.814
N558 X86.495 Y31.475 I11.821 J6.599
N559 X93.85 Y36.72 I-4.196 J13.662
N560 X95.775 Y50.68 I-11.694 J8.725
N561 X84.036 Y59.837 I-13.577 J-5.301
N562 X72.796 Y56.812 I-1.992 J-14.995
N563 X66.694 Y44.948 I9.473 J-12.374
N564 X87.346 Y29.302 I15.841 J-0.544
N565 X96.041 Y35.754 I-5.005 J15.83
N566 X99.066 Y46.327 I-13.856 J9.683
N567 X98.406 Y49.459 I-18.21 J-2.198
N568 G1 X97.95 Y50.711
N569 X97.867 Y50.92
N570 G3 X97.162 Y52.381 I-21.584 J-9.505
N571 X95.142 Y55.305 I-15.606 J-8.625
N572 G1 X94.276 Y56.236
N573 G3 X85.722 Y60.768 I-11.825 J-11.98
N574 X80.505 Y60.952 I-3.219 J-17.27
N575 X77.167 Y60.181 I2.518 J-18.511
N576 G1 X76.123 Y59.773
N577 G3 X67.149 Y50.686 I6.384 J-15.279
N578 G1 X66.943 Y50.181
N579 X66.904 Y50.085
N580 X66.517 Y48.832
N581 G3 X65.958 Y43.404 I16.654 J-4.459
N582 X68.563 Y35.468 I16.814 J1.126
N583 X70.531 Y32.961 I15.831 J10.396
N584 X71.738 Y31.819 I17.097 J16.873
N585 X75.47 Y29.414 I11.306 J13.447
N586 X81.966 Y27.838 I7.106 J15.11
N587 X85.722 Y28.131 I0.47 J18.172
N588 X99.172 Y44.448 I-3.19 J16.331
N589 X99.072 Y46.226 I-21.366 J-0.307
N590 G1 X99.055 Y46.279 Z-6.344
N591 X99.038 Y46.329 Z-6.325
N592 X99.023 Y46.373 Z-6.296
N593 X99.011 Y46.411 Z-6.256
N594 X99.001 Y46.439 Z-6.209
N595 X98.992 Y46.455 Z-6.156
N596 X98.989 Y46.46 Z-6.101
N597 G0 Z-4.953
N598 X79.493 Y44.644
N599 G1 Z-5.588 F1016
N600 G3 X81.708 Y41.506 Z-5.806 I3.056 J-0.193
N601 X85.237 Y42.995 Z-6.023 I0.84 J2.937
N602 X84.538 Y46.752 Z-6.241 I-2.683 J1.444
N603 X80.729 Y46.872 Z-6.458 I-1.98 J-2.307
N604 X79.799 Y43.185 Z-6.676 I1.826 J-2.421
N605 X83.194 Y41.494 Z-6.893 I2.748 J1.263
N606 X85.566 Y44.441 Z-7.111 I-0.645 J2.947
N607 X79.532 I-3.017 J0
N608 X85.566 I3.017 J0
N609 G1 X85.57 Y44.671
N610 X85.727 Y45.576
N611 G3 X85.567 Y47.254 I-1.845 J0.671
N612 X83.779 Y48.819 I-2.886 J-1.493
N613 X79.24 Y47.882 I-1.533 J-4.035
N614 X80.392 Y40.129 I3.251 J-3.479
N615 X86.814 Y42.175 I2.169 J4.294
N616 G1 X87.223 Y42.97
N617 G3 X87.821 Y45.053 I-6.142 J2.892
N618 X84.473 Y50.583 I-5.29 J0.576
N619 X79.207 Y50.283 I-2.32 J-5.636
N620 X75.998 Y42.488 I3.164 J-5.86
N621 X87.578 Y39.785 I6.556 J1.931
N622 X89.957 Y45.19 I-5.961 J5.85
N623 X85.344 Y52.484 I-7.567 J0.32
N624 X78.912 Y52.5 I-3.234 J-7.506
N625 X73.642 Y45.566 I3.366 J-8.028
N626 X84.568 Y35.661 I8.895 J-1.166
N627 X87.919 Y37.193 I-1.995 J8.796
N628 X92.152 Y44.885 I-6.083 J8.359
N629 X87.07 Y54.087 I-9.811 J0.586
N630 X80.662 Y55.265 I-4.966 J-8.995
N631 X74.581 Y52.25 I1.474 J-10.612
N632 X71.313 Y44.248 I7.768 J-7.841
N633 X78.66 Y33.868 I11.212 J0.146
N634 X86.646 Y33.942 I3.896 J10.557
N635 X90.501 Y36.391 I-4.305 J11.033
N636 X94.301 Y43.572 I-8.628 J9.161
N637 X92.803 Y51.548 I-12.03 J1.869
N638 X84.861 Y57.336 I-10.576 J-6.169
N639 X75.954 Y56.086 I-2.793 J-12.46
N640 X70.343 Y50.194 I6.236 J-11.555
N641 X70.727 Y37.819 I12.088 J-5.818
N642 X86.498 Y31.463 I11.824 J6.595
N643 X93.854 Y36.705 I-4.19 J13.664
N644 X95.786 Y50.664 I-11.691 J8.731
N645 X84.051 Y59.827 I-13.58 J-5.295
N646 X72.809 Y56.808 I-1.999 J-14.995
N647 X66.701 Y44.947 I9.468 J-12.379
N648 X87.344 Y29.289 I15.842 J-0.552
N649 X96.043 Y35.736 I-4.996 J15.833
N650 X99.082 Y46.131 I-13.849 J9.691
N651 X98.406 Y49.459 I-17.428 J-1.81
N652 G1 X97.95 Y50.711
N653 X97.867 Y50.92
N654 G3 X97.162 Y52.381 I-21.584 J-9.505
N655 X95.142 Y55.305 I-15.606 J-8.625
N656 G1 X94.276 Y56.236
N657 G3 X85.722 Y60.768 I-11.825 J-11.98
N658 X80.505 Y60.952 I-3.219 J-17.27
N659 X77.167 Y60.181 I2.518 J-18.511
N660 G1 X76.123 Y59.773
N661 G3 X67.149 Y50.686 I6.384 J-15.279
N662 G1 X66.943 Y50.181
N663 X66.904 Y50.085
N664 X66.517 Y48.832
N665 G3 X65.958 Y43.404 I16.654 J-4.459
N666 X68.563 Y35.468 I16.814 J1.126
N667 X70.531 Y32.961 I15.831 J10.396
N668 X71.738 Y31.819 I17.097 J16.873
N669 X75.47 Y29.414 I11.306 J13.447
N670 X81.966 Y27.838 I7.106 J15.11
N671 X85.722 Y28.131 I0.47 J18.172
N672 X99.172 Y44.448 I-3.19 J16.331
N673 X99.082 Y46.131 I-21.596 J-0.314
N674 G1 X99.064 Y46.213
N675 X99.036 Y46.291
N676 X98.999 Y46.365
N677 X98.949 Y46.451 Z-7.103
N678 X98.9 Y46.535 Z-7.08
N679 X98.853 Y46.614 Z-7.042
N680 X98.81 Y46.687 Z-6.989
N681 X98.772 Y46.753 Z-6.925
N682 X98.74 Y46.809 Z-6.849
N683 X98.713 Y46.854 Z-6.764
N684 X98.694 Y46.887 Z-6.672
N685 X98.682 Y46.907 Z-6.575
N686 X98.678 Y46.913 Z-6.476
N687 G0 Z15.24
(Contour1)
N689 X66.138 Y59.433
N690 Z10.414
N691 Z7.35
N692 G1 Z-1.587 F1016
N693 X65.856 Y59.12 Z-1.624
N694 X65.685 Y58.921 Z-1.647
N695 X65.451 Y58.646 Z-1.679
N696 X65.345 Y58.517 Z-1.694
N697 X65.046 Y58.144 Z-1.735
N698 X65.02 Y58.112 Z-1.739
N699 X64.714 Y57.707 Z-1.783
N700 X64.641 Y57.611 Z-1.794
N701 X64.421 Y57.302 Z-1.827
N702 X64.277 Y57.1 Z-1.849
N703 X64.005 Y56.695 Z-1.891
N704 X63.872 Y56.493 Z-1.913
N705 X63.617 Y56.088 Z-1.955
N706 X63.495 Y55.885 Z-1.975
N707 X63.375 Y55.683 Z-1.996
N708 X63.257 Y55.481 Z-2.016
N709 X63.023 Y55.06 Z-2.058
N710 X62.923 Y54.873 Z-2.077
N711 X62.712 Y54.469 Z-2.117
N712 X62.618 Y54.277 Z-2.136
N713 X62.416 Y53.859 Z-2.176
N714 X62.325 Y53.659 Z-2.195
N715 X62.213 Y53.41 Z-2.219
N716 X62.144 Y53.254 Z-2.234
N717 X61.975 Y52.849 Z-2.273
N718 X61.893 Y52.647 Z-2.292
N719 X61.738 Y52.242 Z-2.33
N720 X61.663 Y52.04 Z-2.348
N721 X61.52 Y51.635 Z-2.386
N722 X61.452 Y51.433 Z-2.405
N723 X61.322 Y51.028 Z-2.442
N724 X61.261 Y50.825 Z-2.46
N725 X61.144 Y50.421 Z-2.497
N726 X61.088 Y50.218 Z-2.516
N727 X60.983 Y49.813 Z-2.552
N728 X60.934 Y49.611 Z-2.57
N729 X60.841 Y49.206 Z-2.607
N730 X60.798 Y49.004 Z-2.625
N731 X60.717 Y48.599 Z-2.661
N732 X60.68 Y48.397 Z-2.679
N733 X60.594 Y47.896 Z-2.723
N734 X60.579 Y47.79 Z-2.733
N735 X60.521 Y47.385 Z-2.769
N736 X60.495 Y47.182 Z-2.786
N737 X60.449 Y46.778 Z-2.822
N738 X60.428 Y46.575 Z-2.84
N739 X60.392 Y46.15 Z-2.877
N740 X60.378 Y45.968 Z-2.893
N741 X60.355 Y45.563 Z-2.929
N742 X60.344 Y45.361 Z-2.946
N743 X60.333 Y44.956 Z-2.982
N744 X60.328 Y44.754 Z-3
N745 Y44.146 Z-3.053
N746 X60.333 Y43.944 Z-3.07
N747 X60.344 Y43.539 Z-3.106
N748 X60.355 Y43.337 Z-3.124
N749 X60.378 Y42.932 Z-3.159
N750 X60.392 Y42.75 Z-3.175
N751 X60.428 Y42.325
N752 X60.449 Y42.122
N753 X60.495 Y41.718
N754 X60.521 Y41.515
N755 X60.579 Y41.11
N756 X60.594 Y41.004
N757 X60.68 Y40.503
N758 X60.717 Y40.301
N759 X60.798 Y39.896
N760 X60.841 Y39.694
N761 X60.934 Y39.289
N762 X60.983 Y39.087
N763 X61.088 Y38.682
N764 X61.144 Y38.479
N765 X61.261 Y38.075
N766 X61.322 Y37.872
N767 X61.452 Y37.467
N768 X61.52 Y37.265
N769 X61.663 Y36.86
N770 X61.738 Y36.658
N771 X61.893 Y36.253
N772 X61.975 Y36.051
N773 X62.144 Y35.646
N774 X62.213 Y35.49
N775 X62.325 Y35.241
N776 X62.416 Y35.041
N777 X62.618 Y34.623
N778 X62.712 Y34.431
N779 X62.923 Y34.027
N780 X63.023 Y33.84
N781 X63.257 Y33.419
N782 X63.375 Y33.217
N783 X63.495 Y33.015
N784 X63.617 Y32.812
N785 X63.872 Y32.407
N786 X64.005 Y32.205
N787 X64.277 Y31.8
N788 X64.421 Y31.598
N789 X64.641 Y31.289
N790 X64.714 Y31.193
N791 X65.02 Y30.788
N792 X65.046 Y30.756
N793 X65.345 Y30.383
N794 X65.451 Y30.254
N795 X65.685 Y29.979
N796 X65.856 Y29.78
N797 X66.223 Y29.371
N798 X66.26 Y29.332
N799 X66.665 Y28.907
N800 X66.808 Y28.764
N801 X67.07 Y28.504
N802 X67.222 Y28.36
N803 X67.474 Y28.122
N804 X67.658 Y27.955
N805 X67.886 Y27.752
N806 X68.081 Y27.581
N807 X68.486 Y27.242
N808 X68.607 Y27.145
N809 X68.891 Y26.92
N810 X69.093 Y26.764
N811 X69.498 Y26.462
N812 X69.677 Y26.336
N813 X69.965 Y26.133
N814 X70.105 Y26.038
N815 X70.51 Y25.77
N816 X70.574 Y25.728
N817 X70.914 Y25.517
N818 X71.117 Y25.392
N819 X71.582 Y25.121
N820 X71.724 Y25.042
N821 X72.129 Y24.821
N822 X72.331 Y24.716
N823 X72.533 Y24.613
N824 X72.727 Y24.514
N825 X73.153 Y24.312
N826 X73.343 Y24.223
N827 X73.747 Y24.044
N828 X73.95 Y23.958
N829 X74.355 Y23.793
N830 X74.557 Y23.714
N831 X74.962 Y23.562
N832 X75.13 Y23.502
N833 X75.569 Y23.351
N834 X75.728 Y23.3
N835 X76.176 Y23.16
N836 X76.378 Y23.101
N837 X76.783 Y22.987
N838 X76.985 Y22.935
N839 X77.39 Y22.833
N840 X77.592 Y22.787
N841 X78.019 Y22.692
N842 X78.199 Y22.657
N843 X78.604 Y22.579
N844 X78.806 Y22.545
N845 X79.211 Y22.478
N846 X79.413 Y22.449
N847 X79.818 Y22.395
N848 X80.021 Y22.371
N849 X80.425 Y22.328
N850 X80.628 Y22.31
N851 X81.032 Y22.278
N852 X81.235 Y22.265
N853 X81.639 Y22.245
N854 X81.842 Y22.238
N855 X82.246 Y22.229
N856 X82.449 Y22.226
N857 X82.854 Y22.229
N858 X83.056 Y22.232
N859 X83.461 Y22.246
N860 X83.663 Y22.253
N861 X84.27 Y22.292
N862 X84.675 Y22.329
N863 X84.877 Y22.348
N864 X85.079 Y22.372
N865 X85.484 Y22.42
N866 X85.687 Y22.45
N867 X86.091 Y22.51
N868 X86.294 Y22.545
N869 X86.698 Y22.617
N870 X86.901 Y22.657
N871 X87.305 Y22.741
N872 X87.508 Y22.787
N873 X87.963 Y22.895
N874 X88.115 Y22.935
N875 X88.52 Y23.043
N876 X88.709 Y23.097
N877 X89.127 Y23.221
N878 X89.329 Y23.286
N879 X89.734 Y23.419
N880 X89.936 Y23.49
N881 X90.341 Y23.636
N882 X90.517 Y23.704
N883 X90.745 Y23.794
N884 X90.948 Y23.873
N885 X91.504 Y24.109
N886 X91.555 Y24.132
N887 X91.96 Y24.317
N888 X92.162 Y24.412
N889 X92.567 Y24.612
N890 X92.769 Y24.716
N891 X93.174 Y24.929
N892 X93.376 Y25.043
N893 X93.578 Y25.157
N894 X93.781 Y25.272
N895 X94.202 Y25.526
N896 X94.388 Y25.642
N897 X94.793 Y25.902
N898 X94.837 Y25.931
N899 X95.197 Y26.177
N900 X95.4 Y26.318
N901 X95.804 Y26.611
N902 X95.975 Y26.74
N903 X96.238 Y26.943
N904 X96.411 Y27.079
N905 X96.816 Y27.409
N906 X96.98 Y27.55
N907 X97.221 Y27.757
N908 X97.423 Y27.938
N909 X97.663 Y28.157
N910 X97.828 Y28.311
N911 X98.088 Y28.562
N912 X98.233 Y28.703
N913 X98.637 Y29.116
N914 X98.687 Y29.169
N915 X99.061 Y29.574
N916 X99.239 Y29.776
N917 X99.447 Y30.014
N918 X99.587 Y30.181
N919 X99.851 Y30.501
N920 X99.919 Y30.586
N921 X100.256 Y31.018
N922 X100.386 Y31.193
N923 X100.534 Y31.395
N924 X100.661 Y31.569
N925 X100.961 Y32.003
N926 X101.066 Y32.16
N927 X101.268 Y32.47
N928 X101.358 Y32.61
N929 X101.605 Y33.015
N930 X101.673 Y33.125
N931 X101.958 Y33.622
N932 X102.068 Y33.824
N933 X102.177 Y34.027
N934 X102.28 Y34.219
N935 X102.488 Y34.634
N936 X102.587 Y34.836
N937 X102.776 Y35.241
N938 X102.866 Y35.443
N939 X103.042 Y35.848
N940 X103.089 Y35.962
N941 X103.292 Y36.468
N942 X103.362 Y36.658
N943 X103.511 Y37.063
N944 X103.579 Y37.265
N945 X103.715 Y37.67
N946 X103.777 Y37.872
N947 X103.839 Y38.075
N948 X103.899 Y38.272
N949 X104.011 Y38.682
N950 X104.066 Y38.884
N951 X104.165 Y39.289
N952 X104.214 Y39.491
N953 X104.303 Y39.906
N954 X104.344 Y40.098
N955 X104.457 Y40.706
N956 X104.489 Y40.908
N957 X104.552 Y41.313
N958 X104.578 Y41.515
N959 X104.63 Y41.92
N960 X104.651 Y42.122
N961 X104.691 Y42.527
N962 X104.706 Y42.73
N963 X104.735 Y43.134
N964 X104.745 Y43.337
N965 X104.762 Y43.742
N966 X104.768 Y43.944
N967 X104.773 Y44.349
N968 Y44.551
N969 X104.768 Y44.956
N970 X104.762 Y45.158
N971 X104.745 Y45.563
N972 X104.735 Y45.766
N973 X104.706 Y46.17
N974 X104.691 Y46.373
N975 X104.651 Y46.778
N976 X104.63 Y46.98
N977 X104.578 Y47.385
N978 X104.552 Y47.587
N979 X104.489 Y47.992
N980 X104.457 Y48.194
N981 X104.344 Y48.802
N982 X104.301 Y49.004
N983 X104.214 Y49.409
N984 X104.165 Y49.611
N985 X104.066 Y50.016
N986 X104.011 Y50.218
N987 X103.899 Y50.628
N988 X103.839 Y50.825
N989 X103.777 Y51.028
N990 X103.715 Y51.23
N991 X103.579 Y51.635
N992 X103.511 Y51.837
N993 X103.362 Y52.242
N994 X103.292 Y52.432
N995 X103.089 Y52.938
N996 X103.042 Y53.052
N997 X102.866 Y53.457
N998 X102.776 Y53.659
N999 X102.587 Y54.064
N1000 X102.488 Y54.266
N1001 X102.28 Y54.681
N1002 X102.177 Y54.873
N1003 X102.068 Y55.076
N1004 X101.958 Y55.278
N1005 X101.673 Y55.775
N1006 X101.605 Y55.885
N1007 X101.358 Y56.29
N1008 X101.268 Y56.43
N1009 X101.066 Y56.74
N1010 X100.961 Y56.897
N1011 X100.661 Y57.331
N1012 X100.534 Y57.505
N1013 X100.386 Y57.707
N1014 X100.256 Y57.882
N1015 X99.919 Y58.314
N1016 X99.851 Y58.399
N1017 X99.587 Y58.719
N1018 X99.447 Y58.886
N1019 X99.239 Y59.124
N1020 X99.061 Y59.326
N1021 X98.687 Y59.731
N1022 X98.637 Y59.784
N1023 X98.233 Y60.197
N1024 X98.088 Y60.338
N1025 X97.828 Y60.589
N1026 X97.663 Y60.743
N1027 X97.423 Y60.962
N1028 X97.221 Y61.143
N1029 X96.98 Y61.35
N1030 X96.816 Y61.491
N1031 X96.411 Y61.821
N1032 X96.238 Y61.957
N1033 X95.975 Y62.16
N1034 X95.804 Y62.289
N1035 X95.4 Y62.582
N1036 X95.197 Y62.723
N1037 X94.837 Y62.969
N1038 X94.793 Y62.998
N1039 X94.388 Y63.258
N1040 X94.202 Y63.374
N1041 X93.781 Y63.628
N1042 X93.578 Y63.743
N1043 X93.376 Y63.857
N1044 X93.174 Y63.971
N1045 X92.769 Y64.184
N1046 X92.567 Y64.288
N1047 X92.162 Y64.488
N1048 X91.96 Y64.583
N1049 X91.555 Y64.768
N1050 X91.504 Y64.791
N1051 X90.948 Y65.027
N1052 X90.745 Y65.106
N1053 X90.517 Y65.196
N1054 X90.341 Y65.264
N1055 X89.936 Y65.41
N1056 X89.734 Y65.481
N1057 X89.329 Y65.614
N1058 X89.127 Y65.679
N1059 X88.709 Y65.803
N1060 X88.52 Y65.857
N1061 X88.115 Y65.965
N1062 X87.963 Y66.005
N1063 X87.508 Y66.113
N1064 X87.305 Y66.159
N1065 X86.901 Y66.243
N1066 X86.698 Y66.283
N1067 X86.294 Y66.355
N1068 X86.091 Y66.39
N1069 X85.687 Y66.45
N1070 X85.484 Y66.48
N1071 X85.079 Y66.528
N1072 X84.877 Y66.552
N1073 X84.472 Y66.589
N1074 X84.27 Y66.608
N1075 X83.663 Y66.647
N1076 X83.461 Y66.654
N1077 X83.056 Y66.668
N1078 X82.854 Y66.671
N1079 X82.449 Y66.674
N1080 X82.246 Y66.671
N1081 X81.842 Y66.662
N1082 X81.639 Y66.655
N1083 X81.235 Y66.635
N1084 X81.032 Y66.622
N1085 X80.628 Y66.59
N1086 X80.425 Y66.572
N1087 X80.021 Y66.529
N1088 X79.818 Y66.505
N1089 X79.413 Y66.451
N1090 X79.211 Y66.422
N1091 X78.806 Y66.355
N1092 X78.604 Y66.321
N1093 X78.199 Y66.243
N1094 X78.019 Y66.208
N1095 X77.592 Y66.113
N1096 X77.39 Y66.067
N1097 X76.985 Y65.965
N1098 X76.783 Y65.913
N1099 X76.378 Y65.799
N1100 X76.176 Y65.74
N1101 X75.728 Y65.6
N1102 X75.569 Y65.549
N1103 X75.13 Y65.398
N1104 X74.962 Y65.338
N1105 X74.557 Y65.186
N1106 X74.355 Y65.107
N1107 X73.95 Y64.942
N1108 X73.747 Y64.856
N1109 X73.343 Y64.677
N1110 X73.153 Y64.588
N1111 X72.727 Y64.386
N1112 X72.533 Y64.287
N1113 X72.33 Y64.184
N1114 X72.129 Y64.079
N1115 X71.724 Y63.858
N1116 X71.582 Y63.779
N1117 X71.117 Y63.508
N1118 X70.914 Y63.383
N1119 X70.574 Y63.172
N1120 X70.51 Y63.13
N1121 X70.105 Y62.862
N1122 X69.965 Y62.767
N1123 X69.677 Y62.564
N1124 X69.498 Y62.438
N1125 X69.093 Y62.136
N1126 X68.891 Y61.98
N1127 X68.607 Y61.755
N1128 X68.486 Y61.658
N1129 X68.081 Y61.319
N1130 X67.886 Y61.148
N1131 X67.658 Y60.945
N1132 X67.474 Y60.778
N1133 X67.222 Y60.54
N1134 X67.07 Y60.396
N1135 X66.808 Y60.136
N1136 X66.665 Y59.993
N1137 X66.26 Y59.568
N1138 X66.223 Y59.529
N1139 X65.856 Y59.12
N1140 X65.685 Y58.921
N1141 X65.451 Y58.646
N1142 X65.345 Y58.517
N1143 X65.046 Y58.144
N1144 X65.02 Y58.112
N1145 X64.714 Y57.707
N1146 X64.641 Y57.611
N1147 X64.421 Y57.302
N1148 X64.277 Y57.1
N1149 X64.005 Y56.695
N1150 X63.872 Y56.493
N1151 X63.617 Y56.088
N1152 X63.495 Y55.885
N1153 X63.375 Y55.683
N1154 X63.257 Y55.481
N1155 X63.023 Y55.06
N1156 X62.923 Y54.873
N1157 X62.712 Y54.469
N1158 X62.618 Y54.277
N1159 X62.416 Y53.859
N1160 X62.325 Y53.659
N1161 X62.213 Y53.41
N1162 X62.144 Y53.254
N1163 X61.975 Y52.849
N1164 X61.893 Y52.647
N1165 X61.738 Y52.242
N1166 X61.663 Y52.04
N1167 X61.52 Y51.635
N1168 X61.452 Y51.433
N1169 X61.322 Y51.028
N1170 X61.261 Y50.825
N1171 X61.144 Y50.421
N1172 X61.088 Y50.218
N1173 X60.983 Y49.813
N1174 X60.934 Y49.611
N1175 X60.841 Y49.206
N1176 X60.798 Y49.004
N1177 X60.717 Y48.599
N1178 X60.68 Y48.397
N1179 X60.594 Y47.896
N1180 X60.579 Y47.79
N1181 X60.521 Y47.385
N1182 X60.495 Y47.182
N1183 X60.449 Y46.778
N1184 X60.428 Y46.575
N1185 X60.392 Y46.15
N1186 X60.378 Y45.968
N1187 X60.355 Y45.563
N1188 X60.344 Y45.361
N1189 X60.333 Y44.956
N1190 X60.328 Y44.754
N1191 Y44.146
N1192 X60.333 Y43.944
N1193 X60.344 Y43.539
N1194 X60.355 Y43.337
N1195 X60.378 Y42.932
N1196 X60.392 Y42.75
N1197 G0 Z10.414
(Contour1 (2))
N1199 Z15.24
N1200 X68.615 Y27.138
N1201 Z7.35
N1202 G1 Z-1.587 F1016
N1203 X68.607 Y27.145 Z-1.588
N1204 X68.486 Y27.242 Z-1.602
N1205 X68.081 Y27.581 Z-1.648
N1206 X67.886 Y27.752 Z-1.671
N1207 X67.658 Y27.955 Z-1.698
N1208 X67.474 Y28.122 Z-1.719
N1209 X67.222 Y28.36 Z-1.75
N1210 X67.07 Y28.504 Z-1.768
N1211 X66.808 Y28.764 Z-1.8
N1212 X66.665 Y28.907 Z-1.818
N1213 X66.26 Y29.332 Z-1.869
N1214 X66.223 Y29.371 Z-1.874
N1215 X65.856 Y29.78 Z-1.922
N1216 X65.685 Y29.979 Z-1.945
N1217 X65.451 Y30.254 Z-1.977
N1218 X65.345 Y30.383 Z-1.991
N1219 X65.046 Y30.756 Z-2.033
N1220 X65.02 Y30.788 Z-2.037
N1221 X64.714 Y31.193 Z-2.081
N1222 X64.641 Y31.289 Z-2.092
N1223 X64.421 Y31.598 Z-2.125
N1224 X64.277 Y31.8 Z-2.147
N1225 X64.005 Y32.205 Z-2.189
N1226 X63.872 Y32.407 Z-2.21
N1227 X63.617 Y32.812 Z-2.252
N1228 X63.495 Y33.015 Z-2.273
N1229 X63.375 Y33.217 Z-2.294
N1230 X63.257 Y33.419 Z-2.314
N1231 X63.023 Y33.84 Z-2.356
N1232 X62.923 Y34.027 Z-2.375
N1233 X62.712 Y34.431 Z-2.415
N1234 X62.618 Y34.623 Z-2.433
N1235 X62.416 Y35.041 Z-2.474
N1236 X62.325 Y35.241 Z-2.493
N1237 X62.213 Y35.49 Z-2.517
N1238 X62.144 Y35.646 Z-2.532
N1239 X61.975 Y36.051 Z-2.57
N1240 X61.893 Y36.253 Z-2.589
N1241 X61.738 Y36.658 Z-2.627
N1242 X61.663 Y36.86 Z-2.646
N1243 X61.52 Y37.265 Z-2.684
N1244 X61.452 Y37.467 Z-2.702
N1245 X61.322 Y37.872 Z-2.74
N1246 X61.261 Y38.075 Z-2.758
N1247 X61.144 Y38.479 Z-2.795
N1248 X61.088 Y38.682 Z-2.813
N1249 X60.983 Y39.087 Z-2.85
N1250 X60.934 Y39.289 Z-2.868
N1251 X60.841 Y39.694 Z-2.905
N1252 X60.798 Y39.896 Z-2.923
N1253 X60.717 Y40.301 Z-2.959
N1254 X60.68 Y40.503 Z-2.977
N1255 X60.594 Y41.004 Z-3.021
N1256 X60.579 Y41.11 Z-3.031
N1257 X60.521 Y41.515 Z-3.066
N1258 X60.495 Y41.718 Z-3.084
N1259 X60.449 Y42.122 Z-3.12
N1260 X60.428 Y42.325 Z-3.138
N1261 X60.392 Y42.75 Z-3.175
N1262 X60.378 Y42.932
N1263 X60.355 Y43.337
N1264 X60.344 Y43.539
N1265 X60.333 Y43.944
N1266 X60.328 Y44.146
N1267 Y44.754
N1268 X60.333 Y44.956
N1269 X60.344 Y45.361
N1270 X60.355 Y45.563
N1271 X60.378 Y45.968
N1272 X60.392 Y46.15
N1273 X60.428 Y46.575
N1274 X60.449 Y46.778
N1275 X60.495 Y47.182
N1276 X60.521 Y47.385
N1277 X60.579 Y47.79
N1278 X60.594 Y47.896
N1279 X60.68 Y48.397
N1280 X60.717 Y48.599
N1281 X60.798 Y49.004
N1282 X60.841 Y49.206
N1283 X60.934 Y49.611
N1284 X60.983 Y49.813
N1285 X61.088 Y50.218
N1286 X61.144 Y50.421
N1287 X61.261 Y50.825
N1288 X61.322 Y51.028
N1289 X61.452 Y51.433
N1290 X61.52 Y51.635
N1291 X61.663 Y52.04
N1292 X61.738 Y52.242
N1293 X61.893 Y52.647
N1294 X61.975 Y52.849
N1295 X62.144 Y53.254
N1296 X62.213 Y53.41
N1297 X62.325 Y53.659
N1298 X62.416 Y53.859
N1299 X62.618 Y54.277
N1300 X62.712 Y54.469
N1301 X62.923 Y54.873
N1302 X63.023 Y55.06
N1303 X63.257 Y55.481
N1304 X63.375 Y55.683
N1305 X63.495 Y55.885
N1306 X63.617 Y56.088
N1307 X63.872 Y56.493
N1308 X64.005 Y56.695
N1309 X64.277 Y57.1
N1310 X64.421 Y57.302
N1311 X64.641 Y57.611
N1312 X64.714 Y57.707
N1313 X65.02 Y58.112
N1314 X65.046 Y58.144
N1315 X65.345 Y58.517
N1316 X65.451 Y58.646
N1317 X65.685 Y58.921
N1318 X65.856 Y59.12
N1319 X66.223 Y59.529
N1320 X66.26 Y59.568
N1321 X66.665 Y59.993
N1322 X66.808 Y60.136
N1323 X67.07 Y60.396
N1324 X67.222 Y60.54
N1325 X67.474 Y60.778
N1326 X67.658 Y60.945
N1327 X67.886 Y61.148
N1328 X68.081 Y61.319
N1329 X68.486 Y61.658
N1330 X68.607 Y61.755
N1331 X68.891 Y61.98
N1332 X69.093 Y62.136
N1333 X69.498 Y62.438
N1334 X69.677 Y62.564
N1335 X69.965 Y62.767
N1336 X70.105 Y62.862
N1337 X70.51 Y63.13
N1338 X70.574 Y63.172
N1339 X70.914 Y63.383
N1340 X71.117 Y63.508
N1341 X71.582 Y63.779
N1342 X71.724 Y63.858
N1343 X72.129 Y64.079
N1344 X72.33 Y64.184
N1345 X72.533 Y64.287
N1346 X72.727 Y64.386
N1347 X73.153 Y64.588
N1348 X73.343 Y64.677
N1349 X73.747 Y64.856
N1350 X73.95 Y64.942
N1351 X74.355 Y65.107
N1352 X74.557 Y65.186
N1353 X74.962 Y65.338
N1354 X75.13 Y65.398
N1355 X75.569 Y65.549
N1356 X75.728 Y65.6
N1357 X76.176 Y65.74
N1358 X76.378 Y65.799
N1359 X76.783 Y65.913
N1360 X76.985 Y65.965
N1361 X77.39 Y66.067
N1362 X77.592 Y66.113
N1363 X78.019 Y66.208
N1364 X78.199 Y66.243
N1365 X78.604 Y66.321
N1366 X78.806 Y66.355
N1367 X79.211 Y66.422
N1368 X79.413 Y66.451
N1369 X79.818 Y66.505
N1370 X80.021 Y66.529
N1371 X80.425 Y66.572
N1372 X80.628 Y66.59
N1373 X81.032 Y66.622
N1374 X81.235 Y66.635
N1375 X81.639 Y66.655
N1376 X81.842 Y66.662
N1377 X82.246 Y66.671
N1378 X82.449 Y66.674
N1379 X82.854 Y66.671
N1380 X83.056 Y66.668
N1381 X83.461 Y66.654
N1382 X83.663 Y66.647
N1383 X84.27 Y66.608
N1384 X84.472 Y66.589
N1385 X84.877 Y66.552
N1386 X85.079 Y66.528
N1387 X85.484 Y66.48
N1388 X85.687 Y66.45
N1389 X86.091 Y66.39
N1390 X86.294 Y66.355
N1391 X86.698 Y66.283
N1392 X86.901 Y66.243
N1393 X87.305 Y66.159
N1394 X87.508 Y66.113
N1395 X87.963 Y66.005
N1396 X88.115 Y65.965
N1397 X88.52 Y65.857
N1398 X88.709 Y65.803
N1399 X89.127 Y65.679
N1400 X89.329 Y65.614
N1401 X89.734 Y65.481
N1402 X89.936 Y65.41
N1403 X90.341 Y65.264
N1404 X90.517 Y65.196
N1405 X90.745 Y65.106
N1406 X90.948 Y65.027
N1407 X91.504 Y64.791
N1408 X91.555 Y64.768
N1409 X91.96 Y64.583
N1410 X92.162 Y64.488
N1411 X92.567 Y64.288
N1412 X92.769 Y64.184
N1413 X93.174 Y63.971
N1414 X93.376 Y63.857
N1415 X93.578 Y63.743
N1416 X93.781 Y63.628
N1417 X94.202 Y63.374
N1418 X94.388 Y63.258
N1419 X94.793 Y62.998
N1420 X94.837 Y62.969
N1421 X95.197 Y62.723
N1422 X95.4 Y62.582
N1423 X95.804 Y62.289
N1424 X95.975 Y62.16
N1425 X96.238 Y61.957
N1426 X96.411 Y61.821
N1427 X96.816 Y61.491
N1428 X96.98 Y61.35
N1429 X97.221 Y61.143
N1430 X97.423 Y60.962
N1431 X97.663 Y60.743
N1432 X97.828 Y60.589
N1433 X98.088 Y60.338
N1434 X98.233 Y60.197
N1435 X98.637 Y59.784
N1436 X98.687 Y59.731
N1437 X99.061 Y59.326
N1438 X99.239 Y59.124
N1439 X99.447 Y58.886
N1440 X99.587 Y58.719
N1441 X99.851 Y58.399
N1442 X99.919 Y58.314
N1443 X100.256 Y57.882
N1444 X100.386 Y57.707
N1445 X100.534 Y57.505
N1446 X100.661 Y57.331
N1447 X100.961 Y56.897
N1448 X101.066 Y56.74
N1449 X101.268 Y56.43
N1450 X101.358 Y56.29
N1451 X101.605 Y55.885
N1452 X101.673 Y55.775
N1453 X101.958 Y55.278
N1454 X102.068 Y55.076
N1455 X102.177 Y54.873
N1456 X102.28 Y54.681
N1457 X102.488 Y54.266
N1458 X102.587 Y54.064
N1459 X102.776 Y53.659
N1460 X102.866 Y53.457
N1461 X103.042 Y53.052
N1462 X103.089 Y52.938
N1463 X103.292 Y52.432
N1464 X103.362 Y52.242
N1465 X103.511 Y51.837
N1466 X103.579 Y51.635
N1467 X103.715 Y51.23
N1468 X103.777 Y51.028
N1469 X103.839 Y50.825
N1470 X103.899 Y50.628
N1471 X104.011 Y50.218
N1472 X104.066 Y50.016
N1473 X104.165 Y49.611
N1474 X104.214 Y49.409
N1475 X104.301 Y49.004
N1476 X104.344 Y48.802
N1477 X104.457 Y48.194
N1478 X104.489 Y47.992
N1479 X104.552 Y47.587
N1480 X104.578 Y47.385
N1481 X104.63 Y46.98
N1482 X104.651 Y46.778
N1483 X104.691 Y46.373
N1484 X104.706 Y46.17
N1485 X104.735 Y45.766
N1486 X104.745 Y45.563
N1487 X104.762 Y45.158
N1488 X104.768 Y44.956
N1489 X104.773 Y44.551
N1490 Y44.349
N1491 X104.768 Y43.944
N1492 X104.762 Y43.742
N1493 X104.745 Y43.337
N1494 X104.735 Y43.134
N1495 X104.706 Y42.73
N1496 X104.691 Y42.527
N1497 X104.651 Y42.122
N1498 X104.63 Y41.92
N1499 X104.578 Y41.515
N1500 X104.552 Y41.313
N1501 X104.489 Y40.908
N1502 X104.457 Y40.706
N1503 X104.344 Y40.098
N1504 X104.303 Y39.906
N1505 X104.214 Y39.491
N1506 X104.165 Y39.289
N1507 X104.066 Y38.884
N1508 X104.011 Y38.682
N1509 X103.899 Y38.272
N1510 X103.839 Y38.075
N1511 X103.777 Y37.872
N1512 X103.715 Y37.67
N1513 X103.579 Y37.265
N1514 X103.511 Y37.063
N1515 X103.362 Y36.658
N1516 X103.292 Y36.468
N1517 X103.089 Y35.962
N1518 X103.042 Y35.848
N1519 X102.866 Y35.443
N1520 X102.776 Y35.241
N1521 X102.587 Y34.836
N1522 X102.488 Y34.634
N1523 X102.28 Y34.219
N1524 X102.177 Y34.027
N1525 X102.068 Y33.824
N1526 X101.958 Y33.622
N1527 X101.673 Y33.125
N1528 X101.605 Y33.015
N1529 X101.358 Y32.61
N1530 X101.268 Y32.47
N1531 X101.066 Y32.16
N1532 X100.961 Y32.003
N1533 X100.661 Y31.569
N1534 X100.534 Y31.395
N1535 X100.386 Y31.193
N1536 X100.256 Y31.018
N1537 X99.919 Y30.586
N1538 X99.851 Y30.501
N1539 X99.587 Y30.181
N1540 X99.447 Y30.014
N1541 X99.239 Y29.776
N1542 X99.061 Y29.574
N1543 X98.687 Y29.169
N1544 X98.637 Y29.116
N1545 X98.233 Y28.703
N1546 X98.088 Y28.562
N1547 X97.828 Y28.311
N1548 X97.663 Y28.157
N1549 X97.423 Y27.938
N1550 X97.221 Y27.757
N1551 X96.98 Y27.55
N1552 X96.816 Y27.409
N1553 X96.411 Y27.079
N1554 X96.238 Y26.943
N1555 X95.975 Y26.74
N1556 X95.804 Y26.611
N1557 X95.4 Y26.318
N1558 X95.197 Y26.177
N1559 X94.837 Y25.931
N1560 X94.793 Y25.902
N1561 X94.388 Y25.642
N1562 X94.202 Y25.526
N1563 X93.781 Y25.272
N1564 X93.578 Y25.157
N1565 X93.376 Y25.043
N1566 X93.174 Y24.929
N1567 X92.769 Y24.716
N1568 X92.567 Y24.612
N1569 X92.162 Y24.412
N1570 X91.96 Y24.317
N1571 X91.555 Y24.132
N1572 X91.504 Y24.109
N1573 X90.948 Y23.873
N1574 X90.745 Y23.794
N1575 X90.517 Y23.704
N1576 X90.341 Y23.636
N1577 X89.936 Y23.49
N1578 X89.734 Y23.419
N1579 X89.329 Y23.286
N1580 X89.127 Y23.221
N1581 X88.709 Y23.097
N1582 X88.52 Y23.043
N1583 X88.115 Y22.935
N1584 X87.963 Y22.895
N1585 X87.508 Y22.787
N1586 X87.305 Y22.741
N1587 X86.901 Y22.657
N1588 X86.698 Y22.617
N1589 X86.294 Y22.545
N1590 X86.091 Y22.51
N1591 X85.687 Y22.45
N1592 X85.484 Y22.42
N1593 X85.079 Y22.372
N1594 X84.877 Y22.348
N1595 X84.675 Y22.329
N1596 X84.27 Y22.292
N1597 X83.663 Y22.253
N1598 X83.461 Y22.246
N1599 X83.056 Y22.232
N1600 X82.854 Y22.229
N1601 X82.449 Y22.226
N1602 X82.246 Y22.229
N1603 X81.842 Y22.238
N1604 X81.639 Y22.245
N1605 X81.235 Y22.265
N1606 X81.032 Y22.278
N1607 X80.628 Y22.31
N1608 X80.425 Y22.328
N1609 X80.021 Y22.371
N1610 X79.818 Y22.395
N1611 X79.413 Y22.449
N1612 X79.211 Y22.478
N1613 X78.806 Y22.545
N1614 X78.604 Y22.579
N1615 X78.199 Y22.657
N1616 X78.019 Y22.692
N1617 X77.592 Y22.787
N1618 X77.39 Y22.833
N1619 X76.985 Y22.935
N1620 X76.783 Y22.987
N1621 X76.378 Y23.101
N1622 X76.176 Y23.16
N1623 X75.728 Y23.3
N1624 X75.569 Y23.351
N1625 X75.13 Y23.502
N1626 X74.962 Y23.562
N1627 X74.557 Y23.714
N1628 X74.355 Y23.793
N1629 X73.95 Y23.958
N1630 X73.747 Y24.044
N1631 X73.343 Y24.223
N1632 X73.153 Y24.312
N1633 X72.727 Y24.514
N1634 X72.533 Y24.613
N1635 X72.331 Y24.716
N1636 X72.129 Y24.821
N1637 X71.724 Y25.042
N1638 X71.582 Y25.121
N1639 X71.117 Y25.392
N1640 X70.914 Y25.517
N1641 X70.574 Y25.728
N1642 X70.51 Y25.77
N1643 X70.105 Y26.038
N1644 X69.965 Y26.133
N1645 X69.677 Y26.336
N1646 X69.498 Y26.462
N1647 X69.093 Y26.764
N1648 X68.891 Y26.92
N1649 X68.607 Y27.145
N1650 X68.486 Y27.242
N1651 X68.081 Y27.581
N1652 X67.886 Y27.752
N1653 X67.658 Y27.955
N1654 X67.474 Y28.122
N1655 X67.222 Y28.36
N1656 X67.07 Y28.504
N1657 X66.808 Y28.764
N1658 X66.665 Y28.907
N1659 X66.26 Y29.332
N1660 X66.223 Y29.371
N1661 X65.856 Y29.78
N1662 X65.685 Y29.979
N1663 X65.451 Y30.254
N1664 X65.345 Y30.383
N1665 X65.046 Y30.756
N1666 X65.02 Y30.788
N1667 X64.714 Y31.193
N1668 X64.641 Y31.289
N1669 X64.421 Y31.598
N1670 X64.277 Y31.8
N1671 X64.005 Y32.205
N1672 X63.872 Y32.407
N1673 X63.617 Y32.812
N1674 X63.495 Y33.015
N1675 X63.375 Y33.217
N1676 X63.257 Y33.419
N1677 X63.023 Y33.84
N1678 X62.923 Y34.027
N1679 X62.712 Y34.431
N1680 X62.618 Y34.623
N1681 X62.416 Y35.041
N1682 X62.325 Y35.241
N1683 X62.213 Y35.49
N1684 X62.144 Y35.646
N1685 X61.975 Y36.051
N1686 X61.893 Y36.253
N1687 X61.738 Y36.658
N1688 X61.663 Y36.86
N1689 X61.52 Y37.265
N1690 X61.452 Y37.467
N1691 X61.322 Y37.872
N1692 X61.261 Y38.075
N1693 X61.144 Y38.479
N1694 X61.088 Y38.682
N1695 X60.983 Y39.087
N1696 X60.934 Y39.289
N1697 X60.841 Y39.694
N1698 X60.798 Y39.896
N1699 X60.717 Y40.301
N1700 X60.68 Y40.503
N1701 X60.594 Y41.004
N1702 X60.579 Y41.11
N1703 X60.521 Y41.515
N1704 X60.495 Y41.718
N1705 X60.449 Y42.122
N1706 X60.428 Y42.325
N1707 X60.392 Y42.75
N1708 X60.389 Y42.789 Z-3.169
N1709 X60.386 Y42.823 Z-3.151
N1710 X60.383 Y42.851 Z-3.123
N1711 X60.382 Y42.869 Z-3.088
N1712 X60.381 Y42.875 Z-3.049
N1713 G0 Z15.24
N1715 Z1
N1716 M5
N1716 x 160. Y120.
N1717 M30
