%
(Plaque)
(plaque)
(T1  D=6.35 CR=0 - ZMIN=-7.112 - flat end mill)
N0 G90
N1 G17
(Adaptive2)

N3 S10000 M3
N5 G0 X81.321 Y47.339
N6 Z15.24
N7 Z3.176
N8 G1 Z2.541 F1016
N9 G3 X79.773 Y42.984 Z2.269 I1.229 J-2.89
N10 X84.228 Y41.808 Z1.997 I2.769 J1.461
N11 X85.026 Y46.332 Z1.725 I-1.682 J2.629
N12 X80.465 Y46.749 Z1.452 I-2.472 J-1.889
N13 X80.43 Y42.183 Z1.18 I2.083 J-2.299
N14 X84.969 Y42.528 Z0.908 I2.111 J2.26
N15 X84.249 Y47.009 Z0.636 I-2.421 J1.909
N16 X79.858 Y45.921 Z0.363 I-1.695 J-2.564
N17 X81.303 Y41.649 Z0.091 I2.688 J-1.471
N18 X85.427 Y43.44 Z-0.181 I1.238 J2.792
N19 X83.305 Y47.388 Z-0.453 I-2.877 J0.998
N20 X79.559 Y44.952 Z-0.726 I-0.752 J-2.941
N21 X82.291 Y41.433 Z-0.998 I2.984 J-0.503
N22 X85.559 Y44.439 Z-1.27 I0.252 J3.006
N23 X79.526 I-3.017 J0
N24 X85.452 Y43.641 I3.017 J0
N25 X85.559 Y44.439 I-2.909 J0.798
N26 G1 X85.563 Y44.669
N27 X85.72 Y45.574
N28 G3 X85.561 Y47.252 I-1.845 J0.671
N29 X83.772 Y48.818 I-2.886 J-1.493
N30 X79.234 Y47.88 I-1.533 J-4.034
N31 X80.386 Y40.128 I3.251 J-3.478
N32 X86.808 Y42.174 I2.169 J4.294
N33 G1 X87.217 Y42.969
N34 G3 X87.815 Y45.051 I-6.141 J2.891
N35 X84.466 Y50.581 I-5.29 J0.575
N36 X79.2 Y50.28 I-2.32 J-5.636
N37 X75.992 Y42.486 I3.164 J-5.86
N38 X87.572 Y39.784 I6.556 J1.931
N39 X89.95 Y45.189 I-5.961 J5.849
N40 X85.337 Y52.482 I-7.566 J0.32
N41 X78.905 Y52.498 I-3.234 J-7.506
N42 X73.636 Y45.564 I3.366 J-8.027
N43 X84.562 Y35.66 I8.895 J-1.166
N44 X87.913 Y37.191 I-1.996 J8.796
N45 X92.146 Y44.884 I-6.083 J8.359
N46 X87.063 Y54.086 I-9.81 J0.586
N47 X80.655 Y55.263 I-4.965 J-8.995
N48 X74.574 Y52.247 I1.474 J-10.611
N49 X71.307 Y44.246 I7.768 J-7.84
N50 X78.655 Y33.867 I11.212 J0.147
N51 X86.64 Y33.94 I3.895 J10.557
N52 X90.495 Y36.39 I-4.305 J11.033
N53 X94.294 Y43.572 I-8.628 J9.161
N54 X92.795 Y51.547 I-12.029 J1.868
N55 X84.853 Y57.334 I-10.575 J-6.17
N56 X75.946 Y56.083 I-2.792 J-12.461
N57 X70.336 Y50.19 I6.237 J-11.554
N58 X70.722 Y37.815 I12.089 J-5.816
N59 X86.494 Y31.462 I11.823 J6.597
N60 X93.85 Y36.706 I-4.193 J13.663
N61 X95.778 Y50.666 I-11.693 J8.728
N62 X84.041 Y59.826 I-13.578 J-5.299
N63 X72.8 Y56.803 I-1.995 J-14.995
N64 X66.695 Y44.941 I9.471 J-12.376
N65 X87.343 Y29.289 I15.841 J-0.548
N66 X96.04 Y35.739 I-5.001 J15.831
N67 X95.736 Y55.522 I-13.828 J9.682
N68 X83.181 Y62.269 I-13.598 J-10.247
N69 X69.147 Y56.654 I-1.116 J-17.554
N70 X66.31 Y36.138 I13.228 J-12.284
N71 X89.868 Y27.716 I16.243 J8.276
N72 X99.561 Y37.099 I-7.634 J17.584
N73 X86.98 Y64.046 I-17.317 J8.325
N74 X69.644 Y60.331 I-4.955 J-19.185
N75 X63.28 Y37.132 I12.675 J-15.95
N76 X90.502 Y25.403 I19.271 J7.272
N77 X101.202 Y35.068 I-8.2 J19.834
N78 X94.905 Y62.918 I-18.954 J10.351
N79 G1 X94.04 Y63.447
N80 X93.441 Y63.816
N81 G3 X89.686 Y65.491 I-12.212 J-22.338
N82 X87.599 Y66.079 I-10.363 J-32.761
N83 X84.261 Y66.596 I-5.243 J-22.814
N84 X77.583 Y66.095 I-1.683 J-22.323
N85 G1 X76.332 Y65.78
N86 G3 X74.246 Y65.054 I10.57 J-33.75
N87 G1 X72.785 Y64.402
N88 G3 X67.668 Y60.943 I10.194 J-20.59
N89 X63.811 Y56.385 I15.811 J-17.291
N90 X61.969 Y52.799 I20.548 J-12.825
N91 G1 X61.505 Y51.546
N92 G3 X60.855 Y49.25 I28.838 J-9.4
N93 G1 X60.632 Y47.997
N94 G3 X65.072 Y30.748 I21.89 J-3.562
N95 G1 X65.124 Y30.668
N96 X66.197 Y29.416
N97 G3 X67.982 Y27.678 I20.533 J19.317
N98 X72.368 Y24.711 I15.07 J17.546
N99 G1 X72.576 Y24.595
N100 G3 X76.222 Y23.153 I11.388 J23.457
N101 X79.879 Y22.402 I6.735 J23.53
N102 X84.261 Y22.303 I2.709 J22.986
N103 X87.808 Y22.871 I-1.9 J23.254
N104 X89.895 Y23.48 I-8.863 J34.227
N105 X91.982 Y24.343 I-9.957 J27.051
N106 G1 X93.35 Y25.031
N107 X93.442 Y25.084
N108 G3 X96.444 Y27.12 I-12.832 J22.155
N109 X98.104 Y28.581 I-22.617 J27.377
N110 G1 X99.284 Y29.841
N111 X99.464 Y30.042
N112 X100.536 Y31.411
N113 G3 X102.681 Y35.053 I-20.683 J14.634
N114 G1 X103.248 Y36.4
N115 X103.38 Y36.723
N116 X103.457 Y36.943
N117 X103.921 Y38.393
N118 G3 X104.665 Y46.535 I-21.751 J6.093
N119 X104.366 Y48.623 I-33.188 J-3.69
N120 X103.254 Y52.502 I-23.285 J-4.576
N121 X101.566 Y55.931 I-22.181 J-8.79
N122 G1 X100.744 Y57.195
N123 G3 X96.78 Y61.505 I-18.678 J-13.201
N124 X95.002 Y62.842 I-20.194 J-25.002
N125 G1 X94.952 Y62.864 Z-1.264
N126 X94.904 Y62.884 Z-1.245
N127 X94.861 Y62.903 Z-1.215
N128 X94.825 Y62.919 Z-1.176
N129 X94.797 Y62.931 Z-1.129
N130 X94.779 Y62.935 Z-1.076
N131 X94.773 Y62.936 Z-1.021
N132 G0 Z5.08
N133 X81.299 Y47.33
N134 Z1.905
N135 G1 Z1.27 F1016
N136 G3 X79.783 Y42.965 Z0.998 I1.25 J-2.88
N137 X84.245 Y41.819 Z0.726 I2.758 J1.48
N138 X85.015 Y46.347 Z0.454 I-1.698 J2.618
N139 X80.453 Y46.738 Z0.181 I-2.461 J-1.904
N140 X80.441 Y42.173 Z-0.091 I2.095 J-2.288
N141 X84.977 Y42.538 Z-0.363 I2.1 J2.27
N142 X84.24 Y47.015 Z-0.635 I-2.429 J1.899
N143 X79.853 Y45.912 Z-0.907 I-1.686 J-2.57
N144 X81.311 Y41.645 Z-1.179 I2.692 J-1.463
N145 X85.43 Y43.446 Z-1.451 I1.231 J2.796
N146 X83.3 Y47.389 Z-1.724 I-2.879 J0.992
N147 X79.559 Y44.948 Z-1.996 I-0.748 J-2.942
N148 X82.293 Y41.433 Z-2.268 I2.985 J-0.5
N149 X85.559 Y44.439 Z-2.54 I0.25 J3.006
N150 X79.526 I-3.017 J0
N151 X85.452 Y43.641 I3.017 J0
N152 X85.559 Y44.439 I-2.909 J0.798
N153 G1 X85.563 Y44.669
N154 X85.72 Y45.574
N155 G3 X85.561 Y47.252 I-1.845 J0.671
N156 X83.772 Y48.817 I-2.886 J-1.493
N157 X79.234 Y47.88 I-1.533 J-4.034
N158 X80.386 Y40.128 I3.251 J-3.478
N159 X86.808 Y42.174 I2.169 J4.294
N160 G1 X87.217 Y42.969
N161 G3 X87.815 Y45.051 I-6.141 J2.891
N162 X84.466 Y50.581 I-5.29 J0.575
N163 X79.2 Y50.28 I-2.32 J-5.636
N164 X75.992 Y42.486 I3.164 J-5.86
N165 X87.572 Y39.784 I6.556 J1.931
N166 X89.95 Y45.189 I-5.961 J5.849
N167 X85.337 Y52.482 I-7.566 J0.32
N168 X78.905 Y52.498 I-3.234 J-7.506
N169 X73.636 Y45.564 I3.366 J-8.027
N170 X84.562 Y35.659 I8.895 J-1.166
N171 X87.913 Y37.191 I-1.996 J8.796
N172 X92.146 Y44.884 I-6.083 J8.359
N173 X87.063 Y54.086 I-9.81 J0.586
N174 X80.655 Y55.263 I-4.965 J-8.995
N175 X74.574 Y52.247 I1.474 J-10.611
N176 X71.307 Y44.245 I7.769 J-7.84
N177 X78.655 Y33.867 I11.212 J0.147
N178 X86.64 Y33.94 I3.895 J10.557
N179 X90.495 Y36.39 I-4.305 J11.033
N180 X94.294 Y43.572 I-8.628 J9.161
N181 X92.795 Y51.547 I-12.029 J1.868
N182 X84.853 Y57.334 I-10.575 J-6.17
N183 X75.946 Y56.083 I-2.792 J-12.461
N184 X70.336 Y50.19 I6.238 J-11.554
N185 X70.722 Y37.815 I12.089 J-5.816
N186 X86.494 Y31.462 I11.823 J6.597
N187 X93.85 Y36.706 I-4.193 J13.663
N188 X95.778 Y50.666 I-11.693 J8.728
N189 X84.041 Y59.826 I-13.578 J-5.299
N190 X72.8 Y56.803 I-1.995 J-14.995
N191 X66.695 Y44.941 I9.471 J-12.376
N192 X87.343 Y29.289 I15.841 J-0.548
N193 X96.04 Y35.739 I-5.001 J15.831
N194 X95.736 Y55.522 I-13.828 J9.682
N195 X83.181 Y62.269 I-13.598 J-10.247
N196 X69.147 Y56.654 I-1.116 J-17.554
N197 X66.31 Y36.138 I13.228 J-12.284
N198 X89.868 Y27.716 I16.243 J8.276
N199 X99.561 Y37.099 I-7.634 J17.584
N200 X86.979 Y64.046 I-17.317 J8.325
N201 X69.644 Y60.331 I-4.955 J-19.185
N202 X63.28 Y37.132 I12.675 J-15.95
N203 X90.502 Y25.403 I19.271 J7.272
N204 X101.202 Y35.068 I-8.2 J19.834
N205 X94.905 Y62.918 I-18.954 J10.351
N206 G1 X94.04 Y63.447
N207 X93.441 Y63.816
N208 G3 X89.686 Y65.491 I-12.212 J-22.338
N209 X87.599 Y66.079 I-10.363 J-32.761
N210 X84.261 Y66.596 I-5.243 J-22.814
N211 X77.583 Y66.095 I-1.683 J-22.323
N212 G1 X76.332 Y65.78
N213 G3 X74.246 Y65.054 I10.57 J-33.75
N214 G1 X72.785 Y64.402
N215 G3 X67.668 Y60.943 I10.194 J-20.59
N216 X63.811 Y56.385 I15.811 J-17.291
N217 X61.969 Y52.799 I20.548 J-12.825
N218 G1 X61.505 Y51.546
N219 G3 X60.855 Y49.25 I28.838 J-9.4
N220 G1 X60.632 Y47.997
N221 G3 X65.072 Y30.748 I21.89 J-3.562
N222 G1 X65.124 Y30.668
N223 X66.197 Y29.416
N224 G3 X67.982 Y27.678 I20.533 J19.317
N225 X72.368 Y24.711 I15.07 J17.546
N226 G1 X72.576 Y24.595
N227 G3 X76.222 Y23.153 I11.388 J23.457
N228 X79.879 Y22.402 I6.735 J23.53
N229 X84.261 Y22.303 I2.709 J22.986
N230 X87.808 Y22.871 I-1.9 J23.254
N231 X89.895 Y23.48 I-8.863 J34.227
N232 X91.982 Y24.343 I-9.957 J27.051
N233 G1 X93.35 Y25.031
N234 X93.442 Y25.084
N235 G3 X96.444 Y27.12 I-12.832 J22.155
N236 X98.104 Y28.581 I-22.617 J27.377
N237 G1 X99.284 Y29.841
N238 X99.464 Y30.042
N239 X100.536 Y31.411
N240 G3 X102.681 Y35.053 I-20.683 J14.634
N241 G1 X103.248 Y36.4
N242 X103.38 Y36.723
N243 X103.457 Y36.943
N244 X103.921 Y38.393
N245 G3 X104.665 Y46.535 I-21.751 J6.093
N246 X104.366 Y48.623 I-33.188 J-3.69
N247 X103.254 Y52.502 I-23.285 J-4.576
N248 X101.566 Y55.931 I-22.181 J-8.79
N249 G1 X100.744 Y57.195
N250 G3 X96.78 Y61.505 I-18.678 J-13.201
N251 X95.003 Y62.841 I-20.192 J-24.999
N252 G1 X94.952 Y62.863 Z-2.534
N253 X94.904 Y62.884 Z-2.515
N254 X94.861 Y62.903 Z-2.485
N255 X94.825 Y62.919 Z-2.446
N256 X94.798 Y62.93 Z-2.399
N257 X94.78 Y62.934 Z-2.346
N258 X94.773 Y62.936 Z-2.291
N259 G0 Z5.08
N260 X81.299 Y47.331
N261 Z0.635
N262 G1 Z0 F1016
N263 G3 X79.782 Y42.966 Z-0.272 I1.25 J-2.88
N264 X84.245 Y41.82 Z-0.544 I2.758 J1.48
N265 X85.015 Y46.348 Z-0.816 I-1.698 J2.618
N266 X80.452 Y46.739 Z-1.089 I-2.461 J-1.904
N267 X80.441 Y42.174 Z-1.361 I2.095 J-2.288
N268 X84.977 Y42.539 Z-1.633 I2.1 J2.27
N269 X84.239 Y47.016 Z-1.905 I-2.429 J1.899
N270 X79.853 Y45.913 Z-2.177 I-1.686 J-2.57
N271 X81.31 Y41.646 Z-2.449 I2.692 J-1.463
N272 X85.429 Y43.447 Z-2.721 I1.231 J2.796
N273 X83.3 Y47.39 Z-2.994 I-2.879 J0.992
N274 X79.559 Y44.949 Z-3.266 I-0.748 J-2.942
N275 X82.293 Y41.434 Z-3.538 I2.985 J-0.5
N276 X85.559 Y44.44 Z-3.81 I0.25 J3.006
N277 X79.526 I-3.017 J0
N278 X85.452 Y43.642 I3.017 J0
N279 X85.559 Y44.44 I-2.909 J0.798
N280 G1 X85.563 Y44.67
N281 X85.72 Y45.575
N282 G3 X85.56 Y47.253 I-1.845 J0.671
N283 X83.772 Y48.818 I-2.886 J-1.493
N284 X79.234 Y47.881 I-1.533 J-4.034
N285 X80.386 Y40.129 I3.251 J-3.478
N286 X86.807 Y42.175 I2.169 J4.294
N287 G1 X87.217 Y42.97
N288 G3 X87.815 Y45.052 I-6.141 J2.891
N289 X84.466 Y50.582 I-5.29 J0.575
N290 X79.2 Y50.281 I-2.32 J-5.636
N291 X75.992 Y42.487 I3.164 J-5.86
N292 X87.571 Y39.785 I6.556 J1.931
N293 X89.95 Y45.189 I-5.961 J5.849
N294 X85.337 Y52.483 I-7.566 J0.32
N295 X78.905 Y52.498 I-3.234 J-7.506
N296 X73.636 Y45.564 I3.366 J-8.027
N297 X84.562 Y35.66 I8.895 J-1.166
N298 X87.912 Y37.192 I-1.996 J8.796
N299 X92.146 Y44.885 I-6.083 J8.359
N300 X87.063 Y54.087 I-9.81 J0.586
N301 X80.655 Y55.264 I-4.965 J-8.995
N302 X74.574 Y52.248 I1.474 J-10.611
N303 X71.307 Y44.246 I7.769 J-7.84
N304 X78.654 Y33.868 I11.212 J0.147
N305 X86.639 Y33.941 I3.895 J10.557
N306 X90.494 Y36.391 I-4.305 J11.033
N307 X94.294 Y43.573 I-8.628 J9.161
N308 X92.795 Y51.548 I-12.029 J1.868
N309 X84.853 Y57.335 I-10.575 J-6.17
N310 X75.946 Y56.084 I-2.792 J-12.461
N311 X70.336 Y50.191 I6.238 J-11.554
N312 X70.722 Y37.816 I12.089 J-5.816
N313 X86.494 Y31.463 I11.823 J6.597
N314 X93.85 Y36.707 I-4.193 J13.663
N315 X95.778 Y50.667 I-11.693 J8.728
N316 X84.04 Y59.827 I-13.578 J-5.299
N317 X72.799 Y56.804 I-1.995 J-14.995
N318 X66.694 Y44.942 I9.471 J-12.376
N319 X87.343 Y29.29 I15.841 J-0.548
N320 X96.039 Y35.74 I-5.001 J15.831
N321 X99.066 Y46.327 I-13.852 J9.686
N322 X98.406 Y49.459 I-18.287 J-2.217
N323 G1 X97.95 Y50.711
N324 X97.867 Y50.92
N325 G3 X97.162 Y52.381 I-21.584 J-9.505
N326 X95.142 Y55.305 I-15.606 J-8.625
N327 G1 X94.276 Y56.236
N328 G3 X85.722 Y60.768 I-11.825 J-11.98
N329 X80.505 Y60.952 I-3.219 J-17.27
N330 X77.167 Y60.181 I2.518 J-18.511
N331 G1 X76.123 Y59.773
N332 G3 X67.149 Y50.686 I6.384 J-15.279
N333 G1 X66.943 Y50.181
N334 X66.904 Y50.085
N335 X66.517 Y48.832
N336 G3 X65.958 Y43.404 I16.654 J-4.459
N337 X68.563 Y35.468 I16.814 J1.126
N338 X70.531 Y32.961 I15.831 J10.396
N339 X71.738 Y31.819 I17.097 J16.873
N340 X75.47 Y29.414 I11.306 J13.447
N341 X81.966 Y27.838 I7.106 J15.11
N342 X85.722 Y28.131 I0.47 J18.172
N343 X99.172 Y44.448 I-3.19 J16.331
N344 X99.076 Y46.189 I-21.666 J-0.32
N345 G1 X99.059 Y46.241 Z-3.804
N346 X99.042 Y46.291 Z-3.785
N347 X99.027 Y46.336 Z-3.756
N348 X99.015 Y46.373 Z-3.716
N349 X99.005 Y46.401 Z-3.669
N350 X98.996 Y46.417 Z-3.616
N351 X98.993 Y46.423 Z-3.561
N352 G0 Z-1.904
N353 X92.755 Y37.3
N354 G1 Z-2.539 F1016
N355 X92.759 Y37.294 Z-2.638
N356 X92.774 Y37.276 Z-2.735
N357 X92.797 Y37.246 Z-2.827
N358 X92.829 Y37.204 Z-2.912
N359 X92.868 Y37.153 Z-2.988
N360 X92.914 Y37.093 Z-3.052
N361 X92.966 Y37.026 Z-3.105
N362 X93.022 Y36.953 Z-3.143
N363 X93.081 Y36.876 Z-3.166
N364 X93.142 Y36.797 Z-3.174
N365 G3 X95.559 Y34.276 I12.843 J9.892
N366 G1 X95.679 Y34.182
N367 G3 X96.705 Y34.268 I0.388 J1.526
N368 X98.174 Y35.177 I-1.4 J3.904
N369 G1 X98.534 Y35.525
N370 X98.937 Y35.986
N371 X99.343 Y36.534
N372 X99.762 Y37.206
N373 X100.184 Y38.023
N374 G3 X101.391 Y42.437 I-13.357 J6.025
N375 X95.586 Y58.244 I-18.647 J2.122
N376 X69.508 Y30.654 I-13.039 J-13.795
N377 X94.788 Y29.941 I13.039 J13.795
N378 G1 X95.535 Y30.476
N379 X96.315 Y30.963
N380 X97.099 Y31.442
N381 X97.869 Y31.943
N382 G3 X100.587 Y34.401 I-7.043 J10.518
N383 X102.819 Y38.394 I-10.692 J8.597
N384 X103.879 Y44.705 I-16.88 J6.081
N385 X93.28 Y62.918 I-21.178 J-0.133
N386 X71.811 Y25.978 I-10.734 J-18.47
N387 X94.447 Y26.707 I10.734 J18.47
N388 X98.297 Y29.215 I-540.5 J834.18
N389 G1 X99.044 Y29.751
N390 G3 X99.647 Y30.272 I-1.608 J2.471
N391 X102.678 Y35.054 I-17.788 J14.625
N392 G1 X103.248 Y36.4
N393 X103.38 Y36.723
N394 X103.457 Y36.943
N395 X103.921 Y38.393
N396 G3 X104.665 Y46.535 I-21.751 J6.093
N397 X104.366 Y48.623 I-33.188 J-3.69
N398 X103.254 Y52.502 I-23.285 J-4.576
N399 X101.566 Y55.931 I-22.181 J-8.79
N400 G1 X100.744 Y57.195
N401 G3 X96.78 Y61.505 I-18.678 J-13.201
N402 X93.358 Y63.862 I-15.811 J-19.286
N403 G1 X91.981 Y64.556
N404 G3 X89.686 Y65.491 I-11.186 J-24.164
N405 X87.599 Y66.079 I-10.415 J-32.962
N406 X84.261 Y66.596 I-5.243 J-22.816
N407 X77.583 Y66.095 I-1.683 J-22.323
N408 G1 X76.332 Y65.78
N409 G3 X74.246 Y65.054 I10.57 J-33.75
N410 G1 X72.785 Y64.402
N411 G3 X67.668 Y60.943 I10.194 J-20.59
N412 X63.811 Y56.385 I15.811 J-17.291
N413 X61.969 Y52.799 I20.548 J-12.825
N414 G1 X61.505 Y51.546
N415 G3 X60.855 Y49.25 I28.838 J-9.4
N416 G1 X60.632 Y47.997
N417 G3 X65.072 Y30.748 I21.89 J-3.562
N418 G1 X65.124 Y30.668
N419 X66.197 Y29.416
N420 G3 X67.982 Y27.678 I20.533 J19.317
N421 X72.368 Y24.711 I15.07 J17.546
N422 G1 X72.576 Y24.595
N423 G3 X76.222 Y23.153 I11.388 J23.457
N424 X79.879 Y22.402 I6.735 J23.53
N425 X84.261 Y22.303 I2.709 J22.986
N426 X87.808 Y22.871 I-1.9 J23.254
N427 X89.895 Y23.48 I-8.863 J34.227
N428 X91.982 Y24.343 I-9.957 J27.051
N429 G1 X93.35 Y25.031
N430 X93.442 Y25.084
N431 G3 X96.444 Y27.12 I-12.832 J22.155
N432 X98.104 Y28.581 I-22.617 J27.377
N433 G1 X99.284 Y29.841
N434 X99.464 Y30.042
N435 X99.645 Y30.273
N436 X99.67 Y30.323 Z-3.167
N437 X99.692 Y30.37 Z-3.149
N438 X99.713 Y30.412 Z-3.119
N439 X99.73 Y30.447 Z-3.08
N440 X99.743 Y30.474 Z-3.033
N441 X99.748 Y30.492 Z-2.98
N442 X99.749 Y30.498 Z-2.924
N443 G0 Z-0.635
N444 X81.299 Y47.331
N445 G1 Z-1.27 F1016
N446 G3 X79.782 Y42.966 Z-1.542 I1.25 J-2.88
N447 X84.245 Y41.82 Z-1.814 I2.758 J1.48
N448 X85.015 Y46.348 Z-2.086 I-1.698 J2.618
N449 X80.452 Y46.739 Z-2.359 I-2.461 J-1.904
N450 X80.441 Y42.174 Z-2.631 I2.095 J-2.288
N451 X84.977 Y42.539 Z-2.903 I2.1 J2.27
N452 X84.239 Y47.016 Z-3.175 I-2.429 J1.899
N453 X79.853 Y45.913 Z-3.447 I-1.686 J-2.57
N454 X81.31 Y41.646 Z-3.719 I2.692 J-1.463
N455 X85.429 Y43.447 Z-3.991 I1.231 J2.796
N456 X83.3 Y47.39 Z-4.264 I-2.879 J0.992
N457 X79.559 Y44.949 Z-4.536 I-0.748 J-2.942
N458 X82.293 Y41.434 Z-4.808 I2.985 J-0.5
N459 X85.559 Y44.44 Z-5.08 I0.25 J3.006
N460 X79.526 I-3.017 J0
N461 X85.452 Y43.642 I3.017 J0
N462 X85.559 Y44.44 I-2.909 J0.798
N463 G1 X85.563 Y44.67
N464 X85.72 Y45.575
N465 G3 X85.56 Y47.253 I-1.845 J0.671
N466 X83.772 Y48.818 I-2.886 J-1.493
N467 X79.234 Y47.881 I-1.533 J-4.034
N468 X80.386 Y40.129 I3.251 J-3.478
N469 X86.807 Y42.175 I2.169 J4.294
N470 G1 X87.217 Y42.97
N471 G3 X87.815 Y45.052 I-6.141 J2.891
N472 X84.466 Y50.582 I-5.29 J0.575
N473 X79.2 Y50.281 I-2.32 J-5.636
N474 X75.992 Y42.487 I3.164 J-5.86
N475 X87.571 Y39.785 I6.556 J1.931
N476 X89.95 Y45.189 I-5.961 J5.849
N477 X85.337 Y52.483 I-7.566 J0.32
N478 X78.905 Y52.498 I-3.234 J-7.506
N479 X73.636 Y45.564 I3.366 J-8.027
N480 X84.562 Y35.66 I8.895 J-1.166
N481 X87.912 Y37.192 I-1.996 J8.796
N482 X92.146 Y44.885 I-6.083 J8.359
N483 X87.063 Y54.087 I-9.81 J0.586
N484 X80.655 Y55.264 I-4.965 J-8.995
N485 X74.574 Y52.248 I1.474 J-10.611
N486 X71.307 Y44.246 I7.769 J-7.84
N487 X78.654 Y33.868 I11.212 J0.147
N488 X86.639 Y33.941 I3.895 J10.557
N489 X90.494 Y36.391 I-4.305 J11.033
N490 X94.294 Y43.573 I-8.628 J9.161
N491 X92.795 Y51.548 I-12.029 J1.868
N492 X84.853 Y57.335 I-10.575 J-6.17
N493 X75.946 Y56.084 I-2.792 J-12.461
N494 X70.336 Y50.191 I6.238 J-11.554
N495 X70.722 Y37.816 I12.089 J-5.816
N496 X86.494 Y31.463 I11.823 J6.597
N497 X93.85 Y36.707 I-4.193 J13.663
N498 X95.778 Y50.667 I-11.693 J8.728
N499 X84.04 Y59.827 I-13.578 J-5.299
N500 X72.799 Y56.804 I-1.995 J-14.995
N501 X66.694 Y44.942 I9.471 J-12.376
N502 X87.343 Y29.29 I15.841 J-0.548
N503 X96.039 Y35.74 I-5.001 J15.831
N504 X99.066 Y46.327 I-13.852 J9.686
N505 X98.406 Y49.459 I-18.287 J-2.217
N506 G1 X97.95 Y50.711
N507 X97.867 Y50.92
N508 G3 X97.162 Y52.381 I-21.584 J-9.505
N509 X95.142 Y55.305 I-15.606 J-8.625
N510 G1 X94.276 Y56.236
N511 G3 X85.722 Y60.768 I-11.825 J-11.98
N512 X80.505 Y60.952 I-3.219 J-17.27
N513 X77.167 Y60.181 I2.518 J-18.511
N514 G1 X76.123 Y59.773
N515 G3 X67.149 Y50.686 I6.384 J-15.279
N516 G1 X66.943 Y50.181
N517 X66.904 Y50.085
N518 X66.517 Y48.832
N519 G3 X65.958 Y43.404 I16.654 J-4.459
N520 X68.563 Y35.468 I16.814 J1.126
N521 X70.531 Y32.961 I15.831 J10.396
N522 X71.738 Y31.819 I17.097 J16.873
N523 X75.47 Y29.414 I11.306 J13.447
N524 X81.966 Y27.838 I7.106 J15.11
N525 X85.722 Y28.131 I0.47 J18.172
N526 X99.172 Y44.448 I-3.19 J16.331
N527 X99.076 Y46.189 I-21.666 J-0.32
N528 G1 X99.059 Y46.241 Z-5.074
N529 X99.042 Y46.291 Z-5.055
N530 X99.027 Y46.336 Z-5.026
N531 X99.015 Y46.373 Z-4.986
N532 X99.005 Y46.401 Z-4.939
N533 X98.996 Y46.417 Z-4.886
N534 X98.993 Y46.423 Z-4.831
N535 G0 Z-1.905
N536 X81.299 Y47.331
N537 G1 Z-2.54 F1016
N538 G3 X79.782 Y42.966 Z-2.812 I1.25 J-2.88
N539 X84.245 Y41.82 Z-3.084 I2.758 J1.48
N540 X85.015 Y46.348 Z-3.356 I-1.698 J2.618
N541 X80.452 Y46.739 Z-3.629 I-2.461 J-1.904
N542 X80.441 Y42.174 Z-3.901 I2.095 J-2.288
N543 X84.977 Y42.539 Z-4.173 I2.1 J2.27
N544 X84.239 Y47.016 Z-4.445 I-2.429 J1.899
N545 X79.853 Y45.913 Z-4.717 I-1.686 J-2.57
N546 X81.31 Y41.646 Z-4.989 I2.692 J-1.463
N547 X85.429 Y43.447 Z-5.261 I1.231 J2.796
N548 X83.3 Y47.39 Z-5.534 I-2.879 J0.992
N549 X79.559 Y44.949 Z-5.806 I-0.748 J-2.942
N550 X82.293 Y41.434 Z-6.078 I2.985 J-0.5
N551 X85.559 Y44.44 Z-6.35 I0.25 J3.006
N552 X79.526 I-3.017 J0
N553 X85.452 Y43.642 I3.017 J0
N554 X85.559 Y44.44 I-2.909 J0.798
N555 G1 X85.563 Y44.67
N556 X85.72 Y45.575
N557 G3 X85.56 Y47.253 I-1.845 J0.671
N558 X83.772 Y48.818 I-2.886 J-1.493
N559 X79.234 Y47.881 I-1.533 J-4.034
N560 X80.386 Y40.129 I3.251 J-3.478
N561 X86.807 Y42.175 I2.169 J4.294
N562 G1 X87.217 Y42.97
N563 G3 X87.815 Y45.052 I-6.141 J2.891
N564 X84.466 Y50.582 I-5.29 J0.575
N565 X79.2 Y50.281 I-2.32 J-5.636
N566 X75.992 Y42.487 I3.164 J-5.86
N567 X87.571 Y39.785 I6.556 J1.931
N568 X89.95 Y45.189 I-5.961 J5.849
N569 X85.337 Y52.483 I-7.566 J0.32
N570 X78.905 Y52.498 I-3.234 J-7.506
N571 X73.636 Y45.564 I3.366 J-8.027
N572 X84.562 Y35.66 I8.895 J-1.166
N573 X87.912 Y37.192 I-1.996 J8.796
N574 X92.146 Y44.885 I-6.083 J8.359
N575 X87.063 Y54.087 I-9.81 J0.586
N576 X80.655 Y55.264 I-4.965 J-8.995
N577 X74.574 Y52.248 I1.474 J-10.611
N578 X71.307 Y44.246 I7.769 J-7.84
N579 X78.654 Y33.868 I11.212 J0.147
N580 X86.639 Y33.941 I3.895 J10.557
N581 X90.494 Y36.391 I-4.305 J11.033
N582 X94.294 Y43.573 I-8.628 J9.161
N583 X92.795 Y51.548 I-12.029 J1.868
N584 X84.853 Y57.335 I-10.575 J-6.17
N585 X75.946 Y56.084 I-2.792 J-12.461
N586 X70.336 Y50.191 I6.238 J-11.554
N587 X70.722 Y37.816 I12.089 J-5.816
N588 X86.494 Y31.463 I11.823 J6.597
N589 X93.85 Y36.707 I-4.193 J13.663
N590 X95.778 Y50.667 I-11.693 J8.728
N591 X84.04 Y59.827 I-13.578 J-5.299
N592 X72.799 Y56.804 I-1.995 J-14.995
N593 X66.694 Y44.942 I9.471 J-12.376
N594 X87.343 Y29.29 I15.841 J-0.548
N595 X96.039 Y35.74 I-5.001 J15.831
N596 X99.066 Y46.327 I-13.852 J9.686
N597 X98.406 Y49.459 I-18.287 J-2.217
N598 G1 X97.95 Y50.711
N599 X97.867 Y50.92
N600 G3 X97.162 Y52.381 I-21.584 J-9.505
N601 X95.142 Y55.305 I-15.606 J-8.625
N602 G1 X94.276 Y56.236
N603 G3 X85.722 Y60.768 I-11.825 J-11.98
N604 X80.505 Y60.952 I-3.219 J-17.27
N605 X77.167 Y60.181 I2.518 J-18.511
N606 G1 X76.123 Y59.773
N607 G3 X67.149 Y50.686 I6.384 J-15.279
N608 G1 X66.943 Y50.181
N609 X66.904 Y50.085
N610 X66.517 Y48.832
N611 G3 X65.958 Y43.404 I16.654 J-4.459
N612 X68.563 Y35.468 I16.814 J1.126
N613 X70.531 Y32.961 I15.831 J10.396
N614 X71.738 Y31.819 I17.097 J16.873
N615 X75.47 Y29.414 I11.306 J13.447
N616 X81.966 Y27.838 I7.106 J15.11
N617 X85.722 Y28.131 I0.47 J18.172
N618 X99.172 Y44.448 I-3.19 J16.331
N619 X99.076 Y46.189 I-21.666 J-0.32
N620 G1 X99.059 Y46.241 Z-6.344
N621 X99.042 Y46.291 Z-6.325
N622 X99.027 Y46.336 Z-6.296
N623 X99.015 Y46.373 Z-6.256
N624 X99.005 Y46.401 Z-6.209
N625 X98.996 Y46.417 Z-6.156
N626 X98.993 Y46.423 Z-6.101
N627 G0 Z-3.175
N628 X83.323 Y41.425
N629 G1 Z-3.81 F1016
N630 G3 X85.471 Y45.552 Z-4.085 I-0.774 J3.025
N631 X81.147 Y47.229 Z-4.36 I-2.913 J-1.098
N632 X79.959 Y42.761 Z-4.635 I1.407 J-2.766
N633 X84.516 Y42.072 Z-4.91 I2.587 J1.697
N634 X84.7 Y46.663 Z-5.185 I-1.964 J2.378
N635 X80.13 Y46.342 Z-5.46 I-2.141 J-2.207
N636 X80.949 Y41.85 Z-5.735 I2.421 J-1.88
N637 X85.31 Y43.153 Z-6.01 I1.597 J2.604
N638 X83.542 Y47.332 Z-6.286 I-2.755 J1.298
N639 X79.595 Y45.122 Z-6.561 I-0.984 J-2.872
N640 X82.216 Y41.453 Z-6.836 I2.954 J-0.661
N641 X85.564 Y44.452 Z-7.111 I0.331 J2.999
N642 X79.531 I-3.017 J0
N643 X85.564 I3.017 J0
N644 G1 X85.568 Y44.682
N645 X85.726 Y45.587
N646 G3 X85.566 Y47.265 I-1.845 J0.671
N647 X83.778 Y48.831 I-2.886 J-1.493
N648 X79.239 Y47.893 I-1.533 J-4.035
N649 X80.391 Y40.14 I3.251 J-3.479
N650 X86.813 Y42.186 I2.169 J4.294
N651 G1 X87.222 Y42.981
N652 G3 X87.82 Y45.064 I-6.142 J2.892
N653 X84.472 Y50.594 I-5.29 J0.576
N654 X79.205 Y50.294 I-2.32 J-5.636
N655 X75.996 Y42.5 I3.164 J-5.861
N656 X87.576 Y39.796 I6.557 J1.93
N657 X89.956 Y45.201 I-5.961 J5.85
N658 X85.342 Y52.495 I-7.567 J0.321
N659 X78.91 Y52.511 I-3.234 J-7.506
N660 X73.64 Y45.577 I3.366 J-8.028
N661 X84.566 Y35.672 I8.895 J-1.167
N662 X87.917 Y37.203 I-1.995 J8.796
N663 X92.151 Y44.896 I-6.083 J8.36
N664 X87.069 Y54.099 I-9.811 J0.587
N665 X80.661 Y55.277 I-4.966 J-8.995
N666 X74.579 Y52.261 I1.473 J-10.612
N667 X71.311 Y44.259 I7.768 J-7.841
N668 X78.658 Y33.879 I11.212 J0.146
N669 X86.644 Y33.952 I3.897 J10.557
N670 X90.499 Y36.402 I-4.304 J11.033
N671 X94.299 Y43.583 I-8.627 J9.162
N672 X92.802 Y51.559 I-12.03 J1.87
N673 X84.861 Y57.347 I-10.576 J-6.168
N674 X75.953 Y56.098 I-2.794 J-12.46
N675 X70.342 Y50.206 I6.235 J-11.556
N676 X70.725 Y37.831 I12.088 J-5.819
N677 X86.495 Y31.473 I11.825 J6.594
N678 X93.852 Y36.715 I-4.189 J13.664
N679 X95.785 Y50.674 I-11.691 J8.732
N680 X84.051 Y59.838 I-13.58 J-5.294
N681 X72.809 Y56.821 I-2.001 J-14.995
N682 X66.699 Y44.961 I9.466 J-12.381
N683 X87.341 Y29.299 I15.842 J-0.554
N684 X96.04 Y35.744 I-4.993 J15.833
N685 X99.07 Y46.327 I-13.822 J9.682
N686 X98.407 Y49.459 I-19.019 J-2.391
N687 G1 X97.95 Y50.711
N688 X97.867 Y50.92
N689 G3 X97.162 Y52.381 I-21.584 J-9.505
N690 X95.142 Y55.305 I-15.606 J-8.625
N691 G1 X94.276 Y56.236
N692 G3 X85.722 Y60.768 I-11.825 J-11.98
N693 X80.505 Y60.952 I-3.219 J-17.27
N694 X77.167 Y60.181 I2.518 J-18.511
N695 G1 X76.123 Y59.773
N696 G3 X67.149 Y50.686 I6.384 J-15.279
N697 G1 X66.943 Y50.181
N698 X66.904 Y50.085
N699 X66.517 Y48.832
N700 G3 X65.958 Y43.404 I16.654 J-4.459
N701 X68.563 Y35.468 I16.814 J1.126
N702 X70.531 Y32.961 I15.831 J10.396
N703 X71.738 Y31.819 I17.097 J16.873
N704 X75.47 Y29.414 I11.306 J13.447
N705 X81.966 Y27.838 I7.106 J15.11
N706 X85.722 Y28.131 I0.47 J18.172
N707 X99.172 Y44.448 I-3.19 J16.331
N708 X99.081 Y46.144 I-22.137 J-0.341
N709 G1 X99.063 Y46.226
N710 X99.035 Y46.304
N711 X98.997 Y46.378
N712 X98.947 Y46.464 Z-7.103
N713 X98.898 Y46.548 Z-7.08
N714 X98.852 Y46.627 Z-7.042
N715 X98.809 Y46.7 Z-6.989
N716 X98.771 Y46.766 Z-6.925
N717 X98.738 Y46.822 Z-6.849
N718 X98.712 Y46.867 Z-6.764
N719 X98.693 Y46.9 Z-6.672
N720 X98.681 Y46.92 Z-6.575
N721 X98.677 Y46.926 Z-6.476
N722 G0 Z15.24
(Contour1)
N724 X96.695 Y61.59
N725 Z15.24
N726 Z7.35
N727 G1 Z4.128 F1016
N728 X96.69 Y61.594 Z4.038
N729 X96.676 Y61.606 Z3.95
N730 X96.651 Y61.625 Z3.866
N731 X96.618 Y61.652 Z3.787
N732 X96.577 Y61.686 Z3.715
N733 X96.528 Y61.726 Z3.651
N734 X96.472 Y61.771 Z3.596
N735 X96.411 Y61.821 Z3.553
N736 X96.356 Y61.865 Z3.525
N737 X96.298 Y61.91 Z3.505
N738 X96.238 Y61.957 Z3.495
N739 X96.217 Y61.973 Z3.493
N740 X95.975 Y62.16 Z3.483
N741 X95.804 Y62.289 Z3.475
N742 X95.4 Y62.582 Z3.458
N743 X95.197 Y62.723 Z3.449
N744 X94.837 Y62.969 Z3.434
N745 X94.793 Y62.998 Z3.432
N746 X94.388 Y63.258 Z3.415
N747 X94.202 Y63.374 Z3.408
N748 X93.781 Y63.628 Z3.39
N749 X93.578 Y63.743 Z3.382
N750 X93.376 Y63.857 Z3.374
N751 X93.174 Y63.971 Z3.366
N752 X92.769 Y64.184 Z3.35
N753 X92.567 Y64.288 Z3.342
N754 X92.162 Y64.488 Z3.326
N755 X91.96 Y64.583 Z3.319
N756 X91.555 Y64.768 Z3.303
N757 X91.504 Y64.791 Z3.301
N758 X90.948 Y65.027 Z3.28
N759 X90.745 Y65.106 Z3.272
N760 X90.517 Y65.196 Z3.264
N761 X90.341 Y65.264 Z3.257
N762 X89.936 Y65.41 Z3.242
N763 X89.734 Y65.481 Z3.235
N764 X89.329 Y65.614 Z3.22
N765 X89.127 Y65.679 Z3.212
N766 X88.709 Y65.803 Z3.197
N767 X88.52 Y65.857 Z3.19
N768 X88.115 Y65.965 Z3.176
N769 X87.963 Y66.005 Z3.17
N770 X87.508 Y66.113 Z3.154
N771 X87.305 Y66.159 Z3.147
N772 X86.901 Y66.243 Z3.132
N773 X86.698 Y66.283 Z3.125
N774 X86.294 Y66.355 Z3.111
N775 X86.091 Y66.39 Z3.103
N776 X85.687 Y66.45 Z3.089
N777 X85.484 Y66.48 Z3.082
N778 X85.079 Y66.528 Z3.068
N779 X84.877 Y66.552 Z3.061
N780 X84.472 Y66.589 Z3.046
N781 X84.27 Y66.608 Z3.039
N782 X83.663 Y66.647 Z3.018
N783 X83.461 Y66.654 Z3.011
N784 X83.056 Y66.668 Z2.997
N785 X82.854 Y66.671 Z2.99
N786 X82.449 Y66.674 Z2.976
N787 X82.246 Y66.671 Z2.969
N788 X81.842 Y66.662 Z2.954
N789 X81.639 Y66.655 Z2.947
N790 X81.235 Y66.635 Z2.933
N791 X81.032 Y66.622 Z2.926
N792 X80.628 Y66.59 Z2.912
N793 X80.425 Y66.572 Z2.905
N794 X80.021 Y66.529 Z2.891
N795 X79.818 Y66.505 Z2.884
N796 X79.413 Y66.451 Z2.869
N797 X79.211 Y66.422 Z2.862
N798 X78.806 Y66.355 Z2.848
N799 X78.604 Y66.321 Z2.841
N800 X78.199 Y66.243 Z2.826
N801 X78.019 Y66.208 Z2.82
N802 X77.592 Y66.113 Z2.805
N803 X77.39 Y66.067 Z2.797
N804 X76.985 Y65.965 Z2.783
N805 X76.783 Y65.913 Z2.775
N806 X76.378 Y65.799 Z2.761
N807 X76.176 Y65.74 Z2.753
N808 X75.728 Y65.6 Z2.737
N809 X75.569 Y65.549 Z2.731
N810 X75.13 Y65.398 Z2.715
N811 X74.962 Y65.338 Z2.709
N812 X74.557 Y65.186 Z2.694
N813 X74.355 Y65.107 Z2.686
N814 X73.95 Y64.942 Z2.671
N815 X73.747 Y64.856 Z2.663
N816 X73.343 Y64.677 Z2.648
N817 X73.153 Y64.588 Z2.64
N818 X72.727 Y64.386 Z2.624
N819 X72.533 Y64.287 Z2.616
N820 X72.33 Y64.184 Z2.608
N821 X72.129 Y64.079 Z2.6
N822 X71.724 Y63.858 Z2.584
N823 X71.582 Y63.779 Z2.579
N824 X71.117 Y63.508 Z2.56
N825 X70.914 Y63.383 Z2.552
N826 X70.574 Y63.172 Z2.538
N827 X70.51 Y63.13 Z2.535
N828 X70.105 Y62.862 Z2.518
N829 X69.965 Y62.767 Z2.512
N830 X69.677 Y62.564 Z2.5
N831 X69.498 Y62.438 Z2.492
N832 X69.093 Y62.136 Z2.474
N833 X68.891 Y61.98 Z2.466
N834 X68.607 Y61.755 Z2.453
N835 X68.486 Y61.658 Z2.447
N836 X68.081 Y61.319 Z2.429
N837 X67.886 Y61.148 Z2.42
N838 X67.658 Y60.945 Z2.409
N839 X67.474 Y60.778 Z2.401
N840 X67.222 Y60.54 Z2.389
N841 X67.07 Y60.396 Z2.381
N842 X66.808 Y60.136 Z2.368
N843 X66.665 Y59.993 Z2.361
N844 X66.26 Y59.568 Z2.341
N845 X66.223 Y59.529 Z2.339
N846 X65.856 Y59.12 Z2.32
N847 X65.685 Y58.921 Z2.311
N848 X65.451 Y58.646 Z2.298
N849 X65.345 Y58.517 Z2.292
N850 X65.046 Y58.144 Z2.275
N851 X65.02 Y58.112 Z2.274
N852 X64.714 Y57.707 Z2.256
N853 X64.641 Y57.611 Z2.252
N854 X64.421 Y57.302 Z2.239
N855 X64.277 Y57.1 Z2.23
N856 X64.005 Y56.695 Z2.213
N857 X63.872 Y56.493 Z2.205
N858 X63.617 Y56.088 Z2.188
N859 X63.495 Y55.885 Z2.18
N860 X63.375 Y55.683 Z2.171
N861 X63.257 Y55.481 Z2.163
N862 X63.023 Y55.06 Z2.146
N863 X62.923 Y54.873 Z2.139
N864 X62.712 Y54.469 Z2.123
N865 X62.618 Y54.277 Z2.116
N866 X62.416 Y53.859 Z2.099
N867 X62.325 Y53.659 Z2.092
N868 X62.213 Y53.41 Z2.082
N869 X62.144 Y53.254 Z2.076
N870 X61.975 Y52.849 Z2.061
N871 X61.893 Y52.647 Z2.053
N872 X61.738 Y52.242 Z2.038
N873 X61.663 Y52.04 Z2.031
N874 X61.52 Y51.635 Z2.016
N875 X61.452 Y51.433 Z2.008
N876 X61.322 Y51.028 Z1.993
N877 X61.261 Y50.825 Z1.986
N878 X61.144 Y50.421 Z1.971
N879 X61.088 Y50.218 Z1.964
N880 X60.983 Y49.813 Z1.949
N881 X60.934 Y49.611 Z1.942
N882 X60.841 Y49.206 Z1.928
N883 X60.798 Y49.004 Z1.92
N884 X60.717 Y48.599 Z1.906
N885 X60.68 Y48.397 Z1.899
N886 X60.594 Y47.896 Z1.881
N887 X60.579 Y47.79 Z1.877
N888 X60.521 Y47.385 Z1.863
N889 X60.495 Y47.182 Z1.856
N890 X60.449 Y46.778 Z1.842
N891 X60.428 Y46.575 Z1.835
N892 X60.392 Y46.15 Z1.82
N893 X60.378 Y45.968 Z1.813
N894 X60.355 Y45.563 Z1.799
N895 X60.344 Y45.361 Z1.792
N896 X60.333 Y44.956 Z1.778
N897 X60.328 Y44.754 Z1.771
N898 Y44.146 Z1.75
N899 X60.333 Y43.944 Z1.743
N900 X60.344 Y43.539 Z1.728
N901 X60.355 Y43.337 Z1.721
N902 X60.378 Y42.932 Z1.707
N903 X60.392 Y42.75 Z1.701
N904 X60.428 Y42.325 Z1.686
N905 X60.449 Y42.122 Z1.679
N906 X60.495 Y41.718 Z1.665
N907 X60.521 Y41.515 Z1.657
N908 X60.579 Y41.11 Z1.643
N909 X60.594 Y41.004 Z1.639
N910 X60.68 Y40.503 Z1.622
N911 X60.717 Y40.301 Z1.614
N912 X60.798 Y39.896 Z1.6
N913 X60.841 Y39.694 Z1.593
N914 X60.934 Y39.289 Z1.578
N915 X60.983 Y39.087 Z1.571
N916 X61.088 Y38.682 Z1.556
N917 X61.144 Y38.479 Z1.549
N918 X61.261 Y38.075 Z1.534
N919 X61.322 Y37.872 Z1.527
N920 X61.452 Y37.467 Z1.512
N921 X61.52 Y37.265 Z1.505
N922 X61.663 Y36.86 Z1.49
N923 X61.738 Y36.658 Z1.482
N924 X61.893 Y36.253 Z1.467
N925 X61.975 Y36.051 Z1.459
N926 X62.144 Y35.646 Z1.444
N927 X62.213 Y35.49 Z1.438
N928 X62.325 Y35.241 Z1.429
N929 X62.416 Y35.041 Z1.421
N930 X62.618 Y34.623 Z1.405
N931 X62.712 Y34.431 Z1.397
N932 X62.923 Y34.027 Z1.381
N933 X63.023 Y33.84 Z1.374
N934 X63.257 Y33.419 Z1.357
N935 X63.375 Y33.217 Z1.349
N936 X63.495 Y33.015 Z1.341
N937 X63.617 Y32.812 Z1.332
N938 X63.872 Y32.407 Z1.316
N939 X64.005 Y32.205 Z1.307
N940 X64.277 Y31.8 Z1.29
N941 X64.421 Y31.598 Z1.282
N942 X64.641 Y31.289 Z1.268
N943 X64.714 Y31.193 Z1.264
N944 X65.02 Y30.788 Z1.246
N945 X65.046 Y30.756 Z1.245
N946 X65.345 Y30.383 Z1.228
N947 X65.451 Y30.254 Z1.222
N948 X65.685 Y29.979 Z1.21
N949 X65.856 Y29.78 Z1.201
N950 X66.223 Y29.371 Z1.181
N951 X66.26 Y29.332 Z1.18
N952 X66.665 Y28.907 Z1.159
N953 X66.808 Y28.764 Z1.152
N954 X67.07 Y28.504 Z1.139
N955 X67.222 Y28.36 Z1.132
N956 X67.474 Y28.122 Z1.12
N957 X67.658 Y27.955 Z1.111
N958 X67.886 Y27.752 Z1.1
N959 X68.081 Y27.581 Z1.091
N960 X68.486 Y27.242 Z1.073
N961 X68.607 Y27.145 Z1.068
N962 X68.891 Y26.92 Z1.055
N963 X69.093 Y26.764 Z1.046
N964 X69.498 Y26.462 Z1.028
N965 X69.677 Y26.336 Z1.021
N966 X69.965 Y26.133 Z1.008
N967 X70.105 Y26.038 Z1.002
N968 X70.51 Y25.77 Z0.985
N969 X70.574 Y25.728 Z0.983
N970 X70.914 Y25.517 Z0.969
N971 X71.117 Y25.392 Z0.961
N972 X71.582 Y25.121 Z0.942
N973 X71.724 Y25.042 Z0.936
N974 X72.129 Y24.821 Z0.92
N975 X72.331 Y24.716 Z0.912
N976 X72.533 Y24.613 Z0.904
N977 X72.727 Y24.514 Z0.896
N978 X73.153 Y24.312 Z0.88
N979 X73.343 Y24.223 Z0.873
N980 X73.747 Y24.044 Z0.857
N981 X73.95 Y23.958 Z0.85
N982 X74.355 Y23.793 Z0.834
N983 X74.557 Y23.714 Z0.827
N984 X74.962 Y23.562 Z0.812
N985 X75.13 Y23.502 Z0.805
N986 X75.569 Y23.351 Z0.789
N987 X75.728 Y23.3 Z0.783
N988 X76.176 Y23.16 Z0.767
N989 X76.378 Y23.101 Z0.76
N990 X76.783 Y22.987 Z0.745
N991 X76.985 Y22.935 Z0.738
N992 X77.39 Y22.833 Z0.723
N993 X77.592 Y22.787 Z0.716
N994 X78.019 Y22.692 Z0.7
N995 X78.199 Y22.657 Z0.694
N996 X78.604 Y22.579 Z0.68
N997 X78.806 Y22.545 Z0.673
N998 X79.211 Y22.478 Z0.658
N999 X79.413 Y22.449 Z0.651
N1000 X79.818 Y22.395 Z0.637
N1001 X80.021 Y22.371 Z0.63
N1002 X80.425 Y22.328 Z0.615
N1003 X80.628 Y22.31 Z0.608
N1004 X81.032 Y22.278 Z0.594
N1005 X81.235 Y22.265 Z0.587
N1006 X81.639 Y22.245 Z0.573
N1007 X81.842 Y22.238 Z0.566
N1008 X82.246 Y22.229 Z0.552
N1009 X82.449 Y22.226 Z0.545
N1010 X82.854 Y22.229 Z0.531
N1011 X83.056 Y22.232 Z0.523
N1012 X83.461 Y22.246 Z0.509
N1013 X83.663 Y22.253 Z0.502
N1014 X84.27 Y22.292 Z0.481
N1015 X84.675 Y22.329 Z0.467
N1016 X84.877 Y22.348 Z0.46
N1017 X85.079 Y22.372 Z0.453
N1018 X85.484 Y22.42 Z0.438
N1019 X85.687 Y22.45 Z0.431
N1020 X86.091 Y22.51 Z0.417
N1021 X86.294 Y22.545 Z0.41
N1022 X86.698 Y22.617 Z0.395
N1023 X86.901 Y22.657 Z0.388
N1024 X87.305 Y22.741 Z0.374
N1025 X87.508 Y22.787 Z0.367
N1026 X87.963 Y22.895 Z0.35
N1027 X88.115 Y22.935 Z0.345
N1028 X88.52 Y23.043 Z0.33
N1029 X88.709 Y23.097 Z0.323
N1030 X89.127 Y23.221 Z0.308
N1031 X89.329 Y23.286 Z0.301
N1032 X89.734 Y23.419 Z0.286
N1033 X89.936 Y23.49 Z0.278
N1034 X90.341 Y23.636 Z0.263
N1035 X90.517 Y23.704 Z0.257
N1036 X90.745 Y23.794 Z0.248
N1037 X90.948 Y23.873 Z0.24
N1038 X91.504 Y24.109 Z0.219
N1039 X91.555 Y24.132 Z0.217
N1040 X91.96 Y24.317 Z0.202
N1041 X92.162 Y24.412 Z0.194
N1042 X92.567 Y24.612 Z0.178
N1043 X92.769 Y24.716 Z0.17
N1044 X93.174 Y24.929 Z0.154
N1045 X93.376 Y25.043 Z0.146
N1046 X93.578 Y25.157 Z0.138
N1047 X93.781 Y25.272 Z0.13
N1048 X94.202 Y25.526 Z0.113
N1049 X94.388 Y25.642 Z0.105
N1050 X94.793 Y25.902 Z0.088
N1051 X94.837 Y25.931 Z0.087
N1052 X95.197 Y26.177 Z0.071
N1053 X95.4 Y26.318 Z0.063
N1054 X95.804 Y26.611 Z0.045
N1055 X95.975 Y26.74 Z0.038
N1056 X96.238 Y26.943 Z0.026
N1057 X96.411 Y27.079 Z0.018
N1058 X96.816 Y27.409 Z0
N1059 X96.98 Y27.55 Z-0.007
N1060 X97.221 Y27.757 Z-0.018
N1061 X97.423 Y27.938 Z-0.028
N1062 X97.663 Y28.157 Z-0.039
N1063 X97.828 Y28.311 Z-0.047
N1064 X98.088 Y28.562 Z-0.06
N1065 X98.233 Y28.703 Z-0.067
N1066 X98.637 Y29.116 Z-0.087
N1067 X98.687 Y29.169 Z-0.09
N1068 X99.061 Y29.574 Z-0.109
N1069 X99.239 Y29.776 Z-0.118
N1070 X99.447 Y30.014 Z-0.129
N1071 X99.587 Y30.181 Z-0.137
N1072 X99.851 Y30.501 Z-0.151
N1073 X99.919 Y30.586 Z-0.155
N1074 X100.256 Y31.018 Z-0.174
N1075 X100.386 Y31.193 Z-0.182
N1076 X100.534 Y31.395 Z-0.191
N1077 X100.661 Y31.569 Z-0.198
N1078 X100.961 Y32.003 Z-0.217
N1079 X101.066 Y32.16 Z-0.223
N1080 X101.268 Y32.47 Z-0.236
N1081 X101.358 Y32.61 Z-0.242
N1082 X101.605 Y33.015 Z-0.258
N1083 X101.673 Y33.125 Z-0.263
N1084 X101.958 Y33.622 Z-0.283
N1085 X102.068 Y33.824 Z-0.291
N1086 X102.177 Y34.027 Z-0.299
N1087 X102.28 Y34.219 Z-0.307
N1088 X102.488 Y34.634 Z-0.323
N1089 X102.587 Y34.836 Z-0.331
N1090 X102.776 Y35.241 Z-0.346
N1091 X102.866 Y35.443 Z-0.354
N1092 X103.042 Y35.848 Z-0.369
N1093 X103.089 Y35.962 Z-0.374
N1094 X103.292 Y36.468 Z-0.393
N1095 X103.362 Y36.658 Z-0.4
N1096 X103.511 Y37.063 Z-0.415
N1097 X103.579 Y37.265 Z-0.422
N1098 X103.715 Y37.67 Z-0.437
N1099 X103.777 Y37.872 Z-0.445
N1100 X103.839 Y38.075 Z-0.452
N1101 X103.899 Y38.272 Z-0.459
N1102 X104.011 Y38.682 Z-0.474
N1103 X104.066 Y38.884 Z-0.481
N1104 X104.165 Y39.289 Z-0.496
N1105 X104.214 Y39.491 Z-0.503
N1106 X104.303 Y39.906 Z-0.518
N1107 X104.344 Y40.098 Z-0.525
N1108 X104.457 Y40.706 Z-0.547
N1109 X104.489 Y40.908 Z-0.554
N1110 X104.552 Y41.313 Z-0.568
N1111 X104.578 Y41.515 Z-0.575
N1112 X104.63 Y41.92 Z-0.589
N1113 X104.651 Y42.122 Z-0.596
N1114 X104.691 Y42.527 Z-0.611
N1115 X104.706 Y42.73 Z-0.618
N1116 X104.735 Y43.134 Z-0.632
N1117 X104.745 Y43.337 Z-0.639
N1118 X104.762 Y43.742 Z-0.653
N1119 X104.768 Y43.944 Z-0.66
N1120 X104.773 Y44.349 Z-0.674
N1121 Y44.551 Z-0.681
N1122 X104.768 Y44.956 Z-0.696
N1123 X104.762 Y45.158 Z-0.703
N1124 X104.745 Y45.563 Z-0.717
N1125 X104.735 Y45.766 Z-0.724
N1126 X104.706 Y46.17 Z-0.738
N1127 X104.691 Y46.373 Z-0.745
N1128 X104.651 Y46.778 Z-0.759
N1129 X104.63 Y46.98 Z-0.766
N1130 X104.578 Y47.385 Z-0.781
N1131 X104.552 Y47.587 Z-0.788
N1132 X104.489 Y47.992 Z-0.802
N1133 X104.457 Y48.194 Z-0.809
N1134 X104.344 Y48.802 Z-0.831
N1135 X104.301 Y49.004 Z-0.838
N1136 X104.214 Y49.409 Z-0.853
N1137 X104.165 Y49.611 Z-0.86
N1138 X104.066 Y50.016 Z-0.874
N1139 X104.011 Y50.218 Z-0.882
N1140 X103.899 Y50.628 Z-0.897
N1141 X103.839 Y50.825 Z-0.904
N1142 X103.777 Y51.028 Z-0.911
N1143 X103.715 Y51.23 Z-0.918
N1144 X103.579 Y51.635 Z-0.933
N1145 X103.511 Y51.837 Z-0.941
N1146 X103.362 Y52.242 Z-0.956
N1147 X103.292 Y52.432 Z-0.963
N1148 X103.089 Y52.938 Z-0.982
N1149 X103.042 Y53.052 Z-0.986
N1150 X102.866 Y53.457 Z-1.002
N1151 X102.776 Y53.659 Z-1.009
N1152 X102.587 Y54.064 Z-1.025
N1153 X102.488 Y54.266 Z-1.033
N1154 X102.28 Y54.681 Z-1.049
N1155 X102.177 Y54.873 Z-1.057
N1156 X102.068 Y55.076 Z-1.065
N1157 X101.958 Y55.278 Z-1.073
N1158 X101.673 Y55.775 Z-1.093
N1159 X101.605 Y55.885 Z-1.097
N1160 X101.358 Y56.29 Z-1.114
N1161 X101.268 Y56.43 Z-1.12
N1162 X101.066 Y56.74 Z-1.133
N1163 X100.961 Y56.897 Z-1.139
N1164 X100.661 Y57.331 Z-1.158
N1165 X100.534 Y57.505 Z-1.165
N1166 X100.386 Y57.707 Z-1.174
N1167 X100.256 Y57.882 Z-1.182
N1168 X99.919 Y58.314 Z-1.201
N1169 X99.851 Y58.399 Z-1.204
N1170 X99.587 Y58.719 Z-1.219
N1171 X99.447 Y58.886 Z-1.227
N1172 X99.239 Y59.124 Z-1.238
N1173 X99.061 Y59.326 Z-1.247
N1174 X98.687 Y59.731 Z-1.266
N1175 X98.637 Y59.784 Z-1.269
N1176 X98.233 Y60.197 Z-1.289
N1177 X98.088 Y60.338 Z-1.296
N1178 X97.828 Y60.589 Z-1.309
N1179 X97.663 Y60.743 Z-1.317
N1180 X97.423 Y60.962 Z-1.328
N1181 X97.221 Y61.143 Z-1.337
N1182 X96.98 Y61.35 Z-1.348
N1183 X96.816 Y61.491 Z-1.356
N1184 X96.411 Y61.821 Z-1.374
N1185 X96.238 Y61.957 Z-1.382
N1186 X95.975 Y62.16 Z-1.394
N1187 X95.804 Y62.289 Z-1.401
N1188 X95.4 Y62.582 Z-1.418
N1189 X95.197 Y62.723 Z-1.427
N1190 X94.837 Y62.969 Z-1.442
N1191 X94.793 Y62.998 Z-1.444
N1192 X94.388 Y63.258 Z-1.461
N1193 X94.202 Y63.374 Z-1.469
N1194 X93.781 Y63.628 Z-1.486
N1195 X93.578 Y63.743 Z-1.494
N1196 X93.376 Y63.857 Z-1.502
N1197 X93.174 Y63.971 Z-1.51
N1198 X92.769 Y64.184 Z-1.526
N1199 X92.567 Y64.288 Z-1.534
N1200 X92.162 Y64.488 Z-1.55
N1201 X91.96 Y64.583 Z-1.558
N1202 X91.555 Y64.768 Z-1.573
N1203 X91.504 Y64.791 Z-1.575
N1204 X90.948 Y65.027 Z-1.596
N1205 X90.745 Y65.106 Z-1.604
N1206 X90.517 Y65.196 Z-1.612
N1207 X90.341 Y65.264 Z-1.619
N1208 X89.936 Y65.41 Z-1.634
N1209 X89.734 Y65.481 Z-1.641
N1210 X89.329 Y65.614 Z-1.656
N1211 X89.127 Y65.679 Z-1.664
N1212 X88.709 Y65.803 Z-1.679
N1213 X88.52 Y65.857 Z-1.686
N1214 X88.115 Y65.965 Z-1.701
N1215 X87.963 Y66.005 Z-1.706
N1216 X87.508 Y66.113 Z-1.722
N1217 X87.305 Y66.159 Z-1.73
N1218 X86.901 Y66.243 Z-1.744
N1219 X86.698 Y66.283 Z-1.751
N1220 X86.294 Y66.355 Z-1.766
N1221 X86.091 Y66.39 Z-1.773
N1222 X85.687 Y66.45 Z-1.787
N1223 X85.484 Y66.48 Z-1.794
N1224 X85.079 Y66.528 Z-1.808
N1225 X84.877 Y66.552 Z-1.816
N1226 X84.472 Y66.589 Z-1.83
N1227 X84.27 Y66.608 Z-1.837
N1228 X83.663 Y66.647 Z-1.858
N1229 X83.461 Y66.654 Z-1.865
N1230 X83.056 Y66.668 Z-1.879
N1231 X82.854 Y66.671 Z-1.886
N1232 X82.449 Y66.674 Z-1.9
N1233 X82.246 Y66.671 Z-1.908
N1234 X81.842 Y66.662 Z-1.922
N1235 X81.639 Y66.655 Z-1.929
N1236 X81.235 Y66.635 Z-1.943
N1237 X81.032 Y66.622 Z-1.95
N1238 X80.628 Y66.59 Z-1.964
N1239 X80.425 Y66.572 Z-1.971
N1240 X80.021 Y66.529 Z-1.985
N1241 X79.818 Y66.505 Z-1.993
N1242 X79.413 Y66.451 Z-2.007
N1243 X79.211 Y66.422 Z-2.014
N1244 X78.806 Y66.355 Z-2.028
N1245 X78.604 Y66.321 Z-2.035
N1246 X78.199 Y66.243 Z-2.05
N1247 X78.019 Y66.208 Z-2.056
N1248 X77.592 Y66.113 Z-2.072
N1249 X77.39 Y66.067 Z-2.079
N1250 X76.985 Y65.965 Z-2.093
N1251 X76.783 Y65.913 Z-2.101
N1252 X76.378 Y65.799 Z-2.115
N1253 X76.176 Y65.74 Z-2.123
N1254 X75.728 Y65.6 Z-2.139
N1255 X75.569 Y65.549 Z-2.145
N1256 X75.13 Y65.398 Z-2.161
N1257 X74.962 Y65.338 Z-2.167
N1258 X74.557 Y65.186 Z-2.182
N1259 X74.355 Y65.107 Z-2.19
N1260 X73.95 Y64.942 Z-2.205
N1261 X73.747 Y64.856 Z-2.213
N1262 X73.343 Y64.677 Z-2.228
N1263 X73.153 Y64.588 Z-2.236
N1264 X72.727 Y64.386 Z-2.252
N1265 X72.533 Y64.287 Z-2.26
N1266 X72.33 Y64.184 Z-2.268
N1267 X72.129 Y64.079 Z-2.276
N1268 X71.724 Y63.858 Z-2.292
N1269 X71.582 Y63.779 Z-2.297
N1270 X71.117 Y63.508 Z-2.316
N1271 X70.914 Y63.383 Z-2.325
N1272 X70.574 Y63.172 Z-2.339
N1273 X70.51 Y63.13 Z-2.341
N1274 X70.105 Y62.862 Z-2.358
N1275 X69.965 Y62.767 Z-2.364
N1276 X69.677 Y62.564 Z-2.376
N1277 X69.498 Y62.438 Z-2.384
N1278 X69.093 Y62.136 Z-2.402
N1279 X68.891 Y61.98 Z-2.411
N1280 X68.607 Y61.755 Z-2.423
N1281 X68.486 Y61.658 Z-2.429
N1282 X68.081 Y61.319 Z-2.447
N1283 X67.886 Y61.148 Z-2.456
N1284 X67.658 Y60.945 Z-2.467
N1285 X67.474 Y60.778 Z-2.476
N1286 X67.222 Y60.54 Z-2.488
N1287 X67.07 Y60.396 Z-2.495
N1288 X66.808 Y60.136 Z-2.508
N1289 X66.665 Y59.993 Z-2.515
N1290 X66.26 Y59.568 Z-2.535
N1291 X66.223 Y59.529 Z-2.537
N1292 X65.856 Y59.12 Z-2.556
N1293 X65.685 Y58.921 Z-2.566
N1294 X65.451 Y58.646 Z-2.578
N1295 X65.345 Y58.517 Z-2.584
N1296 X65.046 Y58.144 Z-2.601
N1297 X65.02 Y58.112 Z-2.602
N1298 X64.714 Y57.707 Z-2.62
N1299 X64.641 Y57.611 Z-2.624
N1300 X64.421 Y57.302 Z-2.637
N1301 X64.277 Y57.1 Z-2.646
N1302 X64.005 Y56.695 Z-2.663
N1303 X63.872 Y56.493 Z-2.672
N1304 X63.617 Y56.088 Z-2.688
N1305 X63.495 Y55.885 Z-2.696
N1306 X63.375 Y55.683 Z-2.705
N1307 X63.257 Y55.481 Z-2.713
N1308 X63.023 Y55.06 Z-2.73
N1309 X62.923 Y54.873 Z-2.737
N1310 X62.712 Y54.469 Z-2.753
N1311 X62.618 Y54.277 Z-2.76
N1312 X62.416 Y53.859 Z-2.777
N1313 X62.325 Y53.659 Z-2.784
N1314 X62.213 Y53.41 Z-2.794
N1315 X62.144 Y53.254 Z-2.8
N1316 X61.975 Y52.849 Z-2.815
N1317 X61.893 Y52.647 Z-2.823
N1318 X61.738 Y52.242 Z-2.838
N1319 X61.663 Y52.04 Z-2.845
N1320 X61.52 Y51.635 Z-2.86
N1321 X61.452 Y51.433 Z-2.868
N1322 X61.322 Y51.028 Z-2.883
N1323 X61.261 Y50.825 Z-2.89
N1324 X61.144 Y50.421 Z-2.905
N1325 X61.088 Y50.218 Z-2.912
N1326 X60.983 Y49.813 Z-2.927
N1327 X60.934 Y49.611 Z-2.934
N1328 X60.841 Y49.206 Z-2.949
N1329 X60.798 Y49.004 Z-2.956
N1330 X60.717 Y48.599 Z-2.97
N1331 X60.68 Y48.397 Z-2.977
N1332 X60.594 Y47.896 Z-2.995
N1333 X60.579 Y47.79 Z-2.999
N1334 X60.521 Y47.385 Z-3.013
N1335 X60.495 Y47.182 Z-3.02
N1336 X60.449 Y46.778 Z-3.035
N1337 X60.428 Y46.575 Z-3.042
N1338 X60.392 Y46.15 Z-3.057
N1339 X60.378 Y45.968 Z-3.063
N1340 X60.355 Y45.563 Z-3.077
N1341 X60.344 Y45.361 Z-3.084
N1342 X60.333 Y44.956 Z-3.098
N1343 X60.328 Y44.754 Z-3.105
N1344 Y44.146 Z-3.127
N1345 X60.333 Y43.944 Z-3.134
N1346 X60.344 Y43.539 Z-3.148
N1347 X60.355 Y43.337 Z-3.155
N1348 X60.378 Y42.932 Z-3.169
N1349 X60.39 Y42.772 Z-3.175
N1350 X60.392 Y42.75
N1351 X60.428 Y42.325
N1352 X60.449 Y42.122
N1353 X60.495 Y41.718
N1354 X60.521 Y41.515
N1355 X60.579 Y41.11
N1356 X60.594 Y41.004
N1357 X60.68 Y40.503
N1358 X60.717 Y40.301
N1359 X60.798 Y39.896
N1360 X60.841 Y39.694
N1361 X60.934 Y39.289
N1362 X60.983 Y39.087
N1363 X61.088 Y38.682
N1364 X61.144 Y38.479
N1365 X61.261 Y38.075
N1366 X61.322 Y37.872
N1367 X61.452 Y37.467
N1368 X61.52 Y37.265
N1369 X61.663 Y36.86
N1370 X61.738 Y36.658
N1371 X61.893 Y36.253
N1372 X61.975 Y36.051
N1373 X62.144 Y35.646
N1374 X62.213 Y35.49
N1375 X62.325 Y35.241
N1376 X62.416 Y35.041
N1377 X62.618 Y34.623
N1378 X62.712 Y34.431
N1379 X62.923 Y34.027
N1380 X63.023 Y33.84
N1381 X63.257 Y33.419
N1382 X63.375 Y33.217
N1383 X63.495 Y33.015
N1384 X63.617 Y32.812
N1385 X63.872 Y32.407
N1386 X64.005 Y32.205
N1387 X64.277 Y31.8
N1388 X64.421 Y31.598
N1389 X64.641 Y31.289
N1390 X64.714 Y31.193
N1391 X65.02 Y30.788
N1392 X65.046 Y30.756
N1393 X65.345 Y30.383
N1394 X65.451 Y30.254
N1395 X65.685 Y29.979
N1396 X65.856 Y29.78
N1397 X66.223 Y29.371
N1398 X66.26 Y29.332
N1399 X66.665 Y28.907
N1400 X66.808 Y28.764
N1401 X67.07 Y28.504
N1402 X67.222 Y28.36
N1403 X67.474 Y28.122
N1404 X67.658 Y27.955
N1405 X67.886 Y27.752
N1406 X68.081 Y27.581
N1407 X68.486 Y27.242
N1408 X68.607 Y27.145
N1409 X68.891 Y26.92
N1410 X69.093 Y26.764
N1411 X69.498 Y26.462
N1412 X69.677 Y26.336
N1413 X69.965 Y26.133
N1414 X70.105 Y26.038
N1415 X70.51 Y25.77
N1416 X70.574 Y25.728
N1417 X70.914 Y25.517
N1418 X71.117 Y25.392
N1419 X71.582 Y25.121
N1420 X71.724 Y25.042
N1421 X72.129 Y24.821
N1422 X72.331 Y24.716
N1423 X72.533 Y24.613
N1424 X72.727 Y24.514
N1425 X73.153 Y24.312
N1426 X73.343 Y24.223
N1427 X73.747 Y24.044
N1428 X73.95 Y23.958
N1429 X74.355 Y23.793
N1430 X74.557 Y23.714
N1431 X74.962 Y23.562
N1432 X75.13 Y23.502
N1433 X75.569 Y23.351
N1434 X75.728 Y23.3
N1435 X76.176 Y23.16
N1436 X76.378 Y23.101
N1437 X76.783 Y22.987
N1438 X76.985 Y22.935
N1439 X77.39 Y22.833
N1440 X77.592 Y22.787
N1441 X78.019 Y22.692
N1442 X78.199 Y22.657
N1443 X78.604 Y22.579
N1444 X78.806 Y22.545
N1445 X79.211 Y22.478
N1446 X79.413 Y22.449
N1447 X79.818 Y22.395
N1448 X80.021 Y22.371
N1449 X80.425 Y22.328
N1450 X80.628 Y22.31
N1451 X81.032 Y22.278
N1452 X81.235 Y22.265
N1453 X81.639 Y22.245
N1454 X81.842 Y22.238
N1455 X82.246 Y22.229
N1456 X82.449 Y22.226
N1457 X82.854 Y22.229
N1458 X83.056 Y22.232
N1459 X83.461 Y22.246
N1460 X83.663 Y22.253
N1461 X84.27 Y22.292
N1462 X84.675 Y22.329
N1463 X84.877 Y22.348
N1464 X85.079 Y22.372
N1465 X85.484 Y22.42
N1466 X85.687 Y22.45
N1467 X86.091 Y22.51
N1468 X86.294 Y22.545
N1469 X86.698 Y22.617
N1470 X86.901 Y22.657
N1471 X87.305 Y22.741
N1472 X87.508 Y22.787
N1473 X87.963 Y22.895
N1474 X88.115 Y22.935
N1475 X88.52 Y23.043
N1476 X88.709 Y23.097
N1477 X89.127 Y23.221
N1478 X89.329 Y23.286
N1479 X89.734 Y23.419
N1480 X89.936 Y23.49
N1481 X90.341 Y23.636
N1482 X90.517 Y23.704
N1483 X90.745 Y23.794
N1484 X90.948 Y23.873
N1485 X91.504 Y24.109
N1486 X91.555 Y24.132
N1487 X91.96 Y24.317
N1488 X92.162 Y24.412
N1489 X92.567 Y24.612
N1490 X92.769 Y24.716
N1491 X93.174 Y24.929
N1492 X93.376 Y25.043
N1493 X93.578 Y25.157
N1494 X93.781 Y25.272
N1495 X94.202 Y25.526
N1496 X94.388 Y25.642
N1497 X94.793 Y25.902
N1498 X94.837 Y25.931
N1499 X95.197 Y26.177
N1500 X95.4 Y26.318
N1501 X95.804 Y26.611
N1502 X95.975 Y26.74
N1503 X96.238 Y26.943
N1504 X96.411 Y27.079
N1505 X96.816 Y27.409
N1506 X96.98 Y27.55
N1507 X97.221 Y27.757
N1508 X97.423 Y27.938
N1509 X97.663 Y28.157
N1510 X97.828 Y28.311
N1511 X98.088 Y28.562
N1512 X98.233 Y28.703
N1513 X98.637 Y29.116
N1514 X98.687 Y29.169
N1515 X99.061 Y29.574
N1516 X99.239 Y29.776
N1517 X99.447 Y30.014
N1518 X99.587 Y30.181
N1519 X99.851 Y30.501
N1520 X99.919 Y30.586
N1521 X100.256 Y31.018
N1522 X100.386 Y31.193
N1523 X100.534 Y31.395
N1524 X100.661 Y31.569
N1525 X100.961 Y32.003
N1526 X101.066 Y32.16
N1527 X101.268 Y32.47
N1528 X101.358 Y32.61
N1529 X101.605 Y33.015
N1530 X101.673 Y33.125
N1531 X101.958 Y33.622
N1532 X102.068 Y33.824
N1533 X102.177 Y34.027
N1534 X102.28 Y34.219
N1535 X102.488 Y34.634
N1536 X102.587 Y34.836
N1537 X102.776 Y35.241
N1538 X102.866 Y35.443
N1539 X103.042 Y35.848
N1540 X103.089 Y35.962
N1541 X103.292 Y36.468
N1542 X103.362 Y36.658
N1543 X103.511 Y37.063
N1544 X103.579 Y37.265
N1545 X103.715 Y37.67
N1546 X103.777 Y37.872
N1547 X103.839 Y38.075
N1548 X103.899 Y38.272
N1549 X104.011 Y38.682
N1550 X104.066 Y38.884
N1551 X104.165 Y39.289
N1552 X104.214 Y39.491
N1553 X104.303 Y39.906
N1554 X104.344 Y40.098
N1555 X104.457 Y40.706
N1556 X104.489 Y40.908
N1557 X104.552 Y41.313
N1558 X104.578 Y41.515
N1559 X104.63 Y41.92
N1560 X104.651 Y42.122
N1561 X104.691 Y42.527
N1562 X104.706 Y42.73
N1563 X104.735 Y43.134
N1564 X104.745 Y43.337
N1565 X104.762 Y43.742
N1566 X104.768 Y43.944
N1567 X104.773 Y44.349
N1568 Y44.551
N1569 X104.768 Y44.956
N1570 X104.762 Y45.158
N1571 X104.745 Y45.563
N1572 X104.735 Y45.766
N1573 X104.706 Y46.17
N1574 X104.691 Y46.373
N1575 X104.651 Y46.778
N1576 X104.63 Y46.98
N1577 X104.578 Y47.385
N1578 X104.552 Y47.587
N1579 X104.489 Y47.992
N1580 X104.457 Y48.194
N1581 X104.344 Y48.802
N1582 X104.301 Y49.004
N1583 X104.214 Y49.409
N1584 X104.165 Y49.611
N1585 X104.066 Y50.016
N1586 X104.011 Y50.218
N1587 X103.899 Y50.628
N1588 X103.839 Y50.825
N1589 X103.777 Y51.028
N1590 X103.715 Y51.23
N1591 X103.579 Y51.635
N1592 X103.511 Y51.837
N1593 X103.362 Y52.242
N1594 X103.292 Y52.432
N1595 X103.089 Y52.938
N1596 X103.042 Y53.052
N1597 X102.866 Y53.457
N1598 X102.776 Y53.659
N1599 X102.587 Y54.064
N1600 X102.488 Y54.266
N1601 X102.28 Y54.681
N1602 X102.177 Y54.873
N1603 X102.068 Y55.076
N1604 X101.958 Y55.278
N1605 X101.673 Y55.775
N1606 X101.605 Y55.885
N1607 X101.358 Y56.29
N1608 X101.268 Y56.43
N1609 X101.066 Y56.74
N1610 X100.961 Y56.897
N1611 X100.661 Y57.331
N1612 X100.534 Y57.505
N1613 X100.386 Y57.707
N1614 X100.256 Y57.882
N1615 X99.919 Y58.314
N1616 X99.851 Y58.399
N1617 X99.587 Y58.719
N1618 X99.447 Y58.886
N1619 X99.239 Y59.124
N1620 X99.061 Y59.326
N1621 X98.687 Y59.731
N1622 X98.637 Y59.784
N1623 X98.233 Y60.197
N1624 X98.088 Y60.338
N1625 X97.828 Y60.589
N1626 X97.663 Y60.743
N1627 X97.423 Y60.962
N1628 X97.221 Y61.143
N1629 X96.98 Y61.35
N1630 X96.816 Y61.491
N1631 X96.411 Y61.821
N1632 X96.238 Y61.957
N1633 X95.975 Y62.16
N1634 X95.804 Y62.289
N1635 X95.4 Y62.582
N1636 X95.197 Y62.723
N1637 X94.837 Y62.969
N1638 X94.793 Y62.998
N1639 X94.388 Y63.258
N1640 X94.202 Y63.374
N1641 X93.781 Y63.628
N1642 X93.578 Y63.743
N1643 X93.376 Y63.857
N1644 X93.174 Y63.971
N1645 X92.769 Y64.184
N1646 X92.567 Y64.288
N1647 X92.162 Y64.488
N1648 X91.96 Y64.583
N1649 X91.555 Y64.768
N1650 X91.504 Y64.791
N1651 X90.948 Y65.027
N1652 X90.745 Y65.106
N1653 X90.517 Y65.196
N1654 X90.341 Y65.264
N1655 X89.936 Y65.41
N1656 X89.734 Y65.481
N1657 X89.329 Y65.614
N1658 X89.127 Y65.679
N1659 X88.709 Y65.803
N1660 X88.52 Y65.857
N1661 X88.115 Y65.965
N1662 X87.963 Y66.005
N1663 X87.508 Y66.113
N1664 X87.305 Y66.159
N1665 X86.901 Y66.243
N1666 X86.698 Y66.283
N1667 X86.294 Y66.355
N1668 X86.091 Y66.39
N1669 X85.687 Y66.45
N1670 X85.484 Y66.48
N1671 X85.079 Y66.528
N1672 X84.877 Y66.552
N1673 X84.472 Y66.589
N1674 X84.27 Y66.608
N1675 X83.663 Y66.647
N1676 X83.461 Y66.654
N1677 X83.056 Y66.668
N1678 X82.854 Y66.671
N1679 X82.449 Y66.674
N1680 X82.246 Y66.671
N1681 X81.842 Y66.662
N1682 X81.639 Y66.655
N1683 X81.235 Y66.635
N1684 X81.032 Y66.622
N1685 X80.628 Y66.59
N1686 X80.425 Y66.572
N1687 X80.021 Y66.529
N1688 X79.818 Y66.505
N1689 X79.413 Y66.451
N1690 X79.211 Y66.422
N1691 X78.806 Y66.355
N1692 X78.604 Y66.321
N1693 X78.199 Y66.243
N1694 X78.019 Y66.208
N1695 X77.592 Y66.113
N1696 X77.39 Y66.067
N1697 X76.985 Y65.965
N1698 X76.783 Y65.913
N1699 X76.378 Y65.799
N1700 X76.176 Y65.74
N1701 X75.728 Y65.6
N1702 X75.569 Y65.549
N1703 X75.13 Y65.398
N1704 X74.962 Y65.338
N1705 X74.557 Y65.186
N1706 X74.355 Y65.107
N1707 X73.95 Y64.942
N1708 X73.747 Y64.856
N1709 X73.343 Y64.677
N1710 X73.153 Y64.588
N1711 X72.727 Y64.386
N1712 X72.533 Y64.287
N1713 X72.33 Y64.184
N1714 X72.129 Y64.079
N1715 X71.724 Y63.858
N1716 X71.582 Y63.779
N1717 X71.117 Y63.508
N1718 X70.914 Y63.383
N1719 X70.574 Y63.172
N1720 X70.51 Y63.13
N1721 X70.105 Y62.862
N1722 X69.965 Y62.767
N1723 X69.677 Y62.564
N1724 X69.498 Y62.438
N1725 X69.093 Y62.136
N1726 X68.891 Y61.98
N1727 X68.607 Y61.755
N1728 X68.486 Y61.658
N1729 X68.081 Y61.319
N1730 X67.886 Y61.148
N1731 X67.658 Y60.945
N1732 X67.474 Y60.778
N1733 X67.222 Y60.54
N1734 X67.07 Y60.396
N1735 X66.808 Y60.136
N1736 X66.665 Y59.993
N1737 X66.26 Y59.568
N1738 X66.223 Y59.529
N1739 X65.856 Y59.12
N1740 X65.685 Y58.921
N1741 X65.451 Y58.646
N1742 X65.345 Y58.517
N1743 X65.046 Y58.144
N1744 X65.02 Y58.112
N1745 X64.714 Y57.707
N1746 X64.641 Y57.611
N1747 X64.421 Y57.302
N1748 X64.277 Y57.1
N1749 X64.005 Y56.695
N1750 X63.872 Y56.493
N1751 X63.617 Y56.088
N1752 X63.495 Y55.885
N1753 X63.375 Y55.683
N1754 X63.257 Y55.481
N1755 X63.023 Y55.06
N1756 X62.923 Y54.873
N1757 X62.712 Y54.469
N1758 X62.618 Y54.277
N1759 X62.416 Y53.859
N1760 X62.325 Y53.659
N1761 X62.213 Y53.41
N1762 X62.144 Y53.254
N1763 X61.975 Y52.849
N1764 X61.893 Y52.647
N1765 X61.738 Y52.242
N1766 X61.663 Y52.04
N1767 X61.52 Y51.635
N1768 X61.452 Y51.433
N1769 X61.322 Y51.028
N1770 X61.261 Y50.825
N1771 X61.144 Y50.421
N1772 X61.088 Y50.218
N1773 X60.983 Y49.813
N1774 X60.934 Y49.611
N1775 X60.841 Y49.206
N1776 X60.798 Y49.004
N1777 X60.717 Y48.599
N1778 X60.68 Y48.397
N1779 X60.594 Y47.896
N1780 X60.579 Y47.79
N1781 X60.521 Y47.385
N1782 X60.495 Y47.182
N1783 X60.449 Y46.778
N1784 X60.428 Y46.575
N1785 X60.392 Y46.15
N1786 X60.378 Y45.968
N1787 X60.355 Y45.563
N1788 X60.344 Y45.361
N1789 X60.333 Y44.956
N1790 X60.328 Y44.754
N1791 Y44.146
N1792 X60.333 Y43.944
N1793 X60.344 Y43.539
N1794 X60.355 Y43.337
N1795 X60.378 Y42.932
N1796 X60.392 Y42.75
N1797 G0 Z7.35
N1798 X75.441 Y29.41
N1799 Z4.775
N1800 G1 Z0.191 F1016
N1801 X75.446 Y29.408 Z0.106
N1802 X75.461 Y29.401 Z0.022
N1803 X75.487 Y29.388 Z-0.059
N1804 X75.522 Y29.371 Z-0.135
N1805 X75.571 Y29.349 Z-0.212
N1806 X75.63 Y29.323 Z-0.279
N1807 X75.697 Y29.293 Z-0.337
N1808 X75.771 Y29.259 Z-0.383
N1809 X75.836 Y29.23 Z-0.412
N1810 X75.903 Y29.2 Z-0.431
N1811 X75.972 Y29.169 Z-0.442
N1812 X75.999 Y29.158 Z-0.444
N1813 X76.378 Y29.002 Z-0.458
N1814 X76.464 Y28.967 Z-0.461
N1815 X76.783 Y28.847 Z-0.473
N1816 X76.985 Y28.772 Z-0.481
N1817 X77.39 Y28.635 Z-0.496
N1818 X77.592 Y28.571 Z-0.503
N1819 X77.795 Y28.51 Z-0.51
N1820 X77.997 Y28.449 Z-0.518
N1821 X78.402 Y28.34 Z-0.532
N1822 X78.604 Y28.29 Z-0.54
N1823 X78.806 Y28.242 Z-0.547
N1824 X79.009 Y28.195 Z-0.554
N1825 X79.413 Y28.113 Z-0.569
N1826 X79.616 Y28.076 Z-0.576
N1827 X80.021 Y28.007 Z-0.59
N1828 X80.223 Y27.979 Z-0.597
N1829 X80.425 Y27.951 Z-0.604
N1830 X80.628 Y27.926 Z-0.612
N1831 X81.032 Y27.884 Z-0.626
N1832 X81.235 Y27.867 Z-0.633
N1833 X81.437 Y27.853 Z-0.64
N1834 X81.639 Y27.839 Z-0.647
N1835 X82.044 Y27.822 Z-0.661
N1836 X82.246 Y27.817 Z-0.668
N1837 X82.651 Y27.814 Z-0.682
N1838 X82.854 Y27.818 Z-0.689
N1839 X83.056 Y27.823 Z-0.697
N1840 X83.258 Y27.829 Z-0.704
N1841 X83.663 Y27.852 Z-0.718
N1842 X83.865 Y27.867 Z-0.725
N1843 X84.27 Y27.903 Z-0.739
N1844 X84.472 Y27.927 Z-0.746
N1845 X84.704 Y27.955 Z-0.754
N1846 X84.877 Y27.978 Z-0.76
N1847 X85.282 Y28.04 Z-0.775
N1848 X85.484 Y28.076 Z-0.782
N1849 X85.687 Y28.114 Z-0.789
N1850 X85.889 Y28.153 Z-0.796
N1851 X86.294 Y28.241 Z-0.811
N1852 X86.496 Y28.29 Z-0.818
N1853 X86.772 Y28.36 Z-0.828
N1854 X86.901 Y28.393 Z-0.833
N1855 X87.305 Y28.509 Z-0.847
N1856 X87.48 Y28.562 Z-0.854
N1857 X87.71 Y28.636 Z-0.862
N1858 X87.912 Y28.702 Z-0.87
N1859 X88.317 Y28.846 Z-0.885
N1860 X88.52 Y28.923 Z-0.892
N1861 X88.722 Y29.003 Z-0.9
N1862 X88.924 Y29.084 Z-0.907
N1863 X89.329 Y29.258 Z-0.923
N1864 X89.531 Y29.351 Z-0.93
N1865 X89.734 Y29.446 Z-0.938
N1866 X89.936 Y29.544 Z-0.946
N1867 X90.138 Y29.647 Z-0.954
N1868 X90.341 Y29.751 Z-0.962
N1869 X90.756 Y29.979 Z-0.979
N1870 X90.948 Y30.091 Z-0.986
N1871 X91.15 Y30.21 Z-0.994
N1872 X91.353 Y30.335 Z-1.003
N1873 X91.555 Y30.463 Z-1.011
N1874 X91.744 Y30.586 Z-1.019
N1875 X92.041 Y30.788 Z-1.032
N1876 X92.162 Y30.872 Z-1.037
N1877 X92.364 Y31.019 Z-1.045
N1878 X92.567 Y31.167 Z-1.054
N1879 X92.971 Y31.482 Z-1.072
N1880 X93.111 Y31.598 Z-1.078
N1881 X93.376 Y31.818 Z-1.09
N1882 X93.578 Y31.997 Z-1.1
N1883 X93.781 Y32.176 Z-1.109
N1884 X93.811 Y32.205 Z-1.111
N1885 X94.025 Y32.407 Z-1.121
N1886 X94.186 Y32.56 Z-1.129
N1887 X94.436 Y32.812 Z-1.141
N1888 X94.59 Y32.97 Z-1.149
N1889 X94.82 Y33.217 Z-1.161
N1890 X94.995 Y33.412 Z-1.17
N1891 X95.197 Y33.643 Z-1.181
N1892 X95.349 Y33.824 Z-1.189
N1893 X95.515 Y34.027 Z-1.198
N1894 X95.602 Y34.134 Z-1.203
N1895 X95.83 Y34.431 Z-1.216
N1896 X95.98 Y34.634 Z-1.225
N1897 X96.209 Y34.953 Z-1.238
N1898 X96.267 Y35.039 Z-1.242
N1899 X96.411 Y35.254 Z-1.251
N1900 X96.537 Y35.443 Z-1.259
N1901 X96.79 Y35.848 Z-1.276
N1902 X96.816 Y35.892 Z-1.277
N1903 X97.026 Y36.253 Z-1.292
N1904 X97.138 Y36.455 Z-1.3
N1905 X97.247 Y36.658 Z-1.308
N1906 X97.353 Y36.86 Z-1.316
N1907 X97.555 Y37.265 Z-1.332
N1908 X97.626 Y37.418 Z-1.338
N1909 X97.741 Y37.67 Z-1.347
N1910 X97.828 Y37.869 Z-1.355
N1911 X97.914 Y38.075 Z-1.363
N1912 X97.998 Y38.277 Z-1.371
N1913 X98.154 Y38.682 Z-1.386
N1914 X98.226 Y38.884 Z-1.393
N1915 X98.296 Y39.087 Z-1.401
N1916 X98.365 Y39.289 Z-1.408
N1917 X98.491 Y39.694 Z-1.423
N1918 X98.549 Y39.896 Z-1.43
N1919 X98.637 Y40.213 Z-1.442
N1920 X98.66 Y40.301 Z-1.445
N1921 X98.759 Y40.706 Z-1.459
N1922 X98.803 Y40.908 Z-1.467
N1923 X98.846 Y41.11 Z-1.474
N1924 X98.888 Y41.313 Z-1.481
N1925 X98.959 Y41.718 Z-1.496
N1926 X98.992 Y41.92 Z-1.503
N1927 X99.05 Y42.325 Z-1.517
N1928 X99.073 Y42.527 Z-1.524
N1929 X99.096 Y42.73 Z-1.531
N1930 X99.116 Y42.932 Z-1.538
N1931 X99.149 Y43.337 Z-1.552
N1932 X99.16 Y43.539 Z-1.56
N1933 X99.17 Y43.742 Z-1.567
N1934 X99.179 Y43.944 Z-1.574
N1935 X99.185 Y44.349 Z-1.588
N1936 Y44.551 Z-1.595
N1937 X99.179 Y44.956 Z-1.609
N1938 X99.17 Y45.158 Z-1.616
N1939 X99.16 Y45.361 Z-1.623
N1940 X99.149 Y45.563 Z-1.63
N1941 X99.116 Y45.968 Z-1.644
N1942 X99.096 Y46.17 Z-1.652
N1943 X99.073 Y46.373 Z-1.659
N1944 X99.05 Y46.575 Z-1.666
N1945 X98.992 Y46.98 Z-1.68
N1946 X98.959 Y47.182 Z-1.687
N1947 X98.888 Y47.587 Z-1.702
N1948 X98.846 Y47.79 Z-1.709
N1949 X98.803 Y47.992 Z-1.716
N1950 X98.759 Y48.194 Z-1.723
N1951 X98.66 Y48.599 Z-1.738
N1952 X98.637 Y48.687 Z-1.741
N1953 X98.549 Y49.004 Z-1.752
N1954 X98.491 Y49.206 Z-1.76
N1955 X98.365 Y49.611 Z-1.775
N1956 X98.296 Y49.813 Z-1.782
N1957 X98.226 Y50.016 Z-1.79
N1958 X98.154 Y50.218 Z-1.797
N1959 X97.998 Y50.623 Z-1.812
N1960 X97.914 Y50.825 Z-1.82
N1961 X97.828 Y51.031 Z-1.828
N1962 X97.741 Y51.23 Z-1.835
N1963 X97.626 Y51.482 Z-1.845
N1964 X97.555 Y51.635 Z-1.851
N1965 X97.353 Y52.04 Z-1.867
N1966 X97.247 Y52.242 Z-1.875
N1967 X97.138 Y52.445 Z-1.883
N1968 X97.026 Y52.647 Z-1.891
N1969 X96.816 Y53.008 Z-1.905
N1970 X96.79 Y53.052 Z-1.907
N1971 X96.537 Y53.457 Z-1.924
N1972 X96.411 Y53.646 Z-1.932
N1973 X96.267 Y53.861 Z-1.941
N1974 X96.209 Y53.947 Z-1.944
N1975 X95.98 Y54.266 Z-1.958
N1976 X95.83 Y54.469 Z-1.967
N1977 X95.602 Y54.766 Z-1.98
N1978 X95.515 Y54.873 Z-1.985
N1979 X95.349 Y55.076 Z-1.994
N1980 X95.197 Y55.257 Z-2.002
N1981 X94.995 Y55.488 Z-2.013
N1982 X94.82 Y55.683 Z-2.022
N1983 X94.59 Y55.93 Z-2.034
N1984 X94.436 Y56.088 Z-2.041
N1985 X94.186 Y56.34 Z-2.054
N1986 X94.025 Y56.493 Z-2.062
N1987 X93.811 Y56.695 Z-2.072
N1988 X93.781 Y56.724 Z-2.073
N1989 X93.578 Y56.903 Z-2.083
N1990 X93.376 Y57.082 Z-2.092
N1991 X93.111 Y57.302 Z-2.104
N1992 X92.971 Y57.418 Z-2.111
N1993 X92.567 Y57.733 Z-2.129
N1994 X92.364 Y57.881 Z-2.137
N1995 X92.162 Y58.028 Z-2.146
N1996 X92.041 Y58.112 Z-2.151
N1997 X91.744 Y58.314 Z-2.164
N1998 X91.555 Y58.437 Z-2.172
N1999 X91.353 Y58.565 Z-2.18
N2000 X91.15 Y58.69 Z-2.188
N2001 X90.948 Y58.809 Z-2.196
N2002 X90.756 Y58.921 Z-2.204
N2003 X90.341 Y59.149 Z-2.221
N2004 X90.138 Y59.253 Z-2.229
N2005 X89.936 Y59.356 Z-2.237
N2006 X89.734 Y59.454 Z-2.244
N2007 X89.531 Y59.549 Z-2.252
N2008 X89.329 Y59.642 Z-2.26
N2009 X88.924 Y59.816 Z-2.275
N2010 X88.722 Y59.897 Z-2.283
N2011 X88.52 Y59.977 Z-2.291
N2012 X88.317 Y60.054 Z-2.298
N2013 X87.912 Y60.198 Z-2.313
N2014 X87.71 Y60.264 Z-2.321
N2015 X87.48 Y60.338 Z-2.329
N2016 X87.305 Y60.391 Z-2.335
N2017 X86.901 Y60.507 Z-2.35
N2018 X86.772 Y60.54 Z-2.355
N2019 X86.496 Y60.61 Z-2.365
N2020 X86.294 Y60.659 Z-2.372
N2021 X85.889 Y60.747 Z-2.386
N2022 X85.687 Y60.786 Z-2.394
N2023 X85.484 Y60.824 Z-2.401
N2024 X85.282 Y60.86 Z-2.408
N2025 X84.877 Y60.922 Z-2.422
N2026 X84.704 Y60.945 Z-2.428
N2027 X84.472 Y60.973 Z-2.437
N2028 X84.27 Y60.997 Z-2.444
N2029 X83.865 Y61.033 Z-2.458
N2030 X83.663 Y61.048 Z-2.465
N2031 X83.258 Y61.071 Z-2.479
N2032 X83.056 Y61.077 Z-2.486
N2033 X82.854 Y61.082 Z-2.493
N2034 X82.651 Y61.086 Z-2.5
N2035 X82.246 Y61.083 Z-2.514
N2036 X82.044 Y61.078 Z-2.522
N2037 X81.639 Y61.061 Z-2.536
N2038 X81.437 Y61.047 Z-2.543
N2039 X81.235 Y61.033 Z-2.55
N2040 X81.032 Y61.016 Z-2.557
N2041 X80.628 Y60.974 Z-2.571
N2042 X80.425 Y60.949 Z-2.578
N2043 X80.223 Y60.921 Z-2.585
N2044 X80.021 Y60.893 Z-2.593
N2045 X79.616 Y60.824 Z-2.607
N2046 X79.413 Y60.787 Z-2.614
N2047 X79.009 Y60.705 Z-2.628
N2048 X78.806 Y60.658 Z-2.636
N2049 X78.604 Y60.61 Z-2.643
N2050 X78.402 Y60.56 Z-2.65
N2051 X77.997 Y60.451 Z-2.665
N2052 X77.795 Y60.39 Z-2.672
N2053 X77.592 Y60.329 Z-2.68
N2054 X77.39 Y60.265 Z-2.687
N2055 X76.985 Y60.128 Z-2.702
N2056 X76.783 Y60.053 Z-2.71
N2057 X76.464 Y59.933 Z-2.721
N2058 X76.378 Y59.898 Z-2.725
N2059 X75.972 Y59.731 Z-2.74
N2060 X75.771 Y59.641 Z-2.748
N2061 X75.522 Y59.529 Z-2.757
N2062 X75.366 Y59.454 Z-2.763
N2063 X75.105 Y59.326 Z-2.773
N2064 X74.962 Y59.254 Z-2.779
N2065 X74.557 Y59.04 Z-2.795
N2066 X74.355 Y58.926 Z-2.803
N2067 X74.152 Y58.81 Z-2.811
N2068 X73.998 Y58.719 Z-2.818
N2069 X73.668 Y58.517 Z-2.831
N2070 X73.545 Y58.437 Z-2.836
N2071 X73.343 Y58.304 Z-2.845
N2072 X73.14 Y58.169 Z-2.853
N2073 X72.772 Y57.909 Z-2.869
N2074 X72.736 Y57.883 Z-2.87
N2075 X72.331 Y57.578 Z-2.888
N2076 X72.239 Y57.505 Z-2.892
N2077 X71.926 Y57.252 Z-2.906
N2078 X71.748 Y57.1 Z-2.914
N2079 X71.512 Y56.897 Z-2.925
N2080 X71.319 Y56.721 Z-2.934
N2081 X71.291 Y56.695 Z-2.936
N2082 X71.117 Y56.535 Z-2.944
N2083 X70.866 Y56.29 Z-2.956
N2084 X70.712 Y56.139 Z-2.964
N2085 X70.469 Y55.885 Z-2.976
N2086 X70.307 Y55.713 Z-2.984
N2087 X70.098 Y55.481 Z-2.995
N2088 X69.922 Y55.278 Z-3.005
N2089 X69.7 Y55.016 Z-3.017
N2090 X69.586 Y54.873 Z-3.023
N2091 X69.425 Y54.671 Z-3.032
N2092 X69.296 Y54.503 Z-3.039
N2093 X69.093 Y54.23 Z-3.051
N2094 X68.974 Y54.064 Z-3.058
N2095 X68.834 Y53.861 Z-3.067
N2096 X68.696 Y53.659 Z-3.076
N2097 X68.486 Y53.335 Z-3.089
N2098 X68.434 Y53.254 Z-3.092
N2099 X68.19 Y52.849 Z-3.109
N2100 X68.081 Y52.658 Z-3.117
N2101 X67.962 Y52.445 Z-3.125
N2102 X67.879 Y52.293 Z-3.131
N2103 X67.677 Y51.903 Z-3.147
N2104 X67.644 Y51.837 Z-3.149
N2105 X67.45 Y51.433 Z-3.165
N2106 X67.36 Y51.23 Z-3.172
N2107 X67.271 Y51.028 Z-3.18
N2108 X67.185 Y50.825 Z-3.188
N2109 X67.022 Y50.421 Z-3.203
N2110 X66.948 Y50.218 Z-3.211
N2111 X66.867 Y49.999 Z-3.219
N2112 X66.803 Y49.813 Z-3.226
N2113 X66.736 Y49.611 Z-3.233
N2114 X66.67 Y49.409 Z-3.241
N2115 X66.55 Y49.004 Z-3.255
N2116 X66.494 Y48.802 Z-3.263
N2117 X66.388 Y48.397 Z-3.277
N2118 X66.342 Y48.194 Z-3.284
N2119 X66.296 Y47.992 Z-3.292
N2120 X66.26 Y47.826 Z-3.298
N2121 X66.175 Y47.385 Z-3.313
N2122 X66.141 Y47.182 Z-3.321
N2123 X66.109 Y46.98 Z-3.328
N2124 X66.078 Y46.778 Z-3.335
N2125 X66.026 Y46.373 Z-3.349
N2126 X66.004 Y46.17 Z-3.356
N2127 X65.985 Y45.968 Z-3.363
N2128 X65.966 Y45.766 Z-3.37
N2129 X65.94 Y45.361 Z-3.385
N2130 X65.93 Y45.158 Z-3.392
N2131 X65.917 Y44.754 Z-3.406
N2132 X65.916 Y44.551 Z-3.413
N2133 Y44.349 Z-3.42
N2134 X65.917 Y44.146 Z-3.427
N2135 X65.93 Y43.742 Z-3.441
N2136 X65.94 Y43.539 Z-3.448
N2137 X65.966 Y43.134 Z-3.462
N2138 X65.985 Y42.932 Z-3.469
N2139 X66.004 Y42.73 Z-3.477
N2140 X66.026 Y42.527 Z-3.484
N2141 X66.078 Y42.122 Z-3.498
N2142 X66.109 Y41.92 Z-3.505
N2143 X66.141 Y41.718 Z-3.512
N2144 X66.175 Y41.515 Z-3.519
N2145 X66.26 Y41.074 Z-3.535
N2146 X66.296 Y40.908 Z-3.541
N2147 X66.342 Y40.706 Z-3.548
N2148 X66.388 Y40.503 Z-3.556
N2149 X66.494 Y40.098 Z-3.57
N2150 X66.55 Y39.896 Z-3.577
N2151 X66.67 Y39.491 Z-3.592
N2152 X66.736 Y39.289 Z-3.6
N2153 X66.803 Y39.087 Z-3.607
N2154 X66.867 Y38.901 Z-3.614
N2155 X66.948 Y38.682 Z-3.622
N2156 X67.022 Y38.479 Z-3.63
N2157 X67.185 Y38.075 Z-3.645
N2158 X67.271 Y37.872 Z-3.653
N2159 X67.36 Y37.67 Z-3.66
N2160 X67.45 Y37.467 Z-3.668
N2161 X67.644 Y37.063 Z-3.684
N2162 X67.677 Y36.997 Z-3.686
N2163 X67.879 Y36.607 Z-3.702
N2164 X67.962 Y36.455 Z-3.708
N2165 X68.081 Y36.242 Z-3.716
N2166 X68.19 Y36.051 Z-3.724
N2167 X68.434 Y35.646 Z-3.74
N2168 X68.486 Y35.565 Z-3.744
N2169 X68.696 Y35.241 Z-3.757
N2170 X68.834 Y35.039 Z-3.766
N2171 X68.974 Y34.836 Z-3.774
N2172 X69.093 Y34.67 Z-3.781
N2173 X69.296 Y34.397 Z-3.793
N2174 X69.425 Y34.229 Z-3.801
N2175 X69.586 Y34.027 Z-3.81
N2176 X69.7 Y33.884 Z-3.816
N2177 X69.922 Y33.622 Z-3.828
N2178 X70.098 Y33.419 Z-3.838
N2179 X70.307 Y33.187 Z-3.848
N2180 X70.469 Y33.015 Z-3.857
N2181 X70.712 Y32.761 Z-3.869
N2182 X70.866 Y32.61 Z-3.876
N2183 X71.117 Y32.365 Z-3.889
N2184 X71.291 Y32.205 Z-3.897
N2185 X71.319 Y32.179 Z-3.898
N2186 X71.512 Y32.003 Z-3.907
N2187 X71.748 Y31.8 Z-3.918
N2188 X71.926 Y31.648 Z-3.926
N2189 X72.239 Y31.395 Z-3.941
N2190 X72.331 Y31.322 Z-3.945
N2191 X72.736 Y31.017 Z-3.962
N2192 X72.772 Y30.991 Z-3.964
N2193 X73.14 Y30.731 Z-3.98
N2194 X73.343 Y30.596 Z-3.988
N2195 X73.545 Y30.463 Z-3.997
N2196 X73.668 Y30.383 Z-4.002
N2197 X73.998 Y30.181 Z-4.015
N2198 X74.152 Y30.09 Z-4.021
N2199 X74.355 Y29.974 Z-4.03
N2200 X74.557 Y29.86 Z-4.038
N2201 X74.962 Y29.646 Z-4.054
N2202 X75.105 Y29.574 Z-4.059
N2203 X75.366 Y29.446 Z-4.069
N2204 X75.522 Y29.371 Z-4.076
N2205 X75.771 Y29.259 Z-4.085
N2206 X75.972 Y29.169 Z-4.093
N2207 X76.378 Y29.002 Z-4.108
N2208 X76.464 Y28.967 Z-4.111
N2209 X76.783 Y28.847 Z-4.123
N2210 X76.985 Y28.772 Z-4.131
N2211 X77.39 Y28.635 Z-4.146
N2212 X77.592 Y28.571 Z-4.153
N2213 X77.795 Y28.51 Z-4.16
N2214 X77.997 Y28.449 Z-4.168
N2215 X78.402 Y28.34 Z-4.182
N2216 X78.604 Y28.29 Z-4.19
N2217 X78.806 Y28.242 Z-4.197
N2218 X79.009 Y28.195 Z-4.204
N2219 X79.413 Y28.113 Z-4.219
N2220 X79.616 Y28.076 Z-4.226
N2221 X80.021 Y28.007 Z-4.24
N2222 X80.223 Y27.979 Z-4.247
N2223 X80.425 Y27.951 Z-4.254
N2224 X80.628 Y27.926 Z-4.262
N2225 X81.032 Y27.884 Z-4.276
N2226 X81.235 Y27.867 Z-4.283
N2227 X81.437 Y27.853 Z-4.29
N2228 X81.639 Y27.839 Z-4.297
N2229 X82.044 Y27.822 Z-4.311
N2230 X82.246 Y27.817 Z-4.318
N2231 X82.651 Y27.814 Z-4.332
N2232 X82.854 Y27.818 Z-4.339
N2233 X83.056 Y27.823 Z-4.347
N2234 X83.258 Y27.829 Z-4.354
N2235 X83.663 Y27.852 Z-4.368
N2236 X83.865 Y27.867 Z-4.375
N2237 X84.27 Y27.903 Z-4.389
N2238 X84.472 Y27.927 Z-4.396
N2239 X84.704 Y27.955 Z-4.404
N2240 X84.877 Y27.978 Z-4.41
N2241 X85.282 Y28.04 Z-4.425
N2242 X85.484 Y28.076 Z-4.432
N2243 X85.687 Y28.114 Z-4.439
N2244 X85.889 Y28.153 Z-4.446
N2245 X86.294 Y28.241 Z-4.461
N2246 X86.496 Y28.29 Z-4.468
N2247 X86.772 Y28.36 Z-4.478
N2248 X86.901 Y28.393 Z-4.483
N2249 X87.305 Y28.509 Z-4.497
N2250 X87.48 Y28.562 Z-4.504
N2251 X87.71 Y28.636 Z-4.512
N2252 X87.912 Y28.702 Z-4.52
N2253 X88.317 Y28.846 Z-4.535
N2254 X88.52 Y28.923 Z-4.542
N2255 X88.722 Y29.003 Z-4.55
N2256 X88.924 Y29.084 Z-4.557
N2257 X89.329 Y29.258 Z-4.573
N2258 X89.531 Y29.351 Z-4.58
N2259 X89.734 Y29.446 Z-4.588
N2260 X89.936 Y29.544 Z-4.596
N2261 X90.138 Y29.647 Z-4.604
N2262 X90.341 Y29.751 Z-4.612
N2263 X90.756 Y29.979 Z-4.629
N2264 X90.948 Y30.091 Z-4.636
N2265 X91.15 Y30.21 Z-4.645
N2266 X91.353 Y30.335 Z-4.653
N2267 X91.555 Y30.463 Z-4.661
N2268 X91.744 Y30.586 Z-4.669
N2269 X92.041 Y30.788 Z-4.682
N2270 X92.162 Y30.872 Z-4.687
N2271 X92.364 Y31.019 Z-4.695
N2272 X92.567 Y31.167 Z-4.704
N2273 X92.971 Y31.482 Z-4.722
N2274 X93.111 Y31.598 Z-4.728
N2275 X93.376 Y31.818 Z-4.741
N2276 X93.578 Y31.997 Z-4.75
N2277 X93.781 Y32.176 Z-4.759
N2278 X93.811 Y32.205 Z-4.761
N2279 X94.025 Y32.407 Z-4.771
N2280 X94.186 Y32.56 Z-4.779
N2281 X94.436 Y32.812 Z-4.791
N2282 X94.59 Y32.97 Z-4.799
N2283 X94.82 Y33.217 Z-4.811
N2284 X94.995 Y33.412 Z-4.82
N2285 X95.197 Y33.643 Z-4.831
N2286 X95.349 Y33.824 Z-4.839
N2287 X95.515 Y34.027 Z-4.848
N2288 X95.602 Y34.134 Z-4.853
N2289 X95.83 Y34.431 Z-4.866
N2290 X95.98 Y34.634 Z-4.875
N2291 X96.209 Y34.953 Z-4.888
N2292 X96.267 Y35.039 Z-4.892
N2293 X96.411 Y35.254 Z-4.901
N2294 X96.537 Y35.443 Z-4.909
N2295 X96.79 Y35.848 Z-4.926
N2296 X96.816 Y35.892 Z-4.928
N2297 X97.026 Y36.253 Z-4.942
N2298 X97.138 Y36.455 Z-4.95
N2299 X97.247 Y36.658 Z-4.958
N2300 X97.353 Y36.86 Z-4.966
N2301 X97.555 Y37.265 Z-4.982
N2302 X97.626 Y37.418 Z-4.988
N2303 X97.741 Y37.67 Z-4.998
N2304 X97.828 Y37.869 Z-5.005
N2305 X97.914 Y38.075 Z-5.013
N2306 X97.998 Y38.277 Z-5.021
N2307 X98.154 Y38.682 Z-5.036
N2308 X98.226 Y38.884 Z-5.043
N2309 X98.296 Y39.087 Z-5.051
N2310 X98.365 Y39.289 Z-5.058
N2311 X98.491 Y39.694 Z-5.073
N2312 X98.549 Y39.896 Z-5.08
N2313 X98.637 Y40.213 Z-5.092
N2314 X98.66 Y40.301 Z-5.095
N2315 X98.759 Y40.706 Z-5.11
N2316 X98.803 Y40.908 Z-5.117
N2317 X98.846 Y41.11 Z-5.124
N2318 X98.888 Y41.313 Z-5.131
N2319 X98.959 Y41.718 Z-5.146
N2320 X98.992 Y41.92 Z-5.153
N2321 X99.05 Y42.325 Z-5.167
N2322 X99.073 Y42.527 Z-5.174
N2323 X99.096 Y42.73 Z-5.181
N2324 X99.116 Y42.932 Z-5.188
N2325 X99.149 Y43.337 Z-5.202
N2326 X99.16 Y43.539 Z-5.21
N2327 X99.17 Y43.742 Z-5.217
N2328 X99.179 Y43.944 Z-5.224
N2329 X99.185 Y44.349 Z-5.238
N2330 Y44.551 Z-5.245
N2331 X99.179 Y44.956 Z-5.259
N2332 X99.17 Y45.158 Z-5.266
N2333 X99.16 Y45.361 Z-5.273
N2334 X99.149 Y45.563 Z-5.28
N2335 X99.116 Y45.968 Z-5.294
N2336 X99.096 Y46.17 Z-5.302
N2337 X99.073 Y46.373 Z-5.309
N2338 X99.05 Y46.575 Z-5.316
N2339 X98.992 Y46.98 Z-5.33
N2340 X98.959 Y47.182 Z-5.337
N2341 X98.888 Y47.587 Z-5.352
N2342 X98.846 Y47.79 Z-5.359
N2343 X98.803 Y47.992 Z-5.366
N2344 X98.759 Y48.194 Z-5.373
N2345 X98.66 Y48.599 Z-5.388
N2346 X98.637 Y48.687 Z-5.391
N2347 X98.549 Y49.004 Z-5.402
N2348 X98.491 Y49.206 Z-5.41
N2349 X98.365 Y49.611 Z-5.425
N2350 X98.296 Y49.813 Z-5.432
N2351 X98.226 Y50.016 Z-5.44
N2352 X98.154 Y50.218 Z-5.447
N2353 X97.998 Y50.623 Z-5.462
N2354 X97.914 Y50.825 Z-5.47
N2355 X97.828 Y51.031 Z-5.478
N2356 X97.741 Y51.23 Z-5.485
N2357 X97.626 Y51.482 Z-5.495
N2358 X97.555 Y51.635 Z-5.501
N2359 X97.353 Y52.04 Z-5.517
N2360 X97.247 Y52.242 Z-5.525
N2361 X97.138 Y52.445 Z-5.533
N2362 X97.026 Y52.647 Z-5.541
N2363 X96.816 Y53.008 Z-5.555
N2364 X96.79 Y53.052 Z-5.557
N2365 X96.537 Y53.457 Z-5.574
N2366 X96.411 Y53.646 Z-5.582
N2367 X96.267 Y53.861 Z-5.591
N2368 X96.209 Y53.947 Z-5.594
N2369 X95.98 Y54.266 Z-5.608
N2370 X95.83 Y54.469 Z-5.617
N2371 X95.602 Y54.766 Z-5.63
N2372 X95.515 Y54.873 Z-5.635
N2373 X95.349 Y55.076 Z-5.644
N2374 X95.197 Y55.257 Z-5.652
N2375 X94.995 Y55.488 Z-5.663
N2376 X94.82 Y55.683 Z-5.672
N2377 X94.59 Y55.93 Z-5.684
N2378 X94.436 Y56.088 Z-5.692
N2379 X94.186 Y56.34 Z-5.704
N2380 X94.025 Y56.493 Z-5.712
N2381 X93.811 Y56.695 Z-5.722
N2382 X93.781 Y56.724 Z-5.723
N2383 X93.578 Y56.903 Z-5.733
N2384 X93.376 Y57.082 Z-5.742
N2385 X93.111 Y57.302 Z-5.754
N2386 X92.971 Y57.418 Z-5.761
N2387 X92.567 Y57.733 Z-5.779
N2388 X92.364 Y57.881 Z-5.787
N2389 X92.162 Y58.028 Z-5.796
N2390 X92.041 Y58.112 Z-5.801
N2391 X91.744 Y58.314 Z-5.814
N2392 X91.555 Y58.437 Z-5.822
N2393 X91.353 Y58.565 Z-5.83
N2394 X91.15 Y58.69 Z-5.838
N2395 X90.948 Y58.809 Z-5.846
N2396 X90.756 Y58.921 Z-5.854
N2397 X90.341 Y59.149 Z-5.871
N2398 X90.138 Y59.253 Z-5.879
N2399 X89.936 Y59.356 Z-5.887
N2400 X89.734 Y59.454 Z-5.894
N2401 X89.531 Y59.549 Z-5.902
N2402 X89.329 Y59.642 Z-5.91
N2403 X88.924 Y59.816 Z-5.925
N2404 X88.722 Y59.897 Z-5.933
N2405 X88.52 Y59.977 Z-5.941
N2406 X88.317 Y60.054 Z-5.948
N2407 X87.912 Y60.198 Z-5.963
N2408 X87.71 Y60.264 Z-5.971
N2409 X87.48 Y60.338 Z-5.979
N2410 X87.305 Y60.391 Z-5.985
N2411 X86.901 Y60.507 Z-6
N2412 X86.772 Y60.54 Z-6.005
N2413 X86.496 Y60.61 Z-6.015
N2414 X86.294 Y60.659 Z-6.022
N2415 X85.889 Y60.747 Z-6.037
N2416 X85.687 Y60.786 Z-6.044
N2417 X85.484 Y60.824 Z-6.051
N2418 X85.282 Y60.86 Z-6.058
N2419 X84.877 Y60.922 Z-6.072
N2420 X84.704 Y60.945 Z-6.078
N2421 X84.472 Y60.973 Z-6.087
N2422 X84.27 Y60.997 Z-6.094
N2423 X83.865 Y61.033 Z-6.108
N2424 X83.663 Y61.048 Z-6.115
N2425 X83.258 Y61.071 Z-6.129
N2426 X83.056 Y61.077 Z-6.136
N2427 X82.854 Y61.082 Z-6.143
N2428 X82.651 Y61.086 Z-6.15
N2429 X82.246 Y61.083 Z-6.164
N2430 X82.044 Y61.078 Z-6.172
N2431 X81.639 Y61.061 Z-6.186
N2432 X81.437 Y61.047 Z-6.193
N2433 X81.235 Y61.033 Z-6.2
N2434 X81.032 Y61.016 Z-6.207
N2435 X80.628 Y60.974 Z-6.221
N2436 X80.425 Y60.949 Z-6.228
N2437 X80.223 Y60.921 Z-6.235
N2438 X80.021 Y60.893 Z-6.243
N2439 X79.616 Y60.824 Z-6.257
N2440 X79.413 Y60.787 Z-6.264
N2441 X79.009 Y60.705 Z-6.279
N2442 X78.806 Y60.658 Z-6.286
N2443 X78.604 Y60.61 Z-6.293
N2444 X78.402 Y60.56 Z-6.3
N2445 X77.997 Y60.451 Z-6.315
N2446 X77.795 Y60.39 Z-6.322
N2447 X77.592 Y60.329 Z-6.33
N2448 X77.39 Y60.265 Z-6.337
N2449 X76.985 Y60.128 Z-6.352
N2450 X76.783 Y60.053 Z-6.36
N2451 X76.464 Y59.933 Z-6.371
N2452 X76.378 Y59.898 Z-6.375
N2453 X75.972 Y59.731 Z-6.39
N2454 X75.771 Y59.641 Z-6.398
N2455 X75.522 Y59.529 Z-6.407
N2456 X75.366 Y59.454 Z-6.413
N2457 X75.105 Y59.326 Z-6.423
N2458 X74.962 Y59.254 Z-6.429
N2459 X74.557 Y59.04 Z-6.445
N2460 X74.355 Y58.926 Z-6.453
N2461 X74.152 Y58.81 Z-6.461
N2462 X73.998 Y58.719 Z-6.468
N2463 X73.668 Y58.517 Z-6.481
N2464 X73.545 Y58.437 Z-6.486
N2465 X73.343 Y58.304 Z-6.495
N2466 X73.14 Y58.169 Z-6.503
N2467 X72.772 Y57.909 Z-6.519
N2468 X72.736 Y57.883 Z-6.52
N2469 X72.331 Y57.578 Z-6.538
N2470 X72.239 Y57.505 Z-6.542
N2471 X71.926 Y57.252 Z-6.556
N2472 X71.748 Y57.1 Z-6.564
N2473 X71.512 Y56.897 Z-6.575
N2474 X71.319 Y56.721 Z-6.584
N2475 X71.291 Y56.695 Z-6.586
N2476 X71.117 Y56.535 Z-6.594
N2477 X70.866 Y56.29 Z-6.606
N2478 X70.712 Y56.139 Z-6.614
N2479 X70.469 Y55.885 Z-6.626
N2480 X70.307 Y55.713 Z-6.634
N2481 X70.098 Y55.481 Z-6.645
N2482 X69.922 Y55.278 Z-6.655
N2483 X69.7 Y55.016 Z-6.667
N2484 X69.586 Y54.873 Z-6.673
N2485 X69.425 Y54.671 Z-6.682
N2486 X69.296 Y54.503 Z-6.689
N2487 X69.093 Y54.23 Z-6.701
N2488 X68.974 Y54.064 Z-6.708
N2489 X68.834 Y53.861 Z-6.717
N2490 X68.696 Y53.659 Z-6.726
N2491 X68.486 Y53.335 Z-6.739
N2492 X68.434 Y53.254 Z-6.742
N2493 X68.19 Y52.849 Z-6.759
N2494 X68.081 Y52.658 Z-6.767
N2495 X67.962 Y52.445 Z-6.775
N2496 X67.879 Y52.293 Z-6.781
N2497 X67.677 Y51.903 Z-6.797
N2498 X67.644 Y51.837 Z-6.799
N2499 X67.45 Y51.433 Z-6.815
N2500 X67.36 Y51.23 Z-6.823
N2501 X67.271 Y51.028 Z-6.83
N2502 X67.185 Y50.825 Z-6.838
N2503 X67.022 Y50.421 Z-6.853
N2504 X66.948 Y50.218 Z-6.861
N2505 X66.867 Y49.999 Z-6.869
N2506 X66.803 Y49.813 Z-6.876
N2507 X66.736 Y49.611 Z-6.883
N2508 X66.67 Y49.409 Z-6.891
N2509 X66.55 Y49.004 Z-6.905
N2510 X66.494 Y48.802 Z-6.913
N2511 X66.388 Y48.397 Z-6.927
N2512 X66.342 Y48.194 Z-6.935
N2513 X66.296 Y47.992 Z-6.942
N2514 X66.26 Y47.826 Z-6.948
N2515 X66.175 Y47.385 Z-6.963
N2516 X66.141 Y47.182 Z-6.971
N2517 X66.109 Y46.98 Z-6.978
N2518 X66.078 Y46.778 Z-6.985
N2519 X66.026 Y46.373 Z-6.999
N2520 X66.004 Y46.17 Z-7.006
N2521 X65.985 Y45.968 Z-7.013
N2522 X65.966 Y45.766 Z-7.02
N2523 X65.94 Y45.361 Z-7.035
N2524 X65.93 Y45.158 Z-7.042
N2525 X65.917 Y44.754 Z-7.056
N2526 X65.916 Y44.551 Z-7.063
N2527 Y44.349 Z-7.07
N2528 X65.917 Y44.146 Z-7.077
N2529 X65.93 Y43.742 Z-7.091
N2530 X65.94 Y43.539 Z-7.098
N2531 X65.964 Y43.157 Z-7.112
N2532 X65.966 Y43.134
N2533 X65.985 Y42.932
N2534 X66.004 Y42.73
N2535 X66.026 Y42.527
N2536 X66.058 Y42.277
N2537 X66.078 Y42.122
N2538 X66.109 Y41.92
N2539 X66.141 Y41.718
N2540 X66.175 Y41.515
N2541 X66.26 Y41.074
N2542 X66.296 Y40.908
N2543 X66.342 Y40.706
N2544 X66.388 Y40.503
N2545 X66.494 Y40.098
N2546 X66.55 Y39.896
N2547 X66.67 Y39.491
N2548 X66.736 Y39.289
N2549 X66.803 Y39.087
N2550 X66.867 Y38.901
N2551 X66.948 Y38.682
N2552 X67.022 Y38.479
N2553 X67.185 Y38.075
N2554 X67.271 Y37.872
N2555 X67.36 Y37.67
N2556 X67.45 Y37.467
N2557 X67.644 Y37.063
N2558 X67.677 Y36.997
N2559 X67.879 Y36.607
N2560 X67.962 Y36.455
N2561 X68.081 Y36.242
N2562 X68.19 Y36.051
N2563 X68.434 Y35.646
N2564 X68.486 Y35.565
N2565 X68.696 Y35.241
N2566 X68.834 Y35.039
N2567 X68.974 Y34.836
N2568 X69.093 Y34.67
N2569 X69.296 Y34.397
N2570 X69.425 Y34.229
N2571 X69.586 Y34.027
N2572 X69.7 Y33.884
N2573 X69.922 Y33.622
N2574 X70.098 Y33.419
N2575 X70.307 Y33.187
N2576 X70.469 Y33.015
N2577 X70.712 Y32.761
N2578 X70.866 Y32.61
N2579 X71.117 Y32.365
N2580 X71.291 Y32.205
N2581 X71.319 Y32.179
N2582 X71.512 Y32.003
N2583 X71.748 Y31.8
N2584 X71.926 Y31.648
N2585 X72.239 Y31.395
N2586 X72.331 Y31.322
N2587 X72.736 Y31.017
N2588 X72.772 Y30.991
N2589 X73.14 Y30.731
N2590 X73.343 Y30.596
N2591 X73.545 Y30.463
N2592 X73.668 Y30.383
N2593 X73.998 Y30.181
N2594 X74.152 Y30.09
N2595 X74.355 Y29.974
N2596 X74.557 Y29.86
N2597 X74.962 Y29.646
N2598 X75.105 Y29.574
N2599 X75.366 Y29.446
N2600 X75.522 Y29.371
N2601 X75.771 Y29.259
N2602 X75.972 Y29.169
N2603 X76.378 Y29.002
N2604 X76.464 Y28.967
N2605 X76.783 Y28.847
N2606 X76.985 Y28.772
N2607 X77.39 Y28.635
N2608 X77.592 Y28.571
N2609 X77.795 Y28.51
N2610 X77.997 Y28.449
N2611 X78.402 Y28.34
N2612 X78.604 Y28.29
N2613 X78.806 Y28.242
N2614 X79.009 Y28.195
N2615 X79.413 Y28.113
N2616 X79.616 Y28.076
N2617 X80.021 Y28.007
N2618 X80.223 Y27.979
N2619 X80.425 Y27.951
N2620 X80.628 Y27.926
N2621 X81.032 Y27.884
N2622 X81.235 Y27.867
N2623 X81.437 Y27.853
N2624 X81.639 Y27.839
N2625 X82.044 Y27.822
N2626 X82.246 Y27.817
N2627 X82.651 Y27.814
N2628 X82.854 Y27.818
N2629 X83.056 Y27.823
N2630 X83.258 Y27.829
N2631 X83.663 Y27.852
N2632 X83.865 Y27.867
N2633 X84.27 Y27.903
N2634 X84.472 Y27.927
N2635 X84.704 Y27.955
N2636 X84.877 Y27.978
N2637 X85.282 Y28.04
N2638 X85.484 Y28.076
N2639 X85.687 Y28.114
N2640 X85.889 Y28.153
N2641 X86.294 Y28.241
N2642 X86.496 Y28.29
N2643 X86.772 Y28.36
N2644 X86.901 Y28.393
N2645 X87.305 Y28.509
N2646 X87.48 Y28.562
N2647 X87.71 Y28.636
N2648 X87.912 Y28.702
N2649 X88.317 Y28.846
N2650 X88.52 Y28.923
N2651 X88.722 Y29.003
N2652 X88.924 Y29.084
N2653 X89.329 Y29.258
N2654 X89.531 Y29.351
N2655 X89.734 Y29.446
N2656 X89.936 Y29.544
N2657 X90.138 Y29.647
N2658 X90.341 Y29.751
N2659 X90.756 Y29.979
N2660 X90.948 Y30.091
N2661 X91.15 Y30.21
N2662 X91.353 Y30.335
N2663 X91.555 Y30.463
N2664 X91.744 Y30.586
N2665 X92.041 Y30.788
N2666 X92.162 Y30.872
N2667 X92.364 Y31.019
N2668 X92.567 Y31.167
N2669 X92.971 Y31.482
N2670 X93.111 Y31.598
N2671 X93.376 Y31.818
N2672 X93.578 Y31.997
N2673 X93.781 Y32.176
N2674 X93.811 Y32.205
N2675 X94.025 Y32.407
N2676 X94.186 Y32.56
N2677 X94.436 Y32.812
N2678 X94.59 Y32.97
N2679 X94.82 Y33.217
N2680 X94.995 Y33.412
N2681 X95.197 Y33.643
N2682 X95.349 Y33.824
N2683 X95.515 Y34.027
N2684 X95.602 Y34.134
N2685 X95.83 Y34.431
N2686 X95.98 Y34.634
N2687 X96.209 Y34.953
N2688 X96.267 Y35.039
N2689 X96.411 Y35.254
N2690 X96.537 Y35.443
N2691 X96.79 Y35.848
N2692 X96.816 Y35.892
N2693 X97.026 Y36.253
N2694 X97.138 Y36.455
N2695 X97.247 Y36.658
N2696 X97.353 Y36.86
N2697 X97.555 Y37.265
N2698 X97.626 Y37.418
N2699 X97.741 Y37.67
N2700 X97.828 Y37.869
N2701 X97.914 Y38.075
N2702 X97.998 Y38.277
N2703 X98.154 Y38.682
N2704 X98.226 Y38.884
N2705 X98.296 Y39.087
N2706 X98.365 Y39.289
N2707 X98.491 Y39.694
N2708 X98.549 Y39.896
N2709 X98.637 Y40.213
N2710 X98.66 Y40.301
N2711 X98.759 Y40.706
N2712 X98.803 Y40.908
N2713 X98.846 Y41.11
N2714 X98.888 Y41.313
N2715 X98.959 Y41.718
N2716 X98.992 Y41.92
N2717 X99.05 Y42.325
N2718 X99.073 Y42.527
N2719 X99.096 Y42.73
N2720 X99.116 Y42.932
N2721 X99.149 Y43.337
N2722 X99.16 Y43.539
N2723 X99.17 Y43.742
N2724 X99.179 Y43.944
N2725 X99.185 Y44.349
N2726 Y44.551
N2727 X99.179 Y44.956
N2728 X99.17 Y45.158
N2729 X99.16 Y45.361
N2730 X99.149 Y45.563
N2731 X99.116 Y45.968
N2732 X99.096 Y46.17
N2733 X99.073 Y46.373
N2734 X99.05 Y46.575
N2735 X98.992 Y46.98
N2736 X98.959 Y47.182
N2737 X98.888 Y47.587
N2738 X98.846 Y47.79
N2739 X98.803 Y47.992
N2740 X98.759 Y48.194
N2741 X98.66 Y48.599
N2742 X98.637 Y48.687
N2743 X98.549 Y49.004
N2744 X98.491 Y49.206
N2745 X98.365 Y49.611
N2746 X98.296 Y49.813
N2747 X98.226 Y50.016
N2748 X98.154 Y50.218
N2749 X97.998 Y50.623
N2750 X97.914 Y50.825
N2751 X97.828 Y51.031
N2752 X97.741 Y51.23
N2753 X97.626 Y51.482
N2754 X97.555 Y51.635
N2755 X97.353 Y52.04
N2756 X97.247 Y52.242
N2757 X97.138 Y52.445
N2758 X97.026 Y52.647
N2759 X96.816 Y53.008
N2760 X96.79 Y53.052
N2761 X96.537 Y53.457
N2762 X96.411 Y53.646
N2763 X96.267 Y53.861
N2764 X96.209 Y53.947
N2765 X95.98 Y54.266
N2766 X95.83 Y54.469
N2767 X95.602 Y54.766
N2768 X95.515 Y54.873
N2769 X95.349 Y55.076
N2770 X95.197 Y55.257
N2771 X94.995 Y55.488
N2772 X94.82 Y55.683
N2773 X94.59 Y55.93
N2774 X94.436 Y56.088
N2775 X94.186 Y56.34
N2776 X94.025 Y56.493
N2777 X93.811 Y56.695
N2778 X93.781 Y56.724
N2779 X93.578 Y56.903
N2780 X93.376 Y57.082
N2781 X93.111 Y57.302
N2782 X92.971 Y57.418
N2783 X92.567 Y57.733
N2784 X92.364 Y57.881
N2785 X92.162 Y58.028
N2786 X92.041 Y58.112
N2787 X91.744 Y58.314
N2788 X91.555 Y58.437
N2789 X91.353 Y58.565
N2790 X91.15 Y58.69
N2791 X90.948 Y58.809
N2792 X90.756 Y58.921
N2793 X90.341 Y59.149
N2794 X90.138 Y59.253
N2795 X89.936 Y59.356
N2796 X89.734 Y59.454
N2797 X89.531 Y59.549
N2798 X89.329 Y59.642
N2799 X88.924 Y59.816
N2800 X88.722 Y59.897
N2801 X88.52 Y59.977
N2802 X88.317 Y60.054
N2803 X87.912 Y60.198
N2804 X87.71 Y60.264
N2805 X87.48 Y60.338
N2806 X87.305 Y60.391
N2807 X86.901 Y60.507
N2808 X86.772 Y60.54
N2809 X86.496 Y60.61
N2810 X86.294 Y60.659
N2811 X85.889 Y60.747
N2812 X85.687 Y60.786
N2813 X85.484 Y60.824
N2814 X85.282 Y60.86
N2815 X84.877 Y60.922
N2816 X84.704 Y60.945
N2817 X84.472 Y60.973
N2818 X84.27 Y60.997
N2819 X83.865 Y61.033
N2820 X83.663 Y61.048
N2821 X83.258 Y61.071
N2822 X83.056 Y61.077
N2823 X82.854 Y61.082
N2824 X82.651 Y61.086
N2825 X82.246 Y61.083
N2826 X82.044 Y61.078
N2827 X81.639 Y61.061
N2828 X81.437 Y61.047
N2829 X81.235 Y61.033
N2830 X81.032 Y61.016
N2831 X80.628 Y60.974
N2832 X80.425 Y60.949
N2833 X80.223 Y60.921
N2834 X80.021 Y60.893
N2835 X79.616 Y60.824
N2836 X79.413 Y60.787
N2837 X79.009 Y60.705
N2838 X78.806 Y60.658
N2839 X78.604 Y60.61
N2840 X78.402 Y60.56
N2841 X77.997 Y60.451
N2842 X77.795 Y60.39
N2843 X77.592 Y60.329
N2844 X77.39 Y60.265
N2845 X76.985 Y60.128
N2846 X76.783 Y60.053
N2847 X76.464 Y59.933
N2848 X76.378 Y59.898
N2849 X75.972 Y59.731
N2850 X75.771 Y59.641
N2851 X75.522 Y59.529
N2852 X75.366 Y59.454
N2853 X75.105 Y59.326
N2854 X74.962 Y59.254
N2855 X74.557 Y59.04
N2856 X74.355 Y58.926
N2857 X74.152 Y58.81
N2858 X73.998 Y58.719
N2859 X73.668 Y58.517
N2860 X73.545 Y58.437
N2861 X73.343 Y58.304
N2862 X73.14 Y58.169
N2863 X72.772 Y57.909
N2864 X72.736 Y57.883
N2865 X72.331 Y57.578
N2866 X72.239 Y57.505
N2867 X71.926 Y57.252
N2868 X71.748 Y57.1
N2869 X71.512 Y56.897
N2870 X71.319 Y56.721
N2871 X71.291 Y56.695
N2872 X71.117 Y56.535
N2873 X70.866 Y56.29
N2874 X70.712 Y56.139
N2875 X70.469 Y55.885
N2876 X70.307 Y55.713
N2877 X70.098 Y55.481
N2878 X69.922 Y55.278
N2879 X69.7 Y55.016
N2880 X69.586 Y54.873
N2881 X69.425 Y54.671
N2882 X69.296 Y54.503
N2883 X69.093 Y54.23
N2884 X68.974 Y54.064
N2885 X68.834 Y53.861
N2886 X68.696 Y53.659
N2887 X68.486 Y53.335
N2888 X68.434 Y53.254
N2889 X68.19 Y52.849
N2890 X68.081 Y52.658
N2891 X67.962 Y52.445
N2892 X67.879 Y52.293
N2893 X67.677 Y51.903
N2894 X67.644 Y51.837
N2895 X67.45 Y51.433
N2896 X67.36 Y51.23
N2897 X67.271 Y51.028
N2898 X67.185 Y50.825
N2899 X67.022 Y50.421
N2900 X66.948 Y50.218
N2901 X66.867 Y49.999
N2902 X66.803 Y49.813
N2903 X66.736 Y49.611
N2904 X66.67 Y49.409
N2905 X66.55 Y49.004
N2906 X66.494 Y48.802
N2907 X66.388 Y48.397
N2908 X66.342 Y48.194
N2909 X66.296 Y47.992
N2910 X66.26 Y47.826
N2911 X66.175 Y47.385
N2912 X66.141 Y47.182
N2913 X66.109 Y46.98
N2914 X66.078 Y46.778
N2915 X66.026 Y46.373
N2916 X66.004 Y46.17
N2917 X65.985 Y45.968
N2918 X65.966 Y45.766
N2919 X65.94 Y45.361
N2920 X65.93 Y45.158
N2921 X65.917 Y44.754
N2922 X65.916 Y44.551
N2923 Y44.349
N2924 X65.917 Y44.146
N2925 X65.93 Y43.742
N2926 X65.94 Y43.539
N2927 X65.966 Y43.134
N2928 G0 Z15.24
N2930 Z40
N2931 M5
N2931 X 160 Y 120
N2932 M30
