%
(Plaque)
(plaque)
(T1  D=6.35 CR=0 - ZMIN=-7.112 - flat end mill)
N0 G90
N1 G17
(Adaptive2)
N3 S10000 M3
N5 G0 X85.627 Y44.35
N6 Z15.24
N7 Z1.398
N8 G1 Z0.763 F1016
N9 G3 X83.171 Y47.466 Z0.537 I-3.078 J0.1
N10 X79.692 Y45.58 Z0.311 I-0.62 J-3.008
N11 X80.955 Y41.841 Z0.086 I2.852 J-1.12
N12 X84.845 Y42.448 Z-0.14 I1.585 J2.613
N13 X84.909 Y46.374 Z-0.366 I-2.299 J2.001
N14 X81.06 Y47.102 Z-0.592 I-2.357 J-1.92
N15 X79.691 Y43.444 Z-0.818 I1.488 J-2.642
N16 X83.055 Y41.477 Z-1.044 I2.849 J1.014
N17 X85.558 Y44.45 Z-1.27 I-0.513 J2.972
N18 X79.526 I-3.016 J0
N19 X85.558 I3.016 J0
N20 G1 X85.562 Y44.68
N21 X85.719 Y45.585
N22 G3 X85.56 Y47.263 I-1.845 J0.671
N23 X83.771 Y48.828 I-2.886 J-1.493
N24 X79.233 Y47.89 I-1.533 J-4.034
N25 X80.386 Y40.138 I3.251 J-3.478
N26 X86.807 Y42.185 I2.168 J4.294
N27 G1 X87.216 Y42.98
N28 G3 X87.814 Y45.062 I-6.14 J2.89
N29 X84.465 Y50.592 I-5.29 J0.575
N30 X79.199 Y50.291 I-2.319 J-5.636
N31 X75.992 Y42.497 I3.165 J-5.859
N32 X87.571 Y39.795 I6.556 J1.931
N33 X89.949 Y45.199 I-5.96 J5.848
N34 X85.336 Y52.493 I-7.566 J0.32
N35 X78.904 Y52.508 I-3.233 J-7.506
N36 X73.635 Y45.574 I3.367 J-8.027
N37 X84.561 Y35.67 I8.895 J-1.165
N38 X87.912 Y37.203 I-1.996 J8.795
N39 X92.145 Y44.895 I-6.083 J8.358
N40 X87.062 Y54.096 I-9.81 J0.585
N41 X80.654 Y55.273 I-4.965 J-8.995
N42 X74.573 Y52.257 I1.475 J-10.611
N43 X71.306 Y44.256 I7.769 J-7.839
N44 X78.654 Y33.877 I11.211 J0.148
N45 X86.639 Y33.951 I3.895 J10.557
N46 X90.494 Y36.401 I-4.306 J11.032
N47 X94.293 Y43.583 I-8.628 J9.16
N48 X92.794 Y51.558 I-12.029 J1.867
N49 X84.851 Y57.345 I-10.575 J-6.171
N50 X75.944 Y56.093 I-2.79 J-12.461
N51 X70.335 Y50.199 I6.239 J-11.553
N52 X70.723 Y37.824 I12.089 J-5.814
N53 X86.496 Y31.474 I11.821 J6.598
N54 X93.85 Y36.719 I-4.196 J13.662
N55 X95.776 Y50.679 I-11.694 J8.725
N56 X84.037 Y59.836 I-13.577 J-5.301
N57 X72.796 Y56.812 I-1.992 J-14.995
N58 X66.694 Y44.948 I9.473 J-12.374
N59 X87.347 Y29.301 I15.841 J-0.544
N60 X96.041 Y35.753 I-5.005 J15.83
N61 X95.732 Y55.536 I-13.83 J9.678
N62 X83.175 Y62.28 I-13.595 J-10.251
N63 X69.143 Y56.66 I-1.111 J-17.554
N64 X66.312 Y36.144 I13.231 J-12.279
N65 X89.873 Y27.73 I16.24 J8.281
N66 X99.563 Y37.116 I-7.639 J17.581
N67 X86.972 Y64.058 I-17.32 J8.319
N68 X69.638 Y60.337 I-4.948 J-19.186
N69 X63.282 Y37.135 I12.681 J-15.945
N70 X90.509 Y25.417 I19.268 J7.279
N71 X101.205 Y35.086 I-8.208 J19.831
N72 X95.262 Y62.664 I-18.96 J10.343
N73 X93.359 Y63.864 I-20.664 J-30.68
N74 G1 X91.981 Y64.556
N75 G3 X89.686 Y65.491 I-11.186 J-24.164
N76 X87.599 Y66.079 I-10.415 J-32.962
N77 X84.261 Y66.596 I-5.243 J-22.816
N78 X77.583 Y66.095 I-1.683 J-22.323
N79 G1 X76.332 Y65.78
N80 G3 X74.246 Y65.054 I10.57 J-33.75
N81 G1 X72.785 Y64.402
N82 G3 X67.668 Y60.943 I10.194 J-20.59
N83 X63.811 Y56.385 I15.811 J-17.291
N84 X61.969 Y52.799 I20.548 J-12.825
N85 G1 X61.505 Y51.546
N86 G3 X60.855 Y49.25 I28.838 J-9.4
N87 G1 X60.632 Y47.997
N88 G3 X65.072 Y30.748 I21.89 J-3.562
N89 G1 X65.124 Y30.668
N90 X66.197 Y29.416
N91 G3 X67.982 Y27.678 I20.533 J19.317
N92 X72.368 Y24.711 I15.07 J17.546
N93 G1 X72.576 Y24.595
N94 G3 X76.222 Y23.153 I11.388 J23.457
N95 X79.879 Y22.402 I6.735 J23.53
N96 X84.261 Y22.303 I2.709 J22.986
N97 X87.808 Y22.871 I-1.9 J23.254
N98 X89.895 Y23.48 I-8.863 J34.227
N99 X91.982 Y24.343 I-9.957 J27.051
N100 G1 X93.35 Y25.031
N101 X93.442 Y25.084
N102 G3 X96.444 Y27.12 I-12.832 J22.155
N103 X98.104 Y28.581 I-22.617 J27.377
N104 G1 X99.284 Y29.841
N105 X99.464 Y30.042
N106 X100.536 Y31.411
N107 G3 X102.681 Y35.053 I-20.683 J14.634
N108 G1 X103.248 Y36.4
N109 X103.38 Y36.723
N110 X103.457 Y36.943
N111 X103.921 Y38.393
N112 G3 X104.665 Y46.535 I-21.751 J6.093
N113 X104.366 Y48.623 I-33.188 J-3.69
N114 X103.254 Y52.502 I-23.285 J-4.576
N115 X101.566 Y55.931 I-22.181 J-8.79
N116 G1 X100.744 Y57.195
N117 G3 X96.78 Y61.505 I-18.678 J-13.201
N118 X95.258 Y62.659 I-18.89 J-23.326
N119 G1 X95.207 Y62.681 Z-1.264
N120 X95.159 Y62.702 Z-1.245
N121 X95.116 Y62.721 Z-1.215
N122 X95.08 Y62.736 Z-1.176
N123 X95.053 Y62.748 Z-1.129
N124 X95.035 Y62.752 Z-1.076
N125 X95.029 Y62.753 Z-1.021
N126 G0 Z5.08
N127 X85.628 Y44.374
N128 Z0.127
N129 G1 Z-0.508 F1016
N130 G3 X83.151 Y47.47 Z-0.734 I-3.078 J0.076
N131 X79.686 Y45.563 Z-0.96 I-0.6 J-3.012
N132 X80.968 Y41.833 Z-1.185 I2.858 J-1.103
N133 X84.853 Y42.457 Z-1.411 I1.571 J2.621
N134 X84.902 Y46.382 Z-1.637 I-2.308 J1.991
N135 X81.054 Y47.098 Z-1.863 I-2.35 J-1.928
N136 X79.693 Y43.439 Z-2.088 I1.494 J-2.638
N137 X83.057 Y41.478 Z-2.314 I2.847 J1.019
N138 X85.558 Y44.45 Z-2.54 I-0.516 J2.972
N139 X79.525 I-3.016 J0
N140 X85.451 Y43.652 I3.016 J0
N141 X85.558 Y44.45 I-2.909 J0.798
N142 G1 X85.562 Y44.679
N143 X85.719 Y45.585
N144 G3 X85.56 Y47.263 I-1.845 J0.671
N145 X83.771 Y48.828 I-2.886 J-1.493
N146 X79.233 Y47.89 I-1.533 J-4.034
N147 X80.386 Y40.138 I3.251 J-3.478
N148 X86.807 Y42.185 I2.168 J4.294
N149 G1 X87.216 Y42.98
N150 G3 X87.814 Y45.062 I-6.14 J2.89
N151 X84.465 Y50.592 I-5.29 J0.575
N152 X79.199 Y50.291 I-2.319 J-5.636
N153 X75.992 Y42.497 I3.165 J-5.859
N154 X87.571 Y39.795 I6.556 J1.931
N155 X89.949 Y45.199 I-5.96 J5.848
N156 X85.336 Y52.493 I-7.566 J0.32
N157 X78.904 Y52.508 I-3.233 J-7.506
N158 X73.635 Y45.574 I3.367 J-8.027
N159 X84.561 Y35.67 I8.895 J-1.165
N160 X87.912 Y37.202 I-1.996 J8.795
N161 X92.145 Y44.895 I-6.083 J8.358
N162 X87.062 Y54.096 I-9.81 J0.585
N163 X80.654 Y55.273 I-4.965 J-8.995
N164 X74.573 Y52.257 I1.475 J-10.611
N165 X71.306 Y44.256 I7.769 J-7.839
N166 X78.654 Y33.877 I11.211 J0.148
N167 X86.639 Y33.951 I3.895 J10.557
N168 X90.494 Y36.401 I-4.306 J11.032
N169 X94.293 Y43.583 I-8.628 J9.16
N170 X92.794 Y51.558 I-12.029 J1.867
N171 X84.851 Y57.345 I-10.575 J-6.171
N172 X75.944 Y56.093 I-2.79 J-12.461
N173 X70.335 Y50.199 I6.239 J-11.553
N174 X70.723 Y37.824 I12.089 J-5.814
N175 X86.496 Y31.474 I11.821 J6.599
N176 X93.85 Y36.719 I-4.196 J13.662
N177 X95.776 Y50.679 I-11.694 J8.725
N178 X84.036 Y59.836 I-13.577 J-5.302
N179 X72.796 Y56.811 I-1.992 J-14.995
N180 X66.694 Y44.947 I9.473 J-12.374
N181 X87.347 Y29.301 I15.841 J-0.544
N182 X96.041 Y35.753 I-5.005 J15.83
N183 X95.732 Y55.536 I-13.83 J9.678
N184 X83.175 Y62.28 I-13.595 J-10.251
N185 X69.143 Y56.66 I-1.111 J-17.554
N186 X66.312 Y36.143 I13.232 J-12.279
N187 X89.873 Y27.73 I16.24 J8.281
N188 X99.563 Y37.116 I-7.64 J17.581
N189 X86.971 Y64.058 I-17.32 J8.318
N190 X69.637 Y60.336 I-4.948 J-19.186
N191 X63.282 Y37.135 I12.681 J-15.945
N192 X90.509 Y25.417 I19.268 J7.279
N193 X101.205 Y35.087 I-8.208 J19.831
N194 X95.26 Y62.665 I-18.96 J10.343
N195 X93.359 Y63.864 I-20.717 J-30.768
N196 G1 X91.981 Y64.556
N197 G3 X89.686 Y65.491 I-11.186 J-24.164
N198 X87.599 Y66.079 I-10.415 J-32.962
N199 X84.261 Y66.596 I-5.243 J-22.816
N200 X77.583 Y66.095 I-1.683 J-22.323
N201 G1 X76.332 Y65.78
N202 G3 X74.246 Y65.054 I10.57 J-33.75
N203 G1 X72.785 Y64.402
N204 G3 X67.668 Y60.943 I10.194 J-20.59
N205 X63.811 Y56.385 I15.811 J-17.291
N206 X61.969 Y52.799 I20.548 J-12.825
N207 G1 X61.505 Y51.546
N208 G3 X60.855 Y49.25 I28.838 J-9.4
N209 G1 X60.632 Y47.997
N210 G3 X65.072 Y30.748 I21.89 J-3.562
N211 G1 X65.124 Y30.668
N212 X66.197 Y29.416
N213 G3 X67.982 Y27.678 I20.533 J19.317
N214 X72.368 Y24.711 I15.07 J17.546
N215 G1 X72.576 Y24.595
N216 G3 X76.222 Y23.153 I11.388 J23.457
N217 X79.879 Y22.402 I6.735 J23.53
N218 X84.261 Y22.303 I2.709 J22.986
N219 X87.808 Y22.871 I-1.9 J23.254
N220 X89.895 Y23.48 I-8.863 J34.227
N221 X91.982 Y24.343 I-9.957 J27.051
N222 G1 X93.35 Y25.031
N223 X93.442 Y25.084
N224 G3 X96.444 Y27.12 I-12.832 J22.155
N225 X98.104 Y28.581 I-22.617 J27.377
N226 G1 X99.284 Y29.841
N227 X99.464 Y30.042
N228 X100.536 Y31.411
N229 G3 X102.681 Y35.053 I-20.683 J14.634
N230 G1 X103.248 Y36.4
N231 X103.38 Y36.723
N232 X103.457 Y36.943
N233 X103.921 Y38.393
N234 G3 X104.665 Y46.535 I-21.751 J6.093
N235 X104.366 Y48.623 I-33.188 J-3.69
N236 X103.254 Y52.502 I-23.285 J-4.576
N237 X101.566 Y55.931 I-22.181 J-8.79
N238 G1 X100.744 Y57.195
N239 G3 X96.78 Y61.505 I-18.678 J-13.201
N240 X95.256 Y62.66 I-18.895 J-23.334
N241 G1 X95.206 Y62.682 Z-2.534
N242 X95.158 Y62.703 Z-2.515
N243 X95.115 Y62.722 Z-2.485
N244 X95.079 Y62.737 Z-2.446
N245 X95.051 Y62.749 Z-2.399
N246 X95.033 Y62.753 Z-2.346
N247 X95.027 Y62.754 Z-2.291
N248 G0 Z-1.143
N249 X85.628 Y44.375
N250 G1 Z-1.778 F1016
N251 G3 X83.151 Y47.471 Z-2.004 I-3.078 J0.076
N252 X79.685 Y45.564 Z-2.23 I-0.6 J-3.012
N253 X80.968 Y41.834 Z-2.455 I2.858 J-1.103
N254 X84.853 Y42.458 Z-2.681 I1.571 J2.621
N255 X84.902 Y46.383 Z-2.907 I-2.308 J1.991
N256 X81.053 Y47.099 Z-3.133 I-2.35 J-1.928
N257 X79.693 Y43.44 Z-3.358 I1.494 J-2.638
N258 X83.057 Y41.479 Z-3.584 I2.848 J1.019
N259 X85.558 Y44.451 Z-3.81 I-0.516 J2.972
N260 X79.525 I-3.016 J0
N261 X85.558 I3.016 J0
N262 G1 X85.562 Y44.68
N263 X85.719 Y45.586
N264 G3 X85.559 Y47.264 I-1.845 J0.671
N265 X83.771 Y48.829 I-2.886 J-1.493
N266 X79.233 Y47.891 I-1.533 J-4.034
N267 X80.386 Y40.139 I3.251 J-3.478
N268 X86.807 Y42.186 I2.168 J4.294
N269 G1 X87.216 Y42.981
N270 G3 X87.813 Y45.063 I-6.14 J2.89
N271 X84.465 Y50.592 I-5.29 J0.575
N272 X79.199 Y50.291 I-2.319 J-5.636
N273 X75.991 Y42.498 I3.165 J-5.859
N274 X87.571 Y39.796 I6.556 J1.931
N275 X89.949 Y45.2 I-5.96 J5.848
N276 X85.335 Y52.494 I-7.566 J0.32
N277 X78.904 Y52.509 I-3.233 J-7.506
N278 X73.635 Y45.575 I3.367 J-8.027
N279 X84.561 Y35.671 I8.895 J-1.165
N280 X87.912 Y37.203 I-1.996 J8.795
N281 X92.144 Y44.896 I-6.083 J8.358
N282 X87.062 Y54.097 I-9.81 J0.585
N283 X80.653 Y55.274 I-4.965 J-8.995
N284 X74.573 Y52.258 I1.475 J-10.611
N285 X71.306 Y44.256 I7.769 J-7.839
N286 X78.654 Y33.878 I11.211 J0.148
N287 X86.639 Y33.952 I3.895 J10.557
N288 X90.494 Y36.402 I-4.306 J11.032
N289 X94.293 Y43.584 I-8.628 J9.16
N290 X92.793 Y51.559 I-12.029 J1.867
N291 X84.851 Y57.346 I-10.575 J-6.171
N292 X75.944 Y56.094 I-2.79 J-12.461
N293 X70.334 Y50.199 I6.239 J-11.553
N294 X70.722 Y37.825 I12.089 J-5.814
N295 X86.495 Y31.475 I11.821 J6.599
N296 X93.85 Y36.72 I-4.196 J13.662
N297 X95.775 Y50.68 I-11.694 J8.725
N298 X84.036 Y59.837 I-13.577 J-5.301
N299 X72.796 Y56.812 I-1.992 J-14.995
N300 X66.694 Y44.948 I9.473 J-12.374
N301 X87.346 Y29.302 I15.841 J-0.544
N302 X96.041 Y35.754 I-5.005 J15.83
N303 X99.066 Y46.327 I-13.856 J9.683
N304 X98.406 Y49.459 I-18.21 J-2.198
N305 G1 X97.95 Y50.711
N306 X97.867 Y50.92
N307 G3 X97.162 Y52.381 I-21.584 J-9.505
N308 X95.142 Y55.305 I-15.606 J-8.625
N309 G1 X94.276 Y56.236
N310 G3 X85.722 Y60.768 I-11.825 J-11.98
N311 X80.505 Y60.952 I-3.219 J-17.27
N312 X77.167 Y60.181 I2.518 J-18.511
N313 G1 X76.123 Y59.773
N314 G3 X67.149 Y50.686 I6.384 J-15.279
N315 G1 X66.943 Y50.181
N316 X66.904 Y50.085
N317 X66.517 Y48.832
N318 G3 X65.958 Y43.404 I16.654 J-4.459
N319 X68.563 Y35.468 I16.814 J1.126
N320 X70.531 Y32.961 I15.831 J10.396
N321 X71.738 Y31.819 I17.097 J16.873
N322 X75.47 Y29.414 I11.306 J13.447
N323 X81.966 Y27.838 I7.106 J15.11
N324 X85.722 Y28.131 I0.47 J18.172
N325 X99.172 Y44.448 I-3.19 J16.331
N326 X99.072 Y46.226 I-21.366 J-0.307
N327 G1 X99.055 Y46.279 Z-3.804
N328 X99.038 Y46.329 Z-3.785
N329 X99.023 Y46.373 Z-3.756
N330 X99.011 Y46.411 Z-3.716
N331 X99.001 Y46.439 Z-3.669
N332 X98.992 Y46.455 Z-3.616
N333 X98.989 Y46.46 Z-3.561
N334 G0 Z-1.904
N335 X92.755 Y37.3
N336 G1 Z-2.539 F1016
N337 X92.759 Y37.294 Z-2.638
N338 X92.774 Y37.276 Z-2.735
N339 X92.797 Y37.246 Z-2.827
N340 X92.829 Y37.204 Z-2.912
N341 X92.868 Y37.153 Z-2.988
N342 X92.914 Y37.093 Z-3.052
N343 X92.966 Y37.026 Z-3.105
N344 X93.022 Y36.953 Z-3.143
N345 X93.081 Y36.876 Z-3.166
N346 X93.142 Y36.797 Z-3.174
N347 G3 X95.559 Y34.276 I12.843 J9.892
N348 G1 X95.679 Y34.182
N349 G3 X96.705 Y34.268 I0.388 J1.526
N350 X98.174 Y35.177 I-1.4 J3.904
N351 G1 X98.534 Y35.525
N352 X98.937 Y35.986
N353 X99.343 Y36.534
N354 X99.762 Y37.206
N355 X100.184 Y38.023
N356 G3 X101.391 Y42.437 I-13.357 J6.025
N357 X95.586 Y58.244 I-18.647 J2.122
N358 X69.508 Y30.654 I-13.039 J-13.795
N359 X94.788 Y29.941 I13.039 J13.795
N360 G1 X95.535 Y30.476
N361 X96.315 Y30.963
N362 X97.099 Y31.442
N363 X97.869 Y31.943
N364 G3 X100.587 Y34.401 I-7.043 J10.518
N365 X102.819 Y38.394 I-10.692 J8.597
N366 X103.879 Y44.705 I-16.88 J6.081
N367 X93.28 Y62.918 I-21.178 J-0.133
N368 X71.811 Y25.978 I-10.734 J-18.47
N369 X94.447 Y26.707 I10.734 J18.47
N370 X98.297 Y29.215 I-540.5 J834.18
N371 G1 X99.044 Y29.751
N372 G3 X99.647 Y30.272 I-1.608 J2.471
N373 X102.678 Y35.054 I-17.788 J14.625
N374 G1 X103.248 Y36.4
N375 X103.38 Y36.723
N376 X103.457 Y36.943
N377 X103.921 Y38.393
N378 G3 X104.665 Y46.535 I-21.751 J6.093
N379 X104.366 Y48.623 I-33.188 J-3.69
N380 X103.254 Y52.502 I-23.285 J-4.576
N381 X101.566 Y55.931 I-22.181 J-8.79
N382 G1 X100.744 Y57.195
N383 G3 X96.78 Y61.505 I-18.678 J-13.201
N384 X93.358 Y63.862 I-15.811 J-19.286
N385 G1 X91.981 Y64.556
N386 G3 X89.686 Y65.491 I-11.186 J-24.164
N387 X87.599 Y66.079 I-10.415 J-32.962
N388 X84.261 Y66.596 I-5.243 J-22.816
N389 X77.583 Y66.095 I-1.683 J-22.323
N390 G1 X76.332 Y65.78
N391 G3 X74.246 Y65.054 I10.57 J-33.75
N392 G1 X72.785 Y64.402
N393 G3 X67.668 Y60.943 I10.194 J-20.59
N394 X63.811 Y56.385 I15.811 J-17.291
N395 X61.969 Y52.799 I20.548 J-12.825
N396 G1 X61.505 Y51.546
N397 G3 X60.855 Y49.25 I28.838 J-9.4
N398 G1 X60.632 Y47.997
N399 G3 X65.072 Y30.748 I21.89 J-3.562
N400 G1 X65.124 Y30.668
N401 X66.197 Y29.416
N402 G3 X67.982 Y27.678 I20.533 J19.317
N403 X72.368 Y24.711 I15.07 J17.546
N404 G1 X72.576 Y24.595
N405 G3 X76.222 Y23.153 I11.388 J23.457
N406 X79.879 Y22.402 I6.735 J23.53
N407 X84.261 Y22.303 I2.709 J22.986
N408 X87.808 Y22.871 I-1.9 J23.254
N409 X89.895 Y23.48 I-8.863 J34.227
N410 X91.982 Y24.343 I-9.957 J27.051
N411 G1 X93.35 Y25.031
N412 X93.442 Y25.084
N413 G3 X96.444 Y27.12 I-12.832 J22.155
N414 X98.104 Y28.581 I-22.617 J27.377
N415 G1 X99.284 Y29.841
N416 X99.464 Y30.042
N417 X99.645 Y30.273
N418 X99.67 Y30.323 Z-3.167
N419 X99.692 Y30.37 Z-3.149
N420 X99.713 Y30.412 Z-3.119
N421 X99.73 Y30.447 Z-3.08
N422 X99.743 Y30.474 Z-3.033
N423 X99.748 Y30.492 Z-2.98
N424 X99.749 Y30.498 Z-2.924
N425 G0 Z-2.413
N426 X85.628 Y44.375
N427 G1 Z-3.048 F1016
N428 G3 X83.151 Y47.471 Z-3.274 I-3.078 J0.076
N429 X79.685 Y45.564 Z-3.5 I-0.6 J-3.012
N430 X80.968 Y41.834 Z-3.725 I2.858 J-1.103
N431 X84.853 Y42.458 Z-3.951 I1.571 J2.621
N432 X84.902 Y46.383 Z-4.177 I-2.308 J1.991
N433 X81.053 Y47.099 Z-4.403 I-2.35 J-1.928
N434 X79.693 Y43.44 Z-4.628 I1.494 J-2.638
N435 X83.057 Y41.479 Z-4.854 I2.848 J1.019
N436 X85.558 Y44.451 Z-5.08 I-0.516 J2.972
N437 X79.525 I-3.016 J0
N438 X85.558 I3.016 J0
N439 G1 X85.562 Y44.68
N440 X85.719 Y45.586
N441 G3 X85.559 Y47.264 I-1.845 J0.671
N442 X83.771 Y48.829 I-2.886 J-1.493
N443 X79.233 Y47.891 I-1.533 J-4.034
N444 X80.386 Y40.139 I3.251 J-3.478
N445 X86.807 Y42.186 I2.168 J4.294
N446 G1 X87.216 Y42.981
N447 G3 X87.813 Y45.063 I-6.14 J2.89
N448 X84.465 Y50.592 I-5.29 J0.575
N449 X79.199 Y50.291 I-2.319 J-5.636
N450 X75.991 Y42.498 I3.165 J-5.859
N451 X87.571 Y39.796 I6.556 J1.931
N452 X89.949 Y45.2 I-5.96 J5.848
N453 X85.335 Y52.494 I-7.566 J0.32
N454 X78.904 Y52.509 I-3.233 J-7.506
N455 X73.635 Y45.575 I3.367 J-8.027
N456 X84.561 Y35.671 I8.895 J-1.165
N457 X87.912 Y37.203 I-1.996 J8.795
N458 X92.144 Y44.896 I-6.083 J8.358
N459 X87.062 Y54.097 I-9.81 J0.585
N460 X80.653 Y55.274 I-4.965 J-8.995
N461 X74.573 Y52.258 I1.475 J-10.611
N462 X71.306 Y44.256 I7.769 J-7.839
N463 X78.654 Y33.878 I11.211 J0.148
N464 X86.639 Y33.952 I3.895 J10.557
N465 X90.494 Y36.402 I-4.306 J11.032
N466 X94.293 Y43.584 I-8.628 J9.16
N467 X92.793 Y51.559 I-12.029 J1.867
N468 X84.851 Y57.346 I-10.575 J-6.171
N469 X75.944 Y56.094 I-2.79 J-12.461
N470 X70.334 Y50.199 I6.239 J-11.553
N471 X70.722 Y37.825 I12.089 J-5.814
N472 X86.495 Y31.475 I11.821 J6.599
N473 X93.85 Y36.72 I-4.196 J13.662
N474 X95.775 Y50.68 I-11.694 J8.725
N475 X84.036 Y59.837 I-13.577 J-5.301
N476 X72.796 Y56.812 I-1.992 J-14.995
N477 X66.694 Y44.948 I9.473 J-12.374
N478 X87.346 Y29.302 I15.841 J-0.544
N479 X96.041 Y35.754 I-5.005 J15.83
N480 X99.066 Y46.327 I-13.856 J9.683
N481 X98.406 Y49.459 I-18.21 J-2.198
N482 G1 X97.95 Y50.711
N483 X97.867 Y50.92
N484 G3 X97.162 Y52.381 I-21.584 J-9.505
N485 X95.142 Y55.305 I-15.606 J-8.625
N486 G1 X94.276 Y56.236
N487 G3 X85.722 Y60.768 I-11.825 J-11.98
N488 X80.505 Y60.952 I-3.219 J-17.27
N489 X77.167 Y60.181 I2.518 J-18.511
N490 G1 X76.123 Y59.773
N491 G3 X67.149 Y50.686 I6.384 J-15.279
N492 G1 X66.943 Y50.181
N493 X66.904 Y50.085
N494 X66.517 Y48.832
N495 G3 X65.958 Y43.404 I16.654 J-4.459
N496 X68.563 Y35.468 I16.814 J1.126
N497 X70.531 Y32.961 I15.831 J10.396
N498 X71.738 Y31.819 I17.097 J16.873
N499 X75.47 Y29.414 I11.306 J13.447
N500 X81.966 Y27.838 I7.106 J15.11
N501 X85.722 Y28.131 I0.47 J18.172
N502 X99.172 Y44.448 I-3.19 J16.331
N503 X99.072 Y46.226 I-21.366 J-0.307
N504 G1 X99.055 Y46.279 Z-5.074
N505 X99.038 Y46.329 Z-5.055
N506 X99.023 Y46.373 Z-5.026
N507 X99.011 Y46.411 Z-4.986
N508 X99.001 Y46.439 Z-4.939
N509 X98.992 Y46.455 Z-4.886
N510 X98.989 Y46.46 Z-4.831
N511 G0 Z-3.683
N512 X85.628 Y44.375
N513 G1 Z-4.318 F1016
N514 G3 X83.151 Y47.471 Z-4.544 I-3.078 J0.076
N515 X79.685 Y45.564 Z-4.77 I-0.6 J-3.012
N516 X80.968 Y41.834 Z-4.995 I2.858 J-1.103
N517 X84.853 Y42.458 Z-5.221 I1.571 J2.621
N518 X84.902 Y46.383 Z-5.447 I-2.308 J1.991
N519 X81.053 Y47.099 Z-5.673 I-2.35 J-1.928
N520 X79.693 Y43.44 Z-5.898 I1.494 J-2.638
N521 X83.057 Y41.479 Z-6.124 I2.848 J1.019
N522 X85.558 Y44.451 Z-6.35 I-0.516 J2.972
N523 X79.525 I-3.016 J0
N524 X85.558 I3.016 J0
N525 G1 X85.562 Y44.68
N526 X85.719 Y45.586
N527 G3 X85.559 Y47.264 I-1.845 J0.671
N528 X83.771 Y48.829 I-2.886 J-1.493
N529 X79.233 Y47.891 I-1.533 J-4.034
N530 X80.386 Y40.139 I3.251 J-3.478
N531 X86.807 Y42.186 I2.168 J4.294
N532 G1 X87.216 Y42.981
N533 G3 X87.813 Y45.063 I-6.14 J2.89
N534 X84.465 Y50.592 I-5.29 J0.575
N535 X79.199 Y50.291 I-2.319 J-5.636
N536 X75.991 Y42.498 I3.165 J-5.859
N537 X87.571 Y39.796 I6.556 J1.931
N538 X89.949 Y45.2 I-5.96 J5.848
N539 X85.335 Y52.494 I-7.566 J0.32
N540 X78.904 Y52.509 I-3.233 J-7.506
N541 X73.635 Y45.575 I3.367 J-8.027
N542 X84.561 Y35.671 I8.895 J-1.165
N543 X87.912 Y37.203 I-1.996 J8.795
N544 X92.144 Y44.896 I-6.083 J8.358
N545 X87.062 Y54.097 I-9.81 J0.585
N546 X80.653 Y55.274 I-4.965 J-8.995
N547 X74.573 Y52.258 I1.475 J-10.611
N548 X71.306 Y44.256 I7.769 J-7.839
N549 X78.654 Y33.878 I11.211 J0.148
N550 X86.639 Y33.952 I3.895 J10.557
N551 X90.494 Y36.402 I-4.306 J11.032
N552 X94.293 Y43.584 I-8.628 J9.16
N553 X92.793 Y51.559 I-12.029 J1.867
N554 X84.851 Y57.346 I-10.575 J-6.171
N555 X75.944 Y56.094 I-2.79 J-12.461
N556 X70.334 Y50.199 I6.239 J-11.553
N557 X70.722 Y37.825 I12.089 J-5.814
N558 X86.495 Y31.475 I11.821 J6.599
N559 X93.85 Y36.72 I-4.196 J13.662
N560 X95.775 Y50.68 I-11.694 J8.725
N561 X84.036 Y59.837 I-13.577 J-5.301
N562 X72.796 Y56.812 I-1.992 J-14.995
N563 X66.694 Y44.948 I9.473 J-12.374
N564 X87.346 Y29.302 I15.841 J-0.544
N565 X96.041 Y35.754 I-5.005 J15.83
N566 X99.066 Y46.327 I-13.856 J9.683
N567 X98.406 Y49.459 I-18.21 J-2.198
N568 G1 X97.95 Y50.711
N569 X97.867 Y50.92
N570 G3 X97.162 Y52.381 I-21.584 J-9.505
N571 X95.142 Y55.305 I-15.606 J-8.625
N572 G1 X94.276 Y56.236
N573 G3 X85.722 Y60.768 I-11.825 J-11.98
N574 X80.505 Y60.952 I-3.219 J-17.27
N575 X77.167 Y60.181 I2.518 J-18.511
N576 G1 X76.123 Y59.773
N577 G3 X67.149 Y50.686 I6.384 J-15.279
N578 G1 X66.943 Y50.181
N579 X66.904 Y50.085
N580 X66.517 Y48.832
N581 G3 X65.958 Y43.404 I16.654 J-4.459
N582 X68.563 Y35.468 I16.814 J1.126
N583 X70.531 Y32.961 I15.831 J10.396
N584 X71.738 Y31.819 I17.097 J16.873
N585 X75.47 Y29.414 I11.306 J13.447
N586 X81.966 Y27.838 I7.106 J15.11
N587 X85.722 Y28.131 I0.47 J18.172
N588 X99.172 Y44.448 I-3.19 J16.331
N589 X99.072 Y46.226 I-21.366 J-0.307
N590 G1 X99.055 Y46.279 Z-6.344
N591 X99.038 Y46.329 Z-6.325
N592 X99.023 Y46.373 Z-6.296
N593 X99.011 Y46.411 Z-6.256
N594 X99.001 Y46.439 Z-6.209
N595 X98.992 Y46.455 Z-6.156
N596 X98.989 Y46.46 Z-6.101
N597 G0 Z-4.953
N598 X79.493 Y44.644
N599 G1 Z-5.588 F1016
N600 G3 X81.708 Y41.506 Z-5.806 I3.056 J-0.193
N601 X85.237 Y42.995 Z-6.023 I0.84 J2.937
N602 X84.538 Y46.752 Z-6.241 I-2.683 J1.444
N603 X80.729 Y46.872 Z-6.458 I-1.98 J-2.307
N604 X79.799 Y43.185 Z-6.676 I1.826 J-2.421
N605 X83.194 Y41.494 Z-6.893 I2.748 J1.263
N606 X85.566 Y44.441 Z-7.111 I-0.645 J2.947
N607 X79.532 I-3.017 J0
N608 X85.566 I3.017 J0
N609 G1 X85.57 Y44.671
N610 X85.727 Y45.576
N611 G3 X85.567 Y47.254 I-1.845 J0.671
N612 X83.779 Y48.819 I-2.886 J-1.493
N613 X79.24 Y47.882 I-1.533 J-4.035
N614 X80.392 Y40.129 I3.251 J-3.479
N615 X86.814 Y42.175 I2.169 J4.294
N616 G1 X87.223 Y42.97
N617 G3 X87.821 Y45.053 I-6.142 J2.892
N618 X84.473 Y50.583 I-5.29 J0.576
N619 X79.207 Y50.283 I-2.32 J-5.636
N620 X75.998 Y42.488 I3.164 J-5.86
N621 X87.578 Y39.785 I6.556 J1.931
N622 X89.957 Y45.19 I-5.961 J5.85
N623 X85.344 Y52.484 I-7.567 J0.32
N624 X78.912 Y52.5 I-3.234 J-7.506
N625 X73.642 Y45.566 I3.366 J-8.028
N626 X84.568 Y35.661 I8.895 J-1.166
N627 X87.919 Y37.193 I-1.995 J8.796
N628 X92.152 Y44.885 I-6.083 J8.359
N629 X87.07 Y54.087 I-9.811 J0.586
N630 X80.662 Y55.265 I-4.966 J-8.995
N631 X74.581 Y52.25 I1.474 J-10.612
N632 X71.313 Y44.248 I7.768 J-7.841
N633 X78.66 Y33.868 I11.212 J0.146
N634 X86.646 Y33.942 I3.896 J10.557
N635 X90.501 Y36.391 I-4.305 J11.033
N636 X94.301 Y43.572 I-8.628 J9.161
N637 X92.803 Y51.548 I-12.03 J1.869
N638 X84.861 Y57.336 I-10.576 J-6.169
N639 X75.954 Y56.086 I-2.793 J-12.46
N640 X70.343 Y50.194 I6.236 J-11.555
N641 X70.727 Y37.819 I12.088 J-5.818
N642 X86.498 Y31.463 I11.824 J6.595
N643 X93.854 Y36.705 I-4.19 J13.664
N644 X95.786 Y50.664 I-11.691 J8.731
N645 X84.051 Y59.827 I-13.58 J-5.295
N646 X72.809 Y56.808 I-1.999 J-14.995
N647 X66.701 Y44.947 I9.468 J-12.379
N648 X87.344 Y29.289 I15.842 J-0.552
N649 X96.043 Y35.736 I-4.996 J15.833
N650 X99.082 Y46.131 I-13.849 J9.691
N651 X98.406 Y49.459 I-17.428 J-1.81
N652 G1 X97.95 Y50.711
N653 X97.867 Y50.92
N654 G3 X97.162 Y52.381 I-21.584 J-9.505
N655 X95.142 Y55.305 I-15.606 J-8.625
N656 G1 X94.276 Y56.236
N657 G3 X85.722 Y60.768 I-11.825 J-11.98
N658 X80.505 Y60.952 I-3.219 J-17.27
N659 X77.167 Y60.181 I2.518 J-18.511
N660 G1 X76.123 Y59.773
N661 G3 X67.149 Y50.686 I6.384 J-15.279
N662 G1 X66.943 Y50.181
N663 X66.904 Y50.085
N664 X66.517 Y48.832
N665 G3 X65.958 Y43.404 I16.654 J-4.459
N666 X68.563 Y35.468 I16.814 J1.126
N667 X70.531 Y32.961 I15.831 J10.396
N668 X71.738 Y31.819 I17.097 J16.873
N669 X75.47 Y29.414 I11.306 J13.447
N670 X81.966 Y27.838 I7.106 J15.11
N671 X85.722 Y28.131 I0.47 J18.172
N672 X99.172 Y44.448 I-3.19 J16.331
N673 X99.082 Y46.131 I-21.596 J-0.314
N674 G1 X99.064 Y46.213
N675 X99.036 Y46.291
N676 X98.999 Y46.365
N677 X98.949 Y46.451 Z-7.103
N678 X98.9 Y46.535 Z-7.08
N679 X98.853 Y46.614 Z-7.042
N680 X98.81 Y46.687 Z-6.989
N681 X98.772 Y46.753 Z-6.925
N682 X98.74 Y46.809 Z-6.849
N683 X98.713 Y46.854 Z-6.764
N684 X98.694 Y46.887 Z-6.672
N685 X98.682 Y46.907 Z-6.575
N686 X98.678 Y46.913 Z-6.476
N687 G0 Z15.24
(Contour1)
N689 X96.695 Y61.59
N690 Z15.24
N691 Z7.35
N692 G1 Z4.128 F1016
N693 X96.69 Y61.594 Z4.038
N694 X96.676 Y61.606 Z3.95
N695 X96.651 Y61.625 Z3.866
N696 X96.618 Y61.652 Z3.787
N697 X96.577 Y61.686 Z3.715
N698 X96.528 Y61.726 Z3.651
N699 X96.472 Y61.771 Z3.596
N700 X96.411 Y61.821 Z3.553
N701 X96.356 Y61.865 Z3.525
N702 X96.298 Y61.91 Z3.505
N703 X96.238 Y61.957 Z3.495
N704 X96.217 Y61.973 Z3.493
N705 X95.975 Y62.16 Z3.483
N706 X95.804 Y62.289 Z3.475
N707 X95.4 Y62.582 Z3.458
N708 X95.197 Y62.723 Z3.449
N709 X94.837 Y62.969 Z3.434
N710 X94.793 Y62.998 Z3.432
N711 X94.388 Y63.258 Z3.415
N712 X94.202 Y63.374 Z3.408
N713 X93.781 Y63.628 Z3.39
N714 X93.578 Y63.743 Z3.382
N715 X93.376 Y63.857 Z3.374
N716 X93.174 Y63.971 Z3.366
N717 X92.769 Y64.184 Z3.35
N718 X92.567 Y64.288 Z3.342
N719 X92.162 Y64.488 Z3.326
N720 X91.96 Y64.583 Z3.319
N721 X91.555 Y64.768 Z3.303
N722 X91.504 Y64.791 Z3.301
N723 X90.948 Y65.027 Z3.28
N724 X90.745 Y65.106 Z3.272
N725 X90.517 Y65.196 Z3.264
N726 X90.341 Y65.264 Z3.257
N727 X89.936 Y65.41 Z3.242
N728 X89.734 Y65.481 Z3.235
N729 X89.329 Y65.614 Z3.22
N730 X89.127 Y65.679 Z3.212
N731 X88.709 Y65.803 Z3.197
N732 X88.52 Y65.857 Z3.19
N733 X88.115 Y65.965 Z3.176
N734 X87.963 Y66.005 Z3.17
N735 X87.508 Y66.113 Z3.154
N736 X87.305 Y66.159 Z3.147
N737 X86.901 Y66.243 Z3.132
N738 X86.698 Y66.283 Z3.125
N739 X86.294 Y66.355 Z3.111
N740 X86.091 Y66.39 Z3.103
N741 X85.687 Y66.45 Z3.089
N742 X85.484 Y66.48 Z3.082
N743 X85.079 Y66.528 Z3.068
N744 X84.877 Y66.552 Z3.061
N745 X84.472 Y66.589 Z3.046
N746 X84.27 Y66.608 Z3.039
N747 X83.663 Y66.647 Z3.018
N748 X83.461 Y66.654 Z3.011
N749 X83.056 Y66.668 Z2.997
N750 X82.854 Y66.671 Z2.99
N751 X82.449 Y66.674 Z2.976
N752 X82.246 Y66.671 Z2.969
N753 X81.842 Y66.662 Z2.954
N754 X81.639 Y66.655 Z2.947
N755 X81.235 Y66.635 Z2.933
N756 X81.032 Y66.622 Z2.926
N757 X80.628 Y66.59 Z2.912
N758 X80.425 Y66.572 Z2.905
N759 X80.021 Y66.529 Z2.891
N760 X79.818 Y66.505 Z2.884
N761 X79.413 Y66.451 Z2.869
N762 X79.211 Y66.422 Z2.862
N763 X78.806 Y66.355 Z2.848
N764 X78.604 Y66.321 Z2.841
N765 X78.199 Y66.243 Z2.826
N766 X78.019 Y66.208 Z2.82
N767 X77.592 Y66.113 Z2.805
N768 X77.39 Y66.067 Z2.797
N769 X76.985 Y65.965 Z2.783
N770 X76.783 Y65.913 Z2.775
N771 X76.378 Y65.799 Z2.761
N772 X76.176 Y65.74 Z2.753
N773 X75.728 Y65.6 Z2.737
N774 X75.569 Y65.549 Z2.731
N775 X75.13 Y65.398 Z2.715
N776 X74.962 Y65.338 Z2.709
N777 X74.557 Y65.186 Z2.694
N778 X74.355 Y65.107 Z2.686
N779 X73.95 Y64.942 Z2.671
N780 X73.747 Y64.856 Z2.663
N781 X73.343 Y64.677 Z2.648
N782 X73.153 Y64.588 Z2.64
N783 X72.727 Y64.386 Z2.624
N784 X72.533 Y64.287 Z2.616
N785 X72.33 Y64.184 Z2.608
N786 X72.129 Y64.079 Z2.6
N787 X71.724 Y63.858 Z2.584
N788 X71.582 Y63.779 Z2.579
N789 X71.117 Y63.508 Z2.56
N790 X70.914 Y63.383 Z2.552
N791 X70.574 Y63.172 Z2.538
N792 X70.51 Y63.13 Z2.535
N793 X70.105 Y62.862 Z2.518
N794 X69.965 Y62.767 Z2.512
N795 X69.677 Y62.564 Z2.5
N796 X69.498 Y62.438 Z2.492
N797 X69.093 Y62.136 Z2.474
N798 X68.891 Y61.98 Z2.466
N799 X68.607 Y61.755 Z2.453
N800 X68.486 Y61.658 Z2.447
N801 X68.081 Y61.319 Z2.429
N802 X67.886 Y61.148 Z2.42
N803 X67.658 Y60.945 Z2.409
N804 X67.474 Y60.778 Z2.401
N805 X67.222 Y60.54 Z2.389
N806 X67.07 Y60.396 Z2.381
N807 X66.808 Y60.136 Z2.368
N808 X66.665 Y59.993 Z2.361
N809 X66.26 Y59.568 Z2.341
N810 X66.223 Y59.529 Z2.339
N811 X65.856 Y59.12 Z2.32
N812 X65.685 Y58.921 Z2.311
N813 X65.451 Y58.646 Z2.298
N814 X65.345 Y58.517 Z2.292
N815 X65.046 Y58.144 Z2.275
N816 X65.02 Y58.112 Z2.274
N817 X64.714 Y57.707 Z2.256
N818 X64.641 Y57.611 Z2.252
N819 X64.421 Y57.302 Z2.239
N820 X64.277 Y57.1 Z2.23
N821 X64.005 Y56.695 Z2.213
N822 X63.872 Y56.493 Z2.205
N823 X63.617 Y56.088 Z2.188
N824 X63.495 Y55.885 Z2.18
N825 X63.375 Y55.683 Z2.171
N826 X63.257 Y55.481 Z2.163
N827 X63.023 Y55.06 Z2.146
N828 X62.923 Y54.873 Z2.139
N829 X62.712 Y54.469 Z2.123
N830 X62.618 Y54.277 Z2.116
N831 X62.416 Y53.859 Z2.099
N832 X62.325 Y53.659 Z2.092
N833 X62.213 Y53.41 Z2.082
N834 X62.144 Y53.254 Z2.076
N835 X61.975 Y52.849 Z2.061
N836 X61.893 Y52.647 Z2.053
N837 X61.738 Y52.242 Z2.038
N838 X61.663 Y52.04 Z2.031
N839 X61.52 Y51.635 Z2.016
N840 X61.452 Y51.433 Z2.008
N841 X61.322 Y51.028 Z1.993
N842 X61.261 Y50.825 Z1.986
N843 X61.144 Y50.421 Z1.971
N844 X61.088 Y50.218 Z1.964
N845 X60.983 Y49.813 Z1.949
N846 X60.934 Y49.611 Z1.942
N847 X60.841 Y49.206 Z1.928
N848 X60.798 Y49.004 Z1.92
N849 X60.717 Y48.599 Z1.906
N850 X60.68 Y48.397 Z1.899
N851 X60.594 Y47.896 Z1.881
N852 X60.579 Y47.79 Z1.877
N853 X60.521 Y47.385 Z1.863
N854 X60.495 Y47.182 Z1.856
N855 X60.449 Y46.778 Z1.842
N856 X60.428 Y46.575 Z1.835
N857 X60.392 Y46.15 Z1.82
N858 X60.378 Y45.968 Z1.813
N859 X60.355 Y45.563 Z1.799
N860 X60.344 Y45.361 Z1.792
N861 X60.333 Y44.956 Z1.778
N862 X60.328 Y44.754 Z1.771
N863 Y44.146 Z1.75
N864 X60.333 Y43.944 Z1.743
N865 X60.344 Y43.539 Z1.728
N866 X60.355 Y43.337 Z1.721
N867 X60.378 Y42.932 Z1.707
N868 X60.392 Y42.75 Z1.701
N869 X60.428 Y42.325 Z1.686
N870 X60.449 Y42.122 Z1.679
N871 X60.495 Y41.718 Z1.665
N872 X60.521 Y41.515 Z1.657
N873 X60.579 Y41.11 Z1.643
N874 X60.594 Y41.004 Z1.639
N875 X60.68 Y40.503 Z1.622
N876 X60.717 Y40.301 Z1.614
N877 X60.798 Y39.896 Z1.6
N878 X60.841 Y39.694 Z1.593
N879 X60.934 Y39.289 Z1.578
N880 X60.983 Y39.087 Z1.571
N881 X61.088 Y38.682 Z1.556
N882 X61.144 Y38.479 Z1.549
N883 X61.261 Y38.075 Z1.534
N884 X61.322 Y37.872 Z1.527
N885 X61.452 Y37.467 Z1.512
N886 X61.52 Y37.265 Z1.505
N887 X61.663 Y36.86 Z1.49
N888 X61.738 Y36.658 Z1.482
N889 X61.893 Y36.253 Z1.467
N890 X61.975 Y36.051 Z1.459
N891 X62.144 Y35.646 Z1.444
N892 X62.213 Y35.49 Z1.438
N893 X62.325 Y35.241 Z1.429
N894 X62.416 Y35.041 Z1.421
N895 X62.618 Y34.623 Z1.405
N896 X62.712 Y34.431 Z1.397
N897 X62.923 Y34.027 Z1.381
N898 X63.023 Y33.84 Z1.374
N899 X63.257 Y33.419 Z1.357
N900 X63.375 Y33.217 Z1.349
N901 X63.495 Y33.015 Z1.341
N902 X63.617 Y32.812 Z1.332
N903 X63.872 Y32.407 Z1.316
N904 X64.005 Y32.205 Z1.307
N905 X64.277 Y31.8 Z1.29
N906 X64.421 Y31.598 Z1.282
N907 X64.641 Y31.289 Z1.268
N908 X64.714 Y31.193 Z1.264
N909 X65.02 Y30.788 Z1.246
N910 X65.046 Y30.756 Z1.245
N911 X65.345 Y30.383 Z1.228
N912 X65.451 Y30.254 Z1.222
N913 X65.685 Y29.979 Z1.21
N914 X65.856 Y29.78 Z1.201
N915 X66.223 Y29.371 Z1.181
N916 X66.26 Y29.332 Z1.18
N917 X66.665 Y28.907 Z1.159
N918 X66.808 Y28.764 Z1.152
N919 X67.07 Y28.504 Z1.139
N920 X67.222 Y28.36 Z1.132
N921 X67.474 Y28.122 Z1.12
N922 X67.658 Y27.955 Z1.111
N923 X67.886 Y27.752 Z1.1
N924 X68.081 Y27.581 Z1.091
N925 X68.486 Y27.242 Z1.073
N926 X68.607 Y27.145 Z1.068
N927 X68.891 Y26.92 Z1.055
N928 X69.093 Y26.764 Z1.046
N929 X69.498 Y26.462 Z1.028
N930 X69.677 Y26.336 Z1.021
N931 X69.965 Y26.133 Z1.008
N932 X70.105 Y26.038 Z1.002
N933 X70.51 Y25.77 Z0.985
N934 X70.574 Y25.728 Z0.983
N935 X70.914 Y25.517 Z0.969
N936 X71.117 Y25.392 Z0.961
N937 X71.582 Y25.121 Z0.942
N938 X71.724 Y25.042 Z0.936
N939 X72.129 Y24.821 Z0.92
N940 X72.331 Y24.716 Z0.912
N941 X72.533 Y24.613 Z0.904
N942 X72.727 Y24.514 Z0.896
N943 X73.153 Y24.312 Z0.88
N944 X73.343 Y24.223 Z0.873
N945 X73.747 Y24.044 Z0.857
N946 X73.95 Y23.958 Z0.85
N947 X74.355 Y23.793 Z0.834
N948 X74.557 Y23.714 Z0.827
N949 X74.962 Y23.562 Z0.812
N950 X75.13 Y23.502 Z0.805
N951 X75.569 Y23.351 Z0.789
N952 X75.728 Y23.3 Z0.783
N953 X76.176 Y23.16 Z0.767
N954 X76.378 Y23.101 Z0.76
N955 X76.783 Y22.987 Z0.745
N956 X76.985 Y22.935 Z0.738
N957 X77.39 Y22.833 Z0.723
N958 X77.592 Y22.787 Z0.716
N959 X78.019 Y22.692 Z0.7
N960 X78.199 Y22.657 Z0.694
N961 X78.604 Y22.579 Z0.68
N962 X78.806 Y22.545 Z0.673
N963 X79.211 Y22.478 Z0.658
N964 X79.413 Y22.449 Z0.651
N965 X79.818 Y22.395 Z0.637
N966 X80.021 Y22.371 Z0.63
N967 X80.425 Y22.328 Z0.615
N968 X80.628 Y22.31 Z0.608
N969 X81.032 Y22.278 Z0.594
N970 X81.235 Y22.265 Z0.587
N971 X81.639 Y22.245 Z0.573
N972 X81.842 Y22.238 Z0.566
N973 X82.246 Y22.229 Z0.552
N974 X82.449 Y22.226 Z0.545
N975 X82.854 Y22.229 Z0.531
N976 X83.056 Y22.232 Z0.523
N977 X83.461 Y22.246 Z0.509
N978 X83.663 Y22.253 Z0.502
N979 X84.27 Y22.292 Z0.481
N980 X84.675 Y22.329 Z0.467
N981 X84.877 Y22.348 Z0.46
N982 X85.079 Y22.372 Z0.453
N983 X85.484 Y22.42 Z0.438
N984 X85.687 Y22.45 Z0.431
N985 X86.091 Y22.51 Z0.417
N986 X86.294 Y22.545 Z0.41
N987 X86.698 Y22.617 Z0.395
N988 X86.901 Y22.657 Z0.388
N989 X87.305 Y22.741 Z0.374
N990 X87.508 Y22.787 Z0.367
N991 X87.963 Y22.895 Z0.35
N992 X88.115 Y22.935 Z0.345
N993 X88.52 Y23.043 Z0.33
N994 X88.709 Y23.097 Z0.323
N995 X89.127 Y23.221 Z0.308
N996 X89.329 Y23.286 Z0.301
N997 X89.734 Y23.419 Z0.286
N998 X89.936 Y23.49 Z0.278
N999 X90.341 Y23.636 Z0.263
N1000 X90.517 Y23.704 Z0.257
N1001 X90.745 Y23.794 Z0.248
N1002 X90.948 Y23.873 Z0.24
N1003 X91.504 Y24.109 Z0.219
N1004 X91.555 Y24.132 Z0.217
N1005 X91.96 Y24.317 Z0.202
N1006 X92.162 Y24.412 Z0.194
N1007 X92.567 Y24.612 Z0.178
N1008 X92.769 Y24.716 Z0.17
N1009 X93.174 Y24.929 Z0.154
N1010 X93.376 Y25.043 Z0.146
N1011 X93.578 Y25.157 Z0.138
N1012 X93.781 Y25.272 Z0.13
N1013 X94.202 Y25.526 Z0.113
N1014 X94.388 Y25.642 Z0.105
N1015 X94.793 Y25.902 Z0.088
N1016 X94.837 Y25.931 Z0.087
N1017 X95.197 Y26.177 Z0.071
N1018 X95.4 Y26.318 Z0.063
N1019 X95.804 Y26.611 Z0.045
N1020 X95.975 Y26.74 Z0.038
N1021 X96.238 Y26.943 Z0.026
N1022 X96.411 Y27.079 Z0.018
N1023 X96.816 Y27.409 Z0
N1024 X96.98 Y27.55 Z-0.007
N1025 X97.221 Y27.757 Z-0.018
N1026 X97.423 Y27.938 Z-0.028
N1027 X97.663 Y28.157 Z-0.039
N1028 X97.828 Y28.311 Z-0.047
N1029 X98.088 Y28.562 Z-0.06
N1030 X98.233 Y28.703 Z-0.067
N1031 X98.637 Y29.116 Z-0.087
N1032 X98.687 Y29.169 Z-0.09
N1033 X99.061 Y29.574 Z-0.109
N1034 X99.239 Y29.776 Z-0.118
N1035 X99.447 Y30.014 Z-0.129
N1036 X99.587 Y30.181 Z-0.137
N1037 X99.851 Y30.501 Z-0.151
N1038 X99.919 Y30.586 Z-0.155
N1039 X100.256 Y31.018 Z-0.174
N1040 X100.386 Y31.193 Z-0.182
N1041 X100.534 Y31.395 Z-0.191
N1042 X100.661 Y31.569 Z-0.198
N1043 X100.961 Y32.003 Z-0.217
N1044 X101.066 Y32.16 Z-0.223
N1045 X101.268 Y32.47 Z-0.236
N1046 X101.358 Y32.61 Z-0.242
N1047 X101.605 Y33.015 Z-0.258
N1048 X101.673 Y33.125 Z-0.263
N1049 X101.958 Y33.622 Z-0.283
N1050 X102.068 Y33.824 Z-0.291
N1051 X102.177 Y34.027 Z-0.299
N1052 X102.28 Y34.219 Z-0.307
N1053 X102.488 Y34.634 Z-0.323
N1054 X102.587 Y34.836 Z-0.331
N1055 X102.776 Y35.241 Z-0.346
N1056 X102.866 Y35.443 Z-0.354
N1057 X103.042 Y35.848 Z-0.369
N1058 X103.089 Y35.962 Z-0.374
N1059 X103.292 Y36.468 Z-0.393
N1060 X103.362 Y36.658 Z-0.4
N1061 X103.511 Y37.063 Z-0.415
N1062 X103.579 Y37.265 Z-0.422
N1063 X103.715 Y37.67 Z-0.437
N1064 X103.777 Y37.872 Z-0.445
N1065 X103.839 Y38.075 Z-0.452
N1066 X103.899 Y38.272 Z-0.459
N1067 X104.011 Y38.682 Z-0.474
N1068 X104.066 Y38.884 Z-0.481
N1069 X104.165 Y39.289 Z-0.496
N1070 X104.214 Y39.491 Z-0.503
N1071 X104.303 Y39.906 Z-0.518
N1072 X104.344 Y40.098 Z-0.525
N1073 X104.457 Y40.706 Z-0.547
N1074 X104.489 Y40.908 Z-0.554
N1075 X104.552 Y41.313 Z-0.568
N1076 X104.578 Y41.515 Z-0.575
N1077 X104.63 Y41.92 Z-0.589
N1078 X104.651 Y42.122 Z-0.596
N1079 X104.691 Y42.527 Z-0.611
N1080 X104.706 Y42.73 Z-0.618
N1081 X104.735 Y43.134 Z-0.632
N1082 X104.745 Y43.337 Z-0.639
N1083 X104.762 Y43.742 Z-0.653
N1084 X104.768 Y43.944 Z-0.66
N1085 X104.773 Y44.349 Z-0.674
N1086 Y44.551 Z-0.681
N1087 X104.768 Y44.956 Z-0.696
N1088 X104.762 Y45.158 Z-0.703
N1089 X104.745 Y45.563 Z-0.717
N1090 X104.735 Y45.766 Z-0.724
N1091 X104.706 Y46.17 Z-0.738
N1092 X104.691 Y46.373 Z-0.745
N1093 X104.651 Y46.778 Z-0.759
N1094 X104.63 Y46.98 Z-0.766
N1095 X104.578 Y47.385 Z-0.781
N1096 X104.552 Y47.587 Z-0.788
N1097 X104.489 Y47.992 Z-0.802
N1098 X104.457 Y48.194 Z-0.809
N1099 X104.344 Y48.802 Z-0.831
N1100 X104.301 Y49.004 Z-0.838
N1101 X104.214 Y49.409 Z-0.853
N1102 X104.165 Y49.611 Z-0.86
N1103 X104.066 Y50.016 Z-0.874
N1104 X104.011 Y50.218 Z-0.882
N1105 X103.899 Y50.628 Z-0.897
N1106 X103.839 Y50.825 Z-0.904
N1107 X103.777 Y51.028 Z-0.911
N1108 X103.715 Y51.23 Z-0.918
N1109 X103.579 Y51.635 Z-0.933
N1110 X103.511 Y51.837 Z-0.941
N1111 X103.362 Y52.242 Z-0.956
N1112 X103.292 Y52.432 Z-0.963
N1113 X103.089 Y52.938 Z-0.982
N1114 X103.042 Y53.052 Z-0.986
N1115 X102.866 Y53.457 Z-1.002
N1116 X102.776 Y53.659 Z-1.009
N1117 X102.587 Y54.064 Z-1.025
N1118 X102.488 Y54.266 Z-1.033
N1119 X102.28 Y54.681 Z-1.049
N1120 X102.177 Y54.873 Z-1.057
N1121 X102.068 Y55.076 Z-1.065
N1122 X101.958 Y55.278 Z-1.073
N1123 X101.673 Y55.775 Z-1.093
N1124 X101.605 Y55.885 Z-1.097
N1125 X101.358 Y56.29 Z-1.114
N1126 X101.268 Y56.43 Z-1.12
N1127 X101.066 Y56.74 Z-1.133
N1128 X100.961 Y56.897 Z-1.139
N1129 X100.661 Y57.331 Z-1.158
N1130 X100.534 Y57.505 Z-1.165
N1131 X100.386 Y57.707 Z-1.174
N1132 X100.256 Y57.882 Z-1.182
N1133 X99.919 Y58.314 Z-1.201
N1134 X99.851 Y58.399 Z-1.204
N1135 X99.587 Y58.719 Z-1.219
N1136 X99.447 Y58.886 Z-1.227
N1137 X99.239 Y59.124 Z-1.238
N1138 X99.061 Y59.326 Z-1.247
N1139 X98.687 Y59.731 Z-1.266
N1140 X98.637 Y59.784 Z-1.269
N1141 X98.233 Y60.197 Z-1.289
N1142 X98.088 Y60.338 Z-1.296
N1143 X97.828 Y60.589 Z-1.309
N1144 X97.663 Y60.743 Z-1.317
N1145 X97.423 Y60.962 Z-1.328
N1146 X97.221 Y61.143 Z-1.337
N1147 X96.98 Y61.35 Z-1.348
N1148 X96.816 Y61.491 Z-1.356
N1149 X96.411 Y61.821 Z-1.374
N1150 X96.238 Y61.957 Z-1.382
N1151 X95.975 Y62.16 Z-1.394
N1152 X95.804 Y62.289 Z-1.401
N1153 X95.4 Y62.582 Z-1.418
N1154 X95.197 Y62.723 Z-1.427
N1155 X94.837 Y62.969 Z-1.442
N1156 X94.793 Y62.998 Z-1.444
N1157 X94.388 Y63.258 Z-1.461
N1158 X94.202 Y63.374 Z-1.469
N1159 X93.781 Y63.628 Z-1.486
N1160 X93.578 Y63.743 Z-1.494
N1161 X93.376 Y63.857 Z-1.502
N1162 X93.174 Y63.971 Z-1.51
N1163 X92.769 Y64.184 Z-1.526
N1164 X92.567 Y64.288 Z-1.534
N1165 X92.162 Y64.488 Z-1.55
N1166 X91.96 Y64.583 Z-1.558
N1167 X91.555 Y64.768 Z-1.573
N1168 X91.504 Y64.791 Z-1.575
N1169 X90.948 Y65.027 Z-1.596
N1170 X90.745 Y65.106 Z-1.604
N1171 X90.517 Y65.196 Z-1.612
N1172 X90.341 Y65.264 Z-1.619
N1173 X89.936 Y65.41 Z-1.634
N1174 X89.734 Y65.481 Z-1.641
N1175 X89.329 Y65.614 Z-1.656
N1176 X89.127 Y65.679 Z-1.664
N1177 X88.709 Y65.803 Z-1.679
N1178 X88.52 Y65.857 Z-1.686
N1179 X88.115 Y65.965 Z-1.701
N1180 X87.963 Y66.005 Z-1.706
N1181 X87.508 Y66.113 Z-1.722
N1182 X87.305 Y66.159 Z-1.73
N1183 X86.901 Y66.243 Z-1.744
N1184 X86.698 Y66.283 Z-1.751
N1185 X86.294 Y66.355 Z-1.766
N1186 X86.091 Y66.39 Z-1.773
N1187 X85.687 Y66.45 Z-1.787
N1188 X85.484 Y66.48 Z-1.794
N1189 X85.079 Y66.528 Z-1.808
N1190 X84.877 Y66.552 Z-1.816
N1191 X84.472 Y66.589 Z-1.83
N1192 X84.27 Y66.608 Z-1.837
N1193 X83.663 Y66.647 Z-1.858
N1194 X83.461 Y66.654 Z-1.865
N1195 X83.056 Y66.668 Z-1.879
N1196 X82.854 Y66.671 Z-1.886
N1197 X82.449 Y66.674 Z-1.9
N1198 X82.246 Y66.671 Z-1.908
N1199 X81.842 Y66.662 Z-1.922
N1200 X81.639 Y66.655 Z-1.929
N1201 X81.235 Y66.635 Z-1.943
N1202 X81.032 Y66.622 Z-1.95
N1203 X80.628 Y66.59 Z-1.964
N1204 X80.425 Y66.572 Z-1.971
N1205 X80.021 Y66.529 Z-1.985
N1206 X79.818 Y66.505 Z-1.993
N1207 X79.413 Y66.451 Z-2.007
N1208 X79.211 Y66.422 Z-2.014
N1209 X78.806 Y66.355 Z-2.028
N1210 X78.604 Y66.321 Z-2.035
N1211 X78.199 Y66.243 Z-2.05
N1212 X78.019 Y66.208 Z-2.056
N1213 X77.592 Y66.113 Z-2.072
N1214 X77.39 Y66.067 Z-2.079
N1215 X76.985 Y65.965 Z-2.093
N1216 X76.783 Y65.913 Z-2.101
N1217 X76.378 Y65.799 Z-2.115
N1218 X76.176 Y65.74 Z-2.123
N1219 X75.728 Y65.6 Z-2.139
N1220 X75.569 Y65.549 Z-2.145
N1221 X75.13 Y65.398 Z-2.161
N1222 X74.962 Y65.338 Z-2.167
N1223 X74.557 Y65.186 Z-2.182
N1224 X74.355 Y65.107 Z-2.19
N1225 X73.95 Y64.942 Z-2.205
N1226 X73.747 Y64.856 Z-2.213
N1227 X73.343 Y64.677 Z-2.228
N1228 X73.153 Y64.588 Z-2.236
N1229 X72.727 Y64.386 Z-2.252
N1230 X72.533 Y64.287 Z-2.26
N1231 X72.33 Y64.184 Z-2.268
N1232 X72.129 Y64.079 Z-2.276
N1233 X71.724 Y63.858 Z-2.292
N1234 X71.582 Y63.779 Z-2.297
N1235 X71.117 Y63.508 Z-2.316
N1236 X70.914 Y63.383 Z-2.325
N1237 X70.574 Y63.172 Z-2.339
N1238 X70.51 Y63.13 Z-2.341
N1239 X70.105 Y62.862 Z-2.358
N1240 X69.965 Y62.767 Z-2.364
N1241 X69.677 Y62.564 Z-2.376
N1242 X69.498 Y62.438 Z-2.384
N1243 X69.093 Y62.136 Z-2.402
N1244 X68.891 Y61.98 Z-2.411
N1245 X68.607 Y61.755 Z-2.423
N1246 X68.486 Y61.658 Z-2.429
N1247 X68.081 Y61.319 Z-2.447
N1248 X67.886 Y61.148 Z-2.456
N1249 X67.658 Y60.945 Z-2.467
N1250 X67.474 Y60.778 Z-2.476
N1251 X67.222 Y60.54 Z-2.488
N1252 X67.07 Y60.396 Z-2.495
N1253 X66.808 Y60.136 Z-2.508
N1254 X66.665 Y59.993 Z-2.515
N1255 X66.26 Y59.568 Z-2.535
N1256 X66.223 Y59.529 Z-2.537
N1257 X65.856 Y59.12 Z-2.556
N1258 X65.685 Y58.921 Z-2.566
N1259 X65.451 Y58.646 Z-2.578
N1260 X65.345 Y58.517 Z-2.584
N1261 X65.046 Y58.144 Z-2.601
N1262 X65.02 Y58.112 Z-2.602
N1263 X64.714 Y57.707 Z-2.62
N1264 X64.641 Y57.611 Z-2.624
N1265 X64.421 Y57.302 Z-2.637
N1266 X64.277 Y57.1 Z-2.646
N1267 X64.005 Y56.695 Z-2.663
N1268 X63.872 Y56.493 Z-2.672
N1269 X63.617 Y56.088 Z-2.688
N1270 X63.495 Y55.885 Z-2.696
N1271 X63.375 Y55.683 Z-2.705
N1272 X63.257 Y55.481 Z-2.713
N1273 X63.023 Y55.06 Z-2.73
N1274 X62.923 Y54.873 Z-2.737
N1275 X62.712 Y54.469 Z-2.753
N1276 X62.618 Y54.277 Z-2.76
N1277 X62.416 Y53.859 Z-2.777
N1278 X62.325 Y53.659 Z-2.784
N1279 X62.213 Y53.41 Z-2.794
N1280 X62.144 Y53.254 Z-2.8
N1281 X61.975 Y52.849 Z-2.815
N1282 X61.893 Y52.647 Z-2.823
N1283 X61.738 Y52.242 Z-2.838
N1284 X61.663 Y52.04 Z-2.845
N1285 X61.52 Y51.635 Z-2.86
N1286 X61.452 Y51.433 Z-2.868
N1287 X61.322 Y51.028 Z-2.883
N1288 X61.261 Y50.825 Z-2.89
N1289 X61.144 Y50.421 Z-2.905
N1290 X61.088 Y50.218 Z-2.912
N1291 X60.983 Y49.813 Z-2.927
N1292 X60.934 Y49.611 Z-2.934
N1293 X60.841 Y49.206 Z-2.949
N1294 X60.798 Y49.004 Z-2.956
N1295 X60.717 Y48.599 Z-2.97
N1296 X60.68 Y48.397 Z-2.977
N1297 X60.594 Y47.896 Z-2.995
N1298 X60.579 Y47.79 Z-2.999
N1299 X60.521 Y47.385 Z-3.013
N1300 X60.495 Y47.182 Z-3.02
N1301 X60.449 Y46.778 Z-3.035
N1302 X60.428 Y46.575 Z-3.042
N1303 X60.392 Y46.15 Z-3.057
N1304 X60.378 Y45.968 Z-3.063
N1305 X60.355 Y45.563 Z-3.077
N1306 X60.344 Y45.361 Z-3.084
N1307 X60.333 Y44.956 Z-3.098
N1308 X60.328 Y44.754 Z-3.105
N1309 Y44.146 Z-3.127
N1310 X60.333 Y43.944 Z-3.134
N1311 X60.344 Y43.539 Z-3.148
N1312 X60.355 Y43.337 Z-3.155
N1313 X60.378 Y42.932 Z-3.169
N1314 X60.39 Y42.772 Z-3.175
N1315 X60.392 Y42.75
N1316 X60.428 Y42.325
N1317 X60.449 Y42.122
N1318 X60.495 Y41.718
N1319 X60.521 Y41.515
N1320 X60.579 Y41.11
N1321 X60.594 Y41.004
N1322 X60.68 Y40.503
N1323 X60.717 Y40.301
N1324 X60.798 Y39.896
N1325 X60.841 Y39.694
N1326 X60.934 Y39.289
N1327 X60.983 Y39.087
N1328 X61.088 Y38.682
N1329 X61.144 Y38.479
N1330 X61.261 Y38.075
N1331 X61.322 Y37.872
N1332 X61.452 Y37.467
N1333 X61.52 Y37.265
N1334 X61.663 Y36.86
N1335 X61.738 Y36.658
N1336 X61.893 Y36.253
N1337 X61.975 Y36.051
N1338 X62.144 Y35.646
N1339 X62.213 Y35.49
N1340 X62.325 Y35.241
N1341 X62.416 Y35.041
N1342 X62.618 Y34.623
N1343 X62.712 Y34.431
N1344 X62.923 Y34.027
N1345 X63.023 Y33.84
N1346 X63.257 Y33.419
N1347 X63.375 Y33.217
N1348 X63.495 Y33.015
N1349 X63.617 Y32.812
N1350 X63.872 Y32.407
N1351 X64.005 Y32.205
N1352 X64.277 Y31.8
N1353 X64.421 Y31.598
N1354 X64.641 Y31.289
N1355 X64.714 Y31.193
N1356 X65.02 Y30.788
N1357 X65.046 Y30.756
N1358 X65.345 Y30.383
N1359 X65.451 Y30.254
N1360 X65.685 Y29.979
N1361 X65.856 Y29.78
N1362 X66.223 Y29.371
N1363 X66.26 Y29.332
N1364 X66.665 Y28.907
N1365 X66.808 Y28.764
N1366 X67.07 Y28.504
N1367 X67.222 Y28.36
N1368 X67.474 Y28.122
N1369 X67.658 Y27.955
N1370 X67.886 Y27.752
N1371 X68.081 Y27.581
N1372 X68.486 Y27.242
N1373 X68.607 Y27.145
N1374 X68.891 Y26.92
N1375 X69.093 Y26.764
N1376 X69.498 Y26.462
N1377 X69.677 Y26.336
N1378 X69.965 Y26.133
N1379 X70.105 Y26.038
N1380 X70.51 Y25.77
N1381 X70.574 Y25.728
N1382 X70.914 Y25.517
N1383 X71.117 Y25.392
N1384 X71.582 Y25.121
N1385 X71.724 Y25.042
N1386 X72.129 Y24.821
N1387 X72.331 Y24.716
N1388 X72.533 Y24.613
N1389 X72.727 Y24.514
N1390 X73.153 Y24.312
N1391 X73.343 Y24.223
N1392 X73.747 Y24.044
N1393 X73.95 Y23.958
N1394 X74.355 Y23.793
N1395 X74.557 Y23.714
N1396 X74.962 Y23.562
N1397 X75.13 Y23.502
N1398 X75.569 Y23.351
N1399 X75.728 Y23.3
N1400 X76.176 Y23.16
N1401 X76.378 Y23.101
N1402 X76.783 Y22.987
N1403 X76.985 Y22.935
N1404 X77.39 Y22.833
N1405 X77.592 Y22.787
N1406 X78.019 Y22.692
N1407 X78.199 Y22.657
N1408 X78.604 Y22.579
N1409 X78.806 Y22.545
N1410 X79.211 Y22.478
N1411 X79.413 Y22.449
N1412 X79.818 Y22.395
N1413 X80.021 Y22.371
N1414 X80.425 Y22.328
N1415 X80.628 Y22.31
N1416 X81.032 Y22.278
N1417 X81.235 Y22.265
N1418 X81.639 Y22.245
N1419 X81.842 Y22.238
N1420 X82.246 Y22.229
N1421 X82.449 Y22.226
N1422 X82.854 Y22.229
N1423 X83.056 Y22.232
N1424 X83.461 Y22.246
N1425 X83.663 Y22.253
N1426 X84.27 Y22.292
N1427 X84.675 Y22.329
N1428 X84.877 Y22.348
N1429 X85.079 Y22.372
N1430 X85.484 Y22.42
N1431 X85.687 Y22.45
N1432 X86.091 Y22.51
N1433 X86.294 Y22.545
N1434 X86.698 Y22.617
N1435 X86.901 Y22.657
N1436 X87.305 Y22.741
N1437 X87.508 Y22.787
N1438 X87.963 Y22.895
N1439 X88.115 Y22.935
N1440 X88.52 Y23.043
N1441 X88.709 Y23.097
N1442 X89.127 Y23.221
N1443 X89.329 Y23.286
N1444 X89.734 Y23.419
N1445 X89.936 Y23.49
N1446 X90.341 Y23.636
N1447 X90.517 Y23.704
N1448 X90.745 Y23.794
N1449 X90.948 Y23.873
N1450 X91.504 Y24.109
N1451 X91.555 Y24.132
N1452 X91.96 Y24.317
N1453 X92.162 Y24.412
N1454 X92.567 Y24.612
N1455 X92.769 Y24.716
N1456 X93.174 Y24.929
N1457 X93.376 Y25.043
N1458 X93.578 Y25.157
N1459 X93.781 Y25.272
N1460 X94.202 Y25.526
N1461 X94.388 Y25.642
N1462 X94.793 Y25.902
N1463 X94.837 Y25.931
N1464 X95.197 Y26.177
N1465 X95.4 Y26.318
N1466 X95.804 Y26.611
N1467 X95.975 Y26.74
N1468 X96.238 Y26.943
N1469 X96.411 Y27.079
N1470 X96.816 Y27.409
N1471 X96.98 Y27.55
N1472 X97.221 Y27.757
N1473 X97.423 Y27.938
N1474 X97.663 Y28.157
N1475 X97.828 Y28.311
N1476 X98.088 Y28.562
N1477 X98.233 Y28.703
N1478 X98.637 Y29.116
N1479 X98.687 Y29.169
N1480 X99.061 Y29.574
N1481 X99.239 Y29.776
N1482 X99.447 Y30.014
N1483 X99.587 Y30.181
N1484 X99.851 Y30.501
N1485 X99.919 Y30.586
N1486 X100.256 Y31.018
N1487 X100.386 Y31.193
N1488 X100.534 Y31.395
N1489 X100.661 Y31.569
N1490 X100.961 Y32.003
N1491 X101.066 Y32.16
N1492 X101.268 Y32.47
N1493 X101.358 Y32.61
N1494 X101.605 Y33.015
N1495 X101.673 Y33.125
N1496 X101.958 Y33.622
N1497 X102.068 Y33.824
N1498 X102.177 Y34.027
N1499 X102.28 Y34.219
N1500 X102.488 Y34.634
N1501 X102.587 Y34.836
N1502 X102.776 Y35.241
N1503 X102.866 Y35.443
N1504 X103.042 Y35.848
N1505 X103.089 Y35.962
N1506 X103.292 Y36.468
N1507 X103.362 Y36.658
N1508 X103.511 Y37.063
N1509 X103.579 Y37.265
N1510 X103.715 Y37.67
N1511 X103.777 Y37.872
N1512 X103.839 Y38.075
N1513 X103.899 Y38.272
N1514 X104.011 Y38.682
N1515 X104.066 Y38.884
N1516 X104.165 Y39.289
N1517 X104.214 Y39.491
N1518 X104.303 Y39.906
N1519 X104.344 Y40.098
N1520 X104.457 Y40.706
N1521 X104.489 Y40.908
N1522 X104.552 Y41.313
N1523 X104.578 Y41.515
N1524 X104.63 Y41.92
N1525 X104.651 Y42.122
N1526 X104.691 Y42.527
N1527 X104.706 Y42.73
N1528 X104.735 Y43.134
N1529 X104.745 Y43.337
N1530 X104.762 Y43.742
N1531 X104.768 Y43.944
N1532 X104.773 Y44.349
N1533 Y44.551
N1534 X104.768 Y44.956
N1535 X104.762 Y45.158
N1536 X104.745 Y45.563
N1537 X104.735 Y45.766
N1538 X104.706 Y46.17
N1539 X104.691 Y46.373
N1540 X104.651 Y46.778
N1541 X104.63 Y46.98
N1542 X104.578 Y47.385
N1543 X104.552 Y47.587
N1544 X104.489 Y47.992
N1545 X104.457 Y48.194
N1546 X104.344 Y48.802
N1547 X104.301 Y49.004
N1548 X104.214 Y49.409
N1549 X104.165 Y49.611
N1550 X104.066 Y50.016
N1551 X104.011 Y50.218
N1552 X103.899 Y50.628
N1553 X103.839 Y50.825
N1554 X103.777 Y51.028
N1555 X103.715 Y51.23
N1556 X103.579 Y51.635
N1557 X103.511 Y51.837
N1558 X103.362 Y52.242
N1559 X103.292 Y52.432
N1560 X103.089 Y52.938
N1561 X103.042 Y53.052
N1562 X102.866 Y53.457
N1563 X102.776 Y53.659
N1564 X102.587 Y54.064
N1565 X102.488 Y54.266
N1566 X102.28 Y54.681
N1567 X102.177 Y54.873
N1568 X102.068 Y55.076
N1569 X101.958 Y55.278
N1570 X101.673 Y55.775
N1571 X101.605 Y55.885
N1572 X101.358 Y56.29
N1573 X101.268 Y56.43
N1574 X101.066 Y56.74
N1575 X100.961 Y56.897
N1576 X100.661 Y57.331
N1577 X100.534 Y57.505
N1578 X100.386 Y57.707
N1579 X100.256 Y57.882
N1580 X99.919 Y58.314
N1581 X99.851 Y58.399
N1582 X99.587 Y58.719
N1583 X99.447 Y58.886
N1584 X99.239 Y59.124
N1585 X99.061 Y59.326
N1586 X98.687 Y59.731
N1587 X98.637 Y59.784
N1588 X98.233 Y60.197
N1589 X98.088 Y60.338
N1590 X97.828 Y60.589
N1591 X97.663 Y60.743
N1592 X97.423 Y60.962
N1593 X97.221 Y61.143
N1594 X96.98 Y61.35
N1595 X96.816 Y61.491
N1596 X96.411 Y61.821
N1597 X96.238 Y61.957
N1598 X95.975 Y62.16
N1599 X95.804 Y62.289
N1600 X95.4 Y62.582
N1601 X95.197 Y62.723
N1602 X94.837 Y62.969
N1603 X94.793 Y62.998
N1604 X94.388 Y63.258
N1605 X94.202 Y63.374
N1606 X93.781 Y63.628
N1607 X93.578 Y63.743
N1608 X93.376 Y63.857
N1609 X93.174 Y63.971
N1610 X92.769 Y64.184
N1611 X92.567 Y64.288
N1612 X92.162 Y64.488
N1613 X91.96 Y64.583
N1614 X91.555 Y64.768
N1615 X91.504 Y64.791
N1616 X90.948 Y65.027
N1617 X90.745 Y65.106
N1618 X90.517 Y65.196
N1619 X90.341 Y65.264
N1620 X89.936 Y65.41
N1621 X89.734 Y65.481
N1622 X89.329 Y65.614
N1623 X89.127 Y65.679
N1624 X88.709 Y65.803
N1625 X88.52 Y65.857
N1626 X88.115 Y65.965
N1627 X87.963 Y66.005
N1628 X87.508 Y66.113
N1629 X87.305 Y66.159
N1630 X86.901 Y66.243
N1631 X86.698 Y66.283
N1632 X86.294 Y66.355
N1633 X86.091 Y66.39
N1634 X85.687 Y66.45
N1635 X85.484 Y66.48
N1636 X85.079 Y66.528
N1637 X84.877 Y66.552
N1638 X84.472 Y66.589
N1639 X84.27 Y66.608
N1640 X83.663 Y66.647
N1641 X83.461 Y66.654
N1642 X83.056 Y66.668
N1643 X82.854 Y66.671
N1644 X82.449 Y66.674
N1645 X82.246 Y66.671
N1646 X81.842 Y66.662
N1647 X81.639 Y66.655
N1648 X81.235 Y66.635
N1649 X81.032 Y66.622
N1650 X80.628 Y66.59
N1651 X80.425 Y66.572
N1652 X80.021 Y66.529
N1653 X79.818 Y66.505
N1654 X79.413 Y66.451
N1655 X79.211 Y66.422
N1656 X78.806 Y66.355
N1657 X78.604 Y66.321
N1658 X78.199 Y66.243
N1659 X78.019 Y66.208
N1660 X77.592 Y66.113
N1661 X77.39 Y66.067
N1662 X76.985 Y65.965
N1663 X76.783 Y65.913
N1664 X76.378 Y65.799
N1665 X76.176 Y65.74
N1666 X75.728 Y65.6
N1667 X75.569 Y65.549
N1668 X75.13 Y65.398
N1669 X74.962 Y65.338
N1670 X74.557 Y65.186
N1671 X74.355 Y65.107
N1672 X73.95 Y64.942
N1673 X73.747 Y64.856
N1674 X73.343 Y64.677
N1675 X73.153 Y64.588
N1676 X72.727 Y64.386
N1677 X72.533 Y64.287
N1678 X72.33 Y64.184
N1679 X72.129 Y64.079
N1680 X71.724 Y63.858
N1681 X71.582 Y63.779
N1682 X71.117 Y63.508
N1683 X70.914 Y63.383
N1684 X70.574 Y63.172
N1685 X70.51 Y63.13
N1686 X70.105 Y62.862
N1687 X69.965 Y62.767
N1688 X69.677 Y62.564
N1689 X69.498 Y62.438
N1690 X69.093 Y62.136
N1691 X68.891 Y61.98
N1692 X68.607 Y61.755
N1693 X68.486 Y61.658
N1694 X68.081 Y61.319
N1695 X67.886 Y61.148
N1696 X67.658 Y60.945
N1697 X67.474 Y60.778
N1698 X67.222 Y60.54
N1699 X67.07 Y60.396
N1700 X66.808 Y60.136
N1701 X66.665 Y59.993
N1702 X66.26 Y59.568
N1703 X66.223 Y59.529
N1704 X65.856 Y59.12
N1705 X65.685 Y58.921
N1706 X65.451 Y58.646
N1707 X65.345 Y58.517
N1708 X65.046 Y58.144
N1709 X65.02 Y58.112
N1710 X64.714 Y57.707
N1711 X64.641 Y57.611
N1712 X64.421 Y57.302
N1713 X64.277 Y57.1
N1714 X64.005 Y56.695
N1715 X63.872 Y56.493
N1716 X63.617 Y56.088
N1717 X63.495 Y55.885
N1718 X63.375 Y55.683
N1719 X63.257 Y55.481
N1720 X63.023 Y55.06
N1721 X62.923 Y54.873
N1722 X62.712 Y54.469
N1723 X62.618 Y54.277
N1724 X62.416 Y53.859
N1725 X62.325 Y53.659
N1726 X62.213 Y53.41
N1727 X62.144 Y53.254
N1728 X61.975 Y52.849
N1729 X61.893 Y52.647
N1730 X61.738 Y52.242
N1731 X61.663 Y52.04
N1732 X61.52 Y51.635
N1733 X61.452 Y51.433
N1734 X61.322 Y51.028
N1735 X61.261 Y50.825
N1736 X61.144 Y50.421
N1737 X61.088 Y50.218
N1738 X60.983 Y49.813
N1739 X60.934 Y49.611
N1740 X60.841 Y49.206
N1741 X60.798 Y49.004
N1742 X60.717 Y48.599
N1743 X60.68 Y48.397
N1744 X60.594 Y47.896
N1745 X60.579 Y47.79
N1746 X60.521 Y47.385
N1747 X60.495 Y47.182
N1748 X60.449 Y46.778
N1749 X60.428 Y46.575
N1750 X60.392 Y46.15
N1751 X60.378 Y45.968
N1752 X60.355 Y45.563
N1753 X60.344 Y45.361
N1754 X60.333 Y44.956
N1755 X60.328 Y44.754
N1756 Y44.146
N1757 X60.333 Y43.944
N1758 X60.344 Y43.539
N1759 X60.355 Y43.337
N1760 X60.378 Y42.932
N1761 X60.392 Y42.75
N1762 G0 Z7.35
N1763 X75.441 Y29.41
N1764 Z4.775
N1765 G1 Z0.191 F1016
N1766 X75.446 Y29.408 Z0.106
N1767 X75.461 Y29.401 Z0.022
N1768 X75.487 Y29.388 Z-0.059
N1769 X75.522 Y29.371 Z-0.135
N1770 X75.571 Y29.349 Z-0.212
N1771 X75.63 Y29.323 Z-0.279
N1772 X75.697 Y29.293 Z-0.337
N1773 X75.771 Y29.259 Z-0.383
N1774 X75.836 Y29.23 Z-0.412
N1775 X75.903 Y29.2 Z-0.431
N1776 X75.972 Y29.169 Z-0.442
N1777 X75.999 Y29.158 Z-0.444
N1778 X76.378 Y29.002 Z-0.458
N1779 X76.464 Y28.967 Z-0.461
N1780 X76.783 Y28.847 Z-0.473
N1781 X76.985 Y28.772 Z-0.481
N1782 X77.39 Y28.635 Z-0.496
N1783 X77.592 Y28.571 Z-0.503
N1784 X77.795 Y28.51 Z-0.51
N1785 X77.997 Y28.449 Z-0.518
N1786 X78.402 Y28.34 Z-0.532
N1787 X78.604 Y28.29 Z-0.54
N1788 X78.806 Y28.242 Z-0.547
N1789 X79.009 Y28.195 Z-0.554
N1790 X79.413 Y28.113 Z-0.569
N1791 X79.616 Y28.076 Z-0.576
N1792 X80.021 Y28.007 Z-0.59
N1793 X80.223 Y27.979 Z-0.597
N1794 X80.425 Y27.951 Z-0.604
N1795 X80.628 Y27.926 Z-0.612
N1796 X81.032 Y27.884 Z-0.626
N1797 X81.235 Y27.867 Z-0.633
N1798 X81.437 Y27.853 Z-0.64
N1799 X81.639 Y27.839 Z-0.647
N1800 X82.044 Y27.822 Z-0.661
N1801 X82.246 Y27.817 Z-0.668
N1802 X82.651 Y27.814 Z-0.682
N1803 X82.854 Y27.818 Z-0.689
N1804 X83.056 Y27.823 Z-0.697
N1805 X83.258 Y27.829 Z-0.704
N1806 X83.663 Y27.852 Z-0.718
N1807 X83.865 Y27.867 Z-0.725
N1808 X84.27 Y27.903 Z-0.739
N1809 X84.472 Y27.927 Z-0.746
N1810 X84.704 Y27.955 Z-0.754
N1811 X84.877 Y27.978 Z-0.76
N1812 X85.282 Y28.04 Z-0.775
N1813 X85.484 Y28.076 Z-0.782
N1814 X85.687 Y28.114 Z-0.789
N1815 X85.889 Y28.153 Z-0.796
N1816 X86.294 Y28.241 Z-0.811
N1817 X86.496 Y28.29 Z-0.818
N1818 X86.772 Y28.36 Z-0.828
N1819 X86.901 Y28.393 Z-0.833
N1820 X87.305 Y28.509 Z-0.847
N1821 X87.48 Y28.562 Z-0.854
N1822 X87.71 Y28.636 Z-0.862
N1823 X87.912 Y28.702 Z-0.87
N1824 X88.317 Y28.846 Z-0.885
N1825 X88.52 Y28.923 Z-0.892
N1826 X88.722 Y29.003 Z-0.9
N1827 X88.924 Y29.084 Z-0.907
N1828 X89.329 Y29.258 Z-0.923
N1829 X89.531 Y29.351 Z-0.93
N1830 X89.734 Y29.446 Z-0.938
N1831 X89.936 Y29.544 Z-0.946
N1832 X90.138 Y29.647 Z-0.954
N1833 X90.341 Y29.751 Z-0.962
N1834 X90.756 Y29.979 Z-0.979
N1835 X90.948 Y30.091 Z-0.986
N1836 X91.15 Y30.21 Z-0.994
N1837 X91.353 Y30.335 Z-1.003
N1838 X91.555 Y30.463 Z-1.011
N1839 X91.744 Y30.586 Z-1.019
N1840 X92.041 Y30.788 Z-1.032
N1841 X92.162 Y30.872 Z-1.037
N1842 X92.364 Y31.019 Z-1.045
N1843 X92.567 Y31.167 Z-1.054
N1844 X92.971 Y31.482 Z-1.072
N1845 X93.111 Y31.598 Z-1.078
N1846 X93.376 Y31.818 Z-1.09
N1847 X93.578 Y31.997 Z-1.1
N1848 X93.781 Y32.176 Z-1.109
N1849 X93.811 Y32.205 Z-1.111
N1850 X94.025 Y32.407 Z-1.121
N1851 X94.186 Y32.56 Z-1.129
N1852 X94.436 Y32.812 Z-1.141
N1853 X94.59 Y32.97 Z-1.149
N1854 X94.82 Y33.217 Z-1.161
N1855 X94.995 Y33.412 Z-1.17
N1856 X95.197 Y33.643 Z-1.181
N1857 X95.349 Y33.824 Z-1.189
N1858 X95.515 Y34.027 Z-1.198
N1859 X95.602 Y34.134 Z-1.203
N1860 X95.83 Y34.431 Z-1.216
N1861 X95.98 Y34.634 Z-1.225
N1862 X96.209 Y34.953 Z-1.238
N1863 X96.267 Y35.039 Z-1.242
N1864 X96.411 Y35.254 Z-1.251
N1865 X96.537 Y35.443 Z-1.259
N1866 X96.79 Y35.848 Z-1.276
N1867 X96.816 Y35.892 Z-1.277
N1868 X97.026 Y36.253 Z-1.292
N1869 X97.138 Y36.455 Z-1.3
N1870 X97.247 Y36.658 Z-1.308
N1871 X97.353 Y36.86 Z-1.316
N1872 X97.555 Y37.265 Z-1.332
N1873 X97.626 Y37.418 Z-1.338
N1874 X97.741 Y37.67 Z-1.347
N1875 X97.828 Y37.869 Z-1.355
N1876 X97.914 Y38.075 Z-1.363
N1877 X97.998 Y38.277 Z-1.371
N1878 X98.154 Y38.682 Z-1.386
N1879 X98.226 Y38.884 Z-1.393
N1880 X98.296 Y39.087 Z-1.401
N1881 X98.365 Y39.289 Z-1.408
N1882 X98.491 Y39.694 Z-1.423
N1883 X98.549 Y39.896 Z-1.43
N1884 X98.637 Y40.213 Z-1.442
N1885 X98.66 Y40.301 Z-1.445
N1886 X98.759 Y40.706 Z-1.459
N1887 X98.803 Y40.908 Z-1.467
N1888 X98.846 Y41.11 Z-1.474
N1889 X98.888 Y41.313 Z-1.481
N1890 X98.959 Y41.718 Z-1.496
N1891 X98.992 Y41.92 Z-1.503
N1892 X99.05 Y42.325 Z-1.517
N1893 X99.073 Y42.527 Z-1.524
N1894 X99.096 Y42.73 Z-1.531
N1895 X99.116 Y42.932 Z-1.538
N1896 X99.149 Y43.337 Z-1.552
N1897 X99.16 Y43.539 Z-1.56
N1898 X99.17 Y43.742 Z-1.567
N1899 X99.179 Y43.944 Z-1.574
N1900 X99.185 Y44.349 Z-1.588
N1901 Y44.551 Z-1.595
N1902 X99.179 Y44.956 Z-1.609
N1903 X99.17 Y45.158 Z-1.616
N1904 X99.16 Y45.361 Z-1.623
N1905 X99.149 Y45.563 Z-1.63
N1906 X99.116 Y45.968 Z-1.644
N1907 X99.096 Y46.17 Z-1.652
N1908 X99.073 Y46.373 Z-1.659
N1909 X99.05 Y46.575 Z-1.666
N1910 X98.992 Y46.98 Z-1.68
N1911 X98.959 Y47.182 Z-1.687
N1912 X98.888 Y47.587 Z-1.702
N1913 X98.846 Y47.79 Z-1.709
N1914 X98.803 Y47.992 Z-1.716
N1915 X98.759 Y48.194 Z-1.723
N1916 X98.66 Y48.599 Z-1.738
N1917 X98.637 Y48.687 Z-1.741
N1918 X98.549 Y49.004 Z-1.752
N1919 X98.491 Y49.206 Z-1.76
N1920 X98.365 Y49.611 Z-1.775
N1921 X98.296 Y49.813 Z-1.782
N1922 X98.226 Y50.016 Z-1.79
N1923 X98.154 Y50.218 Z-1.797
N1924 X97.998 Y50.623 Z-1.812
N1925 X97.914 Y50.825 Z-1.82
N1926 X97.828 Y51.031 Z-1.828
N1927 X97.741 Y51.23 Z-1.835
N1928 X97.626 Y51.482 Z-1.845
N1929 X97.555 Y51.635 Z-1.851
N1930 X97.353 Y52.04 Z-1.867
N1931 X97.247 Y52.242 Z-1.875
N1932 X97.138 Y52.445 Z-1.883
N1933 X97.026 Y52.647 Z-1.891
N1934 X96.816 Y53.008 Z-1.905
N1935 X96.79 Y53.052 Z-1.907
N1936 X96.537 Y53.457 Z-1.924
N1937 X96.411 Y53.646 Z-1.932
N1938 X96.267 Y53.861 Z-1.941
N1939 X96.209 Y53.947 Z-1.944
N1940 X95.98 Y54.266 Z-1.958
N1941 X95.83 Y54.469 Z-1.967
N1942 X95.602 Y54.766 Z-1.98
N1943 X95.515 Y54.873 Z-1.985
N1944 X95.349 Y55.076 Z-1.994
N1945 X95.197 Y55.257 Z-2.002
N1946 X94.995 Y55.488 Z-2.013
N1947 X94.82 Y55.683 Z-2.022
N1948 X94.59 Y55.93 Z-2.034
N1949 X94.436 Y56.088 Z-2.041
N1950 X94.186 Y56.34 Z-2.054
N1951 X94.025 Y56.493 Z-2.062
N1952 X93.811 Y56.695 Z-2.072
N1953 X93.781 Y56.724 Z-2.073
N1954 X93.578 Y56.903 Z-2.083
N1955 X93.376 Y57.082 Z-2.092
N1956 X93.111 Y57.302 Z-2.104
N1957 X92.971 Y57.418 Z-2.111
N1958 X92.567 Y57.733 Z-2.129
N1959 X92.364 Y57.881 Z-2.137
N1960 X92.162 Y58.028 Z-2.146
N1961 X92.041 Y58.112 Z-2.151
N1962 X91.744 Y58.314 Z-2.164
N1963 X91.555 Y58.437 Z-2.172
N1964 X91.353 Y58.565 Z-2.18
N1965 X91.15 Y58.69 Z-2.188
N1966 X90.948 Y58.809 Z-2.196
N1967 X90.756 Y58.921 Z-2.204
N1968 X90.341 Y59.149 Z-2.221
N1969 X90.138 Y59.253 Z-2.229
N1970 X89.936 Y59.356 Z-2.237
N1971 X89.734 Y59.454 Z-2.244
N1972 X89.531 Y59.549 Z-2.252
N1973 X89.329 Y59.642 Z-2.26
N1974 X88.924 Y59.816 Z-2.275
N1975 X88.722 Y59.897 Z-2.283
N1976 X88.52 Y59.977 Z-2.291
N1977 X88.317 Y60.054 Z-2.298
N1978 X87.912 Y60.198 Z-2.313
N1979 X87.71 Y60.264 Z-2.321
N1980 X87.48 Y60.338 Z-2.329
N1981 X87.305 Y60.391 Z-2.335
N1982 X86.901 Y60.507 Z-2.35
N1983 X86.772 Y60.54 Z-2.355
N1984 X86.496 Y60.61 Z-2.365
N1985 X86.294 Y60.659 Z-2.372
N1986 X85.889 Y60.747 Z-2.386
N1987 X85.687 Y60.786 Z-2.394
N1988 X85.484 Y60.824 Z-2.401
N1989 X85.282 Y60.86 Z-2.408
N1990 X84.877 Y60.922 Z-2.422
N1991 X84.704 Y60.945 Z-2.428
N1992 X84.472 Y60.973 Z-2.437
N1993 X84.27 Y60.997 Z-2.444
N1994 X83.865 Y61.033 Z-2.458
N1995 X83.663 Y61.048 Z-2.465
N1996 X83.258 Y61.071 Z-2.479
N1997 X83.056 Y61.077 Z-2.486
N1998 X82.854 Y61.082 Z-2.493
N1999 X82.651 Y61.086 Z-2.5
N2000 X82.246 Y61.083 Z-2.514
N2001 X82.044 Y61.078 Z-2.522
N2002 X81.639 Y61.061 Z-2.536
N2003 X81.437 Y61.047 Z-2.543
N2004 X81.235 Y61.033 Z-2.55
N2005 X81.032 Y61.016 Z-2.557
N2006 X80.628 Y60.974 Z-2.571
N2007 X80.425 Y60.949 Z-2.578
N2008 X80.223 Y60.921 Z-2.585
N2009 X80.021 Y60.893 Z-2.593
N2010 X79.616 Y60.824 Z-2.607
N2011 X79.413 Y60.787 Z-2.614
N2012 X79.009 Y60.705 Z-2.628
N2013 X78.806 Y60.658 Z-2.636
N2014 X78.604 Y60.61 Z-2.643
N2015 X78.402 Y60.56 Z-2.65
N2016 X77.997 Y60.451 Z-2.665
N2017 X77.795 Y60.39 Z-2.672
N2018 X77.592 Y60.329 Z-2.68
N2019 X77.39 Y60.265 Z-2.687
N2020 X76.985 Y60.128 Z-2.702
N2021 X76.783 Y60.053 Z-2.71
N2022 X76.464 Y59.933 Z-2.721
N2023 X76.378 Y59.898 Z-2.725
N2024 X75.972 Y59.731 Z-2.74
N2025 X75.771 Y59.641 Z-2.748
N2026 X75.522 Y59.529 Z-2.757
N2027 X75.366 Y59.454 Z-2.763
N2028 X75.105 Y59.326 Z-2.773
N2029 X74.962 Y59.254 Z-2.779
N2030 X74.557 Y59.04 Z-2.795
N2031 X74.355 Y58.926 Z-2.803
N2032 X74.152 Y58.81 Z-2.811
N2033 X73.998 Y58.719 Z-2.818
N2034 X73.668 Y58.517 Z-2.831
N2035 X73.545 Y58.437 Z-2.836
N2036 X73.343 Y58.304 Z-2.845
N2037 X73.14 Y58.169 Z-2.853
N2038 X72.772 Y57.909 Z-2.869
N2039 X72.736 Y57.883 Z-2.87
N2040 X72.331 Y57.578 Z-2.888
N2041 X72.239 Y57.505 Z-2.892
N2042 X71.926 Y57.252 Z-2.906
N2043 X71.748 Y57.1 Z-2.914
N2044 X71.512 Y56.897 Z-2.925
N2045 X71.319 Y56.721 Z-2.934
N2046 X71.291 Y56.695 Z-2.936
N2047 X71.117 Y56.535 Z-2.944
N2048 X70.866 Y56.29 Z-2.956
N2049 X70.712 Y56.139 Z-2.964
N2050 X70.469 Y55.885 Z-2.976
N2051 X70.307 Y55.713 Z-2.984
N2052 X70.098 Y55.481 Z-2.995
N2053 X69.922 Y55.278 Z-3.005
N2054 X69.7 Y55.016 Z-3.017
N2055 X69.586 Y54.873 Z-3.023
N2056 X69.425 Y54.671 Z-3.032
N2057 X69.296 Y54.503 Z-3.039
N2058 X69.093 Y54.23 Z-3.051
N2059 X68.974 Y54.064 Z-3.058
N2060 X68.834 Y53.861 Z-3.067
N2061 X68.696 Y53.659 Z-3.076
N2062 X68.486 Y53.335 Z-3.089
N2063 X68.434 Y53.254 Z-3.092
N2064 X68.19 Y52.849 Z-3.109
N2065 X68.081 Y52.658 Z-3.117
N2066 X67.962 Y52.445 Z-3.125
N2067 X67.879 Y52.293 Z-3.131
N2068 X67.677 Y51.903 Z-3.147
N2069 X67.644 Y51.837 Z-3.149
N2070 X67.45 Y51.433 Z-3.165
N2071 X67.36 Y51.23 Z-3.172
N2072 X67.271 Y51.028 Z-3.18
N2073 X67.185 Y50.825 Z-3.188
N2074 X67.022 Y50.421 Z-3.203
N2075 X66.948 Y50.218 Z-3.211
N2076 X66.867 Y49.999 Z-3.219
N2077 X66.803 Y49.813 Z-3.226
N2078 X66.736 Y49.611 Z-3.233
N2079 X66.67 Y49.409 Z-3.241
N2080 X66.55 Y49.004 Z-3.255
N2081 X66.494 Y48.802 Z-3.263
N2082 X66.388 Y48.397 Z-3.277
N2083 X66.342 Y48.194 Z-3.284
N2084 X66.296 Y47.992 Z-3.292
N2085 X66.26 Y47.826 Z-3.298
N2086 X66.175 Y47.385 Z-3.313
N2087 X66.141 Y47.182 Z-3.321
N2088 X66.109 Y46.98 Z-3.328
N2089 X66.078 Y46.778 Z-3.335
N2090 X66.026 Y46.373 Z-3.349
N2091 X66.004 Y46.17 Z-3.356
N2092 X65.985 Y45.968 Z-3.363
N2093 X65.966 Y45.766 Z-3.37
N2094 X65.94 Y45.361 Z-3.385
N2095 X65.93 Y45.158 Z-3.392
N2096 X65.917 Y44.754 Z-3.406
N2097 X65.916 Y44.551 Z-3.413
N2098 Y44.349 Z-3.42
N2099 X65.917 Y44.146 Z-3.427
N2100 X65.93 Y43.742 Z-3.441
N2101 X65.94 Y43.539 Z-3.448
N2102 X65.966 Y43.134 Z-3.462
N2103 X65.985 Y42.932 Z-3.469
N2104 X66.004 Y42.73 Z-3.477
N2105 X66.026 Y42.527 Z-3.484
N2106 X66.078 Y42.122 Z-3.498
N2107 X66.109 Y41.92 Z-3.505
N2108 X66.141 Y41.718 Z-3.512
N2109 X66.175 Y41.515 Z-3.519
N2110 X66.26 Y41.074 Z-3.535
N2111 X66.296 Y40.908 Z-3.541
N2112 X66.342 Y40.706 Z-3.548
N2113 X66.388 Y40.503 Z-3.556
N2114 X66.494 Y40.098 Z-3.57
N2115 X66.55 Y39.896 Z-3.577
N2116 X66.67 Y39.491 Z-3.592
N2117 X66.736 Y39.289 Z-3.6
N2118 X66.803 Y39.087 Z-3.607
N2119 X66.867 Y38.901 Z-3.614
N2120 X66.948 Y38.682 Z-3.622
N2121 X67.022 Y38.479 Z-3.63
N2122 X67.185 Y38.075 Z-3.645
N2123 X67.271 Y37.872 Z-3.653
N2124 X67.36 Y37.67 Z-3.66
N2125 X67.45 Y37.467 Z-3.668
N2126 X67.644 Y37.063 Z-3.684
N2127 X67.677 Y36.997 Z-3.686
N2128 X67.879 Y36.607 Z-3.702
N2129 X67.962 Y36.455 Z-3.708
N2130 X68.081 Y36.242 Z-3.716
N2131 X68.19 Y36.051 Z-3.724
N2132 X68.434 Y35.646 Z-3.74
N2133 X68.486 Y35.565 Z-3.744
N2134 X68.696 Y35.241 Z-3.757
N2135 X68.834 Y35.039 Z-3.766
N2136 X68.974 Y34.836 Z-3.774
N2137 X69.093 Y34.67 Z-3.781
N2138 X69.296 Y34.397 Z-3.793
N2139 X69.425 Y34.229 Z-3.801
N2140 X69.586 Y34.027 Z-3.81
N2141 X69.7 Y33.884 Z-3.816
N2142 X69.922 Y33.622 Z-3.828
N2143 X70.098 Y33.419 Z-3.838
N2144 X70.307 Y33.187 Z-3.848
N2145 X70.469 Y33.015 Z-3.857
N2146 X70.712 Y32.761 Z-3.869
N2147 X70.866 Y32.61 Z-3.876
N2148 X71.117 Y32.365 Z-3.889
N2149 X71.291 Y32.205 Z-3.897
N2150 X71.319 Y32.179 Z-3.898
N2151 X71.512 Y32.003 Z-3.907
N2152 X71.748 Y31.8 Z-3.918
N2153 X71.926 Y31.648 Z-3.926
N2154 X72.239 Y31.395 Z-3.941
N2155 X72.331 Y31.322 Z-3.945
N2156 X72.736 Y31.017 Z-3.962
N2157 X72.772 Y30.991 Z-3.964
N2158 X73.14 Y30.731 Z-3.98
N2159 X73.343 Y30.596 Z-3.988
N2160 X73.545 Y30.463 Z-3.997
N2161 X73.668 Y30.383 Z-4.002
N2162 X73.998 Y30.181 Z-4.015
N2163 X74.152 Y30.09 Z-4.021
N2164 X74.355 Y29.974 Z-4.03
N2165 X74.557 Y29.86 Z-4.038
N2166 X74.962 Y29.646 Z-4.054
N2167 X75.105 Y29.574 Z-4.059
N2168 X75.366 Y29.446 Z-4.069
N2169 X75.522 Y29.371 Z-4.076
N2170 X75.771 Y29.259 Z-4.085
N2171 X75.972 Y29.169 Z-4.093
N2172 X76.378 Y29.002 Z-4.108
N2173 X76.464 Y28.967 Z-4.111
N2174 X76.783 Y28.847 Z-4.123
N2175 X76.985 Y28.772 Z-4.131
N2176 X77.39 Y28.635 Z-4.146
N2177 X77.592 Y28.571 Z-4.153
N2178 X77.795 Y28.51 Z-4.16
N2179 X77.997 Y28.449 Z-4.168
N2180 X78.402 Y28.34 Z-4.182
N2181 X78.604 Y28.29 Z-4.19
N2182 X78.806 Y28.242 Z-4.197
N2183 X79.009 Y28.195 Z-4.204
N2184 X79.413 Y28.113 Z-4.219
N2185 X79.616 Y28.076 Z-4.226
N2186 X80.021 Y28.007 Z-4.24
N2187 X80.223 Y27.979 Z-4.247
N2188 X80.425 Y27.951 Z-4.254
N2189 X80.628 Y27.926 Z-4.262
N2190 X81.032 Y27.884 Z-4.276
N2191 X81.235 Y27.867 Z-4.283
N2192 X81.437 Y27.853 Z-4.29
N2193 X81.639 Y27.839 Z-4.297
N2194 X82.044 Y27.822 Z-4.311
N2195 X82.246 Y27.817 Z-4.318
N2196 X82.651 Y27.814 Z-4.332
N2197 X82.854 Y27.818 Z-4.339
N2198 X83.056 Y27.823 Z-4.347
N2199 X83.258 Y27.829 Z-4.354
N2200 X83.663 Y27.852 Z-4.368
N2201 X83.865 Y27.867 Z-4.375
N2202 X84.27 Y27.903 Z-4.389
N2203 X84.472 Y27.927 Z-4.396
N2204 X84.704 Y27.955 Z-4.404
N2205 X84.877 Y27.978 Z-4.41
N2206 X85.282 Y28.04 Z-4.425
N2207 X85.484 Y28.076 Z-4.432
N2208 X85.687 Y28.114 Z-4.439
N2209 X85.889 Y28.153 Z-4.446
N2210 X86.294 Y28.241 Z-4.461
N2211 X86.496 Y28.29 Z-4.468
N2212 X86.772 Y28.36 Z-4.478
N2213 X86.901 Y28.393 Z-4.483
N2214 X87.305 Y28.509 Z-4.497
N2215 X87.48 Y28.562 Z-4.504
N2216 X87.71 Y28.636 Z-4.512
N2217 X87.912 Y28.702 Z-4.52
N2218 X88.317 Y28.846 Z-4.535
N2219 X88.52 Y28.923 Z-4.542
N2220 X88.722 Y29.003 Z-4.55
N2221 X88.924 Y29.084 Z-4.557
N2222 X89.329 Y29.258 Z-4.573
N2223 X89.531 Y29.351 Z-4.58
N2224 X89.734 Y29.446 Z-4.588
N2225 X89.936 Y29.544 Z-4.596
N2226 X90.138 Y29.647 Z-4.604
N2227 X90.341 Y29.751 Z-4.612
N2228 X90.756 Y29.979 Z-4.629
N2229 X90.948 Y30.091 Z-4.636
N2230 X91.15 Y30.21 Z-4.645
N2231 X91.353 Y30.335 Z-4.653
N2232 X91.555 Y30.463 Z-4.661
N2233 X91.744 Y30.586 Z-4.669
N2234 X92.041 Y30.788 Z-4.682
N2235 X92.162 Y30.872 Z-4.687
N2236 X92.364 Y31.019 Z-4.695
N2237 X92.567 Y31.167 Z-4.704
N2238 X92.971 Y31.482 Z-4.722
N2239 X93.111 Y31.598 Z-4.728
N2240 X93.376 Y31.818 Z-4.741
N2241 X93.578 Y31.997 Z-4.75
N2242 X93.781 Y32.176 Z-4.759
N2243 X93.811 Y32.205 Z-4.761
N2244 X94.025 Y32.407 Z-4.771
N2245 X94.186 Y32.56 Z-4.779
N2246 X94.436 Y32.812 Z-4.791
N2247 X94.59 Y32.97 Z-4.799
N2248 X94.82 Y33.217 Z-4.811
N2249 X94.995 Y33.412 Z-4.82
N2250 X95.197 Y33.643 Z-4.831
N2251 X95.349 Y33.824 Z-4.839
N2252 X95.515 Y34.027 Z-4.848
N2253 X95.602 Y34.134 Z-4.853
N2254 X95.83 Y34.431 Z-4.866
N2255 X95.98 Y34.634 Z-4.875
N2256 X96.209 Y34.953 Z-4.888
N2257 X96.267 Y35.039 Z-4.892
N2258 X96.411 Y35.254 Z-4.901
N2259 X96.537 Y35.443 Z-4.909
N2260 X96.79 Y35.848 Z-4.926
N2261 X96.816 Y35.892 Z-4.928
N2262 X97.026 Y36.253 Z-4.942
N2263 X97.138 Y36.455 Z-4.95
N2264 X97.247 Y36.658 Z-4.958
N2265 X97.353 Y36.86 Z-4.966
N2266 X97.555 Y37.265 Z-4.982
N2267 X97.626 Y37.418 Z-4.988
N2268 X97.741 Y37.67 Z-4.998
N2269 X97.828 Y37.869 Z-5.005
N2270 X97.914 Y38.075 Z-5.013
N2271 X97.998 Y38.277 Z-5.021
N2272 X98.154 Y38.682 Z-5.036
N2273 X98.226 Y38.884 Z-5.043
N2274 X98.296 Y39.087 Z-5.051
N2275 X98.365 Y39.289 Z-5.058
N2276 X98.491 Y39.694 Z-5.073
N2277 X98.549 Y39.896 Z-5.08
N2278 X98.637 Y40.213 Z-5.092
N2279 X98.66 Y40.301 Z-5.095
N2280 X98.759 Y40.706 Z-5.11
N2281 X98.803 Y40.908 Z-5.117
N2282 X98.846 Y41.11 Z-5.124
N2283 X98.888 Y41.313 Z-5.131
N2284 X98.959 Y41.718 Z-5.146
N2285 X98.992 Y41.92 Z-5.153
N2286 X99.05 Y42.325 Z-5.167
N2287 X99.073 Y42.527 Z-5.174
N2288 X99.096 Y42.73 Z-5.181
N2289 X99.116 Y42.932 Z-5.188
N2290 X99.149 Y43.337 Z-5.202
N2291 X99.16 Y43.539 Z-5.21
N2292 X99.17 Y43.742 Z-5.217
N2293 X99.179 Y43.944 Z-5.224
N2294 X99.185 Y44.349 Z-5.238
N2295 Y44.551 Z-5.245
N2296 X99.179 Y44.956 Z-5.259
N2297 X99.17 Y45.158 Z-5.266
N2298 X99.16 Y45.361 Z-5.273
N2299 X99.149 Y45.563 Z-5.28
N2300 X99.116 Y45.968 Z-5.294
N2301 X99.096 Y46.17 Z-5.302
N2302 X99.073 Y46.373 Z-5.309
N2303 X99.05 Y46.575 Z-5.316
N2304 X98.992 Y46.98 Z-5.33
N2305 X98.959 Y47.182 Z-5.337
N2306 X98.888 Y47.587 Z-5.352
N2307 X98.846 Y47.79 Z-5.359
N2308 X98.803 Y47.992 Z-5.366
N2309 X98.759 Y48.194 Z-5.373
N2310 X98.66 Y48.599 Z-5.388
N2311 X98.637 Y48.687 Z-5.391
N2312 X98.549 Y49.004 Z-5.402
N2313 X98.491 Y49.206 Z-5.41
N2314 X98.365 Y49.611 Z-5.425
N2315 X98.296 Y49.813 Z-5.432
N2316 X98.226 Y50.016 Z-5.44
N2317 X98.154 Y50.218 Z-5.447
N2318 X97.998 Y50.623 Z-5.462
N2319 X97.914 Y50.825 Z-5.47
N2320 X97.828 Y51.031 Z-5.478
N2321 X97.741 Y51.23 Z-5.485
N2322 X97.626 Y51.482 Z-5.495
N2323 X97.555 Y51.635 Z-5.501
N2324 X97.353 Y52.04 Z-5.517
N2325 X97.247 Y52.242 Z-5.525
N2326 X97.138 Y52.445 Z-5.533
N2327 X97.026 Y52.647 Z-5.541
N2328 X96.816 Y53.008 Z-5.555
N2329 X96.79 Y53.052 Z-5.557
N2330 X96.537 Y53.457 Z-5.574
N2331 X96.411 Y53.646 Z-5.582
N2332 X96.267 Y53.861 Z-5.591
N2333 X96.209 Y53.947 Z-5.594
N2334 X95.98 Y54.266 Z-5.608
N2335 X95.83 Y54.469 Z-5.617
N2336 X95.602 Y54.766 Z-5.63
N2337 X95.515 Y54.873 Z-5.635
N2338 X95.349 Y55.076 Z-5.644
N2339 X95.197 Y55.257 Z-5.652
N2340 X94.995 Y55.488 Z-5.663
N2341 X94.82 Y55.683 Z-5.672
N2342 X94.59 Y55.93 Z-5.684
N2343 X94.436 Y56.088 Z-5.692
N2344 X94.186 Y56.34 Z-5.704
N2345 X94.025 Y56.493 Z-5.712
N2346 X93.811 Y56.695 Z-5.722
N2347 X93.781 Y56.724 Z-5.723
N2348 X93.578 Y56.903 Z-5.733
N2349 X93.376 Y57.082 Z-5.742
N2350 X93.111 Y57.302 Z-5.754
N2351 X92.971 Y57.418 Z-5.761
N2352 X92.567 Y57.733 Z-5.779
N2353 X92.364 Y57.881 Z-5.787
N2354 X92.162 Y58.028 Z-5.796
N2355 X92.041 Y58.112 Z-5.801
N2356 X91.744 Y58.314 Z-5.814
N2357 X91.555 Y58.437 Z-5.822
N2358 X91.353 Y58.565 Z-5.83
N2359 X91.15 Y58.69 Z-5.838
N2360 X90.948 Y58.809 Z-5.846
N2361 X90.756 Y58.921 Z-5.854
N2362 X90.341 Y59.149 Z-5.871
N2363 X90.138 Y59.253 Z-5.879
N2364 X89.936 Y59.356 Z-5.887
N2365 X89.734 Y59.454 Z-5.894
N2366 X89.531 Y59.549 Z-5.902
N2367 X89.329 Y59.642 Z-5.91
N2368 X88.924 Y59.816 Z-5.925
N2369 X88.722 Y59.897 Z-5.933
N2370 X88.52 Y59.977 Z-5.941
N2371 X88.317 Y60.054 Z-5.948
N2372 X87.912 Y60.198 Z-5.963
N2373 X87.71 Y60.264 Z-5.971
N2374 X87.48 Y60.338 Z-5.979
N2375 X87.305 Y60.391 Z-5.985
N2376 X86.901 Y60.507 Z-6
N2377 X86.772 Y60.54 Z-6.005
N2378 X86.496 Y60.61 Z-6.015
N2379 X86.294 Y60.659 Z-6.022
N2380 X85.889 Y60.747 Z-6.037
N2381 X85.687 Y60.786 Z-6.044
N2382 X85.484 Y60.824 Z-6.051
N2383 X85.282 Y60.86 Z-6.058
N2384 X84.877 Y60.922 Z-6.072
N2385 X84.704 Y60.945 Z-6.078
N2386 X84.472 Y60.973 Z-6.087
N2387 X84.27 Y60.997 Z-6.094
N2388 X83.865 Y61.033 Z-6.108
N2389 X83.663 Y61.048 Z-6.115
N2390 X83.258 Y61.071 Z-6.129
N2391 X83.056 Y61.077 Z-6.136
N2392 X82.854 Y61.082 Z-6.143
N2393 X82.651 Y61.086 Z-6.15
N2394 X82.246 Y61.083 Z-6.164
N2395 X82.044 Y61.078 Z-6.172
N2396 X81.639 Y61.061 Z-6.186
N2397 X81.437 Y61.047 Z-6.193
N2398 X81.235 Y61.033 Z-6.2
N2399 X81.032 Y61.016 Z-6.207
N2400 X80.628 Y60.974 Z-6.221
N2401 X80.425 Y60.949 Z-6.228
N2402 X80.223 Y60.921 Z-6.235
N2403 X80.021 Y60.893 Z-6.243
N2404 X79.616 Y60.824 Z-6.257
N2405 X79.413 Y60.787 Z-6.264
N2406 X79.009 Y60.705 Z-6.279
N2407 X78.806 Y60.658 Z-6.286
N2408 X78.604 Y60.61 Z-6.293
N2409 X78.402 Y60.56 Z-6.3
N2410 X77.997 Y60.451 Z-6.315
N2411 X77.795 Y60.39 Z-6.322
N2412 X77.592 Y60.329 Z-6.33
N2413 X77.39 Y60.265 Z-6.337
N2414 X76.985 Y60.128 Z-6.352
N2415 X76.783 Y60.053 Z-6.36
N2416 X76.464 Y59.933 Z-6.371
N2417 X76.378 Y59.898 Z-6.375
N2418 X75.972 Y59.731 Z-6.39
N2419 X75.771 Y59.641 Z-6.398
N2420 X75.522 Y59.529 Z-6.407
N2421 X75.366 Y59.454 Z-6.413
N2422 X75.105 Y59.326 Z-6.423
N2423 X74.962 Y59.254 Z-6.429
N2424 X74.557 Y59.04 Z-6.445
N2425 X74.355 Y58.926 Z-6.453
N2426 X74.152 Y58.81 Z-6.461
N2427 X73.998 Y58.719 Z-6.468
N2428 X73.668 Y58.517 Z-6.481
N2429 X73.545 Y58.437 Z-6.486
N2430 X73.343 Y58.304 Z-6.495
N2431 X73.14 Y58.169 Z-6.503
N2432 X72.772 Y57.909 Z-6.519
N2433 X72.736 Y57.883 Z-6.52
N2434 X72.331 Y57.578 Z-6.538
N2435 X72.239 Y57.505 Z-6.542
N2436 X71.926 Y57.252 Z-6.556
N2437 X71.748 Y57.1 Z-6.564
N2438 X71.512 Y56.897 Z-6.575
N2439 X71.319 Y56.721 Z-6.584
N2440 X71.291 Y56.695 Z-6.586
N2441 X71.117 Y56.535 Z-6.594
N2442 X70.866 Y56.29 Z-6.606
N2443 X70.712 Y56.139 Z-6.614
N2444 X70.469 Y55.885 Z-6.626
N2445 X70.307 Y55.713 Z-6.634
N2446 X70.098 Y55.481 Z-6.645
N2447 X69.922 Y55.278 Z-6.655
N2448 X69.7 Y55.016 Z-6.667
N2449 X69.586 Y54.873 Z-6.673
N2450 X69.425 Y54.671 Z-6.682
N2451 X69.296 Y54.503 Z-6.689
N2452 X69.093 Y54.23 Z-6.701
N2453 X68.974 Y54.064 Z-6.708
N2454 X68.834 Y53.861 Z-6.717
N2455 X68.696 Y53.659 Z-6.726
N2456 X68.486 Y53.335 Z-6.739
N2457 X68.434 Y53.254 Z-6.742
N2458 X68.19 Y52.849 Z-6.759
N2459 X68.081 Y52.658 Z-6.767
N2460 X67.962 Y52.445 Z-6.775
N2461 X67.879 Y52.293 Z-6.781
N2462 X67.677 Y51.903 Z-6.797
N2463 X67.644 Y51.837 Z-6.799
N2464 X67.45 Y51.433 Z-6.815
N2465 X67.36 Y51.23 Z-6.823
N2466 X67.271 Y51.028 Z-6.83
N2467 X67.185 Y50.825 Z-6.838
N2468 X67.022 Y50.421 Z-6.853
N2469 X66.948 Y50.218 Z-6.861
N2470 X66.867 Y49.999 Z-6.869
N2471 X66.803 Y49.813 Z-6.876
N2472 X66.736 Y49.611 Z-6.883
N2473 X66.67 Y49.409 Z-6.891
N2474 X66.55 Y49.004 Z-6.905
N2475 X66.494 Y48.802 Z-6.913
N2476 X66.388 Y48.397 Z-6.927
N2477 X66.342 Y48.194 Z-6.935
N2478 X66.296 Y47.992 Z-6.942
N2479 X66.26 Y47.826 Z-6.948
N2480 X66.175 Y47.385 Z-6.963
N2481 X66.141 Y47.182 Z-6.971
N2482 X66.109 Y46.98 Z-6.978
N2483 X66.078 Y46.778 Z-6.985
N2484 X66.026 Y46.373 Z-6.999
N2485 X66.004 Y46.17 Z-7.006
N2486 X65.985 Y45.968 Z-7.013
N2487 X65.966 Y45.766 Z-7.02
N2488 X65.94 Y45.361 Z-7.035
N2489 X65.93 Y45.158 Z-7.042
N2490 X65.917 Y44.754 Z-7.056
N2491 X65.916 Y44.551 Z-7.063
N2492 Y44.349 Z-7.07
N2493 X65.917 Y44.146 Z-7.077
N2494 X65.93 Y43.742 Z-7.091
N2495 X65.94 Y43.539 Z-7.098
N2496 X65.964 Y43.157 Z-7.112
N2497 X65.966 Y43.134
N2498 X65.985 Y42.932
N2499 X66.004 Y42.73
N2500 X66.026 Y42.527
N2501 X66.058 Y42.277
N2502 X66.078 Y42.122
N2503 X66.109 Y41.92
N2504 X66.141 Y41.718
N2505 X66.175 Y41.515
N2506 X66.26 Y41.074
N2507 X66.296 Y40.908
N2508 X66.342 Y40.706
N2509 X66.388 Y40.503
N2510 X66.494 Y40.098
N2511 X66.55 Y39.896
N2512 X66.67 Y39.491
N2513 X66.736 Y39.289
N2514 X66.803 Y39.087
N2515 X66.867 Y38.901
N2516 X66.948 Y38.682
N2517 X67.022 Y38.479
N2518 X67.185 Y38.075
N2519 X67.271 Y37.872
N2520 X67.36 Y37.67
N2521 X67.45 Y37.467
N2522 X67.644 Y37.063
N2523 X67.677 Y36.997
N2524 X67.879 Y36.607
N2525 X67.962 Y36.455
N2526 X68.081 Y36.242
N2527 X68.19 Y36.051
N2528 X68.434 Y35.646
N2529 X68.486 Y35.565
N2530 X68.696 Y35.241
N2531 X68.834 Y35.039
N2532 X68.974 Y34.836
N2533 X69.093 Y34.67
N2534 X69.296 Y34.397
N2535 X69.425 Y34.229
N2536 X69.586 Y34.027
N2537 X69.7 Y33.884
N2538 X69.922 Y33.622
N2539 X70.098 Y33.419
N2540 X70.307 Y33.187
N2541 X70.469 Y33.015
N2542 X70.712 Y32.761
N2543 X70.866 Y32.61
N2544 X71.117 Y32.365
N2545 X71.291 Y32.205
N2546 X71.319 Y32.179
N2547 X71.512 Y32.003
N2548 X71.748 Y31.8
N2549 X71.926 Y31.648
N2550 X72.239 Y31.395
N2551 X72.331 Y31.322
N2552 X72.736 Y31.017
N2553 X72.772 Y30.991
N2554 X73.14 Y30.731
N2555 X73.343 Y30.596
N2556 X73.545 Y30.463
N2557 X73.668 Y30.383
N2558 X73.998 Y30.181
N2559 X74.152 Y30.09
N2560 X74.355 Y29.974
N2561 X74.557 Y29.86
N2562 X74.962 Y29.646
N2563 X75.105 Y29.574
N2564 X75.366 Y29.446
N2565 X75.522 Y29.371
N2566 X75.771 Y29.259
N2567 X75.972 Y29.169
N2568 X76.378 Y29.002
N2569 X76.464 Y28.967
N2570 X76.783 Y28.847
N2571 X76.985 Y28.772
N2572 X77.39 Y28.635
N2573 X77.592 Y28.571
N2574 X77.795 Y28.51
N2575 X77.997 Y28.449
N2576 X78.402 Y28.34
N2577 X78.604 Y28.29
N2578 X78.806 Y28.242
N2579 X79.009 Y28.195
N2580 X79.413 Y28.113
N2581 X79.616 Y28.076
N2582 X80.021 Y28.007
N2583 X80.223 Y27.979
N2584 X80.425 Y27.951
N2585 X80.628 Y27.926
N2586 X81.032 Y27.884
N2587 X81.235 Y27.867
N2588 X81.437 Y27.853
N2589 X81.639 Y27.839
N2590 X82.044 Y27.822
N2591 X82.246 Y27.817
N2592 X82.651 Y27.814
N2593 X82.854 Y27.818
N2594 X83.056 Y27.823
N2595 X83.258 Y27.829
N2596 X83.663 Y27.852
N2597 X83.865 Y27.867
N2598 X84.27 Y27.903
N2599 X84.472 Y27.927
N2600 X84.704 Y27.955
N2601 X84.877 Y27.978
N2602 X85.282 Y28.04
N2603 X85.484 Y28.076
N2604 X85.687 Y28.114
N2605 X85.889 Y28.153
N2606 X86.294 Y28.241
N2607 X86.496 Y28.29
N2608 X86.772 Y28.36
N2609 X86.901 Y28.393
N2610 X87.305 Y28.509
N2611 X87.48 Y28.562
N2612 X87.71 Y28.636
N2613 X87.912 Y28.702
N2614 X88.317 Y28.846
N2615 X88.52 Y28.923
N2616 X88.722 Y29.003
N2617 X88.924 Y29.084
N2618 X89.329 Y29.258
N2619 X89.531 Y29.351
N2620 X89.734 Y29.446
N2621 X89.936 Y29.544
N2622 X90.138 Y29.647
N2623 X90.341 Y29.751
N2624 X90.756 Y29.979
N2625 X90.948 Y30.091
N2626 X91.15 Y30.21
N2627 X91.353 Y30.335
N2628 X91.555 Y30.463
N2629 X91.744 Y30.586
N2630 X92.041 Y30.788
N2631 X92.162 Y30.872
N2632 X92.364 Y31.019
N2633 X92.567 Y31.167
N2634 X92.971 Y31.482
N2635 X93.111 Y31.598
N2636 X93.376 Y31.818
N2637 X93.578 Y31.997
N2638 X93.781 Y32.176
N2639 X93.811 Y32.205
N2640 X94.025 Y32.407
N2641 X94.186 Y32.56
N2642 X94.436 Y32.812
N2643 X94.59 Y32.97
N2644 X94.82 Y33.217
N2645 X94.995 Y33.412
N2646 X95.197 Y33.643
N2647 X95.349 Y33.824
N2648 X95.515 Y34.027
N2649 X95.602 Y34.134
N2650 X95.83 Y34.431
N2651 X95.98 Y34.634
N2652 X96.209 Y34.953
N2653 X96.267 Y35.039
N2654 X96.411 Y35.254
N2655 X96.537 Y35.443
N2656 X96.79 Y35.848
N2657 X96.816 Y35.892
N2658 X97.026 Y36.253
N2659 X97.138 Y36.455
N2660 X97.247 Y36.658
N2661 X97.353 Y36.86
N2662 X97.555 Y37.265
N2663 X97.626 Y37.418
N2664 X97.741 Y37.67
N2665 X97.828 Y37.869
N2666 X97.914 Y38.075
N2667 X97.998 Y38.277
N2668 X98.154 Y38.682
N2669 X98.226 Y38.884
N2670 X98.296 Y39.087
N2671 X98.365 Y39.289
N2672 X98.491 Y39.694
N2673 X98.549 Y39.896
N2674 X98.637 Y40.213
N2675 X98.66 Y40.301
N2676 X98.759 Y40.706
N2677 X98.803 Y40.908
N2678 X98.846 Y41.11
N2679 X98.888 Y41.313
N2680 X98.959 Y41.718
N2681 X98.992 Y41.92
N2682 X99.05 Y42.325
N2683 X99.073 Y42.527
N2684 X99.096 Y42.73
N2685 X99.116 Y42.932
N2686 X99.149 Y43.337
N2687 X99.16 Y43.539
N2688 X99.17 Y43.742
N2689 X99.179 Y43.944
N2690 X99.185 Y44.349
N2691 Y44.551
N2692 X99.179 Y44.956
N2693 X99.17 Y45.158
N2694 X99.16 Y45.361
N2695 X99.149 Y45.563
N2696 X99.116 Y45.968
N2697 X99.096 Y46.17
N2698 X99.073 Y46.373
N2699 X99.05 Y46.575
N2700 X98.992 Y46.98
N2701 X98.959 Y47.182
N2702 X98.888 Y47.587
N2703 X98.846 Y47.79
N2704 X98.803 Y47.992
N2705 X98.759 Y48.194
N2706 X98.66 Y48.599
N2707 X98.637 Y48.687
N2708 X98.549 Y49.004
N2709 X98.491 Y49.206
N2710 X98.365 Y49.611
N2711 X98.296 Y49.813
N2712 X98.226 Y50.016
N2713 X98.154 Y50.218
N2714 X97.998 Y50.623
N2715 X97.914 Y50.825
N2716 X97.828 Y51.031
N2717 X97.741 Y51.23
N2718 X97.626 Y51.482
N2719 X97.555 Y51.635
N2720 X97.353 Y52.04
N2721 X97.247 Y52.242
N2722 X97.138 Y52.445
N2723 X97.026 Y52.647
N2724 X96.816 Y53.008
N2725 X96.79 Y53.052
N2726 X96.537 Y53.457
N2727 X96.411 Y53.646
N2728 X96.267 Y53.861
N2729 X96.209 Y53.947
N2730 X95.98 Y54.266
N2731 X95.83 Y54.469
N2732 X95.602 Y54.766
N2733 X95.515 Y54.873
N2734 X95.349 Y55.076
N2735 X95.197 Y55.257
N2736 X94.995 Y55.488
N2737 X94.82 Y55.683
N2738 X94.59 Y55.93
N2739 X94.436 Y56.088
N2740 X94.186 Y56.34
N2741 X94.025 Y56.493
N2742 X93.811 Y56.695
N2743 X93.781 Y56.724
N2744 X93.578 Y56.903
N2745 X93.376 Y57.082
N2746 X93.111 Y57.302
N2747 X92.971 Y57.418
N2748 X92.567 Y57.733
N2749 X92.364 Y57.881
N2750 X92.162 Y58.028
N2751 X92.041 Y58.112
N2752 X91.744 Y58.314
N2753 X91.555 Y58.437
N2754 X91.353 Y58.565
N2755 X91.15 Y58.69
N2756 X90.948 Y58.809
N2757 X90.756 Y58.921
N2758 X90.341 Y59.149
N2759 X90.138 Y59.253
N2760 X89.936 Y59.356
N2761 X89.734 Y59.454
N2762 X89.531 Y59.549
N2763 X89.329 Y59.642
N2764 X88.924 Y59.816
N2765 X88.722 Y59.897
N2766 X88.52 Y59.977
N2767 X88.317 Y60.054
N2768 X87.912 Y60.198
N2769 X87.71 Y60.264
N2770 X87.48 Y60.338
N2771 X87.305 Y60.391
N2772 X86.901 Y60.507
N2773 X86.772 Y60.54
N2774 X86.496 Y60.61
N2775 X86.294 Y60.659
N2776 X85.889 Y60.747
N2777 X85.687 Y60.786
N2778 X85.484 Y60.824
N2779 X85.282 Y60.86
N2780 X84.877 Y60.922
N2781 X84.704 Y60.945
N2782 X84.472 Y60.973
N2783 X84.27 Y60.997
N2784 X83.865 Y61.033
N2785 X83.663 Y61.048
N2786 X83.258 Y61.071
N2787 X83.056 Y61.077
N2788 X82.854 Y61.082
N2789 X82.651 Y61.086
N2790 X82.246 Y61.083
N2791 X82.044 Y61.078
N2792 X81.639 Y61.061
N2793 X81.437 Y61.047
N2794 X81.235 Y61.033
N2795 X81.032 Y61.016
N2796 X80.628 Y60.974
N2797 X80.425 Y60.949
N2798 X80.223 Y60.921
N2799 X80.021 Y60.893
N2800 X79.616 Y60.824
N2801 X79.413 Y60.787
N2802 X79.009 Y60.705
N2803 X78.806 Y60.658
N2804 X78.604 Y60.61
N2805 X78.402 Y60.56
N2806 X77.997 Y60.451
N2807 X77.795 Y60.39
N2808 X77.592 Y60.329
N2809 X77.39 Y60.265
N2810 X76.985 Y60.128
N2811 X76.783 Y60.053
N2812 X76.464 Y59.933
N2813 X76.378 Y59.898
N2814 X75.972 Y59.731
N2815 X75.771 Y59.641
N2816 X75.522 Y59.529
N2817 X75.366 Y59.454
N2818 X75.105 Y59.326
N2819 X74.962 Y59.254
N2820 X74.557 Y59.04
N2821 X74.355 Y58.926
N2822 X74.152 Y58.81
N2823 X73.998 Y58.719
N2824 X73.668 Y58.517
N2825 X73.545 Y58.437
N2826 X73.343 Y58.304
N2827 X73.14 Y58.169
N2828 X72.772 Y57.909
N2829 X72.736 Y57.883
N2830 X72.331 Y57.578
N2831 X72.239 Y57.505
N2832 X71.926 Y57.252
N2833 X71.748 Y57.1
N2834 X71.512 Y56.897
N2835 X71.319 Y56.721
N2836 X71.291 Y56.695
N2837 X71.117 Y56.535
N2838 X70.866 Y56.29
N2839 X70.712 Y56.139
N2840 X70.469 Y55.885
N2841 X70.307 Y55.713
N2842 X70.098 Y55.481
N2843 X69.922 Y55.278
N2844 X69.7 Y55.016
N2845 X69.586 Y54.873
N2846 X69.425 Y54.671
N2847 X69.296 Y54.503
N2848 X69.093 Y54.23
N2849 X68.974 Y54.064
N2850 X68.834 Y53.861
N2851 X68.696 Y53.659
N2852 X68.486 Y53.335
N2853 X68.434 Y53.254
N2854 X68.19 Y52.849
N2855 X68.081 Y52.658
N2856 X67.962 Y52.445
N2857 X67.879 Y52.293
N2858 X67.677 Y51.903
N2859 X67.644 Y51.837
N2860 X67.45 Y51.433
N2861 X67.36 Y51.23
N2862 X67.271 Y51.028
N2863 X67.185 Y50.825
N2864 X67.022 Y50.421
N2865 X66.948 Y50.218
N2866 X66.867 Y49.999
N2867 X66.803 Y49.813
N2868 X66.736 Y49.611
N2869 X66.67 Y49.409
N2870 X66.55 Y49.004
N2871 X66.494 Y48.802
N2872 X66.388 Y48.397
N2873 X66.342 Y48.194
N2874 X66.296 Y47.992
N2875 X66.26 Y47.826
N2876 X66.175 Y47.385
N2877 X66.141 Y47.182
N2878 X66.109 Y46.98
N2879 X66.078 Y46.778
N2880 X66.026 Y46.373
N2881 X66.004 Y46.17
N2882 X65.985 Y45.968
N2883 X65.966 Y45.766
N2884 X65.94 Y45.361
N2885 X65.93 Y45.158
N2886 X65.917 Y44.754
N2887 X65.916 Y44.551
N2888 Y44.349
N2889 X65.917 Y44.146
N2890 X65.93 Y43.742
N2891 X65.94 Y43.539
N2892 X65.966 Y43.134
N2893 G0 Z15.24
(Contour1 (2))
N2895 X60.392 Y42.75
N2896 Z15.24
N2897 Z7.35
N2898 G1 Z-3.175 F508
N2899 X60.378 Y42.932 F1016
N2900 X60.355 Y43.337
N2901 X60.344 Y43.539
N2902 X60.333 Y43.944
N2903 X60.328 Y44.146
N2904 Y44.754
N2905 X60.333 Y44.956
N2906 X60.344 Y45.361
N2907 X60.355 Y45.563
N2908 X60.378 Y45.968
N2909 X60.392 Y46.15
N2910 X60.428 Y46.575
N2911 X60.449 Y46.778
N2912 X60.495 Y47.182
N2913 X60.521 Y47.385
N2914 X60.579 Y47.79
N2915 X60.594 Y47.896
N2916 X60.68 Y48.397
N2917 X60.717 Y48.599
N2918 X60.798 Y49.004
N2919 X60.841 Y49.206
N2920 X60.934 Y49.611
N2921 X60.983 Y49.813
N2922 X61.088 Y50.218
N2923 X61.144 Y50.421
N2924 X61.261 Y50.825
N2925 X61.322 Y51.028
N2926 X61.452 Y51.433
N2927 X61.52 Y51.635
N2928 X61.663 Y52.04
N2929 X61.738 Y52.242
N2930 X61.893 Y52.647
N2931 X61.975 Y52.849
N2932 X62.144 Y53.254
N2933 X62.213 Y53.41
N2934 X62.325 Y53.659
N2935 X62.416 Y53.859
N2936 X62.618 Y54.277
N2937 X62.712 Y54.469
N2938 X62.923 Y54.873
N2939 X63.023 Y55.06
N2940 X63.257 Y55.481
N2941 X63.375 Y55.683
N2942 X63.495 Y55.885
N2943 X63.617 Y56.088
N2944 X63.872 Y56.493
N2945 X64.005 Y56.695
N2946 X64.277 Y57.1
N2947 X64.421 Y57.302
N2948 X64.641 Y57.611
N2949 X64.714 Y57.707
N2950 X65.02 Y58.112
N2951 X65.046 Y58.144
N2952 X65.345 Y58.517
N2953 X65.451 Y58.646
N2954 X65.685 Y58.921
N2955 X65.856 Y59.12
N2956 X66.223 Y59.529
N2957 X66.26 Y59.568
N2958 X66.665 Y59.993
N2959 X66.808 Y60.136
N2960 X67.07 Y60.396
N2961 X67.222 Y60.54
N2962 X67.474 Y60.778
N2963 X67.658 Y60.945
N2964 X67.886 Y61.148
N2965 X68.081 Y61.319
N2966 X68.486 Y61.658
N2967 X68.607 Y61.755
N2968 X68.891 Y61.98
N2969 X69.093 Y62.136
N2970 X69.498 Y62.438
N2971 X69.677 Y62.564
N2972 X69.965 Y62.767
N2973 X70.105 Y62.862
N2974 X70.51 Y63.13
N2975 X70.574 Y63.172
N2976 X70.914 Y63.383
N2977 X71.117 Y63.508
N2978 X71.582 Y63.779
N2979 X71.724 Y63.858
N2980 X72.129 Y64.079
N2981 X72.33 Y64.184
N2982 X72.533 Y64.287
N2983 X72.727 Y64.386
N2984 X73.153 Y64.588
N2985 X73.343 Y64.677
N2986 X73.747 Y64.856
N2987 X73.95 Y64.942
N2988 X74.355 Y65.107
N2989 X74.557 Y65.186
N2990 X74.962 Y65.338
N2991 X75.13 Y65.398
N2992 X75.569 Y65.549
N2993 X75.728 Y65.6
N2994 X76.176 Y65.74
N2995 X76.378 Y65.799
N2996 X76.783 Y65.913
N2997 X76.985 Y65.965
N2998 X77.39 Y66.067
N2999 X77.592 Y66.113
N3000 X78.019 Y66.208
N3001 X78.199 Y66.243
N3002 X78.604 Y66.321
N3003 X78.806 Y66.355
N3004 X79.211 Y66.422
N3005 X79.413 Y66.451
N3006 X79.818 Y66.505
N3007 X80.021 Y66.529
N3008 X80.425 Y66.572
N3009 X80.628 Y66.59
N3010 X81.032 Y66.622
N3011 X81.235 Y66.635
N3012 X81.639 Y66.655
N3013 X81.842 Y66.662
N3014 X82.246 Y66.671
N3015 X82.449 Y66.674
N3016 X82.854 Y66.671
N3017 X83.056 Y66.668
N3018 X83.461 Y66.654
N3019 X83.663 Y66.647
N3020 X84.27 Y66.608
N3021 X84.472 Y66.589
N3022 X84.877 Y66.552
N3023 X85.079 Y66.528
N3024 X85.484 Y66.48
N3025 X85.687 Y66.45
N3026 X86.091 Y66.39
N3027 X86.294 Y66.355
N3028 X86.698 Y66.283
N3029 X86.901 Y66.243
N3030 X87.305 Y66.159
N3031 X87.508 Y66.113
N3032 X87.963 Y66.005
N3033 X88.115 Y65.965
N3034 X88.52 Y65.857
N3035 X88.709 Y65.803
N3036 X89.127 Y65.679
N3037 X89.329 Y65.614
N3038 X89.734 Y65.481
N3039 X89.936 Y65.41
N3040 X90.341 Y65.264
N3041 X90.517 Y65.196
N3042 X90.745 Y65.106
N3043 X90.948 Y65.027
N3044 X91.504 Y64.791
N3045 X91.555 Y64.768
N3046 X91.96 Y64.583
N3047 X92.162 Y64.488
N3048 X92.567 Y64.288
N3049 X92.769 Y64.184
N3050 X93.174 Y63.971
N3051 X93.376 Y63.857
N3052 X93.578 Y63.743
N3053 X93.781 Y63.628
N3054 X94.202 Y63.374
N3055 X94.388 Y63.258
N3056 X94.793 Y62.998
N3057 X94.837 Y62.969
N3058 X95.197 Y62.723
N3059 X95.4 Y62.582
N3060 X95.804 Y62.289
N3061 X95.975 Y62.16
N3062 X96.238 Y61.957
N3063 X96.411 Y61.821
N3064 X96.816 Y61.491
N3065 X96.98 Y61.35
N3066 X97.221 Y61.143
N3067 X97.423 Y60.962
N3068 X97.663 Y60.743
N3069 X97.828 Y60.589
N3070 X98.088 Y60.338
N3071 X98.233 Y60.197
N3072 X98.637 Y59.784
N3073 X98.687 Y59.731
N3074 X99.061 Y59.326
N3075 X99.239 Y59.124
N3076 X99.447 Y58.886
N3077 X99.587 Y58.719
N3078 X99.851 Y58.399
N3079 X99.919 Y58.314
N3080 X100.256 Y57.882
N3081 X100.386 Y57.707
N3082 X100.534 Y57.505
N3083 X100.661 Y57.331
N3084 X100.961 Y56.897
N3085 X101.066 Y56.74
N3086 X101.268 Y56.43
N3087 X101.358 Y56.29
N3088 X101.605 Y55.885
N3089 X101.673 Y55.775
N3090 X101.958 Y55.278
N3091 X102.068 Y55.076
N3092 X102.177 Y54.873
N3093 X102.28 Y54.681
N3094 X102.488 Y54.266
N3095 X102.587 Y54.064
N3096 X102.776 Y53.659
N3097 X102.866 Y53.457
N3098 X103.042 Y53.052
N3099 X103.089 Y52.938
N3100 X103.292 Y52.432
N3101 X103.362 Y52.242
N3102 X103.511 Y51.837
N3103 X103.579 Y51.635
N3104 X103.715 Y51.23
N3105 X103.777 Y51.028
N3106 X103.839 Y50.825
N3107 X103.899 Y50.628
N3108 X104.011 Y50.218
N3109 X104.066 Y50.016
N3110 X104.165 Y49.611
N3111 X104.214 Y49.409
N3112 X104.301 Y49.004
N3113 X104.344 Y48.802
N3114 X104.457 Y48.194
N3115 X104.489 Y47.992
N3116 X104.552 Y47.587
N3117 X104.578 Y47.385
N3118 X104.63 Y46.98
N3119 X104.651 Y46.778
N3120 X104.691 Y46.373
N3121 X104.706 Y46.17
N3122 X104.735 Y45.766
N3123 X104.745 Y45.563
N3124 X104.762 Y45.158
N3125 X104.768 Y44.956
N3126 X104.773 Y44.551
N3127 Y44.349
N3128 X104.768 Y43.944
N3129 X104.762 Y43.742
N3130 X104.745 Y43.337
N3131 X104.735 Y43.134
N3132 X104.706 Y42.73
N3133 X104.691 Y42.527
N3134 X104.651 Y42.122
N3135 X104.63 Y41.92
N3136 X104.578 Y41.515
N3137 X104.552 Y41.313
N3138 X104.489 Y40.908
N3139 X104.457 Y40.706
N3140 X104.344 Y40.098
N3141 X104.303 Y39.906
N3142 X104.214 Y39.491
N3143 X104.165 Y39.289
N3144 X104.066 Y38.884
N3145 X104.011 Y38.682
N3146 X103.899 Y38.272
N3147 X103.839 Y38.075
N3148 X103.777 Y37.872
N3149 X103.715 Y37.67
N3150 X103.579 Y37.265
N3151 X103.511 Y37.063
N3152 X103.362 Y36.658
N3153 X103.292 Y36.468
N3154 X103.089 Y35.962
N3155 X103.042 Y35.848
N3156 X102.866 Y35.443
N3157 X102.776 Y35.241
N3158 X102.587 Y34.836
N3159 X102.488 Y34.634
N3160 X102.28 Y34.219
N3161 X102.177 Y34.027
N3162 X102.068 Y33.824
N3163 X101.958 Y33.622
N3164 X101.673 Y33.125
N3165 X101.605 Y33.015
N3166 X101.358 Y32.61
N3167 X101.268 Y32.47
N3168 X101.066 Y32.16
N3169 X100.961 Y32.003
N3170 X100.661 Y31.569
N3171 X100.534 Y31.395
N3172 X100.386 Y31.193
N3173 X100.256 Y31.018
N3174 X99.919 Y30.586
N3175 X99.851 Y30.501
N3176 X99.587 Y30.181
N3177 X99.447 Y30.014
N3178 X99.239 Y29.776
N3179 X99.061 Y29.574
N3180 X98.687 Y29.169
N3181 X98.637 Y29.116
N3182 X98.233 Y28.703
N3183 X98.088 Y28.562
N3184 X97.828 Y28.311
N3185 X97.663 Y28.157
N3186 X97.423 Y27.938
N3187 X97.221 Y27.757
N3188 X96.98 Y27.55
N3189 X96.816 Y27.409
N3190 X96.411 Y27.079
N3191 X96.238 Y26.943
N3192 X95.975 Y26.74
N3193 X95.804 Y26.611
N3194 X95.4 Y26.318
N3195 X95.197 Y26.177
N3196 X94.837 Y25.931
N3197 X94.793 Y25.902
N3198 X94.388 Y25.642
N3199 X94.202 Y25.526
N3200 X93.781 Y25.272
N3201 X93.578 Y25.157
N3202 X93.376 Y25.043
N3203 X93.174 Y24.929
N3204 X92.769 Y24.716
N3205 X92.567 Y24.612
N3206 X92.162 Y24.412
N3207 X91.96 Y24.317
N3208 X91.555 Y24.132
N3209 X91.504 Y24.109
N3210 X90.948 Y23.873
N3211 X90.745 Y23.794
N3212 X90.517 Y23.704
N3213 X90.341 Y23.636
N3214 X89.936 Y23.49
N3215 X89.734 Y23.419
N3216 X89.329 Y23.286
N3217 X89.127 Y23.221
N3218 X88.709 Y23.097
N3219 X88.52 Y23.043
N3220 X88.115 Y22.935
N3221 X87.963 Y22.895
N3222 X87.508 Y22.787
N3223 X87.305 Y22.741
N3224 X86.901 Y22.657
N3225 X86.698 Y22.617
N3226 X86.294 Y22.545
N3227 X86.091 Y22.51
N3228 X85.687 Y22.45
N3229 X85.484 Y22.42
N3230 X85.079 Y22.372
N3231 X84.877 Y22.348
N3232 X84.675 Y22.329
N3233 X84.27 Y22.292
N3234 X83.663 Y22.253
N3235 X83.461 Y22.246
N3236 X83.056 Y22.232
N3237 X82.854 Y22.229
N3238 X82.449 Y22.226
N3239 X82.246 Y22.229
N3240 X81.842 Y22.238
N3241 X81.639 Y22.245
N3242 X81.235 Y22.265
N3243 X81.032 Y22.278
N3244 X80.628 Y22.31
N3245 X80.425 Y22.328
N3246 X80.021 Y22.371
N3247 X79.818 Y22.395
N3248 X79.413 Y22.449
N3249 X79.211 Y22.478
N3250 X78.806 Y22.545
N3251 X78.604 Y22.579
N3252 X78.199 Y22.657
N3253 X78.019 Y22.692
N3254 X77.592 Y22.787
N3255 X77.39 Y22.833
N3256 X76.985 Y22.935
N3257 X76.783 Y22.987
N3258 X76.378 Y23.101
N3259 X76.176 Y23.16
N3260 X75.728 Y23.3
N3261 X75.569 Y23.351
N3262 X75.13 Y23.502
N3263 X74.962 Y23.562
N3264 X74.557 Y23.714
N3265 X74.355 Y23.793
N3266 X73.95 Y23.958
N3267 X73.747 Y24.044
N3268 X73.343 Y24.223
N3269 X73.153 Y24.312
N3270 X72.727 Y24.514
N3271 X72.533 Y24.613
N3272 X72.331 Y24.716
N3273 X72.129 Y24.821
N3274 X71.724 Y25.042
N3275 X71.582 Y25.121
N3276 X71.117 Y25.392
N3277 X70.914 Y25.517
N3278 X70.574 Y25.728
N3279 X70.51 Y25.77
N3280 X70.105 Y26.038
N3281 X69.965 Y26.133
N3282 X69.677 Y26.336
N3283 X69.498 Y26.462
N3284 X69.093 Y26.764
N3285 X68.891 Y26.92
N3286 X68.607 Y27.145
N3287 X68.486 Y27.242
N3288 X68.081 Y27.581
N3289 X67.886 Y27.752
N3290 X67.658 Y27.955
N3291 X67.474 Y28.122
N3292 X67.222 Y28.36
N3293 X67.07 Y28.504
N3294 X66.808 Y28.764
N3295 X66.665 Y28.907
N3296 X66.26 Y29.332
N3297 X66.223 Y29.371
N3298 X65.856 Y29.78
N3299 X65.685 Y29.979
N3300 X65.451 Y30.254
N3301 X65.345 Y30.383
N3302 X65.046 Y30.756
N3303 X65.02 Y30.788
N3304 X64.714 Y31.193
N3305 X64.641 Y31.289
N3306 X64.421 Y31.598
N3307 X64.277 Y31.8
N3308 X64.005 Y32.205
N3309 X63.872 Y32.407
N3310 X63.617 Y32.812
N3311 X63.495 Y33.015
N3312 X63.375 Y33.217
N3313 X63.257 Y33.419
N3314 X63.023 Y33.84
N3315 X62.923 Y34.027
N3316 X62.712 Y34.431
N3317 X62.618 Y34.623
N3318 X62.416 Y35.041
N3319 X62.325 Y35.241
N3320 X62.213 Y35.49
N3321 X62.144 Y35.646
N3322 X61.975 Y36.051
N3323 X61.893 Y36.253
N3324 X61.738 Y36.658
N3325 X61.663 Y36.86
N3326 X61.52 Y37.265
N3327 X61.452 Y37.467
N3328 X61.322 Y37.872
N3329 X61.261 Y38.075
N3330 X61.144 Y38.479
N3331 X61.088 Y38.682
N3332 X60.983 Y39.087
N3333 X60.934 Y39.289
N3334 X60.841 Y39.694
N3335 X60.798 Y39.896
N3336 X60.717 Y40.301
N3337 X60.68 Y40.503
N3338 X60.594 Y41.004
N3339 X60.579 Y41.11
N3340 X60.521 Y41.515
N3341 X60.495 Y41.718
N3342 X60.449 Y42.122
N3343 X60.428 Y42.325
N3344 X60.392 Y42.75
N3345 X60.389 Y42.789 Z-3.169
N3346 X60.386 Y42.823 Z-3.151
N3347 X60.383 Y42.851 Z-3.123
N3348 X60.382 Y42.869 Z-3.088
N3349 X60.381 Y42.875 Z-3.049
N3350 G0 Z7.35
N3351 X65.966 Y43.134
N3352 Z4.777
N3353 G1 Z-7.112 F508
N3354 X65.94 Y43.539 F1016
N3355 X65.93 Y43.742
N3356 X65.917 Y44.146
N3357 X65.916 Y44.349
N3358 Y44.551
N3359 X65.917 Y44.754
N3360 X65.93 Y45.158
N3361 X65.94 Y45.361
N3362 X65.966 Y45.766
N3363 X65.985 Y45.968
N3364 X66.004 Y46.17
N3365 X66.026 Y46.373
N3366 X66.078 Y46.778
N3367 X66.109 Y46.98
N3368 X66.141 Y47.182
N3369 X66.175 Y47.385
N3370 X66.26 Y47.826
N3371 X66.296 Y47.992
N3372 X66.342 Y48.194
N3373 X66.388 Y48.397
N3374 X66.494 Y48.802
N3375 X66.55 Y49.004
N3376 X66.67 Y49.409
N3377 X66.736 Y49.611
N3378 X66.803 Y49.813
N3379 X66.867 Y49.999
N3380 X66.948 Y50.218
N3381 X67.022 Y50.421
N3382 X67.185 Y50.825
N3383 X67.271 Y51.028
N3384 X67.36 Y51.23
N3385 X67.45 Y51.433
N3386 X67.644 Y51.837
N3387 X67.677 Y51.903
N3388 X67.879 Y52.293
N3389 X67.962 Y52.445
N3390 X68.081 Y52.658
N3391 X68.19 Y52.849
N3392 X68.434 Y53.254
N3393 X68.486 Y53.335
N3394 X68.696 Y53.659
N3395 X68.834 Y53.861
N3396 X68.974 Y54.064
N3397 X69.093 Y54.23
N3398 X69.296 Y54.503
N3399 X69.425 Y54.671
N3400 X69.586 Y54.873
N3401 X69.7 Y55.016
N3402 X69.922 Y55.278
N3403 X70.098 Y55.481
N3404 X70.307 Y55.713
N3405 X70.469 Y55.885
N3406 X70.712 Y56.139
N3407 X70.866 Y56.29
N3408 X71.117 Y56.535
N3409 X71.291 Y56.695
N3410 X71.319 Y56.721
N3411 X71.512 Y56.897
N3412 X71.748 Y57.1
N3413 X71.926 Y57.252
N3414 X72.239 Y57.505
N3415 X72.331 Y57.578
N3416 X72.736 Y57.883
N3417 X72.772 Y57.909
N3418 X73.14 Y58.169
N3419 X73.343 Y58.304
N3420 X73.545 Y58.437
N3421 X73.668 Y58.517
N3422 X73.998 Y58.719
N3423 X74.152 Y58.81
N3424 X74.355 Y58.926
N3425 X74.557 Y59.04
N3426 X74.962 Y59.254
N3427 X75.105 Y59.326
N3428 X75.366 Y59.454
N3429 X75.522 Y59.529
N3430 X75.771 Y59.641
N3431 X75.972 Y59.731
N3432 X76.378 Y59.898
N3433 X76.464 Y59.933
N3434 X76.783 Y60.053
N3435 X76.985 Y60.128
N3436 X77.39 Y60.265
N3437 X77.592 Y60.329
N3438 X77.795 Y60.39
N3439 X77.997 Y60.451
N3440 X78.402 Y60.56
N3441 X78.604 Y60.61
N3442 X78.806 Y60.658
N3443 X79.009 Y60.705
N3444 X79.413 Y60.787
N3445 X79.616 Y60.824
N3446 X80.021 Y60.893
N3447 X80.223 Y60.921
N3448 X80.425 Y60.949
N3449 X80.628 Y60.974
N3450 X81.032 Y61.016
N3451 X81.235 Y61.033
N3452 X81.437 Y61.047
N3453 X81.639 Y61.061
N3454 X82.044 Y61.078
N3455 X82.246 Y61.083
N3456 X82.651 Y61.086
N3457 X82.854 Y61.082
N3458 X83.056 Y61.077
N3459 X83.258 Y61.071
N3460 X83.663 Y61.048
N3461 X83.865 Y61.033
N3462 X84.27 Y60.997
N3463 X84.472 Y60.973
N3464 X84.704 Y60.945
N3465 X84.877 Y60.922
N3466 X85.282 Y60.86
N3467 X85.484 Y60.824
N3468 X85.687 Y60.786
N3469 X85.889 Y60.747
N3470 X86.294 Y60.659
N3471 X86.496 Y60.61
N3472 X86.772 Y60.54
N3473 X86.901 Y60.507
N3474 X87.305 Y60.391
N3475 X87.48 Y60.338
N3476 X87.71 Y60.264
N3477 X87.912 Y60.198
N3478 X88.317 Y60.054
N3479 X88.52 Y59.977
N3480 X88.722 Y59.897
N3481 X88.924 Y59.816
N3482 X89.329 Y59.642
N3483 X89.531 Y59.549
N3484 X89.734 Y59.454
N3485 X89.936 Y59.356
N3486 X90.138 Y59.253
N3487 X90.341 Y59.149
N3488 X90.756 Y58.921
N3489 X90.948 Y58.809
N3490 X91.15 Y58.69
N3491 X91.353 Y58.565
N3492 X91.555 Y58.437
N3493 X91.744 Y58.314
N3494 X92.041 Y58.112
N3495 X92.162 Y58.028
N3496 X92.364 Y57.881
N3497 X92.567 Y57.733
N3498 X92.971 Y57.418
N3499 X93.111 Y57.302
N3500 X93.376 Y57.082
N3501 X93.578 Y56.903
N3502 X93.781 Y56.724
N3503 X93.811 Y56.695
N3504 X94.025 Y56.493
N3505 X94.186 Y56.34
N3506 X94.436 Y56.088
N3507 X94.59 Y55.93
N3508 X94.82 Y55.683
N3509 X94.995 Y55.488
N3510 X95.197 Y55.257
N3511 X95.349 Y55.076
N3512 X95.515 Y54.873
N3513 X95.602 Y54.766
N3514 X95.83 Y54.469
N3515 X95.98 Y54.266
N3516 X96.209 Y53.947
N3517 X96.267 Y53.861
N3518 X96.411 Y53.646
N3519 X96.537 Y53.457
N3520 X96.79 Y53.052
N3521 X96.816 Y53.008
N3522 X97.026 Y52.647
N3523 X97.138 Y52.445
N3524 X97.247 Y52.242
N3525 X97.353 Y52.04
N3526 X97.555 Y51.635
N3527 X97.626 Y51.482
N3528 X97.741 Y51.23
N3529 X97.828 Y51.031
N3530 X97.914 Y50.825
N3531 X97.998 Y50.623
N3532 X98.154 Y50.218
N3533 X98.226 Y50.016
N3534 X98.296 Y49.813
N3535 X98.365 Y49.611
N3536 X98.491 Y49.206
N3537 X98.549 Y49.004
N3538 X98.637 Y48.687
N3539 X98.66 Y48.599
N3540 X98.759 Y48.194
N3541 X98.803 Y47.992
N3542 X98.846 Y47.79
N3543 X98.888 Y47.587
N3544 X98.959 Y47.182
N3545 X98.992 Y46.98
N3546 X99.05 Y46.575
N3547 X99.073 Y46.373
N3548 X99.096 Y46.17
N3549 X99.116 Y45.968
N3550 X99.149 Y45.563
N3551 X99.16 Y45.361
N3552 X99.17 Y45.158
N3553 X99.179 Y44.956
N3554 X99.185 Y44.551
N3555 Y44.349
N3556 X99.179 Y43.944
N3557 X99.17 Y43.742
N3558 X99.16 Y43.539
N3559 X99.149 Y43.337
N3560 X99.116 Y42.932
N3561 X99.096 Y42.73
N3562 X99.073 Y42.527
N3563 X99.05 Y42.325
N3564 X98.992 Y41.92
N3565 X98.959 Y41.718
N3566 X98.888 Y41.313
N3567 X98.846 Y41.11
N3568 X98.803 Y40.908
N3569 X98.759 Y40.706
N3570 X98.66 Y40.301
N3571 X98.637 Y40.213
N3572 X98.549 Y39.896
N3573 X98.491 Y39.694
N3574 X98.365 Y39.289
N3575 X98.296 Y39.087
N3576 X98.226 Y38.884
N3577 X98.154 Y38.682
N3578 X97.998 Y38.277
N3579 X97.914 Y38.075
N3580 X97.828 Y37.869
N3581 X97.741 Y37.67
N3582 X97.626 Y37.418
N3583 X97.555 Y37.265
N3584 X97.353 Y36.86
N3585 X97.247 Y36.658
N3586 X97.138 Y36.455
N3587 X97.026 Y36.253
N3588 X96.816 Y35.892
N3589 X96.79 Y35.848
N3590 X96.537 Y35.443
N3591 X96.411 Y35.254
N3592 X96.267 Y35.039
N3593 X96.209 Y34.953
N3594 X95.98 Y34.634
N3595 X95.83 Y34.431
N3596 X95.602 Y34.134
N3597 X95.515 Y34.027
N3598 X95.349 Y33.824
N3599 X95.197 Y33.643
N3600 X94.995 Y33.412
N3601 X94.82 Y33.217
N3602 X94.59 Y32.97
N3603 X94.436 Y32.812
N3604 X94.186 Y32.56
N3605 X94.025 Y32.407
N3606 X93.811 Y32.205
N3607 X93.781 Y32.176
N3608 X93.578 Y31.997
N3609 X93.376 Y31.818
N3610 X93.111 Y31.598
N3611 X92.971 Y31.482
N3612 X92.567 Y31.167
N3613 X92.364 Y31.019
N3614 X92.162 Y30.872
N3615 X92.041 Y30.788
N3616 X91.744 Y30.586
N3617 X91.555 Y30.463
N3618 X91.353 Y30.335
N3619 X91.15 Y30.21
N3620 X90.948 Y30.091
N3621 X90.756 Y29.979
N3622 X90.341 Y29.751
N3623 X90.138 Y29.647
N3624 X89.936 Y29.544
N3625 X89.734 Y29.446
N3626 X89.531 Y29.351
N3627 X89.329 Y29.258
N3628 X88.924 Y29.084
N3629 X88.722 Y29.003
N3630 X88.52 Y28.923
N3631 X88.317 Y28.846
N3632 X87.912 Y28.702
N3633 X87.71 Y28.636
N3634 X87.48 Y28.562
N3635 X87.305 Y28.509
N3636 X86.901 Y28.393
N3637 X86.772 Y28.36
N3638 X86.496 Y28.29
N3639 X86.294 Y28.241
N3640 X85.889 Y28.153
N3641 X85.687 Y28.114
N3642 X85.484 Y28.076
N3643 X85.282 Y28.04
N3644 X84.877 Y27.978
N3645 X84.704 Y27.955
N3646 X84.472 Y27.927
N3647 X84.27 Y27.903
N3648 X83.865 Y27.867
N3649 X83.663 Y27.852
N3650 X83.258 Y27.829
N3651 X83.056 Y27.823
N3652 X82.854 Y27.818
N3653 X82.651 Y27.814
N3654 X82.246 Y27.817
N3655 X82.044 Y27.822
N3656 X81.639 Y27.839
N3657 X81.437 Y27.853
N3658 X81.235 Y27.867
N3659 X81.032 Y27.884
N3660 X80.628 Y27.926
N3661 X80.425 Y27.951
N3662 X80.223 Y27.979
N3663 X80.021 Y28.007
N3664 X79.616 Y28.076
N3665 X79.413 Y28.113
N3666 X79.009 Y28.195
N3667 X78.806 Y28.242
N3668 X78.604 Y28.29
N3669 X78.402 Y28.34
N3670 X77.997 Y28.449
N3671 X77.795 Y28.51
N3672 X77.592 Y28.571
N3673 X77.39 Y28.635
N3674 X76.985 Y28.772
N3675 X76.783 Y28.847
N3676 X76.464 Y28.967
N3677 X76.378 Y29.002
N3678 X75.972 Y29.169
N3679 X75.771 Y29.259
N3680 X75.522 Y29.371
N3681 X75.366 Y29.446
N3682 X75.105 Y29.574
N3683 X74.962 Y29.646
N3684 X74.557 Y29.86
N3685 X74.355 Y29.974
N3686 X74.152 Y30.09
N3687 X73.998 Y30.181
N3688 X73.668 Y30.383
N3689 X73.545 Y30.463
N3690 X73.343 Y30.596
N3691 X73.14 Y30.731
N3692 X72.772 Y30.991
N3693 X72.736 Y31.017
N3694 X72.331 Y31.322
N3695 X72.239 Y31.395
N3696 X71.926 Y31.648
N3697 X71.748 Y31.8
N3698 X71.512 Y32.003
N3699 X71.319 Y32.179
N3700 X71.291 Y32.205
N3701 X71.117 Y32.365
N3702 X70.866 Y32.61
N3703 X70.712 Y32.761
N3704 X70.469 Y33.015
N3705 X70.307 Y33.187
N3706 X70.098 Y33.419
N3707 X69.922 Y33.622
N3708 X69.7 Y33.884
N3709 X69.586 Y34.027
N3710 X69.425 Y34.229
N3711 X69.296 Y34.397
N3712 X69.093 Y34.67
N3713 X68.974 Y34.836
N3714 X68.834 Y35.039
N3715 X68.696 Y35.241
N3716 X68.486 Y35.565
N3717 X68.434 Y35.646
N3718 X68.19 Y36.051
N3719 X68.081 Y36.242
N3720 X67.962 Y36.455
N3721 X67.879 Y36.607
N3722 X67.677 Y36.997
N3723 X67.644 Y37.063
N3724 X67.45 Y37.467
N3725 X67.36 Y37.67
N3726 X67.271 Y37.872
N3727 X67.185 Y38.075
N3728 X67.022 Y38.479
N3729 X66.948 Y38.682
N3730 X66.867 Y38.901
N3731 X66.803 Y39.087
N3732 X66.736 Y39.289
N3733 X66.67 Y39.491
N3734 X66.55 Y39.896
N3735 X66.494 Y40.098
N3736 X66.388 Y40.503
N3737 X66.342 Y40.706
N3738 X66.296 Y40.908
N3739 X66.26 Y41.074
N3740 X66.175 Y41.515
N3741 X66.141 Y41.718
N3742 X66.109 Y41.92
N3743 X66.078 Y42.122
N3744 X66.026 Y42.527
N3745 X66.004 Y42.73
N3746 X65.985 Y42.932
N3747 X65.966 Y43.134
N3748 G0 Z15.24
N3750 Z40
N3751 M5
N3751 X 160. Y120.
N3752 M30
