%
(Plaque)
(plaque)
(T1  D=6.35 CR=0 - ZMIN=-10.668 - flat end mill)
N0 G90
N1 G17
(Adaptive2)
N3 S10000 M3
N5 G0 X79.692 Y43.485
N6 Z15.24
N7 Z5.08
N8 Z3.178
N9 G1 Z2.543 F1016
N10 G3 X85.407 Y45.415 Z2.212 I2.858 J0.965
N11 X79.692 Y43.485 Z1.881 I-2.858 J-0.965
N12 X85.407 Y45.415 Z1.55 I2.858 J0.965
N13 X79.692 Y43.485 Z1.219 I-2.858 J-0.965
N14 X85.407 Y45.415 Z0.889 I2.858 J0.965
N15 X79.692 Y43.485 Z0.558 I-2.858 J-0.965
N16 X85.407 Y45.415 Z0.227 I2.858 J0.965
N17 X79.692 Y43.485 Z-0.104 I-2.858 J-0.965
N18 X85.407 Y45.415 Z-0.435 I2.858 J0.965
N19 X79.692 Y43.485 Z-0.766 I-2.858 J-0.965
N20 X85.407 Y45.415 Z-1.097 I2.858 J0.965
N21 X79.692 Y43.485 Z-1.428 I-2.858 J-0.965
N22 X85.407 Y45.415 Z-1.759 I2.858 J0.965
N23 X79.692 Y43.485 Z-2.09 I-2.858 J-0.965
N24 X85.407 Y45.415 Z-2.421 I2.858 J0.965
N25 X79.692 Y43.485 Z-2.751 I-2.858 J-0.965
N26 X85.566 Y44.45 Z-3.048 I2.858 J0.965
N27 X79.533 I-3.016 J0
N28 X85.459 Y43.652 I3.016 J0
N29 X85.566 Y44.45 I-2.909 J0.797
N30 G1 X85.57 Y44.679
N31 X85.727 Y45.585
N32 X85.781 Y45.727
N33 X85.818 Y45.875
N34 X85.84 Y46.026
N35 X85.848 Y46.178
N36 X85.843 Y46.338
N37 X85.824 Y46.508
N38 X85.789 Y46.688
N39 X85.737 Y46.876
N40 X85.666 Y47.069
N41 X85.575 Y47.267
N42 X85.463 Y47.467
N43 X85.329 Y47.666
N44 X85.172 Y47.863
N45 X84.993 Y48.053
N46 X84.792 Y48.236
N47 X84.569 Y48.408
N48 X84.326 Y48.566
N49 X84.062 Y48.709
N50 X83.781 Y48.833
N51 X83.483 Y48.937
N52 X83.171 Y49.019
N53 X82.847 Y49.076
N54 X82.513 Y49.107
N55 X82.172 Y49.112
N56 X81.826 Y49.089
N57 X81.48 Y49.038
N58 X81.134 Y48.958
N59 X80.792 Y48.85
N60 X80.456 Y48.713
N61 X80.131 Y48.548
N62 X79.817 Y48.357
N63 X79.517 Y48.139
N64 X79.234 Y47.897
N65 X78.971 Y47.631
N66 X78.728 Y47.344
N67 X78.509 Y47.037
N68 X78.314 Y46.712
N69 X78.145 Y46.372
N70 X78.004 Y46.018
N71 X77.891 Y45.653
N72 X77.808 Y45.28
N73 X77.755 Y44.9
N74 X77.732 Y44.517
N75 X77.741 Y44.133
N76 X77.78 Y43.75
N77 X77.85 Y43.371
N78 X77.95 Y42.999
N79 X78.08 Y42.635
N80 X78.239 Y42.283
N81 X78.425 Y41.945
N82 X78.639 Y41.623
N83 X78.877 Y41.318
N84 X79.139 Y41.034
N85 X79.424 Y40.771
N86 X79.728 Y40.532
N87 X80.051 Y40.319
N88 X80.39 Y40.131
N89 X80.743 Y39.972
N90 X81.108 Y39.841
N91 X81.482 Y39.74
N92 X81.864 Y39.67
N93 X82.249 Y39.63
N94 X82.637 Y39.621
N95 X83.024 Y39.644
N96 X83.408 Y39.697
N97 X83.786 Y39.781
N98 X84.157 Y39.895
N99 X84.517 Y40.039
N100 X84.865 Y40.211
N101 X85.197 Y40.411
N102 X85.513 Y40.636
N103 X85.81 Y40.886
N104 X86.085 Y41.159
N105 X86.338 Y41.453
N106 X86.566 Y41.767
N107 X86.82 Y42.182
N108 X87.224 Y42.98
N109 X87.471 Y43.586
N110 X87.64 Y44.117
N111 X87.752 Y44.6
N112 X87.82 Y45.062
N113 X87.85 Y45.511
N114 X87.844 Y45.945
N115 X87.804 Y46.368
N116 X87.731 Y46.782
N117 X87.626 Y47.186
N118 X87.489 Y47.581
N119 X87.32 Y47.964
N120 X87.119 Y48.335
N121 X86.888 Y48.692
N122 X86.626 Y49.031
N123 X86.335 Y49.352
N124 X86.015 Y49.652
N125 X85.668 Y49.929
N126 X85.295 Y50.181
N127 X84.896 Y50.405
N128 X84.476 Y50.599
N129 X84.035 Y50.761
N130 X83.577 Y50.889
N131 X83.104 Y50.98
N132 X82.62 Y51.034
N133 X82.128 Y51.049
N134 X81.631 Y51.025
N135 X81.133 Y50.96
N136 X80.638 Y50.854
N137 X80.149 Y50.708
N138 X79.67 Y50.521
N139 X79.204 Y50.295
N140 X78.755 Y50.031
N141 X78.327 Y49.731
N142 X77.921 Y49.394
N143 X77.543 Y49.025
N144 X77.193 Y48.625
N145 X76.876 Y48.196
N146 X76.593 Y47.742
N147 X76.346 Y47.264
N148 X76.139 Y46.767
N149 X75.971 Y46.254
N150 X75.844 Y45.728
N151 X75.76 Y45.192
N152 X75.72 Y44.65
N153 X75.723 Y44.106
N154 X75.769 Y43.563
N155 X75.86 Y43.024
N156 X75.993 Y42.495
N157 X76.168 Y41.977
N158 X76.385 Y41.474
N159 X76.642 Y40.99
N160 X76.936 Y40.528
N161 X77.268 Y40.091
N162 X77.633 Y39.681
N163 X78.03 Y39.302
N164 X78.456 Y38.956
N165 X78.909 Y38.646
N166 X79.386 Y38.372
N167 X79.883 Y38.138
N168 X80.398 Y37.944
N169 X80.926 Y37.792
N170 X81.465 Y37.683
N171 X82.011 Y37.618
N172 X82.561 Y37.596
N173 X83.111 Y37.619
N174 X83.657 Y37.686
N175 X84.196 Y37.796
N176 X84.724 Y37.95
N177 X85.239 Y38.145
N178 X85.736 Y38.381
N179 X86.213 Y38.656
N180 X86.666 Y38.969
N181 X87.108 Y39.329
N182 X87.586 Y39.788
N183 X88.037 Y40.296
N184 X88.46 Y40.858
N185 X88.84 Y41.456
N186 X89.164 Y42.072
N187 X89.432 Y42.697
N188 X89.643 Y43.324
N189 X89.799 Y43.952
N190 X89.902 Y44.577
N191 X89.954 Y45.2
N192 X89.955 Y45.817
N193 X89.908 Y46.426
N194 X89.813 Y47.024
N195 X89.67 Y47.611
N196 X89.482 Y48.182
N197 X89.248 Y48.737
N198 X88.971 Y49.271
N199 X88.65 Y49.782
N200 X88.288 Y50.269
N201 X87.886 Y50.727
N202 X87.446 Y51.154
N203 X86.969 Y51.548
N204 X86.458 Y51.904
N205 X85.916 Y52.221
N206 X85.345 Y52.496
N207 X84.749 Y52.727
N208 X84.131 Y52.91
N209 X83.495 Y53.044
N210 X82.846 Y53.127
N211 X82.188 Y53.158
N212 X81.524 Y53.136
N213 X80.86 Y53.06
N214 X80.2 Y52.93
N215 X79.549 Y52.747
N216 X78.91 Y52.511
N217 X78.289 Y52.222
N218 X77.691 Y51.883
N219 X77.118 Y51.495
N220 X76.576 Y51.06
N221 X76.069 Y50.582
N222 X75.6 Y50.062
N223 X75.172 Y49.504
N224 X74.79 Y48.912
N225 X74.455 Y48.289
N226 X74.17 Y47.639
N227 X73.938 Y46.967
N228 X73.761 Y46.277
N229 X73.639 Y45.574
N230 X73.574 Y44.862
N231 X73.566 Y44.146
N232 X73.615 Y43.431
N233 X73.722 Y42.721
N234 X73.886 Y42.021
N235 X74.106 Y41.336
N236 X74.38 Y40.671
N237 X74.707 Y40.029
N238 X75.084 Y39.415
N239 X75.51 Y38.833
N240 X75.982 Y38.286
N241 X76.496 Y37.779
N242 X77.049 Y37.315
N243 X77.638 Y36.897
N244 X78.259 Y36.527
N245 X78.907 Y36.208
N246 X79.579 Y35.942
N247 X80.271 Y35.731
N248 X80.977 Y35.576
N249 X81.694 Y35.478
N250 X82.416 Y35.438
N251 X83.14 Y35.456
N252 X83.859 Y35.532
N253 X84.57 Y35.666
N254 X85.269 Y35.856
N255 X85.949 Y36.102
N256 X86.612 Y36.403
N257 X87.272 Y36.77
N258 X87.921 Y37.202
N259 X88.551 Y37.699
N260 X89.154 Y38.259
N261 X89.719 Y38.874
N262 X90.236 Y39.537
N263 X90.698 Y40.24
N264 X91.1 Y40.974
N265 X91.44 Y41.732
N266 X91.715 Y42.509
N267 X91.925 Y43.298
N268 X92.07 Y44.095
N269 X92.15 Y44.895
N270 X92.165 Y45.693
N271 X92.117 Y46.485
N272 X92.006 Y47.266
N273 X91.833 Y48.034
N274 X91.599 Y48.783
N275 X91.306 Y49.511
N276 X90.956 Y50.213
N277 X90.55 Y50.886
N278 X90.09 Y51.526
N279 X89.578 Y52.129
N280 X89.017 Y52.691
N281 X88.41 Y53.209
N282 X87.76 Y53.679
N283 X87.07 Y54.098
N284 X86.345 Y54.462
N285 X85.588 Y54.768
N286 X84.805 Y55.015
N287 X83.999 Y55.198
N288 X83.177 Y55.318
N289 X82.342 Y55.371
N290 X81.502 Y55.356
N291 X80.661 Y55.275
N292 X79.825 Y55.125
N293 X78.999 Y54.907
N294 X78.19 Y54.622
N295 X77.403 Y54.272
N296 X76.643 Y53.858
N297 X75.916 Y53.382
N298 X75.226 Y52.848
N299 X74.58 Y52.258
N300 X73.981 Y51.616
N301 X73.434 Y50.925
N302 X72.942 Y50.191
N303 X72.511 Y49.418
N304 X72.141 Y48.611
N305 X71.837 Y47.775
N306 X71.601 Y46.916
N307 X71.434 Y46.039
N308 X71.337 Y45.15
N309 X71.313 Y44.255
N310 X71.36 Y43.36
N311 X71.479 Y42.47
N312 X71.67 Y41.592
N313 X71.93 Y40.731
N314 X72.259 Y39.894
N315 X72.655 Y39.084
N316 X73.114 Y38.309
N317 X73.635 Y37.573
N318 X74.213 Y36.88
N319 X74.845 Y36.236
N320 X75.527 Y35.644
N321 X76.254 Y35.109
N322 X77.023 Y34.634
N323 X77.827 Y34.222
N324 X78.662 Y33.876
N325 X79.522 Y33.598
N326 X80.402 Y33.389
N327 X81.296 Y33.252
N328 X82.198 Y33.188
N329 X83.102 Y33.195
N330 X84.003 Y33.276
N331 X84.896 Y33.428
N332 X85.778 Y33.653
N333 X86.648 Y33.951
N334 X87.49 Y34.317
N335 X88.301 Y34.749
N336 X89.076 Y35.244
N337 X89.811 Y35.795
N338 X90.503 Y36.401
N339 X91.147 Y37.056
N340 X91.743 Y37.756
N341 X92.286 Y38.497
N342 X92.774 Y39.276
N343 X93.204 Y40.088
N344 X93.575 Y40.929
N345 X93.882 Y41.795
N346 X94.124 Y42.682
N347 X94.299 Y43.584
N348 X94.406 Y44.497
N349 X94.443 Y45.415
N350 X94.412 Y46.333
N351 X94.312 Y47.247
N352 X94.142 Y48.15
N353 X93.905 Y49.038
N354 X93.601 Y49.905
N355 X93.232 Y50.747
N356 X92.8 Y51.558
N357 X92.308 Y52.335
N358 X91.759 Y53.071
N359 X91.156 Y53.765
N360 X90.502 Y54.411
N361 X89.802 Y55.006
N362 X89.059 Y55.547
N363 X88.278 Y56.031
N364 X87.462 Y56.454
N365 X86.617 Y56.815
N366 X85.747 Y57.113
N367 X84.858 Y57.346
N368 X83.955 Y57.514
N369 X83.042 Y57.616
N370 X82.123 Y57.653
N371 X81.205 Y57.624
N372 X80.291 Y57.529
N373 X79.386 Y57.368
N374 X78.495 Y57.142
N375 X77.623 Y56.853
N376 X76.773 Y56.502
N377 X75.95 Y56.093
N378 X75.158 Y55.628
N379 X74.399 Y55.109
N380 X73.679 Y54.539
N381 X73 Y53.919
N382 X72.368 Y53.252
N383 X71.783 Y52.543
N384 X71.249 Y51.795
N385 X70.768 Y51.012
N386 X70.34 Y50.198
N387 X69.969 Y49.358
N388 X69.657 Y48.493
N389 X69.407 Y47.609
N390 X69.219 Y46.709
N391 X69.093 Y45.799
N392 X69.028 Y44.882
N393 X69.025 Y43.963
N394 X69.084 Y43.046
N395 X69.207 Y42.135
N396 X69.393 Y41.235
N397 X69.64 Y40.35
N398 X69.946 Y39.484
N399 X70.31 Y38.64
N400 X70.728 Y37.821
N401 X71.202 Y37.034
N402 X71.73 Y36.282
N403 X72.309 Y35.568
N404 X72.934 Y34.894
N405 X73.603 Y34.264
N406 X74.312 Y33.68
N407 X75.059 Y33.144
N408 X75.842 Y32.662
N409 X76.656 Y32.236
N410 X77.497 Y31.865
N411 X78.361 Y31.552
N412 X79.244 Y31.297
N413 X80.141 Y31.101
N414 X81.051 Y30.967
N415 X81.967 Y30.897
N416 X82.886 Y30.89
N417 X83.803 Y30.944
N418 X84.715 Y31.06
N419 X85.617 Y31.235
N420 X86.506 Y31.471
N421 X87.376 Y31.767
N422 X88.224 Y32.121
N423 X89.047 Y32.53
N424 X89.842 Y32.991
N425 X90.606 Y33.501
N426 X91.336 Y34.059
N427 X92.029 Y34.663
N428 X92.682 Y35.31
N429 X93.294 Y35.996
N430 X93.862 Y36.718
N431 X94.386 Y37.473
N432 X94.863 Y38.259
N433 X95.289 Y39.073
N434 X95.663 Y39.912
N435 X95.984 Y40.774
N436 X96.25 Y41.653
N437 X96.462 Y42.547
N438 X96.618 Y43.453
N439 X96.717 Y44.367
N440 X96.756 Y45.285
N441 X96.736 Y46.204
N442 X96.659 Y47.119
N443 X96.524 Y48.029
N444 X96.333 Y48.928
N445 X96.085 Y49.813
N446 X95.78 Y50.68
N447 X95.42 Y51.525
N448 X95.007 Y52.346
N449 X94.543 Y53.139
N450 X94.03 Y53.902
N451 X93.471 Y54.631
N452 X92.866 Y55.323
N453 X92.217 Y55.974
N454 X91.528 Y56.582
N455 X90.803 Y57.146
N456 X90.044 Y57.664
N457 X89.254 Y58.135
N458 X88.436 Y58.553
N459 X87.593 Y58.919
N460 X86.728 Y59.23
N461 X85.846 Y59.488
N462 X84.95 Y59.692
N463 X84.043 Y59.842
N464 X83.129 Y59.936
N465 X82.211 Y59.973
N466 X81.292 Y59.953
N467 X80.376 Y59.877
N468 X79.466 Y59.745
N469 X78.566 Y59.559
N470 X77.679 Y59.32
N471 X76.808 Y59.028
N472 X75.956 Y58.682
N473 X75.127 Y58.286
N474 X74.323 Y57.841
N475 X73.546 Y57.35
N476 X72.799 Y56.814
N477 X72.086 Y56.235
N478 X71.408 Y55.614
N479 X70.77 Y54.953
N480 X70.173 Y54.254
N481 X69.617 Y53.523
N482 X69.104 Y52.76
N483 X68.635 Y51.969
N484 X68.214 Y51.153
N485 X67.843 Y50.312
N486 X67.523 Y49.45
N487 X67.255 Y48.571
N488 X67.038 Y47.678
N489 X66.872 Y46.774
N490 X66.758 Y45.862
N491 X66.697 Y44.945
N492 X66.691 Y44.026
N493 X66.74 Y43.109
N494 X66.843 Y42.195
N495 X66.998 Y41.29
N496 X67.204 Y40.394
N497 X67.461 Y39.512
N498 X67.769 Y38.646
N499 X68.128 Y37.8
N500 X68.536 Y36.976
N501 X68.992 Y36.178
N502 X69.492 Y35.407
N503 X70.036 Y34.666
N504 X70.621 Y33.957
N505 X71.246 Y33.284
N506 X71.91 Y32.649
N507 X72.61 Y32.053
N508 X73.343 Y31.499
N509 X74.107 Y30.988
N510 X74.899 Y30.522
N511 X75.716 Y30.101
N512 X76.557 Y29.73
N513 X77.418 Y29.408
N514 X78.296 Y29.137
N515 X79.188 Y28.916
N516 X80.091 Y28.747
N517 X81.003 Y28.63
N518 X81.92 Y28.566
N519 X82.839 Y28.557
N520 X83.757 Y28.6
N521 X84.671 Y28.697
N522 X85.578 Y28.845
N523 X86.475 Y29.045
N524 X87.359 Y29.295
N525 X88.228 Y29.595
N526 X89.077 Y29.945
N527 X89.906 Y30.343
N528 X90.711 Y30.786
N529 X91.49 Y31.273
N530 X92.242 Y31.801
N531 X92.964 Y32.37
N532 X93.654 Y32.977
N533 X94.31 Y33.621
N534 X94.929 Y34.3
N535 X95.511 Y35.011
N536 X96.055 Y35.752
N537 X96.558 Y36.521
N538 X97.02 Y37.316
N539 X97.439 Y38.134
N540 X97.813 Y38.973
N541 X98.14 Y39.832
N542 X98.42 Y40.707
N543 X98.653 Y41.596
N544 X98.838 Y42.496
N545 X98.975 Y43.405
N546 X99.062 Y44.32
N547 X99.099 Y45.238
N548 X99.084 Y46.157
N549 X99.019 Y47.074
N550 X98.905 Y47.986
N551 X98.742 Y48.89
N552 X98.53 Y49.785
N553 X98.27 Y50.666
N554 X97.961 Y51.532
N555 X97.605 Y52.379
N556 X97.202 Y53.205
N557 X96.755 Y54.008
N558 X96.266 Y54.786
N559 X95.735 Y55.536
N560 X95.164 Y56.256
N561 X94.555 Y56.945
N562 X93.908 Y57.598
N563 X93.227 Y58.214
N564 X92.513 Y58.792
N565 X91.768 Y59.332
N566 X90.996 Y59.83
N567 X90.199 Y60.287
N568 X89.378 Y60.7
N569 X88.535 Y61.066
N570 X87.674 Y61.387
N571 X86.796 Y61.66
N572 X85.906 Y61.887
N573 X85.005 Y62.067
N574 X84.095 Y62.2
N575 X83.18 Y62.285
N576 X82.262 Y62.32
N577 X81.343 Y62.306
N578 X80.426 Y62.242
N579 X79.514 Y62.131
N580 X78.608 Y61.973
N581 X77.713 Y61.767
N582 X76.829 Y61.516
N583 X75.959 Y61.219
N584 X75.106 Y60.876
N585 X74.273 Y60.488
N586 X73.461 Y60.058
N587 X72.672 Y59.587
N588 X71.908 Y59.076
N589 X71.171 Y58.527
N590 X70.463 Y57.941
N591 X69.787 Y57.318
N592 X69.145 Y56.661
N593 X68.538 Y55.971
N594 X67.966 Y55.251
N595 X67.432 Y54.504
N596 X66.936 Y53.73
N597 X66.48 Y52.932
N598 X66.064 Y52.112
N599 X65.693 Y51.272
N600 X65.366 Y50.413
N601 X65.083 Y49.538
N602 X64.845 Y48.651
N603 X64.651 Y47.753
N604 X64.502 Y46.846
N605 X64.399 Y45.932
N606 X64.343 Y45.015
N607 X64.335 Y44.096
N608 X64.374 Y43.178
N609 X64.46 Y42.263
N610 X64.591 Y41.353
N611 X64.768 Y40.451
N612 X64.989 Y39.559
N613 X65.254 Y38.68
N614 X65.565 Y37.815
N615 X65.919 Y36.967
N616 X66.317 Y36.138
N617 X66.756 Y35.331
N618 X67.235 Y34.546
N619 X67.752 Y33.787
N620 X68.306 Y33.054
N621 X68.897 Y32.349
N622 X69.522 Y31.676
N623 X70.182 Y31.036
N624 X70.873 Y30.431
N625 X71.594 Y29.86
N626 X72.342 Y29.327
N627 X73.116 Y28.831
N628 X73.914 Y28.375
N629 X74.733 Y27.959
N630 X75.573 Y27.586
N631 X76.431 Y27.256
N632 X77.305 Y26.971
N633 X78.191 Y26.729
N634 X79.089 Y26.532
N635 X79.995 Y26.379
N636 X80.908 Y26.272
N637 X81.825 Y26.211
N638 X82.744 Y26.198
N639 X83.662 Y26.231
N640 X84.578 Y26.311
N641 X85.488 Y26.436
N642 X86.392 Y26.606
N643 X87.285 Y26.819
N644 X88.168 Y27.077
N645 X89.036 Y27.379
N646 X89.887 Y27.724
N647 X90.721 Y28.111
N648 X91.535 Y28.538
N649 X92.327 Y29.004
N650 X93.096 Y29.507
N651 X93.84 Y30.046
N652 X94.558 Y30.62
N653 X95.247 Y31.228
N654 X95.906 Y31.869
N655 X96.533 Y32.541
N656 X97.128 Y33.241
N657 X97.689 Y33.969
N658 X98.216 Y34.722
N659 X98.707 Y35.499
N660 X99.162 Y36.297
N661 X99.578 Y37.117
N662 X99.954 Y37.955
N663 X100.289 Y38.811
N664 X100.583 Y39.682
N665 X100.836 Y40.565
N666 X101.047 Y41.46
N667 X101.216 Y42.363
N668 X101.342 Y43.274
N669 X101.425 Y44.189
N670 X101.463 Y45.107
N671 X101.456 Y46.026
N672 X101.406 Y46.944
N673 X101.311 Y47.858
N674 X101.173 Y48.766
N675 X100.993 Y49.668
N676 X100.77 Y50.559
N677 X100.506 Y51.439
N678 X100.198 Y52.305
N679 X99.848 Y53.155
N680 X99.458 Y53.987
N681 X99.028 Y54.799
N682 X98.56 Y55.591
N683 X98.056 Y56.359
N684 X97.516 Y57.102
N685 X96.941 Y57.82
N686 X96.332 Y58.508
N687 X95.69 Y59.165
N688 X95.017 Y59.791
N689 X94.315 Y60.384
N690 X93.585 Y60.943
N691 X92.831 Y61.468
N692 X92.052 Y61.956
N693 X91.252 Y62.408
N694 X90.431 Y62.82
N695 X89.59 Y63.192
N696 X88.733 Y63.523
N697 X87.861 Y63.814
N698 X86.977 Y64.064
N699 X86.082 Y64.273
N700 X85.178 Y64.44
N701 X84.268 Y64.566
N702 X83.352 Y64.649
N703 X82.434 Y64.687
N704 X81.515 Y64.683
N705 X80.597 Y64.635
N706 X79.683 Y64.545
N707 X78.773 Y64.413
N708 X77.871 Y64.24
N709 X76.977 Y64.026
N710 X76.094 Y63.772
N711 X75.224 Y63.476
N712 X74.368 Y63.14
N713 X73.53 Y62.764
N714 X72.709 Y62.351
N715 X71.908 Y61.9
N716 X71.128 Y61.414
N717 X70.37 Y60.894
N718 X69.637 Y60.34
N719 X68.93 Y59.753
N720 X68.251 Y59.133
N721 X67.602 Y58.483
N722 X66.982 Y57.804
N723 X66.394 Y57.098
N724 X65.839 Y56.366
N725 X65.316 Y55.61
N726 X64.827 Y54.832
N727 X64.374 Y54.032
N728 X63.958 Y53.213
N729 X63.58 Y52.375
N730 X63.242 Y51.521
N731 X62.942 Y50.652
N732 X62.681 Y49.771
N733 X62.459 Y48.879
N734 X62.277 Y47.978
N735 X62.134 Y47.07
N736 X62.033 Y46.157
N737 X61.974 Y45.24
N738 X61.957 Y44.321
N739 X61.982 Y43.402
N740 X62.048 Y42.485
N741 X62.154 Y41.572
N742 X62.3 Y40.665
N743 X62.486 Y39.765
N744 X62.712 Y38.874
N745 X62.977 Y37.994
N746 X63.283 Y37.128
N747 X63.628 Y36.276
N748 X64.011 Y35.441
N749 X64.431 Y34.623
N750 X64.886 Y33.825
N751 X65.376 Y33.047
N752 X65.899 Y32.292
N753 X66.456 Y31.56
N754 X67.045 Y30.855
N755 X67.666 Y30.177
N756 X68.317 Y29.528
N757 X68.996 Y28.909
N758 X69.702 Y28.321
N759 X70.433 Y27.764
N760 X71.188 Y27.24
N761 X71.965 Y26.749
N762 X72.763 Y26.293
N763 X73.581 Y25.875
N764 X74.417 Y25.494
N765 X75.27 Y25.151
N766 X76.137 Y24.847
N767 X77.017 Y24.581
N768 X77.907 Y24.354
N769 X78.807 Y24.166
N770 X79.714 Y24.017
N771 X80.627 Y23.91
N772 X81.543 Y23.845
N773 X82.462 Y23.821
N774 X83.381 Y23.838
N775 X84.298 Y23.896
N776 X85.212 Y23.994
N777 X86.121 Y24.132
N778 X87.022 Y24.309
N779 X87.916 Y24.525
N780 X88.798 Y24.781
N781 X89.669 Y25.076
N782 X90.525 Y25.41
N783 X91.366 Y25.781
N784 X92.189 Y26.188
N785 X92.995 Y26.63
N786 X93.782 Y27.106
N787 X94.547 Y27.614
N788 X95.291 Y28.155
N789 X96.01 Y28.727
N790 X96.703 Y29.33
N791 X97.37 Y29.962
N792 X98.01 Y30.622
N793 X98.621 Y31.308
N794 X99.203 Y32.02
N795 X99.755 Y32.754
N796 X100.276 Y33.511
N797 X100.765 Y34.289
N798 X101.221 Y35.087
N799 X101.642 Y35.904
N800 X102.027 Y36.739
N801 X102.377 Y37.589
N802 X102.69 Y38.453
N803 X102.967 Y39.329
N804 X103.207 Y40.216
N805 X103.411 Y41.112
N806 X103.577 Y42.016
N807 X103.704 Y42.926
N808 X103.791 Y43.841
N809 X103.839 Y44.759
N810 X103.847 Y45.678
N811 X103.817 Y46.596
N812 X103.747 Y47.513
N813 X103.64 Y48.426
N814 X103.494 Y49.333
N815 X103.311 Y50.233
N816 X103.089 Y51.125
N817 X102.828 Y52.007
N818 X102.529 Y52.876
N819 X102.193 Y53.731
N820 X101.821 Y54.571
N821 X101.414 Y55.395
N822 X100.972 Y56.201
N823 X100.498 Y56.988
N824 X99.991 Y57.755
N825 X99.451 Y58.499
N826 X98.88 Y59.218
N827 X98.277 Y59.913
N828 X97.646 Y60.58
N829 X96.987 Y61.22
N830 X96.301 Y61.832
N831 X95.59 Y62.415
N832 X95.408 Y62.551
N833 X94.902 Y62.914
N834 X94.04 Y63.447
N835 X93.441 Y63.816
N836 X93.359 Y63.864
N837 X91.981 Y64.556
N838 X91.772 Y64.65
N839 X91.355 Y64.835
N840 X91.186 Y64.908
N841 X89.894 Y65.418
N842 X89.686 Y65.489
N843 X88.434 Y65.861
N844 X88.225 Y65.917
N845 X87.808 Y66.027
N846 X87.599 Y66.079
N847 X86.347 Y66.331
N848 X86.131 Y66.37
N849 X85.513 Y66.457
N850 X84.261 Y66.597
N851 X84.052 Y66.618
N852 X83.426 Y66.636
N853 X82.8 Y66.65
N854 X82.592 Y66.654
N855 X81.966 Y66.657
N856 X81.757 Y66.646
N857 X80.505 Y66.563
N858 X79.879 Y66.5
N859 X79.67 Y66.47
N860 X78.419 Y66.274
N861 X78.21 Y66.233
N862 X77.793 Y66.139
N863 X77.584 Y66.091
N864 X76.332 Y65.78
N865 X76.204 Y65.743
N866 X76.123 Y65.717
N867 X74.871 Y65.285
N868 X74.663 Y65.211
N869 X74.409 Y65.117
N870 X74.246 Y65.055
N871 X72.785 Y64.402
N872 X72.576 Y64.305
N873 X71.533 Y63.725
N874 X71.324 Y63.609
N875 X71.116 Y63.488
N876 X70.49 Y63.094
N877 X70.392 Y63.029
N878 X69.778 Y62.612
N879 X69.238 Y62.236
N880 X69.179 Y62.194
N881 X67.986 Y61.218
N882 X67.907 Y61.15
N883 X67.669 Y60.941
N884 X67.569 Y60.851
N885 X66.808 Y60.106
N886 X66.734 Y60.033
N887 X66.197 Y59.48
N888 X66.108 Y59.381
N889 X65.478 Y58.645
N890 X65.274 Y58.394
N891 X64.97 Y58.018
N892 X64.856 Y57.874
N893 X64.022 Y56.704
N894 X63.922 Y56.557
N895 X63.813 Y56.384
N896 X63.056 Y55.096
N897 X62.978 Y54.949
N898 X62.736 Y54.469
N899 X62.632 Y54.26
N900 X62.336 Y53.634
N901 X62.054 Y53.008
N902 X61.968 Y52.799
N903 X61.505 Y51.546
N904 X61.436 Y51.338
N905 X61.309 Y50.92
N906 X61.246 Y50.711
N907 X60.892 Y49.405
N908 X60.856 Y49.25
N909 X60.632 Y47.997
N910 X60.598 Y47.788
N911 X60.503 Y47.162
N912 X60.392 Y45.909
N913 X60.376 Y45.7
N914 X60.352 Y45.074
N915 X60.35 Y44.865
N916 Y43.613
N917 X60.364 Y43.404
N918 X60.394 Y42.986
N919 X60.411 Y42.778
N920 X60.467 Y42.151
N921 X60.527 Y41.525
N922 X60.558 Y41.316
N923 X60.782 Y40.063
N924 X60.825 Y39.855
N925 X60.915 Y39.437
N926 X60.964 Y39.228
N927 X61.309 Y37.958
N928 X61.368 Y37.767
N929 X61.584 Y37.141
N930 X61.815 Y36.514
N931 X61.894 Y36.305
N932 X62.055 Y35.888
N933 X62.14 Y35.679
N934 X62.77 Y34.35
N935 X62.838 Y34.218
N936 X63.187 Y33.583
N937 X63.604 Y32.872
N938 X63.933 Y32.339
N939 X64.022 Y32.196
N940 X64.665 Y31.295
N941 X64.967 Y30.877
N942 X65.065 Y30.743
N943 X65.124 Y30.668
N944 X66.197 Y29.416
N945 X66.317 Y29.276
N946 X67.026 Y28.581
N947 X67.569 Y28.049
N948 X67.777 Y27.854
N949 X67.986 Y27.682
N950 X69.029 Y26.829
N951 X69.486 Y26.493
N952 X69.655 Y26.372
N953 X70.49 Y25.804
N954 X70.698 Y25.666
N955 X71.116 Y25.411
N956 X71.324 Y25.291
N957 X72.368 Y24.711
N958 X72.576 Y24.595
N959 X72.785 Y24.498
N960 X74.037 Y23.938
N961 X74.663 Y23.691
N962 X74.871 Y23.615
N963 X76.123 Y23.183
N964 X76.222 Y23.152
N965 X76.958 Y22.964
N966 X77.584 Y22.809
N967 X78.001 Y22.714
N968 X78.21 Y22.667
N969 X78.419 Y22.626
N970 X79.67 Y22.43
N971 X79.879 Y22.403
N972 X80.505 Y22.337
N973 X81.757 Y22.254
N974 X81.966 Y22.243
N975 X82.592 Y22.246
N976 X83.009 Y22.255
N977 X83.426 Y22.264
N978 X84.052 Y22.282
N979 X84.261 Y22.303
N980 X85.513 Y22.443
N981 X86.139 Y22.531
N982 X86.347 Y22.569
N983 X87.599 Y22.821
N984 X87.808 Y22.871
N985 X88.225 Y22.982
N986 X88.434 Y23.039
N987 X89.686 Y23.411
N988 X89.894 Y23.482
N989 X91.175 Y23.987
N990 X91.355 Y24.063
N991 X91.772 Y24.244
N992 X91.981 Y24.344
N993 X93.35 Y25.031
N994 X93.441 Y25.084
N995 X94.709 Y25.866
N996 X94.902 Y25.993
N997 X95.319 Y26.287
N998 X95.528 Y26.434
N999 X96.445 Y27.119
N1000 X96.571 Y27.225
N1001 X96.939 Y27.537
N1002 X96.988 Y27.579
N1003 X98.032 Y28.513
N1004 X98.104 Y28.581
N1005 X99.284 Y29.841
N1006 X99.464 Y30.042
N1007 X100.536 Y31.411
N1008 X100.599 Y31.503
N1009 X101.02 Y32.13
N1010 X101.426 Y32.756
N1011 X101.555 Y32.965
N1012 X101.799 Y33.382
N1013 X101.921 Y33.591
N1014 X102.252 Y34.218
N1015 X102.622 Y34.93
N1016 X102.681 Y35.053
N1017 X103.248 Y36.4
N1018 X103.38 Y36.723
N1019 X103.457 Y36.943
N1020 X103.921 Y38.393
N1021 X103.986 Y38.602
N1022 X104.13 Y39.228
N1023 X104.291 Y39.944
N1024 X104.317 Y40.063
N1025 X104.442 Y40.69
N1026 X104.473 Y40.899
N1027 X104.64 Y42.151
N1028 X104.694 Y42.778
N1029 X104.707 Y42.986
N1030 X104.763 Y44.239
N1031 X104.762 Y44.448
N1032 X104.744 Y45.074
N1033 X104.717 Y45.7
N1034 X104.686 Y46.327
N1035 X104.669 Y46.536
N1036 X104.5 Y47.799
N1037 X104.47 Y47.997
N1038 X104.401 Y48.415
N1039 X104.366 Y48.623
N1040 X104.083 Y49.884
N1041 X104.034 Y50.085
N1042 X103.854 Y50.711
N1043 X103.789 Y50.92
N1044 X103.455 Y51.964
N1045 X103.385 Y52.173
N1046 X103.248 Y52.5
N1047 X102.771 Y53.634
N1048 X102.681 Y53.843
N1049 X102.473 Y54.26
N1050 X102.413 Y54.378
N1051 X101.996 Y55.166
N1052 X101.696 Y55.722
N1053 X101.564 Y55.931
N1054 X100.744 Y57.195
N1055 X100.536 Y57.489
N1056 X99.701 Y58.556
N1057 X99.63 Y58.645
N1058 X99.268 Y59.062
N1059 X99.075 Y59.282
N1060 X98.449 Y59.951
N1061 X98.302 Y60.106
N1062 X98.032 Y60.384
N1063 X97.823 Y60.574
N1064 X96.946 Y61.359
N1065 X96.78 Y61.505
N1066 X96.363 Y61.837
N1067 X96.154 Y61.998
N1068 X95.528 Y62.466
N1069 X95.408 Y62.551
N1070 X95.358 Y62.573 Z-3.042
N1071 X95.31 Y62.594 Z-3.023
N1072 X95.267 Y62.613 Z-2.993
N1073 X95.231 Y62.628 Z-2.954
N1074 X95.203 Y62.64 Z-2.907
N1075 X95.185 Y62.644 Z-2.854
N1076 X95.179 Y62.646 Z-2.799
N1077 G0 Z5.08
N1078 X79.721 Y43.402
N1079 Z0.127
N1080 G1 Z-0.508 F1016
N1081 G3 X85.378 Y45.497 Z-0.839 I2.829 J1.047
N1082 X79.721 Y43.402 Z-1.17 I-2.829 J-1.047
N1083 X85.378 Y45.497 Z-1.501 I2.829 J1.047
N1084 X79.721 Y43.402 Z-1.832 I-2.829 J-1.047
N1085 X85.378 Y45.497 Z-2.163 I2.829 J1.047
N1086 X79.721 Y43.402 Z-2.493 I-2.829 J-1.047
N1087 X85.378 Y45.497 Z-2.824 I2.829 J1.047
N1088 X79.721 Y43.402 Z-3.155 I-2.829 J-1.047
N1089 X85.378 Y45.497 Z-3.486 I2.829 J1.047
N1090 X79.721 Y43.402 Z-3.817 I-2.829 J-1.047
N1091 X85.378 Y45.497 Z-4.148 I2.829 J1.047
N1092 X79.721 Y43.402 Z-4.479 I-2.829 J-1.047
N1093 X85.378 Y45.497 Z-4.81 I2.829 J1.047
N1094 X79.721 Y43.402 Z-5.141 I-2.829 J-1.047
N1095 X85.378 Y45.497 Z-5.472 I2.829 J1.047
N1096 X79.721 Y43.402 Z-5.802 I-2.829 J-1.047
N1097 X85.566 Y44.45 Z-6.096 I2.829 J1.047
N1098 X79.533 I-3.016 J0
N1099 X85.459 Y43.652 I3.016 J0
N1100 X85.566 Y44.45 I-2.909 J0.797
N1101 G1 X85.57 Y44.679
N1102 X85.727 Y45.585
N1103 X85.781 Y45.727
N1104 X85.818 Y45.875
N1105 X85.84 Y46.026
N1106 X85.848 Y46.178
N1107 X85.843 Y46.338
N1108 X85.824 Y46.508
N1109 X85.789 Y46.688
N1110 X85.737 Y46.876
N1111 X85.666 Y47.069
N1112 X85.575 Y47.267
N1113 X85.463 Y47.467
N1114 X85.329 Y47.666
N1115 X85.172 Y47.863
N1116 X84.993 Y48.053
N1117 X84.792 Y48.236
N1118 X84.569 Y48.408
N1119 X84.326 Y48.566
N1120 X84.062 Y48.709
N1121 X83.781 Y48.833
N1122 X83.483 Y48.937
N1123 X83.171 Y49.019
N1124 X82.847 Y49.076
N1125 X82.513 Y49.107
N1126 X82.172 Y49.112
N1127 X81.826 Y49.089
N1128 X81.48 Y49.038
N1129 X81.134 Y48.958
N1130 X80.792 Y48.85
N1131 X80.456 Y48.713
N1132 X80.131 Y48.548
N1133 X79.817 Y48.357
N1134 X79.517 Y48.139
N1135 X79.234 Y47.897
N1136 X78.971 Y47.631
N1137 X78.728 Y47.344
N1138 X78.509 Y47.037
N1139 X78.314 Y46.712
N1140 X78.145 Y46.372
N1141 X78.004 Y46.018
N1142 X77.891 Y45.653
N1143 X77.808 Y45.28
N1144 X77.755 Y44.9
N1145 X77.732 Y44.517
N1146 X77.741 Y44.133
N1147 X77.78 Y43.75
N1148 X77.85 Y43.371
N1149 X77.95 Y42.999
N1150 X78.08 Y42.635
N1151 X78.239 Y42.283
N1152 X78.425 Y41.945
N1153 X78.639 Y41.623
N1154 X78.877 Y41.318
N1155 X79.139 Y41.034
N1156 X79.424 Y40.771
N1157 X79.728 Y40.532
N1158 X80.051 Y40.319
N1159 X80.39 Y40.131
N1160 X80.743 Y39.972
N1161 X81.108 Y39.841
N1162 X81.482 Y39.74
N1163 X81.864 Y39.67
N1164 X82.249 Y39.63
N1165 X82.637 Y39.621
N1166 X83.024 Y39.644
N1167 X83.408 Y39.697
N1168 X83.786 Y39.781
N1169 X84.157 Y39.895
N1170 X84.517 Y40.039
N1171 X84.865 Y40.211
N1172 X85.197 Y40.411
N1173 X85.513 Y40.636
N1174 X85.81 Y40.886
N1175 X86.085 Y41.159
N1176 X86.338 Y41.453
N1177 X86.566 Y41.767
N1178 X86.82 Y42.182
N1179 X87.224 Y42.98
N1180 X87.471 Y43.586
N1181 X87.64 Y44.117
N1182 X87.752 Y44.6
N1183 X87.82 Y45.062
N1184 X87.85 Y45.511
N1185 X87.844 Y45.945
N1186 X87.804 Y46.368
N1187 X87.731 Y46.782
N1188 X87.626 Y47.186
N1189 X87.489 Y47.581
N1190 X87.32 Y47.964
N1191 X87.119 Y48.335
N1192 X86.888 Y48.692
N1193 X86.626 Y49.031
N1194 X86.335 Y49.352
N1195 X86.015 Y49.652
N1196 X85.668 Y49.929
N1197 X85.295 Y50.181
N1198 X84.896 Y50.405
N1199 X84.476 Y50.599
N1200 X84.035 Y50.761
N1201 X83.577 Y50.889
N1202 X83.104 Y50.98
N1203 X82.62 Y51.034
N1204 X82.128 Y51.049
N1205 X81.631 Y51.025
N1206 X81.133 Y50.96
N1207 X80.638 Y50.854
N1208 X80.149 Y50.708
N1209 X79.67 Y50.521
N1210 X79.204 Y50.295
N1211 X78.755 Y50.031
N1212 X78.327 Y49.731
N1213 X77.921 Y49.394
N1214 X77.543 Y49.025
N1215 X77.193 Y48.625
N1216 X76.876 Y48.196
N1217 X76.593 Y47.742
N1218 X76.346 Y47.264
N1219 X76.139 Y46.767
N1220 X75.971 Y46.254
N1221 X75.844 Y45.728
N1222 X75.76 Y45.192
N1223 X75.72 Y44.65
N1224 X75.723 Y44.106
N1225 X75.769 Y43.563
N1226 X75.86 Y43.024
N1227 X75.993 Y42.495
N1228 X76.168 Y41.977
N1229 X76.385 Y41.474
N1230 X76.642 Y40.99
N1231 X76.936 Y40.528
N1232 X77.268 Y40.091
N1233 X77.633 Y39.681
N1234 X78.03 Y39.302
N1235 X78.456 Y38.956
N1236 X78.909 Y38.646
N1237 X79.386 Y38.372
N1238 X79.883 Y38.138
N1239 X80.398 Y37.944
N1240 X80.926 Y37.792
N1241 X81.465 Y37.683
N1242 X82.011 Y37.618
N1243 X82.561 Y37.596
N1244 X83.111 Y37.619
N1245 X83.657 Y37.686
N1246 X84.196 Y37.796
N1247 X84.724 Y37.95
N1248 X85.239 Y38.145
N1249 X85.736 Y38.381
N1250 X86.213 Y38.656
N1251 X86.666 Y38.969
N1252 X87.108 Y39.329
N1253 X87.586 Y39.788
N1254 X88.037 Y40.296
N1255 X88.46 Y40.858
N1256 X88.84 Y41.456
N1257 X89.164 Y42.072
N1258 X89.432 Y42.697
N1259 X89.643 Y43.324
N1260 X89.799 Y43.952
N1261 X89.902 Y44.577
N1262 X89.954 Y45.2
N1263 X89.955 Y45.817
N1264 X89.908 Y46.426
N1265 X89.813 Y47.024
N1266 X89.67 Y47.611
N1267 X89.482 Y48.182
N1268 X89.248 Y48.737
N1269 X88.971 Y49.271
N1270 X88.65 Y49.782
N1271 X88.288 Y50.269
N1272 X87.886 Y50.727
N1273 X87.446 Y51.154
N1274 X86.969 Y51.548
N1275 X86.458 Y51.904
N1276 X85.916 Y52.221
N1277 X85.345 Y52.496
N1278 X84.749 Y52.727
N1279 X84.131 Y52.91
N1280 X83.495 Y53.044
N1281 X82.846 Y53.127
N1282 X82.188 Y53.158
N1283 X81.524 Y53.136
N1284 X80.86 Y53.06
N1285 X80.2 Y52.93
N1286 X79.549 Y52.747
N1287 X78.91 Y52.511
N1288 X78.289 Y52.222
N1289 X77.691 Y51.883
N1290 X77.118 Y51.495
N1291 X76.576 Y51.06
N1292 X76.069 Y50.582
N1293 X75.6 Y50.062
N1294 X75.172 Y49.504
N1295 X74.79 Y48.912
N1296 X74.455 Y48.289
N1297 X74.17 Y47.639
N1298 X73.938 Y46.967
N1299 X73.761 Y46.277
N1300 X73.639 Y45.574
N1301 X73.574 Y44.862
N1302 X73.566 Y44.146
N1303 X73.615 Y43.431
N1304 X73.722 Y42.721
N1305 X73.886 Y42.021
N1306 X74.106 Y41.336
N1307 X74.38 Y40.671
N1308 X74.707 Y40.029
N1309 X75.084 Y39.415
N1310 X75.51 Y38.833
N1311 X75.982 Y38.286
N1312 X76.496 Y37.779
N1313 X77.049 Y37.315
N1314 X77.638 Y36.897
N1315 X78.259 Y36.527
N1316 X78.907 Y36.208
N1317 X79.579 Y35.942
N1318 X80.271 Y35.731
N1319 X80.977 Y35.576
N1320 X81.694 Y35.478
N1321 X82.416 Y35.438
N1322 X83.14 Y35.456
N1323 X83.859 Y35.532
N1324 X84.57 Y35.666
N1325 X85.269 Y35.856
N1326 X85.949 Y36.102
N1327 X86.612 Y36.403
N1328 X87.272 Y36.77
N1329 X87.921 Y37.202
N1330 X88.551 Y37.699
N1331 X89.154 Y38.259
N1332 X89.719 Y38.874
N1333 X90.236 Y39.537
N1334 X90.698 Y40.24
N1335 X91.1 Y40.974
N1336 X91.44 Y41.732
N1337 X91.715 Y42.509
N1338 X91.925 Y43.298
N1339 X92.07 Y44.095
N1340 X92.15 Y44.895
N1341 X92.165 Y45.693
N1342 X92.117 Y46.485
N1343 X92.006 Y47.266
N1344 X91.833 Y48.034
N1345 X91.599 Y48.783
N1346 X91.306 Y49.511
N1347 X90.956 Y50.213
N1348 X90.55 Y50.886
N1349 X90.09 Y51.526
N1350 X89.578 Y52.129
N1351 X89.017 Y52.691
N1352 X88.41 Y53.209
N1353 X87.76 Y53.679
N1354 X87.07 Y54.098
N1355 X86.345 Y54.462
N1356 X85.588 Y54.768
N1357 X84.805 Y55.015
N1358 X83.999 Y55.198
N1359 X83.177 Y55.318
N1360 X82.342 Y55.371
N1361 X81.502 Y55.356
N1362 X80.661 Y55.275
N1363 X79.825 Y55.125
N1364 X78.999 Y54.907
N1365 X78.19 Y54.622
N1366 X77.403 Y54.272
N1367 X76.643 Y53.858
N1368 X75.916 Y53.382
N1369 X75.226 Y52.848
N1370 X74.58 Y52.258
N1371 X73.981 Y51.616
N1372 X73.434 Y50.925
N1373 X72.942 Y50.191
N1374 X72.511 Y49.418
N1375 X72.141 Y48.611
N1376 X71.837 Y47.775
N1377 X71.601 Y46.916
N1378 X71.434 Y46.039
N1379 X71.337 Y45.15
N1380 X71.313 Y44.255
N1381 X71.36 Y43.36
N1382 X71.479 Y42.47
N1383 X71.67 Y41.592
N1384 X71.93 Y40.731
N1385 X72.259 Y39.894
N1386 X72.655 Y39.084
N1387 X73.114 Y38.309
N1388 X73.635 Y37.573
N1389 X74.213 Y36.88
N1390 X74.845 Y36.236
N1391 X75.527 Y35.644
N1392 X76.254 Y35.109
N1393 X77.023 Y34.634
N1394 X77.827 Y34.222
N1395 X78.662 Y33.876
N1396 X79.522 Y33.598
N1397 X80.402 Y33.389
N1398 X81.296 Y33.252
N1399 X82.198 Y33.188
N1400 X83.102 Y33.195
N1401 X84.003 Y33.276
N1402 X84.896 Y33.428
N1403 X85.778 Y33.653
N1404 X86.648 Y33.951
N1405 X87.49 Y34.317
N1406 X88.301 Y34.749
N1407 X89.076 Y35.244
N1408 X89.811 Y35.795
N1409 X90.503 Y36.401
N1410 X91.147 Y37.056
N1411 X91.743 Y37.756
N1412 X92.286 Y38.497
N1413 X92.774 Y39.276
N1414 X93.204 Y40.088
N1415 X93.575 Y40.929
N1416 X93.882 Y41.795
N1417 X94.124 Y42.682
N1418 X94.299 Y43.584
N1419 X94.406 Y44.497
N1420 X94.443 Y45.415
N1421 X94.412 Y46.333
N1422 X94.312 Y47.247
N1423 X94.142 Y48.15
N1424 X93.905 Y49.038
N1425 X93.601 Y49.905
N1426 X93.232 Y50.747
N1427 X92.8 Y51.558
N1428 X92.308 Y52.335
N1429 X91.759 Y53.071
N1430 X91.156 Y53.765
N1431 X90.502 Y54.411
N1432 X89.802 Y55.006
N1433 X89.059 Y55.547
N1434 X88.278 Y56.031
N1435 X87.462 Y56.454
N1436 X86.617 Y56.815
N1437 X85.747 Y57.113
N1438 X84.858 Y57.346
N1439 X83.955 Y57.514
N1440 X83.042 Y57.616
N1441 X82.123 Y57.653
N1442 X81.205 Y57.624
N1443 X80.291 Y57.529
N1444 X79.386 Y57.368
N1445 X78.495 Y57.142
N1446 X77.623 Y56.853
N1447 X76.773 Y56.502
N1448 X75.95 Y56.093
N1449 X75.158 Y55.628
N1450 X74.399 Y55.109
N1451 X73.679 Y54.539
N1452 X73 Y53.919
N1453 X72.368 Y53.252
N1454 X71.783 Y52.543
N1455 X71.249 Y51.795
N1456 X70.768 Y51.012
N1457 X70.34 Y50.198
N1458 X69.969 Y49.358
N1459 X69.657 Y48.493
N1460 X69.407 Y47.609
N1461 X69.219 Y46.709
N1462 X69.093 Y45.799
N1463 X69.028 Y44.882
N1464 X69.025 Y43.963
N1465 X69.084 Y43.046
N1466 X69.207 Y42.135
N1467 X69.393 Y41.235
N1468 X69.64 Y40.35
N1469 X69.946 Y39.484
N1470 X70.31 Y38.64
N1471 X70.728 Y37.821
N1472 X71.202 Y37.034
N1473 X71.73 Y36.282
N1474 X72.309 Y35.568
N1475 X72.934 Y34.894
N1476 X73.603 Y34.264
N1477 X74.312 Y33.68
N1478 X75.059 Y33.144
N1479 X75.842 Y32.662
N1480 X76.656 Y32.236
N1481 X77.497 Y31.865
N1482 X78.361 Y31.552
N1483 X79.244 Y31.297
N1484 X80.141 Y31.101
N1485 X81.051 Y30.967
N1486 X81.967 Y30.897
N1487 X82.886 Y30.89
N1488 X83.803 Y30.944
N1489 X84.715 Y31.06
N1490 X85.617 Y31.235
N1491 X86.506 Y31.471
N1492 X87.376 Y31.767
N1493 X88.224 Y32.121
N1494 X89.047 Y32.53
N1495 X89.842 Y32.991
N1496 X90.606 Y33.501
N1497 X91.336 Y34.059
N1498 X92.029 Y34.663
N1499 X92.682 Y35.31
N1500 X93.294 Y35.996
N1501 X93.862 Y36.718
N1502 X94.386 Y37.473
N1503 X94.863 Y38.259
N1504 X95.289 Y39.073
N1505 X95.663 Y39.912
N1506 X95.984 Y40.774
N1507 X96.25 Y41.653
N1508 X96.462 Y42.547
N1509 X96.618 Y43.453
N1510 X96.717 Y44.367
N1511 X96.756 Y45.285
N1512 X96.736 Y46.204
N1513 X96.659 Y47.119
N1514 X96.524 Y48.029
N1515 X96.333 Y48.928
N1516 X96.085 Y49.813
N1517 X95.78 Y50.68
N1518 X95.42 Y51.525
N1519 X95.007 Y52.346
N1520 X94.543 Y53.139
N1521 X94.03 Y53.902
N1522 X93.471 Y54.631
N1523 X92.866 Y55.323
N1524 X92.217 Y55.974
N1525 X91.528 Y56.582
N1526 X90.803 Y57.146
N1527 X90.044 Y57.664
N1528 X89.254 Y58.135
N1529 X88.436 Y58.553
N1530 X87.593 Y58.919
N1531 X86.728 Y59.23
N1532 X85.846 Y59.488
N1533 X84.95 Y59.692
N1534 X84.043 Y59.842
N1535 X83.129 Y59.936
N1536 X82.211 Y59.973
N1537 X81.292 Y59.953
N1538 X80.376 Y59.877
N1539 X79.466 Y59.745
N1540 X78.566 Y59.559
N1541 X77.679 Y59.32
N1542 X76.808 Y59.028
N1543 X75.956 Y58.682
N1544 X75.127 Y58.286
N1545 X74.323 Y57.841
N1546 X73.546 Y57.35
N1547 X72.799 Y56.814
N1548 X72.086 Y56.235
N1549 X71.408 Y55.614
N1550 X70.77 Y54.953
N1551 X70.173 Y54.254
N1552 X69.617 Y53.523
N1553 X69.104 Y52.76
N1554 X68.635 Y51.969
N1555 X68.214 Y51.153
N1556 X67.843 Y50.312
N1557 X67.523 Y49.45
N1558 X67.255 Y48.571
N1559 X67.038 Y47.678
N1560 X66.872 Y46.774
N1561 X66.758 Y45.862
N1562 X66.697 Y44.945
N1563 X66.691 Y44.026
N1564 X66.74 Y43.109
N1565 X66.843 Y42.195
N1566 X66.998 Y41.29
N1567 X67.204 Y40.394
N1568 X67.461 Y39.512
N1569 X67.769 Y38.646
N1570 X68.128 Y37.8
N1571 X68.536 Y36.976
N1572 X68.992 Y36.178
N1573 X69.492 Y35.407
N1574 X70.036 Y34.666
N1575 X70.621 Y33.957
N1576 X71.246 Y33.284
N1577 X71.91 Y32.649
N1578 X72.61 Y32.053
N1579 X73.343 Y31.499
N1580 X74.107 Y30.988
N1581 X74.899 Y30.522
N1582 X75.716 Y30.101
N1583 X76.557 Y29.73
N1584 X77.418 Y29.408
N1585 X78.296 Y29.137
N1586 X79.188 Y28.916
N1587 X80.091 Y28.747
N1588 X81.003 Y28.63
N1589 X81.92 Y28.566
N1590 X82.839 Y28.557
N1591 X83.757 Y28.6
N1592 X84.671 Y28.697
N1593 X85.578 Y28.845
N1594 X86.475 Y29.045
N1595 X87.359 Y29.295
N1596 X88.228 Y29.595
N1597 X89.077 Y29.945
N1598 X89.906 Y30.343
N1599 X90.711 Y30.786
N1600 X91.49 Y31.273
N1601 X92.242 Y31.801
N1602 X92.964 Y32.37
N1603 X93.654 Y32.977
N1604 X94.31 Y33.621
N1605 X94.929 Y34.3
N1606 X95.511 Y35.011
N1607 X96.055 Y35.752
N1608 X96.558 Y36.521
N1609 X97.02 Y37.316
N1610 X97.439 Y38.134
N1611 X97.813 Y38.973
N1612 X98.14 Y39.832
N1613 X98.42 Y40.707
N1614 X98.653 Y41.596
N1615 X98.838 Y42.496
N1616 X98.975 Y43.405
N1617 X99.062 Y44.32
N1618 X99.099 Y45.238
N1619 X99.084 Y46.157
N1620 X99.019 Y47.074
N1621 X98.905 Y47.986
N1622 X98.742 Y48.89
N1623 X98.53 Y49.785
N1624 X98.27 Y50.666
N1625 X97.961 Y51.532
N1626 X97.605 Y52.379
N1627 X97.202 Y53.205
N1628 X96.755 Y54.008
N1629 X96.266 Y54.786
N1630 X95.735 Y55.536
N1631 X95.164 Y56.256
N1632 X94.555 Y56.945
N1633 X93.908 Y57.598
N1634 X93.227 Y58.214
N1635 X92.513 Y58.792
N1636 X91.768 Y59.332
N1637 X90.996 Y59.83
N1638 X90.199 Y60.287
N1639 X89.378 Y60.7
N1640 X88.535 Y61.066
N1641 X87.674 Y61.387
N1642 X86.796 Y61.66
N1643 X85.906 Y61.887
N1644 X85.005 Y62.067
N1645 X84.095 Y62.2
N1646 X83.18 Y62.285
N1647 X82.262 Y62.32
N1648 X81.343 Y62.306
N1649 X80.426 Y62.242
N1650 X79.514 Y62.131
N1651 X78.608 Y61.973
N1652 X77.713 Y61.767
N1653 X76.829 Y61.516
N1654 X75.959 Y61.219
N1655 X75.106 Y60.876
N1656 X74.273 Y60.488
N1657 X73.461 Y60.058
N1658 X72.672 Y59.587
N1659 X71.908 Y59.076
N1660 X71.171 Y58.527
N1661 X70.463 Y57.941
N1662 X69.787 Y57.318
N1663 X69.145 Y56.661
N1664 X68.538 Y55.971
N1665 X67.966 Y55.251
N1666 X67.432 Y54.504
N1667 X66.936 Y53.73
N1668 X66.48 Y52.932
N1669 X66.064 Y52.112
N1670 X65.693 Y51.272
N1671 X65.366 Y50.413
N1672 X65.083 Y49.538
N1673 X64.845 Y48.651
N1674 X64.651 Y47.753
N1675 X64.502 Y46.846
N1676 X64.399 Y45.932
N1677 X64.343 Y45.015
N1678 X64.335 Y44.096
N1679 X64.374 Y43.178
N1680 X64.46 Y42.263
N1681 X64.591 Y41.353
N1682 X64.768 Y40.451
N1683 X64.989 Y39.559
N1684 X65.254 Y38.68
N1685 X65.565 Y37.815
N1686 X65.919 Y36.967
N1687 X66.317 Y36.138
N1688 X66.756 Y35.331
N1689 X67.235 Y34.546
N1690 X67.752 Y33.787
N1691 X68.306 Y33.054
N1692 X68.897 Y32.349
N1693 X69.522 Y31.676
N1694 X70.182 Y31.036
N1695 X70.873 Y30.431
N1696 X71.594 Y29.86
N1697 X72.342 Y29.327
N1698 X73.116 Y28.831
N1699 X73.914 Y28.375
N1700 X74.733 Y27.959
N1701 X75.573 Y27.586
N1702 X76.431 Y27.256
N1703 X77.305 Y26.971
N1704 X78.191 Y26.729
N1705 X79.089 Y26.532
N1706 X79.995 Y26.379
N1707 X80.908 Y26.272
N1708 X81.825 Y26.211
N1709 X82.744 Y26.198
N1710 X83.662 Y26.231
N1711 X84.578 Y26.311
N1712 X85.488 Y26.436
N1713 X86.392 Y26.606
N1714 X87.285 Y26.819
N1715 X88.168 Y27.077
N1716 X89.036 Y27.379
N1717 X89.887 Y27.724
N1718 X90.721 Y28.111
N1719 X91.535 Y28.538
N1720 X92.327 Y29.004
N1721 X93.096 Y29.507
N1722 X93.84 Y30.046
N1723 X94.558 Y30.62
N1724 X95.247 Y31.228
N1725 X95.906 Y31.869
N1726 X96.533 Y32.541
N1727 X97.128 Y33.241
N1728 X97.689 Y33.969
N1729 X98.216 Y34.722
N1730 X98.707 Y35.499
N1731 X99.162 Y36.297
N1732 X99.578 Y37.117
N1733 X99.954 Y37.955
N1734 X100.289 Y38.811
N1735 X100.583 Y39.682
N1736 X100.836 Y40.565
N1737 X101.047 Y41.46
N1738 X101.216 Y42.363
N1739 X101.342 Y43.274
N1740 X101.425 Y44.189
N1741 X101.463 Y45.107
N1742 X101.456 Y46.026
N1743 X101.406 Y46.944
N1744 X101.311 Y47.858
N1745 X101.173 Y48.766
N1746 X100.993 Y49.668
N1747 X100.77 Y50.559
N1748 X100.506 Y51.439
N1749 X100.198 Y52.305
N1750 X99.848 Y53.155
N1751 X99.458 Y53.987
N1752 X99.028 Y54.799
N1753 X98.56 Y55.591
N1754 X98.056 Y56.359
N1755 X97.516 Y57.102
N1756 X96.941 Y57.82
N1757 X96.332 Y58.508
N1758 X95.69 Y59.165
N1759 X95.017 Y59.791
N1760 X94.315 Y60.384
N1761 X93.585 Y60.943
N1762 X92.831 Y61.468
N1763 X92.052 Y61.956
N1764 X91.252 Y62.408
N1765 X90.431 Y62.82
N1766 X89.59 Y63.192
N1767 X88.733 Y63.523
N1768 X87.861 Y63.814
N1769 X86.977 Y64.064
N1770 X86.082 Y64.273
N1771 X85.178 Y64.44
N1772 X84.268 Y64.566
N1773 X83.352 Y64.649
N1774 X82.434 Y64.687
N1775 X81.515 Y64.683
N1776 X80.597 Y64.635
N1777 X79.683 Y64.545
N1778 X78.773 Y64.413
N1779 X77.871 Y64.24
N1780 X76.977 Y64.026
N1781 X76.094 Y63.772
N1782 X75.224 Y63.476
N1783 X74.368 Y63.14
N1784 X73.53 Y62.764
N1785 X72.709 Y62.351
N1786 X71.908 Y61.9
N1787 X71.128 Y61.414
N1788 X70.37 Y60.894
N1789 X69.637 Y60.34
N1790 X68.93 Y59.753
N1791 X68.251 Y59.133
N1792 X67.602 Y58.483
N1793 X66.982 Y57.804
N1794 X66.394 Y57.098
N1795 X65.839 Y56.366
N1796 X65.316 Y55.61
N1797 X64.827 Y54.832
N1798 X64.374 Y54.032
N1799 X63.958 Y53.213
N1800 X63.58 Y52.375
N1801 X63.242 Y51.521
N1802 X62.942 Y50.652
N1803 X62.681 Y49.771
N1804 X62.459 Y48.879
N1805 X62.277 Y47.978
N1806 X62.134 Y47.07
N1807 X62.033 Y46.157
N1808 X61.974 Y45.24
N1809 X61.957 Y44.321
N1810 X61.982 Y43.402
N1811 X62.048 Y42.485
N1812 X62.154 Y41.572
N1813 X62.3 Y40.665
N1814 X62.486 Y39.765
N1815 X62.712 Y38.874
N1816 X62.977 Y37.994
N1817 X63.283 Y37.128
N1818 X63.628 Y36.276
N1819 X64.011 Y35.441
N1820 X64.431 Y34.623
N1821 X64.886 Y33.825
N1822 X65.376 Y33.047
N1823 X65.899 Y32.292
N1824 X66.456 Y31.56
N1825 X67.045 Y30.855
N1826 X67.666 Y30.177
N1827 X68.317 Y29.528
N1828 X68.996 Y28.909
N1829 X69.702 Y28.321
N1830 X70.433 Y27.764
N1831 X71.188 Y27.24
N1832 X71.965 Y26.749
N1833 X72.763 Y26.293
N1834 X73.581 Y25.875
N1835 X74.417 Y25.494
N1836 X75.27 Y25.151
N1837 X76.137 Y24.847
N1838 X77.017 Y24.581
N1839 X77.907 Y24.354
N1840 X78.807 Y24.166
N1841 X79.714 Y24.017
N1842 X80.627 Y23.91
N1843 X81.543 Y23.845
N1844 X82.462 Y23.821
N1845 X83.381 Y23.838
N1846 X84.298 Y23.896
N1847 X85.212 Y23.994
N1848 X86.121 Y24.132
N1849 X87.022 Y24.309
N1850 X87.916 Y24.525
N1851 X88.798 Y24.781
N1852 X89.669 Y25.076
N1853 X90.525 Y25.41
N1854 X91.366 Y25.781
N1855 X92.189 Y26.188
N1856 X92.995 Y26.63
N1857 X93.782 Y27.106
N1858 X94.547 Y27.614
N1859 X95.291 Y28.155
N1860 X96.01 Y28.727
N1861 X96.703 Y29.33
N1862 X97.37 Y29.962
N1863 X98.01 Y30.622
N1864 X98.621 Y31.308
N1865 X99.203 Y32.02
N1866 X99.755 Y32.754
N1867 X100.276 Y33.511
N1868 X100.765 Y34.289
N1869 X101.221 Y35.087
N1870 X101.642 Y35.904
N1871 X102.027 Y36.739
N1872 X102.377 Y37.589
N1873 X102.69 Y38.453
N1874 X102.967 Y39.329
N1875 X103.207 Y40.216
N1876 X103.411 Y41.112
N1877 X103.577 Y42.016
N1878 X103.704 Y42.926
N1879 X103.791 Y43.841
N1880 X103.839 Y44.759
N1881 X103.847 Y45.678
N1882 X103.817 Y46.596
N1883 X103.747 Y47.513
N1884 X103.64 Y48.426
N1885 X103.494 Y49.333
N1886 X103.311 Y50.233
N1887 X103.089 Y51.125
N1888 X102.828 Y52.007
N1889 X102.529 Y52.876
N1890 X102.193 Y53.731
N1891 X101.821 Y54.571
N1892 X101.414 Y55.395
N1893 X100.972 Y56.201
N1894 X100.498 Y56.988
N1895 X99.991 Y57.755
N1896 X99.451 Y58.499
N1897 X98.88 Y59.218
N1898 X98.277 Y59.913
N1899 X97.646 Y60.58
N1900 X96.987 Y61.22
N1901 X96.301 Y61.832
N1902 X95.59 Y62.415
N1903 X95.408 Y62.551
N1904 X94.902 Y62.914
N1905 X94.04 Y63.447
N1906 X93.441 Y63.816
N1907 X93.359 Y63.864
N1908 X91.981 Y64.556
N1909 X91.772 Y64.65
N1910 X91.355 Y64.835
N1911 X91.186 Y64.908
N1912 X89.894 Y65.418
N1913 X89.686 Y65.489
N1914 X88.434 Y65.861
N1915 X88.225 Y65.917
N1916 X87.808 Y66.027
N1917 X87.599 Y66.079
N1918 X86.347 Y66.331
N1919 X86.131 Y66.37
N1920 X85.513 Y66.457
N1921 X84.261 Y66.597
N1922 X84.052 Y66.618
N1923 X83.426 Y66.636
N1924 X82.8 Y66.65
N1925 X82.592 Y66.654
N1926 X81.966 Y66.657
N1927 X81.757 Y66.646
N1928 X80.505 Y66.563
N1929 X79.879 Y66.5
N1930 X79.67 Y66.47
N1931 X78.419 Y66.274
N1932 X78.21 Y66.233
N1933 X77.793 Y66.139
N1934 X77.584 Y66.091
N1935 X76.332 Y65.78
N1936 X76.204 Y65.743
N1937 X76.123 Y65.717
N1938 X74.871 Y65.285
N1939 X74.663 Y65.211
N1940 X74.409 Y65.117
N1941 X74.246 Y65.055
N1942 X72.785 Y64.402
N1943 X72.576 Y64.305
N1944 X71.533 Y63.725
N1945 X71.324 Y63.609
N1946 X71.116 Y63.488
N1947 X70.49 Y63.094
N1948 X70.392 Y63.029
N1949 X69.778 Y62.612
N1950 X69.238 Y62.236
N1951 X69.179 Y62.194
N1952 X67.986 Y61.218
N1953 X67.907 Y61.15
N1954 X67.669 Y60.941
N1955 X67.569 Y60.851
N1956 X66.808 Y60.106
N1957 X66.734 Y60.033
N1958 X66.197 Y59.48
N1959 X66.108 Y59.381
N1960 X65.478 Y58.645
N1961 X65.274 Y58.394
N1962 X64.97 Y58.018
N1963 X64.856 Y57.874
N1964 X64.022 Y56.704
N1965 X63.922 Y56.557
N1966 X63.813 Y56.384
N1967 X63.056 Y55.096
N1968 X62.978 Y54.949
N1969 X62.736 Y54.469
N1970 X62.632 Y54.26
N1971 X62.336 Y53.634
N1972 X62.054 Y53.008
N1973 X61.968 Y52.799
N1974 X61.505 Y51.546
N1975 X61.436 Y51.338
N1976 X61.309 Y50.92
N1977 X61.246 Y50.711
N1978 X60.892 Y49.405
N1979 X60.856 Y49.25
N1980 X60.632 Y47.997
N1981 X60.598 Y47.788
N1982 X60.503 Y47.162
N1983 X60.392 Y45.909
N1984 X60.376 Y45.7
N1985 X60.352 Y45.074
N1986 X60.35 Y44.865
N1987 Y43.613
N1988 X60.364 Y43.404
N1989 X60.394 Y42.986
N1990 X60.411 Y42.778
N1991 X60.467 Y42.151
N1992 X60.527 Y41.525
N1993 X60.558 Y41.316
N1994 X60.782 Y40.063
N1995 X60.825 Y39.855
N1996 X60.915 Y39.437
N1997 X60.964 Y39.228
N1998 X61.309 Y37.958
N1999 X61.368 Y37.767
N2000 X61.584 Y37.141
N2001 X61.815 Y36.514
N2002 X61.894 Y36.305
N2003 X62.055 Y35.888
N2004 X62.14 Y35.679
N2005 X62.77 Y34.35
N2006 X62.838 Y34.218
N2007 X63.187 Y33.583
N2008 X63.604 Y32.872
N2009 X63.933 Y32.339
N2010 X64.022 Y32.196
N2011 X64.665 Y31.295
N2012 X64.967 Y30.877
N2013 X65.065 Y30.743
N2014 X65.124 Y30.668
N2015 X66.197 Y29.416
N2016 X66.317 Y29.276
N2017 X67.026 Y28.581
N2018 X67.569 Y28.049
N2019 X67.777 Y27.854
N2020 X67.986 Y27.682
N2021 X69.029 Y26.829
N2022 X69.486 Y26.493
N2023 X69.655 Y26.372
N2024 X70.49 Y25.804
N2025 X70.698 Y25.666
N2026 X71.116 Y25.411
N2027 X71.324 Y25.291
N2028 X72.368 Y24.711
N2029 X72.576 Y24.595
N2030 X72.785 Y24.498
N2031 X74.037 Y23.938
N2032 X74.663 Y23.691
N2033 X74.871 Y23.615
N2034 X76.123 Y23.183
N2035 X76.222 Y23.152
N2036 X76.958 Y22.964
N2037 X77.584 Y22.809
N2038 X78.001 Y22.714
N2039 X78.21 Y22.667
N2040 X78.419 Y22.626
N2041 X79.67 Y22.43
N2042 X79.879 Y22.403
N2043 X80.505 Y22.337
N2044 X81.757 Y22.254
N2045 X81.966 Y22.243
N2046 X82.592 Y22.246
N2047 X83.009 Y22.255
N2048 X83.426 Y22.264
N2049 X84.052 Y22.282
N2050 X84.261 Y22.303
N2051 X85.513 Y22.443
N2052 X86.139 Y22.531
N2053 X86.347 Y22.569
N2054 X87.599 Y22.821
N2055 X87.808 Y22.871
N2056 X88.225 Y22.982
N2057 X88.434 Y23.039
N2058 X89.686 Y23.411
N2059 X89.894 Y23.482
N2060 X91.175 Y23.987
N2061 X91.355 Y24.063
N2062 X91.772 Y24.244
N2063 X91.981 Y24.344
N2064 X93.35 Y25.031
N2065 X93.441 Y25.084
N2066 X94.709 Y25.866
N2067 X94.902 Y25.993
N2068 X95.319 Y26.287
N2069 X95.528 Y26.434
N2070 X96.445 Y27.119
N2071 X96.571 Y27.225
N2072 X96.939 Y27.537
N2073 X96.988 Y27.579
N2074 X98.032 Y28.513
N2075 X98.104 Y28.581
N2076 X99.284 Y29.841
N2077 X99.464 Y30.042
N2078 X100.536 Y31.411
N2079 X100.599 Y31.503
N2080 X101.02 Y32.13
N2081 X101.426 Y32.756
N2082 X101.555 Y32.965
N2083 X101.799 Y33.382
N2084 X101.921 Y33.591
N2085 X102.252 Y34.218
N2086 X102.622 Y34.93
N2087 X102.681 Y35.053
N2088 X103.248 Y36.4
N2089 X103.38 Y36.723
N2090 X103.457 Y36.943
N2091 X103.921 Y38.393
N2092 X103.986 Y38.602
N2093 X104.13 Y39.228
N2094 X104.291 Y39.944
N2095 X104.317 Y40.063
N2096 X104.442 Y40.69
N2097 X104.473 Y40.899
N2098 X104.64 Y42.151
N2099 X104.694 Y42.778
N2100 X104.707 Y42.986
N2101 X104.763 Y44.239
N2102 X104.762 Y44.448
N2103 X104.744 Y45.074
N2104 X104.717 Y45.7
N2105 X104.686 Y46.327
N2106 X104.669 Y46.536
N2107 X104.5 Y47.799
N2108 X104.47 Y47.997
N2109 X104.401 Y48.415
N2110 X104.366 Y48.623
N2111 X104.083 Y49.884
N2112 X104.034 Y50.085
N2113 X103.854 Y50.711
N2114 X103.789 Y50.92
N2115 X103.455 Y51.964
N2116 X103.385 Y52.173
N2117 X103.248 Y52.5
N2118 X102.771 Y53.634
N2119 X102.681 Y53.843
N2120 X102.473 Y54.26
N2121 X102.413 Y54.378
N2122 X101.996 Y55.166
N2123 X101.696 Y55.722
N2124 X101.564 Y55.931
N2125 X100.744 Y57.195
N2126 X100.536 Y57.489
N2127 X99.701 Y58.556
N2128 X99.63 Y58.645
N2129 X99.268 Y59.062
N2130 X99.075 Y59.282
N2131 X98.449 Y59.951
N2132 X98.302 Y60.106
N2133 X98.032 Y60.384
N2134 X97.823 Y60.574
N2135 X96.946 Y61.359
N2136 X96.78 Y61.505
N2137 X96.363 Y61.837
N2138 X96.154 Y61.998
N2139 X95.528 Y62.466
N2140 X95.408 Y62.551
N2141 X95.358 Y62.573 Z-6.09
N2142 X95.31 Y62.594 Z-6.071
N2143 X95.267 Y62.613 Z-6.041
N2144 X95.231 Y62.628 Z-6.002
N2145 X95.203 Y62.64 Z-5.955
N2146 X95.185 Y62.644 Z-5.902
N2147 X95.179 Y62.646 Z-5.847
N2148 G0 Z5.08
N2149 X79.721 Y43.403
N2150 Z-2.921
N2151 G1 Z-3.556 F1016
N2152 G3 X85.378 Y45.498 Z-3.887 I2.829 J1.047
N2153 X79.721 Y43.403 Z-4.218 I-2.829 J-1.047
N2154 X85.378 Y45.498 Z-4.549 I2.829 J1.047
N2155 X79.721 Y43.403 Z-4.88 I-2.829 J-1.047
N2156 X85.378 Y45.498 Z-5.211 I2.829 J1.047
N2157 X79.721 Y43.403 Z-5.541 I-2.829 J-1.047
N2158 X85.378 Y45.498 Z-5.872 I2.829 J1.047
N2159 X79.721 Y43.403 Z-6.203 I-2.829 J-1.047
N2160 X85.378 Y45.498 Z-6.534 I2.829 J1.047
N2161 X79.721 Y43.403 Z-6.865 I-2.829 J-1.047
N2162 X85.378 Y45.498 Z-7.196 I2.829 J1.047
N2163 X79.721 Y43.403 Z-7.527 I-2.829 J-1.047
N2164 X85.378 Y45.498 Z-7.858 I2.829 J1.047
N2165 X79.721 Y43.403 Z-8.189 I-2.829 J-1.047
N2166 X85.378 Y45.498 Z-8.52 I2.829 J1.047
N2167 X79.721 Y43.403 Z-8.85 I-2.829 J-1.047
N2168 X85.566 Y44.451 Z-9.144 I2.829 J1.047
N2169 X79.533 I-3.016 J0
N2170 X85.458 Y43.653 I3.016 J0
N2171 X85.566 Y44.451 I-2.909 J0.797
N2172 G1 X85.569 Y44.68
N2173 X85.727 Y45.586
N2174 X85.781 Y45.728
N2175 X85.818 Y45.876
N2176 X85.839 Y46.027
N2177 X85.847 Y46.179
N2178 X85.843 Y46.339
N2179 X85.824 Y46.509
N2180 X85.789 Y46.689
N2181 X85.737 Y46.877
N2182 X85.666 Y47.07
N2183 X85.575 Y47.268
N2184 X85.462 Y47.468
N2185 X85.328 Y47.667
N2186 X85.172 Y47.864
N2187 X84.993 Y48.054
N2188 X84.792 Y48.237
N2189 X84.569 Y48.409
N2190 X84.325 Y48.567
N2191 X84.062 Y48.71
N2192 X83.781 Y48.834
N2193 X83.483 Y48.938
N2194 X83.171 Y49.019
N2195 X82.846 Y49.077
N2196 X82.513 Y49.108
N2197 X82.172 Y49.113
N2198 X81.826 Y49.09
N2199 X81.479 Y49.039
N2200 X81.133 Y48.959
N2201 X80.791 Y48.851
N2202 X80.456 Y48.714
N2203 X80.13 Y48.549
N2204 X79.816 Y48.358
N2205 X79.517 Y48.14
N2206 X79.234 Y47.897
N2207 X78.97 Y47.632
N2208 X78.728 Y47.345
N2209 X78.508 Y47.038
N2210 X78.313 Y46.713
N2211 X78.145 Y46.372
N2212 X78.003 Y46.019
N2213 X77.891 Y45.654
N2214 X77.808 Y45.281
N2215 X77.755 Y44.901
N2216 X77.732 Y44.518
N2217 X77.741 Y44.134
N2218 X77.78 Y43.751
N2219 X77.85 Y43.372
N2220 X77.95 Y43
N2221 X78.08 Y42.636
N2222 X78.239 Y42.284
N2223 X78.425 Y41.946
N2224 X78.638 Y41.624
N2225 X78.877 Y41.319
N2226 X79.139 Y41.035
N2227 X79.423 Y40.772
N2228 X79.728 Y40.533
N2229 X80.051 Y40.319
N2230 X80.39 Y40.132
N2231 X80.743 Y39.973
N2232 X81.108 Y39.842
N2233 X81.482 Y39.741
N2234 X81.863 Y39.671
N2235 X82.249 Y39.631
N2236 X82.636 Y39.622
N2237 X83.023 Y39.645
N2238 X83.408 Y39.698
N2239 X83.786 Y39.782
N2240 X84.157 Y39.896
N2241 X84.517 Y40.04
N2242 X84.864 Y40.212
N2243 X85.197 Y40.411
N2244 X85.513 Y40.637
N2245 X85.809 Y40.887
N2246 X86.085 Y41.16
N2247 X86.337 Y41.454
N2248 X86.566 Y41.768
N2249 X86.819 Y42.183
N2250 X87.223 Y42.981
N2251 X87.471 Y43.587
N2252 X87.64 Y44.118
N2253 X87.751 Y44.601
N2254 X87.82 Y45.063
N2255 X87.85 Y45.512
N2256 X87.844 Y45.946
N2257 X87.804 Y46.369
N2258 X87.731 Y46.783
N2259 X87.626 Y47.187
N2260 X87.489 Y47.582
N2261 X87.319 Y47.965
N2262 X87.119 Y48.336
N2263 X86.887 Y48.693
N2264 X86.626 Y49.032
N2265 X86.334 Y49.353
N2266 X86.015 Y49.653
N2267 X85.668 Y49.93
N2268 X85.294 Y50.182
N2269 X84.896 Y50.406
N2270 X84.476 Y50.6
N2271 X84.035 Y50.762
N2272 X83.577 Y50.89
N2273 X83.104 Y50.981
N2274 X82.62 Y51.035
N2275 X82.128 Y51.05
N2276 X81.631 Y51.026
N2277 X81.133 Y50.96
N2278 X80.637 Y50.855
N2279 X80.148 Y50.708
N2280 X79.669 Y50.522
N2281 X79.204 Y50.296
N2282 X78.755 Y50.032
N2283 X78.326 Y49.731
N2284 X77.921 Y49.395
N2285 X77.542 Y49.026
N2286 X77.193 Y48.626
N2287 X76.876 Y48.197
N2288 X76.593 Y47.743
N2289 X76.346 Y47.265
N2290 X76.138 Y46.768
N2291 X75.97 Y46.255
N2292 X75.844 Y45.729
N2293 X75.76 Y45.193
N2294 X75.719 Y44.651
N2295 X75.722 Y44.107
N2296 X75.769 Y43.564
N2297 X75.859 Y43.025
N2298 X75.993 Y42.495
N2299 X76.168 Y41.978
N2300 X76.385 Y41.475
N2301 X76.641 Y40.991
N2302 X76.936 Y40.529
N2303 X77.267 Y40.092
N2304 X77.633 Y39.682
N2305 X78.03 Y39.303
N2306 X78.456 Y38.957
N2307 X78.909 Y38.647
N2308 X79.386 Y38.373
N2309 X79.883 Y38.139
N2310 X80.397 Y37.945
N2311 X80.926 Y37.793
N2312 X81.465 Y37.684
N2313 X82.011 Y37.619
N2314 X82.561 Y37.597
N2315 X83.11 Y37.62
N2316 X83.657 Y37.687
N2317 X84.196 Y37.797
N2318 X84.724 Y37.951
N2319 X85.239 Y38.146
N2320 X85.736 Y38.382
N2321 X86.212 Y38.657
N2322 X86.666 Y38.97
N2323 X87.107 Y39.33
N2324 X87.586 Y39.789
N2325 X88.037 Y40.297
N2326 X88.46 Y40.859
N2327 X88.839 Y41.457
N2328 X89.164 Y42.073
N2329 X89.431 Y42.698
N2330 X89.642 Y43.325
N2331 X89.798 Y43.953
N2332 X89.901 Y44.578
N2333 X89.953 Y45.201
N2334 X89.955 Y45.817
N2335 X89.908 Y46.426
N2336 X89.812 Y47.025
N2337 X89.67 Y47.612
N2338 X89.482 Y48.183
N2339 X89.248 Y48.738
N2340 X88.97 Y49.272
N2341 X88.65 Y49.783
N2342 X88.288 Y50.27
N2343 X87.886 Y50.728
N2344 X87.445 Y51.155
N2345 X86.968 Y51.549
N2346 X86.458 Y51.905
N2347 X85.915 Y52.222
N2348 X85.344 Y52.497
N2349 X84.748 Y52.727
N2350 X84.131 Y52.911
N2351 X83.495 Y53.045
N2352 X82.846 Y53.128
N2353 X82.187 Y53.159
N2354 X81.524 Y53.137
N2355 X80.86 Y53.061
N2356 X80.2 Y52.931
N2357 X79.548 Y52.748
N2358 X78.91 Y52.512
N2359 X78.289 Y52.223
N2360 X77.69 Y51.884
N2361 X77.118 Y51.496
N2362 X76.576 Y51.061
N2363 X76.069 Y50.583
N2364 X75.599 Y50.063
N2365 X75.172 Y49.505
N2366 X74.789 Y48.912
N2367 X74.455 Y48.289
N2368 X74.17 Y47.64
N2369 X73.938 Y46.968
N2370 X73.76 Y46.278
N2371 X73.638 Y45.575
N2372 X73.573 Y44.863
N2373 X73.565 Y44.147
N2374 X73.615 Y43.431
N2375 X73.722 Y42.722
N2376 X73.886 Y42.022
N2377 X74.105 Y41.337
N2378 X74.38 Y40.671
N2379 X74.706 Y40.03
N2380 X75.084 Y39.416
N2381 X75.51 Y38.833
N2382 X75.981 Y38.287
N2383 X76.495 Y37.78
N2384 X77.049 Y37.316
N2385 X77.638 Y36.898
N2386 X78.258 Y36.528
N2387 X78.907 Y36.209
N2388 X79.579 Y35.943
N2389 X80.271 Y35.732
N2390 X80.977 Y35.577
N2391 X81.694 Y35.479
N2392 X82.416 Y35.439
N2393 X83.139 Y35.457
N2394 X83.859 Y35.533
N2395 X84.57 Y35.667
N2396 X85.268 Y35.857
N2397 X85.949 Y36.103
N2398 X86.612 Y36.404
N2399 X87.272 Y36.771
N2400 X87.92 Y37.203
N2401 X88.551 Y37.7
N2402 X89.154 Y38.26
N2403 X89.719 Y38.875
N2404 X90.236 Y39.538
N2405 X90.697 Y40.241
N2406 X91.1 Y40.975
N2407 X91.439 Y41.733
N2408 X91.715 Y42.51
N2409 X91.925 Y43.299
N2410 X92.07 Y44.096
N2411 X92.15 Y44.896
N2412 X92.165 Y45.694
N2413 X92.117 Y46.486
N2414 X92.005 Y47.267
N2415 X91.832 Y48.035
N2416 X91.599 Y48.784
N2417 X91.306 Y49.512
N2418 X90.956 Y50.214
N2419 X90.549 Y50.887
N2420 X90.089 Y51.527
N2421 X89.578 Y52.13
N2422 X89.017 Y52.692
N2423 X88.41 Y53.21
N2424 X87.76 Y53.68
N2425 X87.07 Y54.099
N2426 X86.345 Y54.463
N2427 X85.588 Y54.769
N2428 X84.804 Y55.016
N2429 X83.999 Y55.199
N2430 X83.176 Y55.318
N2431 X82.342 Y55.372
N2432 X81.502 Y55.357
N2433 X80.661 Y55.275
N2434 X79.825 Y55.125
N2435 X78.999 Y54.908
N2436 X78.19 Y54.623
N2437 X77.403 Y54.273
N2438 X76.643 Y53.859
N2439 X75.915 Y53.383
N2440 X75.226 Y52.849
N2441 X74.58 Y52.259
N2442 X73.981 Y51.617
N2443 X73.434 Y50.926
N2444 X72.942 Y50.192
N2445 X72.51 Y49.419
N2446 X72.141 Y48.612
N2447 X71.837 Y47.776
N2448 X71.6 Y46.917
N2449 X71.433 Y46.04
N2450 X71.337 Y45.151
N2451 X71.313 Y44.256
N2452 X71.36 Y43.361
N2453 X71.479 Y42.471
N2454 X71.67 Y41.593
N2455 X71.93 Y40.732
N2456 X72.259 Y39.895
N2457 X72.655 Y39.085
N2458 X73.114 Y38.31
N2459 X73.634 Y37.574
N2460 X74.212 Y36.881
N2461 X74.845 Y36.237
N2462 X75.527 Y35.645
N2463 X76.254 Y35.11
N2464 X77.022 Y34.635
N2465 X77.827 Y34.223
N2466 X78.662 Y33.877
N2467 X79.522 Y33.599
N2468 X80.402 Y33.39
N2469 X81.295 Y33.253
N2470 X82.197 Y33.188
N2471 X83.102 Y33.196
N2472 X84.003 Y33.277
N2473 X84.896 Y33.429
N2474 X85.778 Y33.654
N2475 X86.647 Y33.952
N2476 X87.49 Y34.318
N2477 X88.301 Y34.75
N2478 X89.076 Y35.244
N2479 X89.811 Y35.796
N2480 X90.502 Y36.402
N2481 X91.147 Y37.057
N2482 X91.742 Y37.757
N2483 X92.286 Y38.498
N2484 X92.774 Y39.277
N2485 X93.204 Y40.089
N2486 X93.574 Y40.93
N2487 X93.882 Y41.796
N2488 X94.124 Y42.683
N2489 X94.299 Y43.585
N2490 X94.405 Y44.498
N2491 X94.443 Y45.416
N2492 X94.412 Y46.334
N2493 X94.311 Y47.248
N2494 X94.142 Y48.151
N2495 X93.905 Y49.039
N2496 X93.601 Y49.906
N2497 X93.232 Y50.748
N2498 X92.8 Y51.559
N2499 X92.308 Y52.336
N2500 X91.759 Y53.072
N2501 X91.156 Y53.766
N2502 X90.502 Y54.412
N2503 X89.802 Y55.007
N2504 X89.059 Y55.548
N2505 X88.277 Y56.032
N2506 X87.462 Y56.455
N2507 X86.617 Y56.816
N2508 X85.747 Y57.114
N2509 X84.858 Y57.347
N2510 X83.955 Y57.515
N2511 X83.041 Y57.617
N2512 X82.123 Y57.654
N2513 X81.204 Y57.625
N2514 X80.29 Y57.53
N2515 X79.385 Y57.369
N2516 X78.495 Y57.143
N2517 X77.622 Y56.854
N2518 X76.773 Y56.503
N2519 X75.95 Y56.094
N2520 X75.157 Y55.629
N2521 X74.399 Y55.11
N2522 X73.678 Y54.54
N2523 X73 Y53.919
N2524 X72.367 Y53.253
N2525 X71.783 Y52.543
N2526 X71.249 Y51.796
N2527 X70.767 Y51.013
N2528 X70.34 Y50.199
N2529 X69.968 Y49.359
N2530 X69.657 Y48.494
N2531 X69.407 Y47.61
N2532 X69.219 Y46.71
N2533 X69.092 Y45.8
N2534 X69.028 Y44.883
N2535 X69.024 Y43.964
N2536 X69.083 Y43.047
N2537 X69.206 Y42.136
N2538 X69.393 Y41.236
N2539 X69.64 Y40.351
N2540 X69.946 Y39.485
N2541 X70.309 Y38.64
N2542 X70.728 Y37.822
N2543 X71.202 Y37.035
N2544 X71.73 Y36.283
N2545 X72.308 Y35.569
N2546 X72.934 Y34.895
N2547 X73.603 Y34.265
N2548 X74.312 Y33.68
N2549 X75.059 Y33.145
N2550 X75.841 Y32.663
N2551 X76.655 Y32.236
N2552 X77.496 Y31.866
N2553 X78.36 Y31.553
N2554 X79.243 Y31.298
N2555 X80.141 Y31.102
N2556 X81.05 Y30.968
N2557 X81.967 Y30.898
N2558 X82.886 Y30.891
N2559 X83.803 Y30.945
N2560 X84.715 Y31.061
N2561 X85.617 Y31.236
N2562 X86.505 Y31.472
N2563 X87.375 Y31.768
N2564 X88.223 Y32.122
N2565 X89.046 Y32.531
N2566 X89.841 Y32.992
N2567 X90.606 Y33.502
N2568 X91.336 Y34.06
N2569 X92.029 Y34.664
N2570 X92.682 Y35.311
N2571 X93.293 Y35.997
N2572 X93.862 Y36.719
N2573 X94.385 Y37.474
N2574 X94.862 Y38.26
N2575 X95.289 Y39.074
N2576 X95.663 Y39.913
N2577 X95.984 Y40.774
N2578 X96.25 Y41.654
N2579 X96.462 Y42.548
N2580 X96.618 Y43.454
N2581 X96.717 Y44.368
N2582 X96.756 Y45.286
N2583 X96.736 Y46.205
N2584 X96.658 Y47.12
N2585 X96.524 Y48.029
N2586 X96.333 Y48.928
N2587 X96.085 Y49.814
N2588 X95.78 Y50.68
N2589 X95.42 Y51.526
N2590 X95.006 Y52.347
N2591 X94.542 Y53.14
N2592 X94.03 Y53.903
N2593 X93.471 Y54.632
N2594 X92.865 Y55.324
N2595 X92.217 Y55.975
N2596 X91.528 Y56.583
N2597 X90.802 Y57.147
N2598 X90.043 Y57.665
N2599 X89.254 Y58.135
N2600 X88.436 Y58.554
N2601 X87.592 Y58.92
N2602 X86.728 Y59.231
N2603 X85.846 Y59.489
N2604 X84.95 Y59.693
N2605 X84.043 Y59.843
N2606 X83.129 Y59.937
N2607 X82.21 Y59.974
N2608 X81.292 Y59.954
N2609 X80.376 Y59.878
N2610 X79.466 Y59.746
N2611 X78.566 Y59.56
N2612 X77.679 Y59.321
N2613 X76.808 Y59.029
N2614 X75.956 Y58.683
N2615 X75.127 Y58.287
N2616 X74.323 Y57.842
N2617 X73.546 Y57.351
N2618 X72.799 Y56.815
N2619 X72.085 Y56.236
N2620 X71.408 Y55.615
N2621 X70.77 Y54.953
N2622 X70.172 Y54.255
N2623 X69.616 Y53.524
N2624 X69.103 Y52.761
N2625 X68.635 Y51.97
N2626 X68.214 Y51.154
N2627 X67.843 Y50.313
N2628 X67.523 Y49.451
N2629 X67.255 Y48.572
N2630 X67.037 Y47.679
N2631 X66.872 Y46.775
N2632 X66.758 Y45.863
N2633 X66.697 Y44.946
N2634 X66.691 Y44.027
N2635 X66.74 Y43.11
N2636 X66.843 Y42.196
N2637 X66.998 Y41.29
N2638 X67.204 Y40.395
N2639 X67.461 Y39.513
N2640 X67.769 Y38.647
N2641 X68.128 Y37.801
N2642 X68.536 Y36.977
N2643 X68.991 Y36.179
N2644 X69.492 Y35.408
N2645 X70.035 Y34.667
N2646 X70.62 Y33.958
N2647 X71.246 Y33.285
N2648 X71.91 Y32.65
N2649 X72.61 Y32.054
N2650 X73.343 Y31.5
N2651 X74.107 Y30.989
N2652 X74.899 Y30.523
N2653 X75.716 Y30.102
N2654 X76.557 Y29.731
N2655 X77.417 Y29.409
N2656 X78.295 Y29.137
N2657 X79.188 Y28.917
N2658 X80.091 Y28.748
N2659 X81.003 Y28.631
N2660 X81.919 Y28.567
N2661 X82.838 Y28.558
N2662 X83.756 Y28.601
N2663 X84.67 Y28.698
N2664 X85.577 Y28.846
N2665 X86.474 Y29.046
N2666 X87.359 Y29.296
N2667 X88.227 Y29.596
N2668 X89.077 Y29.946
N2669 X89.905 Y30.344
N2670 X90.711 Y30.787
N2671 X91.49 Y31.274
N2672 X92.242 Y31.802
N2673 X92.964 Y32.371
N2674 X93.654 Y32.978
N2675 X94.309 Y33.622
N2676 X94.929 Y34.301
N2677 X95.511 Y35.012
N2678 X96.054 Y35.753
N2679 X96.558 Y36.522
N2680 X97.02 Y37.317
N2681 X97.439 Y38.134
N2682 X97.813 Y38.974
N2683 X98.14 Y39.833
N2684 X98.42 Y40.708
N2685 X98.653 Y41.597
N2686 X98.838 Y42.497
N2687 X98.974 Y43.406
N2688 X99.062 Y44.321
N2689 X99.098 Y45.239
N2690 X99.086 Y46.012
N2691 X99.085 Y46.054
N2692 X99.082 Y46.096
N2693 X99.079 Y46.138
N2694 X99.06 Y46.327
N2695 X99.036 Y46.536
N2696 X98.941 Y47.162
N2697 X98.866 Y47.592
N2698 X98.832 Y47.788
N2699 X98.789 Y47.997
N2700 X98.523 Y49.041
N2701 X98.449 Y49.327
N2702 X98.406 Y49.458
N2703 X97.95 Y50.711
N2704 X97.867 Y50.92
N2705 X97.823 Y51.022
N2706 X97.269 Y52.173
N2707 X97.197 Y52.316
N2708 X97.162 Y52.381
N2709 X97.044 Y52.59
N2710 X96.406 Y53.634
N2711 X96.363 Y53.705
N2712 X95.945 Y54.274
N2713 X95.801 Y54.469
N2714 X95.319 Y55.103
N2715 X95.141 Y55.304
N2716 X94.276 Y56.236
N2717 X94.164 Y56.348
N2718 X93.859 Y56.626
N2719 X93.228 Y57.183
N2720 X93.024 Y57.358
N2721 X92.815 Y57.525
N2722 X92.717 Y57.601
N2723 X92.136 Y58.018
N2724 X91.981 Y58.127
N2725 X91.355 Y58.546
N2726 X91.189 Y58.645
N2727 X90.729 Y58.91
N2728 X90.52 Y59.027
N2729 X89.894 Y59.36
N2730 X89.632 Y59.48
N2731 X89.169 Y59.689
N2732 X88.434 Y59.997
N2733 X88.017 Y60.138
N2734 X87.808 Y60.208
N2735 X87.483 Y60.315
N2736 X87.182 Y60.413
N2737 X86.973 Y60.48
N2738 X85.721 Y60.766
N2739 X85.513 Y60.812
N2740 X84.887 Y60.898
N2741 X84.553 Y60.941
N2742 X84.261 Y60.978
N2743 X84.052 Y61.002
N2744 X83.426 Y61.043
N2745 X83.218 Y61.051
N2746 X82.8 Y61.061
N2747 X82.592 Y61.065
N2748 X81.966 Y61.062
N2749 X81.757 Y61.05
N2750 X80.714 Y60.97
N2751 X80.505 Y60.954
N2752 X80.41 Y60.941
N2753 X79.045 Y60.701
N2754 X78.836 Y60.649
N2755 X78.348 Y60.524
N2756 X78.21 Y60.486
N2757 X77.584 Y60.31
N2758 X77.375 Y60.25
N2759 X77.167 Y60.183
N2760 X76.123 Y59.773
N2761 X75.497 Y59.5
N2762 X75.453 Y59.48
N2763 X74.663 Y59.074
N2764 X74.246 Y58.847
N2765 X74.037 Y58.728
N2766 X72.994 Y58.054
N2767 X72.944 Y58.018
N2768 X72.576 Y57.741
N2769 X72.368 Y57.578
N2770 X71.873 Y57.183
N2771 X71.742 Y57.074
N2772 X71.324 Y56.698
N2773 X71.171 Y56.557
N2774 X70.49 Y55.893
N2775 X70.322 Y55.722
N2776 X69.622 Y54.887
N2777 X69.281 Y54.469
N2778 X69.238 Y54.415
N2779 X68.821 Y53.803
N2780 X68.707 Y53.634
N2781 X68.297 Y53.008
N2782 X68.181 Y52.799
N2783 X67.953 Y52.381
N2784 X67.842 Y52.173
N2785 X67.515 Y51.546
N2786 X67.36 Y51.183
N2787 X67.151 Y50.685
N2788 X66.943 Y50.181
N2789 X66.904 Y50.085
N2790 X66.517 Y48.832
N2791 X66.455 Y48.623
N2792 X66.317 Y47.984
N2793 X66.234 Y47.579
N2794 X66.192 Y47.371
N2795 X66.152 Y47.162
N2796 X66.066 Y46.536
N2797 X66.042 Y46.327
N2798 X66.001 Y45.909
N2799 X65.982 Y45.7
N2800 X65.941 Y45.074
N2801 X65.938 Y44.865
N2802 Y44.239
N2803 X65.941 Y43.613
N2804 X65.959 Y43.404
N2805 X66.085 Y42.151
N2806 X66.121 Y41.942
N2807 X66.196 Y41.525
N2808 X66.235 Y41.316
N2809 X66.362 Y40.69
N2810 X66.525 Y40.055
N2811 X66.583 Y39.855
N2812 X66.734 Y39.364
N2813 X66.777 Y39.228
N2814 X66.993 Y38.602
N2815 X67.075 Y38.393
N2816 X67.427 Y37.558
N2817 X67.569 Y37.251
N2818 X67.62 Y37.141
N2819 X67.728 Y36.932
N2820 X68.069 Y36.305
N2821 X68.195 Y36.079
N2822 X68.429 Y35.679
N2823 X68.566 Y35.47
N2824 X68.851 Y35.053
N2825 X68.996 Y34.844
N2826 X69.453 Y34.218
N2827 X69.655 Y33.973
N2828 X70.326 Y33.174
N2829 X70.535 Y32.965
N2830 X70.747 Y32.756
N2831 X71.389 Y32.13
N2832 X71.533 Y31.995
N2833 X71.742 Y31.823
N2834 X71.95 Y31.655
N2835 X72.402 Y31.295
N2836 X72.576 Y31.161
N2837 X73.202 Y30.713
N2838 X73.269 Y30.668
N2839 X73.915 Y30.251
N2840 X74.037 Y30.179
N2841 X74.454 Y29.941
N2842 X74.647 Y29.833
N2843 X75.289 Y29.504
N2844 X75.471 Y29.416
N2845 X76.123 Y29.126
N2846 X76.749 Y28.881
N2847 X76.958 Y28.804
N2848 X77.584 Y28.59
N2849 X78.21 Y28.414
N2850 X78.365 Y28.372
N2851 X78.836 Y28.251
N2852 X79.045 Y28.199
N2853 X80.435 Y27.954
N2854 X80.505 Y27.946
N2855 X81.548 Y27.866
N2856 X81.757 Y27.85
N2857 X81.966 Y27.838
N2858 X82.592 Y27.835
N2859 X82.8 Y27.839
N2860 X83.218 Y27.849
N2861 X83.426 Y27.857
N2862 X84.052 Y27.898
N2863 X84.261 Y27.922
N2864 X84.678 Y27.974
N2865 X84.887 Y28.002
N2866 X85.513 Y28.088
N2867 X85.721 Y28.134
N2868 X86.973 Y28.42
N2869 X87.469 Y28.581
N2870 X87.808 Y28.692
N2871 X88.225 Y28.832
N2872 X88.434 Y28.903
N2873 X88.851 Y29.074
N2874 X89.06 Y29.162
N2875 X89.686 Y29.445
N2876 X89.894 Y29.54
N2877 X90.454 Y29.833
N2878 X90.52 Y29.869
N2879 X91.181 Y30.251
N2880 X91.355 Y30.353
N2881 X91.564 Y30.484
N2882 X91.772 Y30.62
N2883 X92.71 Y31.295
N2884 X92.815 Y31.375
N2885 X93.024 Y31.545
N2886 X93.233 Y31.721
N2887 X93.65 Y32.091
N2888 X94.159 Y32.547
N2889 X94.276 Y32.664
N2890 X94.943 Y33.382
N2891 X95.124 Y33.591
N2892 X95.528 Y34.08
N2893 X95.639 Y34.218
N2894 X96.154 Y34.897
N2895 X96.363 Y35.199
N2896 X96.404 Y35.261
N2897 X97.042 Y36.305
N2898 X97.157 Y36.514
N2899 X97.406 Y37.013
N2900 X97.468 Y37.141
N2901 X97.823 Y37.878
N2902 X97.862 Y37.976
N2903 X98.032 Y38.42
N2904 X98.1 Y38.602
N2905 X98.328 Y39.228
N2906 X98.392 Y39.437
N2907 X98.517 Y39.855
N2908 X98.576 Y40.063
N2909 X98.735 Y40.69
N2910 X98.871 Y41.316
N2911 X98.909 Y41.525
N2912 X99.003 Y42.151
N2913 X99.092 Y42.778
N2914 X99.11 Y42.986
N2915 X99.173 Y44.239
N2916 X99.172 Y44.448
N2917 X99.159 Y44.865
N2918 X99.152 Y45.074
N2919 X99.121 Y45.7
N2920 X99.102 Y45.909
N2921 X99.079 Y46.138
N2922 X99.062 Y46.191 Z-9.138
N2923 X99.046 Y46.241 Z-9.119
N2924 X99.031 Y46.285 Z-9.089
N2925 X99.019 Y46.323 Z-9.05
N2926 X99.01 Y46.351 Z-9.003
N2927 X99.001 Y46.367 Z-8.95
N2928 X98.998 Y46.373 Z-8.895
N2929 G0 Z5.08
N2930 X84.461 Y42.117
N2931 Z-5.969
N2932 G1 Z-6.604 F1016
N2933 G3 X80.638 Y46.784 Z-6.935 I-1.911 J2.333
N2934 X84.461 Y42.117 Z-7.266 I1.911 J-2.333
N2935 X80.638 Y46.784 Z-7.597 I-1.911 J2.333
N2936 X84.461 Y42.117 Z-7.928 I1.911 J-2.333
N2937 X80.638 Y46.784 Z-8.259 I-1.911 J2.333
N2938 X84.461 Y42.117 Z-8.589 I1.911 J-2.333
N2939 X80.638 Y46.784 Z-8.92 I-1.911 J2.333
N2940 X84.461 Y42.117 Z-9.251 I1.911 J-2.333
N2941 X80.638 Y46.784 Z-9.582 I-1.911 J2.333
N2942 X84.461 Y42.117 Z-9.913 I1.911 J-2.333
N2943 X80.638 Y46.784 Z-10.244 I-1.911 J2.333
N2944 X84.461 Y42.117 Z-10.575 I1.911 J-2.333
N2945 X85.566 Y44.451 Z-10.668 I-1.911 J2.333
N2946 X79.533 I-3.016 J0
N2947 X85.458 Y43.653 I3.016 J0
N2948 X85.566 Y44.451 I-2.909 J0.797
N2949 G1 X85.569 Y44.68
N2950 X85.727 Y45.586
N2951 X85.781 Y45.728
N2952 X85.818 Y45.876
N2953 X85.839 Y46.027
N2954 X85.847 Y46.179
N2955 X85.843 Y46.339
N2956 X85.824 Y46.509
N2957 X85.789 Y46.689
N2958 X85.737 Y46.877
N2959 X85.666 Y47.07
N2960 X85.575 Y47.268
N2961 X85.462 Y47.468
N2962 X85.328 Y47.667
N2963 X85.172 Y47.864
N2964 X84.993 Y48.054
N2965 X84.792 Y48.237
N2966 X84.569 Y48.409
N2967 X84.325 Y48.567
N2968 X84.062 Y48.71
N2969 X83.781 Y48.834
N2970 X83.483 Y48.938
N2971 X83.171 Y49.019
N2972 X82.846 Y49.077
N2973 X82.513 Y49.108
N2974 X82.172 Y49.113
N2975 X81.826 Y49.09
N2976 X81.479 Y49.039
N2977 X81.133 Y48.959
N2978 X80.791 Y48.851
N2979 X80.456 Y48.714
N2980 X80.13 Y48.549
N2981 X79.816 Y48.358
N2982 X79.517 Y48.14
N2983 X79.234 Y47.897
N2984 X78.97 Y47.632
N2985 X78.728 Y47.345
N2986 X78.508 Y47.038
N2987 X78.313 Y46.713
N2988 X78.145 Y46.372
N2989 X78.003 Y46.019
N2990 X77.891 Y45.654
N2991 X77.808 Y45.281
N2992 X77.755 Y44.901
N2993 X77.732 Y44.518
N2994 X77.741 Y44.134
N2995 X77.78 Y43.751
N2996 X77.85 Y43.372
N2997 X77.95 Y43
N2998 X78.08 Y42.636
N2999 X78.239 Y42.284
N3000 X78.425 Y41.946
N3001 X78.638 Y41.624
N3002 X78.877 Y41.319
N3003 X79.139 Y41.035
N3004 X79.423 Y40.772
N3005 X79.728 Y40.533
N3006 X80.051 Y40.319
N3007 X80.39 Y40.132
N3008 X80.743 Y39.973
N3009 X81.108 Y39.842
N3010 X81.482 Y39.741
N3011 X81.863 Y39.671
N3012 X82.249 Y39.631
N3013 X82.636 Y39.622
N3014 X83.023 Y39.645
N3015 X83.408 Y39.698
N3016 X83.786 Y39.782
N3017 X84.157 Y39.896
N3018 X84.517 Y40.04
N3019 X84.864 Y40.212
N3020 X85.197 Y40.411
N3021 X85.513 Y40.637
N3022 X85.809 Y40.887
N3023 X86.085 Y41.16
N3024 X86.337 Y41.454
N3025 X86.566 Y41.768
N3026 X86.819 Y42.183
N3027 X87.223 Y42.981
N3028 X87.471 Y43.587
N3029 X87.64 Y44.118
N3030 X87.751 Y44.601
N3031 X87.82 Y45.063
N3032 X87.85 Y45.512
N3033 X87.844 Y45.946
N3034 X87.804 Y46.369
N3035 X87.731 Y46.783
N3036 X87.626 Y47.187
N3037 X87.489 Y47.582
N3038 X87.319 Y47.965
N3039 X87.119 Y48.336
N3040 X86.887 Y48.693
N3041 X86.626 Y49.032
N3042 X86.334 Y49.353
N3043 X86.015 Y49.653
N3044 X85.668 Y49.93
N3045 X85.294 Y50.182
N3046 X84.896 Y50.406
N3047 X84.476 Y50.6
N3048 X84.035 Y50.762
N3049 X83.577 Y50.89
N3050 X83.104 Y50.981
N3051 X82.62 Y51.035
N3052 X82.128 Y51.05
N3053 X81.631 Y51.026
N3054 X81.133 Y50.96
N3055 X80.637 Y50.855
N3056 X80.148 Y50.708
N3057 X79.669 Y50.522
N3058 X79.204 Y50.296
N3059 X78.755 Y50.032
N3060 X78.326 Y49.731
N3061 X77.921 Y49.395
N3062 X77.542 Y49.026
N3063 X77.193 Y48.626
N3064 X76.876 Y48.197
N3065 X76.593 Y47.743
N3066 X76.346 Y47.265
N3067 X76.138 Y46.768
N3068 X75.97 Y46.255
N3069 X75.844 Y45.729
N3070 X75.76 Y45.193
N3071 X75.719 Y44.651
N3072 X75.722 Y44.107
N3073 X75.769 Y43.564
N3074 X75.859 Y43.025
N3075 X75.993 Y42.495
N3076 X76.168 Y41.978
N3077 X76.385 Y41.475
N3078 X76.641 Y40.991
N3079 X76.936 Y40.529
N3080 X77.267 Y40.092
N3081 X77.633 Y39.682
N3082 X78.03 Y39.303
N3083 X78.456 Y38.957
N3084 X78.909 Y38.647
N3085 X79.386 Y38.373
N3086 X79.883 Y38.139
N3087 X80.397 Y37.945
N3088 X80.926 Y37.793
N3089 X81.465 Y37.684
N3090 X82.011 Y37.619
N3091 X82.561 Y37.597
N3092 X83.11 Y37.62
N3093 X83.657 Y37.687
N3094 X84.196 Y37.797
N3095 X84.724 Y37.951
N3096 X85.239 Y38.146
N3097 X85.736 Y38.382
N3098 X86.212 Y38.657
N3099 X86.666 Y38.97
N3100 X87.107 Y39.33
N3101 X87.586 Y39.789
N3102 X88.037 Y40.297
N3103 X88.46 Y40.859
N3104 X88.839 Y41.457
N3105 X89.164 Y42.073
N3106 X89.431 Y42.698
N3107 X89.642 Y43.325
N3108 X89.798 Y43.953
N3109 X89.901 Y44.578
N3110 X89.953 Y45.201
N3111 X89.955 Y45.817
N3112 X89.908 Y46.426
N3113 X89.812 Y47.025
N3114 X89.67 Y47.612
N3115 X89.482 Y48.183
N3116 X89.248 Y48.738
N3117 X88.97 Y49.272
N3118 X88.65 Y49.783
N3119 X88.288 Y50.27
N3120 X87.886 Y50.728
N3121 X87.445 Y51.155
N3122 X86.968 Y51.549
N3123 X86.458 Y51.905
N3124 X85.915 Y52.222
N3125 X85.344 Y52.497
N3126 X84.748 Y52.727
N3127 X84.131 Y52.911
N3128 X83.495 Y53.045
N3129 X82.846 Y53.128
N3130 X82.187 Y53.159
N3131 X81.524 Y53.137
N3132 X80.86 Y53.061
N3133 X80.2 Y52.931
N3134 X79.548 Y52.748
N3135 X78.91 Y52.512
N3136 X78.289 Y52.223
N3137 X77.69 Y51.884
N3138 X77.118 Y51.496
N3139 X76.576 Y51.061
N3140 X76.069 Y50.583
N3141 X75.599 Y50.063
N3142 X75.172 Y49.505
N3143 X74.789 Y48.912
N3144 X74.455 Y48.289
N3145 X74.17 Y47.64
N3146 X73.938 Y46.968
N3147 X73.76 Y46.278
N3148 X73.638 Y45.575
N3149 X73.573 Y44.863
N3150 X73.565 Y44.147
N3151 X73.615 Y43.431
N3152 X73.722 Y42.722
N3153 X73.886 Y42.022
N3154 X74.105 Y41.337
N3155 X74.38 Y40.671
N3156 X74.706 Y40.03
N3157 X75.084 Y39.416
N3158 X75.51 Y38.833
N3159 X75.981 Y38.287
N3160 X76.495 Y37.78
N3161 X77.049 Y37.316
N3162 X77.638 Y36.898
N3163 X78.258 Y36.528
N3164 X78.907 Y36.209
N3165 X79.579 Y35.943
N3166 X80.271 Y35.732
N3167 X80.977 Y35.577
N3168 X81.694 Y35.479
N3169 X82.416 Y35.439
N3170 X83.139 Y35.457
N3171 X83.859 Y35.533
N3172 X84.57 Y35.667
N3173 X85.268 Y35.857
N3174 X85.949 Y36.103
N3175 X86.612 Y36.404
N3176 X87.272 Y36.771
N3177 X87.92 Y37.203
N3178 X88.551 Y37.7
N3179 X89.154 Y38.26
N3180 X89.719 Y38.875
N3181 X90.236 Y39.538
N3182 X90.697 Y40.241
N3183 X91.1 Y40.975
N3184 X91.439 Y41.733
N3185 X91.715 Y42.51
N3186 X91.925 Y43.299
N3187 X92.07 Y44.096
N3188 X92.15 Y44.896
N3189 X92.165 Y45.694
N3190 X92.117 Y46.486
N3191 X92.005 Y47.267
N3192 X91.832 Y48.035
N3193 X91.599 Y48.784
N3194 X91.306 Y49.512
N3195 X90.956 Y50.214
N3196 X90.549 Y50.887
N3197 X90.089 Y51.527
N3198 X89.578 Y52.13
N3199 X89.017 Y52.692
N3200 X88.41 Y53.21
N3201 X87.76 Y53.68
N3202 X87.07 Y54.099
N3203 X86.345 Y54.463
N3204 X85.588 Y54.769
N3205 X84.804 Y55.016
N3206 X83.999 Y55.199
N3207 X83.176 Y55.318
N3208 X82.342 Y55.372
N3209 X81.502 Y55.357
N3210 X80.661 Y55.275
N3211 X79.825 Y55.125
N3212 X78.999 Y54.908
N3213 X78.19 Y54.623
N3214 X77.403 Y54.273
N3215 X76.643 Y53.859
N3216 X75.915 Y53.383
N3217 X75.226 Y52.849
N3218 X74.58 Y52.259
N3219 X73.981 Y51.617
N3220 X73.434 Y50.926
N3221 X72.942 Y50.192
N3222 X72.51 Y49.419
N3223 X72.141 Y48.612
N3224 X71.837 Y47.776
N3225 X71.6 Y46.917
N3226 X71.433 Y46.04
N3227 X71.337 Y45.151
N3228 X71.313 Y44.256
N3229 X71.36 Y43.361
N3230 X71.479 Y42.471
N3231 X71.67 Y41.593
N3232 X71.93 Y40.732
N3233 X72.259 Y39.895
N3234 X72.655 Y39.085
N3235 X73.114 Y38.31
N3236 X73.634 Y37.574
N3237 X74.212 Y36.881
N3238 X74.845 Y36.237
N3239 X75.527 Y35.645
N3240 X76.254 Y35.11
N3241 X77.022 Y34.635
N3242 X77.827 Y34.223
N3243 X78.662 Y33.877
N3244 X79.522 Y33.599
N3245 X80.402 Y33.39
N3246 X81.295 Y33.253
N3247 X82.197 Y33.188
N3248 X83.102 Y33.196
N3249 X84.003 Y33.277
N3250 X84.896 Y33.429
N3251 X85.778 Y33.654
N3252 X86.647 Y33.952
N3253 X87.49 Y34.318
N3254 X88.301 Y34.75
N3255 X89.076 Y35.244
N3256 X89.811 Y35.796
N3257 X90.502 Y36.402
N3258 X91.147 Y37.057
N3259 X91.742 Y37.757
N3260 X92.286 Y38.498
N3261 X92.774 Y39.277
N3262 X93.204 Y40.089
N3263 X93.574 Y40.93
N3264 X93.882 Y41.796
N3265 X94.124 Y42.683
N3266 X94.299 Y43.585
N3267 X94.405 Y44.498
N3268 X94.443 Y45.416
N3269 X94.412 Y46.334
N3270 X94.311 Y47.248
N3271 X94.142 Y48.151
N3272 X93.905 Y49.039
N3273 X93.601 Y49.906
N3274 X93.232 Y50.748
N3275 X92.8 Y51.559
N3276 X92.308 Y52.336
N3277 X91.759 Y53.072
N3278 X91.156 Y53.766
N3279 X90.502 Y54.412
N3280 X89.802 Y55.007
N3281 X89.059 Y55.548
N3282 X88.277 Y56.032
N3283 X87.462 Y56.455
N3284 X86.617 Y56.816
N3285 X85.747 Y57.114
N3286 X84.858 Y57.347
N3287 X83.955 Y57.515
N3288 X83.041 Y57.617
N3289 X82.123 Y57.654
N3290 X81.204 Y57.625
N3291 X80.29 Y57.53
N3292 X79.385 Y57.369
N3293 X78.495 Y57.143
N3294 X77.622 Y56.854
N3295 X76.773 Y56.503
N3296 X75.95 Y56.094
N3297 X75.157 Y55.629
N3298 X74.399 Y55.11
N3299 X73.678 Y54.54
N3300 X73 Y53.919
N3301 X72.367 Y53.253
N3302 X71.783 Y52.543
N3303 X71.249 Y51.796
N3304 X70.767 Y51.013
N3305 X70.34 Y50.199
N3306 X69.968 Y49.359
N3307 X69.657 Y48.494
N3308 X69.407 Y47.61
N3309 X69.219 Y46.71
N3310 X69.092 Y45.8
N3311 X69.028 Y44.883
N3312 X69.024 Y43.964
N3313 X69.083 Y43.047
N3314 X69.206 Y42.136
N3315 X69.393 Y41.236
N3316 X69.64 Y40.351
N3317 X69.946 Y39.485
N3318 X70.309 Y38.64
N3319 X70.728 Y37.822
N3320 X71.202 Y37.035
N3321 X71.73 Y36.283
N3322 X72.308 Y35.569
N3323 X72.934 Y34.895
N3324 X73.603 Y34.265
N3325 X74.312 Y33.68
N3326 X75.059 Y33.145
N3327 X75.841 Y32.663
N3328 X76.655 Y32.236
N3329 X77.496 Y31.866
N3330 X78.36 Y31.553
N3331 X79.243 Y31.298
N3332 X80.141 Y31.102
N3333 X81.05 Y30.968
N3334 X81.967 Y30.898
N3335 X82.886 Y30.891
N3336 X83.803 Y30.945
N3337 X84.715 Y31.061
N3338 X85.617 Y31.236
N3339 X86.505 Y31.472
N3340 X87.375 Y31.768
N3341 X88.223 Y32.122
N3342 X89.046 Y32.531
N3343 X89.841 Y32.992
N3344 X90.606 Y33.502
N3345 X91.336 Y34.06
N3346 X92.029 Y34.664
N3347 X92.682 Y35.311
N3348 X93.293 Y35.997
N3349 X93.862 Y36.719
N3350 X94.385 Y37.474
N3351 X94.862 Y38.26
N3352 X95.289 Y39.074
N3353 X95.663 Y39.913
N3354 X95.984 Y40.774
N3355 X96.25 Y41.654
N3356 X96.462 Y42.548
N3357 X96.618 Y43.454
N3358 X96.717 Y44.368
N3359 X96.756 Y45.286
N3360 X96.736 Y46.205
N3361 X96.658 Y47.12
N3362 X96.524 Y48.029
N3363 X96.333 Y48.928
N3364 X96.085 Y49.814
N3365 X95.78 Y50.68
N3366 X95.42 Y51.526
N3367 X95.006 Y52.347
N3368 X94.542 Y53.14
N3369 X94.03 Y53.903
N3370 X93.471 Y54.632
N3371 X92.865 Y55.324
N3372 X92.217 Y55.975
N3373 X91.528 Y56.583
N3374 X90.802 Y57.147
N3375 X90.043 Y57.665
N3376 X89.254 Y58.135
N3377 X88.436 Y58.554
N3378 X87.592 Y58.92
N3379 X86.728 Y59.231
N3380 X85.846 Y59.489
N3381 X84.95 Y59.693
N3382 X84.043 Y59.843
N3383 X83.129 Y59.937
N3384 X82.21 Y59.974
N3385 X81.292 Y59.954
N3386 X80.376 Y59.878
N3387 X79.466 Y59.746
N3388 X78.566 Y59.56
N3389 X77.679 Y59.321
N3390 X76.808 Y59.029
N3391 X75.956 Y58.683
N3392 X75.127 Y58.287
N3393 X74.323 Y57.842
N3394 X73.546 Y57.351
N3395 X72.799 Y56.815
N3396 X72.085 Y56.236
N3397 X71.408 Y55.615
N3398 X70.77 Y54.953
N3399 X70.172 Y54.255
N3400 X69.616 Y53.524
N3401 X69.103 Y52.761
N3402 X68.635 Y51.97
N3403 X68.214 Y51.154
N3404 X67.843 Y50.313
N3405 X67.523 Y49.451
N3406 X67.255 Y48.572
N3407 X67.037 Y47.679
N3408 X66.872 Y46.775
N3409 X66.758 Y45.863
N3410 X66.697 Y44.946
N3411 X66.691 Y44.027
N3412 X66.74 Y43.11
N3413 X66.843 Y42.196
N3414 X66.998 Y41.29
N3415 X67.204 Y40.395
N3416 X67.461 Y39.513
N3417 X67.769 Y38.647
N3418 X68.128 Y37.801
N3419 X68.536 Y36.977
N3420 X68.991 Y36.179
N3421 X69.492 Y35.408
N3422 X70.035 Y34.667
N3423 X70.62 Y33.958
N3424 X71.246 Y33.285
N3425 X71.91 Y32.65
N3426 X72.61 Y32.054
N3427 X73.343 Y31.5
N3428 X74.107 Y30.989
N3429 X74.899 Y30.523
N3430 X75.716 Y30.102
N3431 X76.557 Y29.731
N3432 X77.417 Y29.409
N3433 X78.295 Y29.137
N3434 X79.188 Y28.917
N3435 X80.091 Y28.748
N3436 X81.003 Y28.631
N3437 X81.919 Y28.567
N3438 X82.838 Y28.558
N3439 X83.756 Y28.601
N3440 X84.67 Y28.698
N3441 X85.577 Y28.846
N3442 X86.474 Y29.046
N3443 X87.359 Y29.296
N3444 X88.227 Y29.596
N3445 X89.077 Y29.946
N3446 X89.905 Y30.344
N3447 X90.711 Y30.787
N3448 X91.49 Y31.274
N3449 X92.242 Y31.802
N3450 X92.964 Y32.371
N3451 X93.654 Y32.978
N3452 X94.309 Y33.622
N3453 X94.929 Y34.301
N3454 X95.511 Y35.012
N3455 X96.054 Y35.753
N3456 X96.558 Y36.522
N3457 X97.02 Y37.317
N3458 X97.439 Y38.134
N3459 X97.813 Y38.974
N3460 X98.14 Y39.833
N3461 X98.42 Y40.708
N3462 X98.653 Y41.597
N3463 X98.838 Y42.497
N3464 X98.974 Y43.406
N3465 X99.062 Y44.321
N3466 X99.098 Y45.239
N3467 X99.086 Y46.012
N3468 X99.085 Y46.054
N3469 X99.082 Y46.096
N3470 X99.079 Y46.138
N3471 X99.06 Y46.327
N3472 X99.036 Y46.536
N3473 X98.941 Y47.162
N3474 X98.866 Y47.592
N3475 X98.832 Y47.788
N3476 X98.789 Y47.997
N3477 X98.523 Y49.041
N3478 X98.449 Y49.327
N3479 X98.406 Y49.458
N3480 X97.95 Y50.711
N3481 X97.867 Y50.92
N3482 X97.823 Y51.022
N3483 X97.269 Y52.173
N3484 X97.197 Y52.316
N3485 X97.162 Y52.381
N3486 X97.044 Y52.59
N3487 X96.406 Y53.634
N3488 X96.363 Y53.705
N3489 X95.945 Y54.274
N3490 X95.801 Y54.469
N3491 X95.319 Y55.103
N3492 X95.141 Y55.304
N3493 X94.276 Y56.236
N3494 X94.164 Y56.348
N3495 X93.859 Y56.626
N3496 X93.228 Y57.183
N3497 X93.024 Y57.358
N3498 X92.815 Y57.525
N3499 X92.717 Y57.601
N3500 X92.136 Y58.018
N3501 X91.981 Y58.127
N3502 X91.355 Y58.546
N3503 X91.189 Y58.645
N3504 X90.729 Y58.91
N3505 X90.52 Y59.027
N3506 X89.894 Y59.36
N3507 X89.632 Y59.48
N3508 X89.169 Y59.689
N3509 X88.434 Y59.997
N3510 X88.017 Y60.138
N3511 X87.808 Y60.208
N3512 X87.483 Y60.315
N3513 X87.182 Y60.413
N3514 X86.973 Y60.48
N3515 X85.721 Y60.766
N3516 X85.513 Y60.812
N3517 X84.887 Y60.898
N3518 X84.553 Y60.941
N3519 X84.261 Y60.978
N3520 X84.052 Y61.002
N3521 X83.426 Y61.043
N3522 X83.218 Y61.051
N3523 X82.8 Y61.061
N3524 X82.592 Y61.065
N3525 X81.966 Y61.062
N3526 X81.757 Y61.05
N3527 X80.714 Y60.97
N3528 X80.505 Y60.954
N3529 X80.41 Y60.941
N3530 X79.045 Y60.701
N3531 X78.836 Y60.649
N3532 X78.348 Y60.524
N3533 X78.21 Y60.486
N3534 X77.584 Y60.31
N3535 X77.375 Y60.25
N3536 X77.167 Y60.183
N3537 X76.123 Y59.773
N3538 X75.497 Y59.5
N3539 X75.453 Y59.48
N3540 X74.663 Y59.074
N3541 X74.246 Y58.847
N3542 X74.037 Y58.728
N3543 X72.994 Y58.054
N3544 X72.944 Y58.018
N3545 X72.576 Y57.741
N3546 X72.368 Y57.578
N3547 X71.873 Y57.183
N3548 X71.742 Y57.074
N3549 X71.324 Y56.698
N3550 X71.171 Y56.557
N3551 X70.49 Y55.893
N3552 X70.322 Y55.722
N3553 X69.622 Y54.887
N3554 X69.281 Y54.469
N3555 X69.238 Y54.415
N3556 X68.821 Y53.803
N3557 X68.707 Y53.634
N3558 X68.297 Y53.008
N3559 X68.181 Y52.799
N3560 X67.953 Y52.381
N3561 X67.842 Y52.173
N3562 X67.515 Y51.546
N3563 X67.36 Y51.183
N3564 X67.151 Y50.685
N3565 X66.943 Y50.181
N3566 X66.904 Y50.085
N3567 X66.517 Y48.832
N3568 X66.455 Y48.623
N3569 X66.317 Y47.984
N3570 X66.234 Y47.579
N3571 X66.192 Y47.371
N3572 X66.152 Y47.162
N3573 X66.066 Y46.536
N3574 X66.042 Y46.327
N3575 X66.001 Y45.909
N3576 X65.982 Y45.7
N3577 X65.941 Y45.074
N3578 X65.938 Y44.865
N3579 Y44.239
N3580 X65.941 Y43.613
N3581 X65.959 Y43.404
N3582 X66.085 Y42.151
N3583 X66.121 Y41.942
N3584 X66.196 Y41.525
N3585 X66.235 Y41.316
N3586 X66.362 Y40.69
N3587 X66.525 Y40.055
N3588 X66.583 Y39.855
N3589 X66.734 Y39.364
N3590 X66.777 Y39.228
N3591 X66.993 Y38.602
N3592 X67.075 Y38.393
N3593 X67.427 Y37.558
N3594 X67.569 Y37.251
N3595 X67.62 Y37.141
N3596 X67.728 Y36.932
N3597 X68.069 Y36.305
N3598 X68.195 Y36.079
N3599 X68.429 Y35.679
N3600 X68.566 Y35.47
N3601 X68.851 Y35.053
N3602 X68.996 Y34.844
N3603 X69.453 Y34.218
N3604 X69.655 Y33.973
N3605 X70.326 Y33.174
N3606 X70.535 Y32.965
N3607 X70.747 Y32.756
N3608 X71.389 Y32.13
N3609 X71.533 Y31.995
N3610 X71.742 Y31.823
N3611 X71.95 Y31.655
N3612 X72.402 Y31.295
N3613 X72.576 Y31.161
N3614 X73.202 Y30.713
N3615 X73.269 Y30.668
N3616 X73.915 Y30.251
N3617 X74.037 Y30.179
N3618 X74.454 Y29.941
N3619 X74.647 Y29.833
N3620 X75.289 Y29.504
N3621 X75.471 Y29.416
N3622 X76.123 Y29.126
N3623 X76.749 Y28.881
N3624 X76.958 Y28.804
N3625 X77.584 Y28.59
N3626 X78.21 Y28.414
N3627 X78.365 Y28.372
N3628 X78.836 Y28.251
N3629 X79.045 Y28.199
N3630 X80.435 Y27.954
N3631 X80.505 Y27.946
N3632 X81.548 Y27.866
N3633 X81.757 Y27.85
N3634 X81.966 Y27.838
N3635 X82.592 Y27.835
N3636 X82.8 Y27.839
N3637 X83.218 Y27.849
N3638 X83.426 Y27.857
N3639 X84.052 Y27.898
N3640 X84.261 Y27.922
N3641 X84.678 Y27.974
N3642 X84.887 Y28.002
N3643 X85.513 Y28.088
N3644 X85.721 Y28.134
N3645 X86.973 Y28.42
N3646 X87.469 Y28.581
N3647 X87.808 Y28.692
N3648 X88.225 Y28.832
N3649 X88.434 Y28.903
N3650 X88.851 Y29.074
N3651 X89.06 Y29.162
N3652 X89.686 Y29.445
N3653 X89.894 Y29.54
N3654 X90.454 Y29.833
N3655 X90.52 Y29.869
N3656 X91.181 Y30.251
N3657 X91.355 Y30.353
N3658 X91.564 Y30.484
N3659 X91.772 Y30.62
N3660 X92.71 Y31.295
N3661 X92.815 Y31.375
N3662 X93.024 Y31.545
N3663 X93.233 Y31.721
N3664 X93.65 Y32.091
N3665 X94.159 Y32.547
N3666 X94.276 Y32.664
N3667 X94.943 Y33.382
N3668 X95.124 Y33.591
N3669 X95.528 Y34.08
N3670 X95.639 Y34.218
N3671 X96.154 Y34.897
N3672 X96.363 Y35.199
N3673 X96.404 Y35.261
N3674 X97.042 Y36.305
N3675 X97.157 Y36.514
N3676 X97.406 Y37.013
N3677 X97.468 Y37.141
N3678 X97.823 Y37.878
N3679 X97.862 Y37.976
N3680 X98.032 Y38.42
N3681 X98.1 Y38.602
N3682 X98.328 Y39.228
N3683 X98.392 Y39.437
N3684 X98.517 Y39.855
N3685 X98.576 Y40.063
N3686 X98.735 Y40.69
N3687 X98.871 Y41.316
N3688 X98.909 Y41.525
N3689 X99.003 Y42.151
N3690 X99.092 Y42.778
N3691 X99.11 Y42.986
N3692 X99.173 Y44.239
N3693 X99.172 Y44.448
N3694 X99.159 Y44.865
N3695 X99.152 Y45.074
N3696 X99.121 Y45.7
N3697 X99.102 Y45.909
N3698 X99.079 Y46.138
N3699 G3 X98.998 Y46.373 I-0.629 J-0.086
N3700 G1 X98.948 Y46.458 Z-10.66
N3701 X98.899 Y46.542 Z-10.637
N3702 X98.853 Y46.621 Z-10.599
N3703 X98.81 Y46.695 Z-10.547
N3704 X98.771 Y46.76 Z-10.482
N3705 X98.739 Y46.816 Z-10.406
N3706 X98.713 Y46.861 Z-10.321
N3707 X98.693 Y46.894 Z-10.229
N3708 X98.682 Y46.914 Z-10.132
N3709 X98.678 Y46.921 Z-10.033
N3710 G0 Z15.24
N3712 Z3
N3712 X120. Y 50.
N3713 M5
N3714 M30
