%
(Adjust Circles Toan)
(T3  D=6.35 CR=0 - ZMIN=-8.5 - flat end mill)
N0 G90
N1 G17
(2D Pocket1)
N2 T3 M6
(T3 1/4 End Mill)
N3 S10000 M3
N5 G0 X31.007 Y20.521
N6 Z15
N7 Z5
N8 G1 Z3.135 F457.2
N9 G3 X31.031 Y20.538 Z2.946 I-1.719 J2.479 F228.6
N10 X31.098 Y20.587 Z2.774 I-1.742 J2.462
N11 X31.205 Y20.671 Z2.632 I-1.81 J2.413
N12 X31.335 Y20.784 Z2.537 I-1.916 J2.329
N13 X31.472 Y20.919 Z2.5 I-2.046 J2.216
N14 X27.105 Y25.081 Z2.169 I-2.183 J2.081
N15 X31.472 Y20.919 Z1.838 I2.183 J-2.081
N16 X27.105 Y25.081 Z1.507 I-2.183 J2.081
N17 X31.472 Y20.919 Z1.176 I2.183 J-2.081
N18 X27.105 Y25.081 Z0.845 I-2.183 J2.081
N19 X31.472 Y20.919 Z0.515 I2.183 J-2.081
N20 X27.105 Y25.081 Z0.184 I-2.183 J2.081
N21 X31.472 Y20.919 Z-0.147 I2.183 J-2.081
N22 X27.105 Y25.081 Z-0.478 I-2.183 J2.081
N23 X31.472 Y20.919 Z-0.809 I2.183 J-2.081
N24 X27.105 Y25.081 Z-1.14 I-2.183 J2.081
N25 X31.472 Y20.919 Z-1.471 I2.183 J-2.081
N26 X27.105 Y25.081 Z-1.802 I-2.183 J2.081
N27 X31.472 Y20.919 Z-2.133 I2.183 J-2.081
N28 X27.105 Y25.081 Z-2.464 I-2.183 J2.081
N29 X31.472 Y20.919 Z-2.794 I2.183 J-2.081
N30 X27.105 Y25.081 Z-3.125 I-2.183 J2.081
N31 X31.472 Y20.919 Z-3.456 I2.183 J-2.081
N32 X27.105 Y25.081 Z-3.787 I-2.183 J2.081
N33 X31.472 Y20.919 Z-4.118 I2.183 J-2.081
N34 X27.105 Y25.081 Z-4.449 I-2.183 J2.081
N35 X31.472 Y20.919 Z-4.78 I2.183 J-2.081
N36 X27.105 Y25.081 Z-5.111 I-2.183 J2.081
N37 X31.472 Y20.919 Z-5.442 I2.183 J-2.081
N38 X27.105 Y25.081 Z-5.773 I-2.183 J2.081
N39 X31.472 Y20.919 Z-6.103 I2.183 J-2.081
N40 X27.105 Y25.081 Z-6.434 I-2.183 J2.081
N41 X31.472 Y20.919 Z-6.765 I2.183 J-2.081
N42 X27.105 Y25.081 Z-7.096 I-2.183 J2.081
N43 X31.472 Y20.919 Z-7.427 I2.183 J-2.081
N44 X27.105 Y25.081 Z-7.758 I-2.183 J2.081
N45 X31.472 Y20.919 Z-8.089 I2.183 J-2.081
N46 X27.105 Y25.081 Z-8.42 I-2.183 J2.081
N47 X26.272 Y23 Z-8.5 I2.183 J-2.081
N48 X29.76 I1.744 J0 F457.2
N49 X20.24 I-4.76 J0
N50 X35.792 I7.776 J0
N51 X14.208 I-10.792 J0
N52 X41.825 I13.809 J0
N53 X8.175 I-16.825 J0
N54 X41.825 I16.825 J0
N55 X41.795 Y23.193 Z-8.469 I-0.635 J0
N56 X41.718 Y23.352 Z-8.379 I-0.605 J-0.193
N57 X41.628 Y23.459 Z-8.238 I-0.528 J-0.352
N58 X41.559 Y23.517 Z-8.061 I-0.438 J-0.459
N59 X41.533 Y23.534 Z-7.865 I-0.369 J-0.517
N60 G0 Z15
N61 X81.007 Y20.521
N62 Z5
N63 G1 Z3.135 F457.2
N64 G3 X81.031 Y20.538 Z2.946 I-1.719 J2.479 F228.6
N65 X81.099 Y20.587 Z2.774 I-1.742 J2.462
N66 X81.205 Y20.671 Z2.632 I-1.81 J2.413
N67 X81.335 Y20.784 Z2.537 I-1.916 J2.329
N68 X81.472 Y20.919 Z2.5 I-2.046 J2.216
N69 X77.105 Y25.081 Z2.169 I-2.183 J2.081
N70 X81.472 Y20.919 Z1.838 I2.183 J-2.081
N71 X77.105 Y25.081 Z1.507 I-2.183 J2.081
N72 X81.472 Y20.919 Z1.176 I2.183 J-2.081
N73 X77.105 Y25.081 Z0.845 I-2.183 J2.081
N74 X81.472 Y20.919 Z0.515 I2.183 J-2.081
N75 X77.105 Y25.081 Z0.184 I-2.183 J2.081
N76 X81.472 Y20.919 Z-0.147 I2.183 J-2.081
N77 X77.105 Y25.081 Z-0.478 I-2.183 J2.081
N78 X81.472 Y20.919 Z-0.809 I2.183 J-2.081
N79 X77.105 Y25.081 Z-1.14 I-2.183 J2.081
N80 X81.472 Y20.919 Z-1.471 I2.183 J-2.081
N81 X77.105 Y25.081 Z-1.802 I-2.183 J2.081
N82 X81.472 Y20.919 Z-2.133 I2.183 J-2.081
N83 X77.105 Y25.081 Z-2.464 I-2.183 J2.081
N84 X81.472 Y20.919 Z-2.794 I2.183 J-2.081
N85 X77.105 Y25.081 Z-3.125 I-2.183 J2.081
N86 X81.472 Y20.919 Z-3.456 I2.183 J-2.081
N87 X77.105 Y25.081 Z-3.787 I-2.183 J2.081
N88 X81.472 Y20.919 Z-4.118 I2.183 J-2.081
N89 X77.105 Y25.081 Z-4.449 I-2.183 J2.081
N90 X81.472 Y20.919 Z-4.78 I2.183 J-2.081
N91 X77.105 Y25.081 Z-5.111 I-2.183 J2.081
N92 X81.472 Y20.919 Z-5.442 I2.183 J-2.081
N93 X77.105 Y25.081 Z-5.773 I-2.183 J2.081
N94 X81.472 Y20.919 Z-6.103 I2.183 J-2.081
N95 X77.105 Y25.081 Z-6.434 I-2.183 J2.081
N96 X81.472 Y20.919 Z-6.765 I2.183 J-2.081
N97 X77.105 Y25.081 Z-7.096 I-2.183 J2.081
N98 X81.472 Y20.919 Z-7.427 I2.183 J-2.081
N99 X77.105 Y25.081 Z-7.758 I-2.183 J2.081
N100 X81.472 Y20.919 Z-8.089 I2.183 J-2.081
N101 X77.105 Y25.081 Z-8.42 I-2.183 J2.081
N102 X76.272 Y23 Z-8.5 I2.183 J-2.081
N103 X79.76 I1.744 J0 F457.2
N104 X70.24 I-4.76 J0
N105 X85.793 I7.776 J0
N106 X64.207 I-10.793 J0
N107 X91.825 I13.809 J0
N108 X58.175 I-16.825 J0
N109 X91.825 I16.825 J0
N110 X91.795 Y23.193 Z-8.469 I-0.635 J0
N111 X91.718 Y23.352 Z-8.379 I-0.605 J-0.193
N112 X91.628 Y23.459 Z-8.238 I-0.528 J-0.352
N113 X91.559 Y23.517 Z-8.061 I-0.438 J-0.459
N114 X91.533 Y23.534 Z-7.865 I-0.369 J-0.517
N115 G0 Z15
N116 X131.007 Y20.521
N117 Z5
N118 G1 Z3.135 F457.2
N119 G3 X131.031 Y20.538 Z2.946 I-1.719 J2.479 F228.6
N120 X131.098 Y20.587 Z2.774 I-1.742 J2.462
N121 X131.205 Y20.671 Z2.632 I-1.81 J2.413
N122 X131.335 Y20.784 Z2.537 I-1.916 J2.329
N123 X131.472 Y20.919 Z2.5 I-2.046 J2.216
N124 X127.105 Y25.081 Z2.169 I-2.183 J2.081
N125 X126.272 Y23 Z2.089 I2.183 J-2.081
N126 X132.305 Z1.758 I3.016 J0
N127 X131.098 Y25.413 Z1.66 I-3.016 J0
N128 X126.272 Y23 Z1.427 I-1.81 J-2.413
N129 X132.305 Z1.096 I3.016 J0
N130 X131.098 Y25.413 Z0.999 I-3.016 J0
N131 X126.272 Y23 Z0.765 I-1.81 J-2.413
N132 X132.305 Z0.434 I3.016 J0
N133 X131.098 Y25.413 Z0.337 I-3.016 J0
N134 X126.272 Y23 Z0.103 I-1.81 J-2.413
N135 X132.305 Z-0.227 I3.016 J0
N136 X131.098 Y25.413 Z-0.325 I-3.016 J0
N137 X126.272 Y23 Z-0.558 I-1.81 J-2.413
N138 X132.305 Z-0.889 I3.016 J0
N139 X131.098 Y25.413 Z-0.987 I-3.016 J0
N140 X126.272 Y23 Z-1.22 I-1.81 J-2.413
N141 X132.305 Z-1.551 I3.016 J0
N142 X131.098 Y25.413 Z-1.649 I-3.016 J0
N143 X126.272 Y23 Z-1.882 I-1.81 J-2.413
N144 X132.305 Z-2.213 I3.016 J0
N145 X131.098 Y25.413 Z-2.311 I-3.016 J0
N146 X126.272 Y23 Z-2.544 I-1.81 J-2.413
N147 X132.305 Z-2.875 I3.016 J0
N148 X131.098 Y25.413 Z-2.972 I-3.016 J0
N149 X126.272 Y23 Z-3.206 I-1.81 J-2.413
N150 X132.305 Z-3.536 I3.016 J0
N151 X131.098 Y25.413 Z-3.634 I-3.016 J0
N152 X126.272 Y23 Z-3.867 I-1.81 J-2.413
N153 X132.305 Z-4.198 I3.016 J0
N154 X131.098 Y25.413 Z-4.296 I-3.016 J0
N155 X126.272 Y23 Z-4.529 I-1.81 J-2.413
N156 X132.305 Z-4.86 I3.016 J0
N157 X131.098 Y25.413 Z-4.958 I-3.016 J0
N158 X126.272 Y23 Z-5.191 I-1.81 J-2.413
N159 X132.305 Z-5.522 I3.016 J0
N160 X131.098 Y25.413 Z-5.62 I-3.016 J0
N161 X126.272 Y23 Z-5.853 I-1.81 J-2.413
N162 X132.305 Z-6.184 I3.016 J0
N163 X131.098 Y25.413 Z-6.281 I-3.016 J0
N164 X126.272 Y23 Z-6.515 I-1.81 J-2.413
N165 X132.305 Z-6.845 I3.016 J0
N166 X131.098 Y25.413 Z-6.943 I-3.016 J0
N167 X126.272 Y23 Z-7.176 I-1.81 J-2.413
N168 X132.305 Z-7.507 I3.016 J0
N169 X131.098 Y25.413 Z-7.605 I-3.016 J0
N170 X126.272 Y23 Z-7.838 I-1.81 J-2.413
N171 X132.305 Z-8.169 I3.016 J0
N172 X131.098 Y25.413 Z-8.267 I-3.016 J0
N173 X126.272 Y23 Z-8.5 I-1.81 J-2.413
N174 X129.76 I1.744 J0 F457.2
N175 X120.24 I-4.76 J0
N176 X135.792 I7.776 J0
N177 X114.207 I-10.792 J0
N178 X141.825 I13.809 J0
N179 X108.175 I-16.825 J0
N180 X141.825 I16.825 J0
N181 X141.795 Y23.193 Z-8.469 I-0.635 J0
N182 X141.718 Y23.352 Z-8.379 I-0.605 J-0.193
N183 X141.628 Y23.459 Z-8.238 I-0.528 J-0.352
N184 X141.559 Y23.517 Z-8.061 I-0.438 J-0.459
N185 X141.533 Y23.534 Z-7.865 I-0.369 J-0.517
N186 G0 Z15
N187 X181.007 Y20.521
N188 Z5
N189 G1 Z3.135 F457.2
N190 G3 X181.031 Y20.538 Z2.946 I-1.719 J2.479 F228.6
N191 X181.098 Y20.587 Z2.774 I-1.742 J2.462
N192 X181.205 Y20.671 Z2.632 I-1.81 J2.413
N193 X181.335 Y20.784 Z2.537 I-1.916 J2.329
N194 X181.472 Y20.919 Z2.5 I-2.046 J2.216
N195 X177.105 Y25.081 Z2.169 I-2.183 J2.081
N196 X181.472 Y20.919 Z1.838 I2.183 J-2.081
N197 X177.105 Y25.081 Z1.507 I-2.183 J2.081
N198 X181.472 Y20.919 Z1.176 I2.183 J-2.081
N199 X177.105 Y25.081 Z0.845 I-2.183 J2.081
N200 X181.472 Y20.919 Z0.515 I2.183 J-2.081
N201 X177.105 Y25.081 Z0.184 I-2.183 J2.081
N202 X181.472 Y20.919 Z-0.147 I2.183 J-2.081
N203 X177.105 Y25.081 Z-0.478 I-2.183 J2.081
N204 X181.472 Y20.919 Z-0.809 I2.183 J-2.081
N205 X177.105 Y25.081 Z-1.14 I-2.183 J2.081
N206 X181.472 Y20.919 Z-1.471 I2.183 J-2.081
N207 X177.105 Y25.081 Z-1.802 I-2.183 J2.081
N208 X181.472 Y20.919 Z-2.133 I2.183 J-2.081
N209 X177.105 Y25.081 Z-2.464 I-2.183 J2.081
N210 X181.472 Y20.919 Z-2.794 I2.183 J-2.081
N211 X177.105 Y25.081 Z-3.125 I-2.183 J2.081
N212 X181.472 Y20.919 Z-3.456 I2.183 J-2.081
N213 X177.105 Y25.081 Z-3.787 I-2.183 J2.081
N214 X181.472 Y20.919 Z-4.118 I2.183 J-2.081
N215 X177.105 Y25.081 Z-4.449 I-2.183 J2.081
N216 X181.472 Y20.919 Z-4.78 I2.183 J-2.081
N217 X177.105 Y25.081 Z-5.111 I-2.183 J2.081
N218 X181.472 Y20.919 Z-5.442 I2.183 J-2.081
N219 X177.105 Y25.081 Z-5.773 I-2.183 J2.081
N220 X181.472 Y20.919 Z-6.103 I2.183 J-2.081
N221 X177.105 Y25.081 Z-6.434 I-2.183 J2.081
N222 X181.472 Y20.919 Z-6.765 I2.183 J-2.081
N223 X177.105 Y25.081 Z-7.096 I-2.183 J2.081
N224 X181.472 Y20.919 Z-7.427 I2.183 J-2.081
N225 X177.105 Y25.081 Z-7.758 I-2.183 J2.081
N226 X181.472 Y20.919 Z-8.089 I2.183 J-2.081
N227 X177.105 Y25.081 Z-8.42 I-2.183 J2.081
N228 X176.273 Y23 Z-8.5 I2.183 J-2.081
N229 X179.76 I1.744 J0 F457.2
N230 X170.24 I-4.76 J0
N231 X185.792 I7.776 J0
N232 X164.208 I-10.792 J0
N233 X191.825 I13.809 J0
N234 X158.175 I-16.825 J0
N235 X191.825 I16.825 J0
N236 X191.795 Y23.193 Z-8.469 I-0.635 J0
N237 X191.718 Y23.352 Z-8.379 I-0.605 J-0.193
N238 X191.628 Y23.459 Z-8.238 I-0.528 J-0.352
N239 X191.559 Y23.517 Z-8.061 I-0.438 J-0.459
N240 X191.533 Y23.534 Z-7.865 I-0.369 J-0.517
N241 G0 Z15
N243 Z1
N244 M5
N245 M30
