%
(Toan's Customize Nameplate)
(T1  D=12.7 CR=0 - ZMIN=-6.864 - ball end mill)
(T2  D=12.7 CR=0 - ZMIN=-8.5 - flat end mill)
N0 G90
N1 G17
(2D Pocket1)
N2 T2 M6
N3 S10000 M3
N5 G0 X16.727 Y17.467
N6 Z15
N7 Z5
N8 G1 Z3.769 F508
N9 G3 X16.753 Y17.45 Z3.493 I3.325 J5.033
N10 X16.828 Y17.401 Z3.23 I3.3 J5.05
N11 X16.952 Y17.325 Z2.992 I3.224 J5.099
N12 X17.119 Y17.229 Z2.792 I3.101 J5.175
N13 X17.324 Y17.12 Z2.639 I2.934 J5.271
N14 X17.558 Y17.007 Z2.54 I2.729 J5.38
N15 X17.811 Y16.899 Z2.5 I2.494 J5.493
N16 X22.294 Y28.101 Z1.838 I2.241 J5.601
N17 X17.811 Y16.899 Z1.176 I-2.241 J-5.601
N18 X22.294 Y28.101 Z0.515 I2.241 J5.601
N19 X17.811 Y16.899 Z-0.147 I-2.241 J-5.601
N20 X22.294 Y28.101 Z-0.809 I2.241 J5.601
N21 X17.811 Y16.899 Z-1.471 I-2.241 J-5.601
N22 X22.294 Y28.101 Z-2.133 I2.241 J5.601
N23 X17.811 Y16.899 Z-2.794 I-2.241 J-5.601
N24 X22.294 Y28.101 Z-3.456 I2.241 J5.601
N25 X17.811 Y16.899 Z-4.118 I-2.241 J-5.601
N26 X22.294 Y28.101 Z-4.78 I2.241 J5.601
N27 X17.811 Y16.899 Z-5.442 I-2.241 J-5.601
N28 X22.294 Y28.101 Z-6.103 I2.241 J5.601
N29 X17.811 Y16.899 Z-6.765 I-2.241 J-5.601
N30 X22.294 Y28.101 Z-7.427 I2.241 J5.601
N31 X17.811 Y16.899 Z-8.089 I-2.241 J-5.601
N32 X26.085 Y22.5 Z-8.5 I2.241 J5.601
N33 X23.915 I-1.085 J0 F762
N34 X38.15 I7.117 J0
N35 X11.85 I-13.15 J0
N36 X38.15 I13.15 J0
N37 X38.119 Y22.78 Z-8.468 I-1.27 J0
N38 X38.032 Y23.034 Z-8.374 I-1.239 J-0.28
N39 X37.911 Y23.242 Z-8.223 I-1.152 J-0.534
N40 X37.781 Y23.395 Z-8.022 I-1.031 J-0.742
N41 X37.668 Y23.496 Z-7.781 I-0.901 J-0.895
N42 X37.593 Y23.551 Z-7.513 I-0.788 J-0.996
N43 X37.566 Y23.569 Z-7.23 I-0.713 J-1.051
N44 G0 Z15
N45 X66.727 Y17.467
N46 Z5
N47 G1 Z3.769 F508
N48 G3 X66.753 Y17.45 Z3.493 I3.325 J5.033
N49 X66.828 Y17.401 Z3.23 I3.3 J5.05
N50 X66.952 Y17.325 Z2.992 I3.224 J5.099
N51 X67.119 Y17.229 Z2.792 I3.101 J5.175
N52 X67.324 Y17.12 Z2.639 I2.934 J5.271
N53 X67.558 Y17.007 Z2.54 I2.729 J5.38
N54 X67.811 Y16.899 Z2.5 I2.494 J5.493
N55 X72.294 Y28.101 Z1.838 I2.241 J5.601
N56 X67.811 Y16.899 Z1.176 I-2.241 J-5.601
N57 X72.294 Y28.101 Z0.515 I2.241 J5.601
N58 X67.811 Y16.899 Z-0.147 I-2.241 J-5.601
N59 X72.294 Y28.101 Z-0.809 I2.241 J5.601
N60 X67.811 Y16.899 Z-1.471 I-2.241 J-5.601
N61 X72.294 Y28.101 Z-2.133 I2.241 J5.601
N62 X67.811 Y16.899 Z-2.794 I-2.241 J-5.601
N63 X72.294 Y28.101 Z-3.456 I2.241 J5.601
N64 X67.811 Y16.899 Z-4.118 I-2.241 J-5.601
N65 X72.294 Y28.101 Z-4.78 I2.241 J5.601
N66 X67.811 Y16.899 Z-5.442 I-2.241 J-5.601
N67 X72.294 Y28.101 Z-6.103 I2.241 J5.601
N68 X67.811 Y16.899 Z-6.765 I-2.241 J-5.601
N69 X72.294 Y28.101 Z-7.427 I2.241 J5.601
N70 X67.811 Y16.899 Z-8.089 I-2.241 J-5.601
N71 X76.085 Y22.5 Z-8.5 I2.241 J5.601
N72 X73.915 I-1.085 J0 F762
N73 X88.15 I7.118 J0
N74 X61.85 I-13.15 J0
N75 X88.15 I13.15 J0
N76 X88.119 Y22.78 Z-8.468 I-1.27 J0
N77 X88.032 Y23.034 Z-8.374 I-1.239 J-0.28
N78 X87.911 Y23.242 Z-8.223 I-1.152 J-0.534
N79 X87.781 Y23.395 Z-8.022 I-1.031 J-0.742
N80 X87.668 Y23.496 Z-7.781 I-0.901 J-0.895
N81 X87.593 Y23.551 Z-7.513 I-0.788 J-0.996
N82 X87.566 Y23.569 Z-7.23 I-0.713 J-1.051
N83 G0 Z15
N84 X116.727 Y17.467
N85 Z5
N86 G1 Z3.769 F508
N87 G3 X116.753 Y17.45 Z3.493 I3.325 J5.033
N88 X116.828 Y17.401 Z3.23 I3.3 J5.05
N89 X116.952 Y17.325 Z2.992 I3.224 J5.099
N90 X117.119 Y17.229 Z2.792 I3.101 J5.175
N91 X117.324 Y17.12 Z2.639 I2.934 J5.271
N92 X117.558 Y17.007 Z2.54 I2.729 J5.38
N93 X117.811 Y16.899 Z2.5 I2.494 J5.493
N94 X122.294 Y28.101 Z1.838 I2.241 J5.601
N95 X117.811 Y16.899 Z1.176 I-2.241 J-5.601
N96 X122.294 Y28.101 Z0.515 I2.241 J5.601
N97 X117.811 Y16.899 Z-0.147 I-2.241 J-5.601
N98 X122.294 Y28.101 Z-0.809 I2.241 J5.601
N99 X117.811 Y16.899 Z-1.471 I-2.241 J-5.601
N100 X122.294 Y28.101 Z-2.133 I2.241 J5.601
N101 X117.811 Y16.899 Z-2.794 I-2.241 J-5.601
N102 X122.294 Y28.101 Z-3.456 I2.241 J5.601
N103 X117.811 Y16.899 Z-4.118 I-2.241 J-5.601
N104 X122.294 Y28.101 Z-4.78 I2.241 J5.601
N105 X117.811 Y16.899 Z-5.442 I-2.241 J-5.601
N106 X122.294 Y28.101 Z-6.103 I2.241 J5.601
N107 X117.811 Y16.899 Z-6.765 I-2.241 J-5.601
N108 X122.294 Y28.101 Z-7.427 I2.241 J5.601
N109 X117.811 Y16.899 Z-8.089 I-2.241 J-5.601
N110 X126.085 Y22.5 Z-8.5 I2.241 J5.601
N111 X123.915 I-1.085 J0 F762
N112 X138.15 I7.118 J0
N113 X111.85 I-13.15 J0
N114 X138.15 I13.15 J0
N115 X138.119 Y22.78 Z-8.468 I-1.27 J0
N116 X138.032 Y23.034 Z-8.374 I-1.239 J-0.28
N117 X137.911 Y23.242 Z-8.223 I-1.152 J-0.534
N118 X137.781 Y23.395 Z-8.022 I-1.031 J-0.742
N119 X137.668 Y23.496 Z-7.781 I-0.901 J-0.895
N120 X137.593 Y23.551 Z-7.513 I-0.788 J-0.996
N121 X137.566 Y23.569 Z-7.23 I-0.713 J-1.051
N122 G0 Z15
N123 X166.727 Y17.467
N124 Z5
N125 G1 Z3.769 F508
N126 G3 X166.753 Y17.45 Z3.493 I3.325 J5.033
N127 X166.828 Y17.401 Z3.23 I3.3 J5.05
N128 X166.952 Y17.325 Z2.992 I3.224 J5.099
N129 X167.119 Y17.229 Z2.792 I3.101 J5.175
N130 X167.324 Y17.12 Z2.639 I2.934 J5.271
N131 X167.558 Y17.007 Z2.54 I2.729 J5.38
N132 X167.811 Y16.899 Z2.5 I2.494 J5.493
N133 X172.294 Y28.101 Z1.838 I2.241 J5.601
N134 X167.811 Y16.899 Z1.176 I-2.241 J-5.601
N135 X172.294 Y28.101 Z0.515 I2.241 J5.601
N136 X167.811 Y16.899 Z-0.147 I-2.241 J-5.601
N137 X172.294 Y28.101 Z-0.809 I2.241 J5.601
N138 X167.811 Y16.899 Z-1.471 I-2.241 J-5.601
N139 X172.294 Y28.101 Z-2.133 I2.241 J5.601
N140 X167.811 Y16.899 Z-2.794 I-2.241 J-5.601
N141 X172.294 Y28.101 Z-3.456 I2.241 J5.601
N142 X167.811 Y16.899 Z-4.118 I-2.241 J-5.601
N143 X172.294 Y28.101 Z-4.78 I2.241 J5.601
N144 X167.811 Y16.899 Z-5.442 I-2.241 J-5.601
N145 X172.294 Y28.101 Z-6.103 I2.241 J5.601
N146 X167.811 Y16.899 Z-6.765 I-2.241 J-5.601
N147 X172.294 Y28.101 Z-7.427 I2.241 J5.601
N148 X167.811 Y16.899 Z-8.089 I-2.241 J-5.601
N149 X176.085 Y22.5 Z-8.5 I2.241 J5.601
N150 X173.915 I-1.085 J0 F762
N151 X188.15 I7.118 J0
N152 X161.85 I-13.15 J0
N153 X188.15 I13.15 J0
N154 X188.119 Y22.78 Z-8.468 I-1.27 J0
N155 X188.032 Y23.034 Z-8.374 I-1.239 J-0.28
N156 X187.911 Y23.242 Z-8.223 I-1.152 J-0.534
N157 X187.781 Y23.395 Z-8.022 I-1.031 J-0.742
N158 X187.668 Y23.496 Z-7.781 I-0.901 J-0.895
N159 X187.593 Y23.551 Z-7.513 I-0.788 J-0.996
N160 X187.566 Y23.569 Z-7.23 I-0.713 J-1.051
N161 G0 Z15
N163 M5
(Parallel1 (2))
N164 T1 M6
N165 S7260 M3
N167 G0 X1.158 Y-0.644
N168 Z15
N169 Z1.975
N170 G1 Z1.27 F4622.8
N171 X1.151 Y-0.64 Z1.128
N172 X1.13 Y-0.628 Z0.988
N173 X1.096 Y-0.608 Z0.851
N174 X1.049 Y-0.581 Z0.719
N175 X0.99 Y-0.547 Z0.595
N176 X0.918 Y-0.505 Z0.479
N177 X0.836 Y-0.458 Z0.372
N178 X0.744 Y-0.405 Z0.277
N179 X0.644 Y-0.347 Z0.195
N180 X0.536 Y-0.285 Z0.126
N181 X0.422 Y-0.219 Z0.072
N182 X0.304 Y-0.151 Z0.032
N183 X0.182 Y-0.08 Z0.008
N184 X0.059 Y-0.009 Z0
N185 X-0.009 Y0.03
N186 X-0.124 Y0.096 Z0.007
N187 X-0.237 Y0.162 Z0.027
N188 X-0.349 Y0.226 Z0.062
N189 X-0.456 Y0.288 Z0.109
N190 X-0.559 Y0.348 Z0.17
N191 X-0.656 Y0.403 Z0.242
N192 X-0.745 Y0.455 Z0.326
N193 X-0.827 Y0.502 Z0.42
N194 X-0.899 Y0.544 Z0.523
N195 X-0.962 Y0.58 Z0.635
N196 X-1.014 Y0.61 Z0.753
N197 X-1.056 Y0.634 Z0.877
N198 X-1.085 Y0.651 Z1.006
N199 X-1.103 Y0.662 Z1.137
N200 X-1.109 Y0.665 Z1.27
N201 G0 Z5
N202 X-1.27 Y7.684
N203 Z-0.083
N204 G1 Z-0.598 F4622.8
N205 X-1.263 Y7.68 Z-0.734
N206 X-1.244 Y7.669 Z-0.868
N207 X-1.213 Y7.651 Z-1
N208 X-1.17 Y7.626 Z-1.126
N209 X-1.115 Y7.594 Z-1.247
N210 X-1.05 Y7.557 Z-1.36
N211 X-0.974 Y7.513 Z-1.465
N212 X-0.889 Y7.464 Z-1.559
N213 X-0.796 Y7.41 Z-1.642
N214 X-0.695 Y7.352 Z-1.714
N215 X-0.589 Y7.29 Z-1.772
N216 X-0.477 Y7.226 Z-1.817
N217 X-0.362 Y7.16 Z-1.848
N218 X-0.245 Y7.092 Z-1.865
N219 X-0.127 Y7.024 Z-1.867
N220 X-0.01 Y6.956 Z-1.855
N221 X2.55 Y5.478 Z-1.42
N222 X5.17 Y3.966 Z-0.956
N223 X8.113 Y2.266 Z-0.41
N224 X9.143 Y1.672 Z-0.224
N225 X9.882 Y1.245 Z-0.123
N226 X10.623 Y0.817 Z-0.053
N227 X11.366 Y0.388 Z-0.012
N228 X12.055 Y-0.009 Z0
N229 X12.135 Y-0.056 Z0.008
N230 X12.214 Y-0.101 Z0.03
N231 X12.289 Y-0.144 Z0.065
N232 X12.366 Y-0.189 Z0.1
N233 X12.448 Y-0.236 Z0.122
N234 X12.531 Y-0.284 Z0.13
N235 X21.528 Y-5.478
N236 G3 X24.13 Y-4.781 I0.953 J1.65
N237 G1 X25.224 Y-2.886
N238 G3 X24.527 Y-0.284 I-1.65 J0.952
N239 G1 X24.443 Y-0.236 Z0.122
N240 X24.362 Y-0.189 Z0.1
N241 X24.285 Y-0.144 Z0.065
N242 X24.21 Y-0.101 Z0.03
N243 X24.131 Y-0.056 Z0.008
N244 X24.051 Y-0.009 Z0
N245 X23.362 Y0.388 Z-0.012
N246 X22.619 Y0.817 Z-0.053
N247 X21.877 Y1.245 Z-0.123
N248 X21.138 Y1.672 Z-0.224
N249 X20.109 Y2.266 Z-0.41
N250 X16.838 Y4.155 Z-1.016
N251 X13.597 Y6.026 Z-1.585
N252 X9.99 Y8.109 Z-2.182
N253 X6.707 Y10.004 Z-2.692
N254 X3.42 Y11.902 Z-3.171
N255 X-0.01 Y13.882 Z-3.64
N256 X-0.089 Y13.928 Z-3.645
N257 X-0.167 Y13.973 Z-3.636
N258 X-0.244 Y14.017 Z-3.614
N259 X-0.317 Y14.059 Z-3.58
N260 X-0.394 Y14.104 Z-3.544
N261 X-0.475 Y14.151 Z-3.522
N262 X-0.559 Y14.199 Z-3.515
N263 X-3.541 Y15.921
N264 X-3.614 Y15.965 Z-3.516
N265 X-3.685 Y16.013 Z-3.517
N266 X-3.754 Y16.063 Z-3.519
N267 X-3.821 Y16.117 Z-3.522
N268 X-3.885 Y16.173 Z-3.526
N269 X-3.947 Y16.232 Z-3.53
N270 X-4.005 Y16.294 Z-3.536
N271 X-4.062 Y16.358 Z-3.542
N272 X-4.115 Y16.425 Z-3.549
N273 X-4.165 Y16.493 Z-3.557
N274 X-4.212 Y16.564 Z-3.566
N275 X-4.256 Y16.637 Z-3.575
N276 X-4.296 Y16.712 Z-3.586
N277 X-4.334 Y16.788 Z-3.597
N278 X-4.367 Y16.866 Z-3.608
N279 X-4.397 Y16.945 Z-3.62
N280 X-4.424 Y17.025 Z-3.633
N281 X-4.447 Y17.106 Z-3.647
N282 X-4.466 Y17.188 Z-3.661
N283 X-4.481 Y17.271 Z-3.676
N284 X-4.493 Y17.354 Z-3.691
N285 X-4.501 Y17.438 Z-3.707
N286 X-4.505 Y17.522 Z-3.723
N287 Y17.606 Z-3.739
N288 X-4.502 Y17.689 Z-3.757
N289 X-4.495 Y17.773 Z-3.774
N290 X-4.484 Y17.856 Z-3.792
N291 X-4.469 Y17.938 Z-3.81
N292 X-4.45 Y18.019 Z-3.828
N293 X-4.428 Y18.1 Z-3.847
N294 X-4.402 Y18.179 Z-3.865
N295 X-4.372 Y18.257 Z-3.884
N296 X-4.339 Y18.333 Z-3.903
N297 X-4.303 Y18.408 Z-3.922
N298 X-4.263 Y18.481 Z-3.942
N299 X-3.12 Y20.46 Z-4.466
N300 X-3.077 Y20.531 Z-4.485
N301 X-3.03 Y20.6 Z-4.505
N302 X-2.981 Y20.667 Z-4.524
N303 X-2.928 Y20.732 Z-4.542
N304 X-2.872 Y20.794 Z-4.561
N305 X-2.814 Y20.853 Z-4.58
N306 X-2.753 Y20.91 Z-4.598
N307 X-2.689 Y20.964 Z-4.616
N308 X-2.623 Y21.015 Z-4.634
N309 X-2.554 Y21.063 Z-4.651
N310 X-2.483 Y21.108 Z-4.668
N311 X-2.411 Y21.15 Z-4.685
N312 X-2.336 Y21.188 Z-4.701
N313 X-2.26 Y21.223 Z-4.717
N314 X-2.182 Y21.255 Z-4.732
N315 X-2.102 Y21.283 Z-4.747
N316 X-2.021 Y21.307 Z-4.761
N317 X-1.94 Y21.328 Z-4.775
N318 X-1.857 Y21.345 Z-4.787
N319 X-1.773 Y21.358 Z-4.8
N320 X-1.689 Y21.368 Z-4.811
N321 X-1.605 Y21.374 Z-4.822
N322 X-1.52 Y21.376 Z-4.832
N323 X-1.435 Y21.375 Z-4.842
N324 X-1.35 Y21.369 Z-4.851
N325 X-1.265 Y21.36 Z-4.858
N326 X-1.181 Y21.347 Z-4.866
N327 X-1.097 Y21.331 Z-4.872
N328 X-1.014 Y21.311 Z-4.877
N329 X-0.933 Y21.287 Z-4.882
N330 X-0.852 Y21.259 Z-4.886
N331 X-0.772 Y21.229 Z-4.889
N332 X-0.694 Y21.194 Z-4.891
N333 X-0.617 Y21.156 Z-4.892
N334 X-0.542 Y21.115 Z-4.893
N335 X-0.459 Y21.067 Z-4.9
N336 X-0.378 Y21.02 Z-4.922
N337 X-0.3 Y20.976 Z-4.958
N338 X-0.231 Y20.936 Z-4.99
N339 X-0.159 Y20.894 Z-5.012
N340 X-0.085 Y20.851 Z-5.022
N341 X-0.01 Y20.808 Z-5.02
N342 X2.303 Y19.472 Z-4.785
N343 X5.601 Y17.568 Z-4.425
N344 X5.667 Y17.531 Z-4.413
N345 X5.731 Y17.494 Z-4.393
N346 X5.792 Y17.458 Z-4.363
N347 X5.869 Y17.414 Z-4.327
N348 X5.95 Y17.367 Z-4.306
N349 X6.034 Y17.319 Z-4.298
N350 X6.109 Y17.278 Z-4.299
N351 X6.185 Y17.24 Z-4.3
N352 X6.264 Y17.205 Z-4.302
N353 X6.343 Y17.175 Z-4.305
N354 X6.424 Y17.147 Z-4.308
N355 X6.506 Y17.124 Z-4.312
N356 X6.589 Y17.103 Z-4.317
N357 X6.673 Y17.087 Z-4.323
N358 X6.757 Y17.074 Z-4.329
N359 X6.842 Y17.065 Z-4.337
N360 X6.927 Y17.06 Z-4.344
N361 X7.012 Y17.059 Z-4.353
N362 X7.097 Y17.061 Z-4.362
N363 X7.182 Y17.067 Z-4.372
N364 X7.266 Y17.077 Z-4.383
N365 X7.349 Y17.091 Z-4.394
N366 X7.432 Y17.108 Z-4.405
N367 X7.514 Y17.129 Z-4.418
N368 X7.595 Y17.154 Z-4.431
N369 X7.675 Y17.182 Z-4.444
N370 X7.753 Y17.214 Z-4.458
N371 X7.829 Y17.249 Z-4.472
N372 X7.904 Y17.288 Z-4.487
N373 X7.977 Y17.33 Z-4.502
N374 X8.048 Y17.375 Z-4.517
N375 X8.117 Y17.423 Z-4.533
N376 X8.183 Y17.475 Z-4.549
N377 X8.247 Y17.529 Z-4.565
N378 X8.309 Y17.586 Z-4.582
N379 X8.367 Y17.646 Z-4.599
N380 X8.423 Y17.709 Z-4.616
N381 X8.476 Y17.773 Z-4.633
N382 X8.526 Y17.841 Z-4.65
N383 X8.573 Y17.91 Z-4.668
N384 X8.616 Y17.982 Z-4.685
N385 X9.75 Y19.945 Z-5.155
N386 X9.79 Y20.019 Z-5.172
N387 X9.827 Y20.094 Z-5.189
N388 X9.86 Y20.171 Z-5.207
N389 X9.89 Y20.249 Z-5.224
N390 X9.916 Y20.328 Z-5.241
N391 X9.938 Y20.409 Z-5.258
N392 X9.957 Y20.491 Z-5.274
N393 X9.972 Y20.573 Z-5.291
N394 X9.984 Y20.657 Z-5.307
N395 X9.991 Y20.74 Z-5.322
N396 X9.995 Y20.824 Z-5.338
N397 Y20.909 Z-5.353
N398 X9.991 Y20.993 Z-5.368
N399 X9.983 Y21.077 Z-5.382
N400 X9.971 Y21.16 Z-5.396
N401 X9.956 Y21.243 Z-5.409
N402 X9.937 Y21.326 Z-5.422
N403 X9.914 Y21.407 Z-5.434
N404 X9.888 Y21.487 Z-5.446
N405 X9.858 Y21.567 Z-5.457
N406 X9.824 Y21.645 Z-5.467
N407 X9.787 Y21.721 Z-5.477
N408 X9.747 Y21.796 Z-5.487
N409 X9.703 Y21.869 Z-5.495
N410 X9.656 Y21.94 Z-5.503
N411 X9.606 Y22.009 Z-5.51
N412 X9.553 Y22.075 Z-5.517
N413 X9.497 Y22.14 Z-5.522
N414 X9.438 Y22.201 Z-5.527
N415 X9.376 Y22.261 Z-5.532
N416 X9.312 Y22.317 Z-5.535
N417 X9.246 Y22.371 Z-5.538
N418 X9.177 Y22.421 Z-5.54
N419 X9.106 Y22.469 Z-5.541
N420 X9.033 Y22.513
N421 X5.159 Y24.75
N422 X5.075 Y24.798 Z-5.549
N423 X4.994 Y24.845 Z-5.57
N424 X4.917 Y24.889 Z-5.606
N425 X4.85 Y24.928 Z-5.638
N426 X4.781 Y24.968 Z-5.659
N427 X4.71 Y25.009 Z-5.67
N428 X1.403 Y26.918 Z-5.915
N429 X-0.01 Y27.734 Z-6.014
N430 X-0.081 Y27.775 Z-6.013
N431 X-0.151 Y27.815 Z-6.003
N432 X-0.22 Y27.855 Z-5.981
N433 X-0.285 Y27.893 Z-5.95
N434 X-0.363 Y27.937 Z-5.914
N435 X-0.444 Y27.984 Z-5.893
N436 X-0.527 Y28.032 Z-5.885
N437 X-3.511 Y29.755
N438 X-3.584 Y29.8 Z-5.886
N439 X-3.655 Y29.847
N440 X-3.724 Y29.898 Z-5.887
N441 X-3.791 Y29.952 Z-5.888
N442 X-3.855 Y30.008 Z-5.89
N443 X-3.916 Y30.068 Z-5.892
N444 X-3.975 Y30.13 Z-5.895
N445 X-4.031 Y30.195 Z-5.898
N446 X-4.084 Y30.262 Z-5.901
N447 X-4.133 Y30.331 Z-5.904
N448 X-4.18 Y30.403 Z-5.908
N449 X-4.223 Y30.476 Z-5.913
N450 X-4.264 Y30.552 Z-5.917
N451 X-4.3 Y30.629 Z-5.922
N452 X-4.333 Y30.707 Z-5.927
N453 X-4.363 Y30.787 Z-5.933
N454 X-4.389 Y30.869 Z-5.939
N455 X-4.411 Y30.951 Z-5.945
N456 X-4.43 Y31.034 Z-5.951
N457 X-4.444 Y31.118 Z-5.958
N458 X-4.455 Y31.203 Z-5.965
N459 X-4.463 Y31.287 Z-5.972
N460 X-4.466 Y31.373 Z-5.979
N461 Y31.458 Z-5.986
N462 X-4.461 Y31.543 Z-5.994
N463 X-4.453 Y31.628 Z-6.002
N464 X-4.441 Y31.712 Z-6.01
N465 X-4.426 Y31.795 Z-6.018
N466 X-4.406 Y31.878 Z-6.026
N467 X-4.383 Y31.96 Z-6.035
N468 X-4.356 Y32.041 Z-6.043
N469 X-4.326 Y32.12 Z-6.052
N470 X-4.292 Y32.198 Z-6.06
N471 X-4.254 Y32.275 Z-6.069
N472 X-4.214 Y32.349 Z-6.078
N473 X-3.11 Y34.261 Z-6.301
N474 X-3.066 Y34.334 Z-6.31
N475 X-3.018 Y34.404 Z-6.319
N476 X-2.968 Y34.473 Z-6.327
N477 X-2.914 Y34.539 Z-6.336
N478 X-2.858 Y34.602 Z-6.344
N479 X-2.798 Y34.663 Z-6.352
N480 X-2.736 Y34.721 Z-6.361
N481 X-2.672 Y34.777 Z-6.369
N482 X-2.605 Y34.829 Z-6.377
N483 X-2.535 Y34.879 Z-6.385
N484 X-2.464 Y34.925 Z-6.392
N485 X-2.39 Y34.968 Z-6.4
N486 X-2.315 Y35.008 Z-6.407
N487 X-2.238 Y35.044 Z-6.414
N488 X-2.159 Y35.076 Z-6.421
N489 X-2.079 Y35.106 Z-6.428
N490 X-1.998 Y35.131 Z-6.434
N491 X-1.915 Y35.153 Z-6.44
N492 X-1.832 Y35.171 Z-6.446
N493 X-1.748 Y35.186 Z-6.452
N494 X-1.663 Y35.196 Z-6.457
N495 X-1.578 Y35.203 Z-6.462
N496 X-1.493 Y35.206 Z-6.466
N497 X-1.407 Y35.205 Z-6.471
N498 X-1.322 Y35.2 Z-6.474
N499 X-1.237 Y35.192 Z-6.478
N500 X-1.153 Y35.18 Z-6.481
N501 X-1.069 Y35.164 Z-6.484
N502 X-0.986 Y35.144 Z-6.487
N503 X-0.903 Y35.121 Z-6.489
N504 X-0.822 Y35.093 Z-6.49
N505 X-0.742 Y35.063 Z-6.492
N506 X-0.664 Y35.029 Z-6.493
N507 X-0.587 Y34.991
N508 X-0.512 Y34.95 Z-6.494
N509 X-0.429 Y34.902 Z-6.501
N510 X-0.348 Y34.855 Z-6.523
N511 X-0.27 Y34.81 Z-6.558
N512 X-0.208 Y34.774 Z-6.588
N513 X-0.144 Y34.737 Z-6.609
N514 X-0.077 Y34.698 Z-6.621
N515 X-0.01 Y34.66 Z-6.623
N516 X2.955 Y32.948 Z-6.508
N517 X6.265 Y31.037 Z-6.353
N518 X6.341 Y30.993 Z-6.343
N519 X6.415 Y30.95 Z-6.321
N520 X6.485 Y30.91 Z-6.288
N521 X6.562 Y30.865 Z-6.253
N522 X6.644 Y30.818 Z-6.231
N523 X6.727 Y30.77 Z-6.223
N524 X7.019 Y30.601
N525 X7.094 Y30.56 Z-6.224
N526 X7.171 Y30.523
N527 X7.249 Y30.488
N528 X7.329 Y30.458 Z-6.225
N529 X7.41 Y30.431 Z-6.226
N530 X7.492 Y30.407 Z-6.227
N531 X7.575 Y30.388 Z-6.229
N532 X7.659 Y30.372 Z-6.231
N533 X7.744 Y30.36 Z-6.232
N534 X7.829 Y30.351 Z-6.234
N535 X7.914 Y30.347 Z-6.237
N536 X8 Y30.346 Z-6.239
N537 X8.085 Y30.349 Z-6.242
N538 X8.17 Y30.356 Z-6.245
N539 X8.255 Y30.367 Z-6.248
N540 X8.339 Y30.381 Z-6.251
N541 X8.423 Y30.4 Z-6.254
N542 X8.505 Y30.422 Z-6.258
N543 X8.587 Y30.447 Z-6.261
N544 X8.667 Y30.477 Z-6.265
N545 X8.746 Y30.51 Z-6.269
N546 X8.823 Y30.546 Z-6.273
N547 X8.899 Y30.586 Z-6.278
N548 X8.972 Y30.629 Z-6.282
N549 X9.044 Y30.676 Z-6.286
N550 X9.113 Y30.725 Z-6.291
N551 X9.18 Y30.778 Z-6.296
N552 X9.245 Y30.834 Z-6.3
N553 X9.307 Y30.892 Z-6.305
N554 X9.367 Y30.953 Z-6.31
N555 X9.423 Y31.017 Z-6.315
N556 X9.477 Y31.083 Z-6.32
N557 X9.528 Y31.152 Z-6.325
N558 X9.575 Y31.223 Z-6.33
N559 X9.62 Y31.296 Z-6.335
N560 X10.717 Y33.196 Z-6.463
N561 X10.758 Y33.271 Z-6.468
N562 X10.796 Y33.348 Z-6.473
N563 X10.83 Y33.426 Z-6.478
N564 X10.86 Y33.506 Z-6.483
N565 X10.887 Y33.587 Z-6.487
N566 X10.911 Y33.669 Z-6.492
N567 X10.93 Y33.752 Z-6.497
N568 X10.946 Y33.836 Z-6.502
N569 X10.958 Y33.92 Z-6.506
N570 X10.966 Y34.005 Z-6.511
N571 X10.971 Y34.09 Z-6.515
N572 Y34.176 Z-6.52
N573 X10.968 Y34.261 Z-6.524
N574 X10.961 Y34.346 Z-6.528
N575 X10.95 Y34.431 Z-6.532
N576 X10.935 Y34.515 Z-6.536
N577 X10.917 Y34.598 Z-6.54
N578 X10.895 Y34.681 Z-6.543
N579 X10.869 Y34.762 Z-6.546
N580 X10.839 Y34.843 Z-6.55
N581 X10.806 Y34.921 Z-6.553
N582 X10.77 Y34.999 Z-6.555
N583 X10.73 Y35.074 Z-6.558
N584 X10.686 Y35.148 Z-6.561
N585 X10.64 Y35.219 Z-6.563
N586 X10.59 Y35.289 Z-6.565
N587 X10.537 Y35.356 Z-6.567
N588 X10.481 Y35.421 Z-6.568
N589 X10.423 Y35.483 Z-6.57
N590 X10.361 Y35.542 Z-6.571
N591 X10.297 Y35.599 Z-6.572
N592 X10.231 Y35.653 Z-6.573
N593 X10.162 Y35.704
N594 X10.091 Y35.751 Z-6.574
N595 X10.018 Y35.796
N596 X9.935 Y35.844 Z-6.581
N597 X9.854 Y35.891 Z-6.603
N598 X9.776 Y35.935 Z-6.639
N599 X9.702 Y35.978 Z-6.673
N600 X9.625 Y36.023 Z-6.695
N601 X9.545 Y36.069 Z-6.703
N602 X5.833 Y38.212 Z-6.792
N603 X1.776 Y40.554 Z-6.848
N604 X-0.01 Y41.585 Z-6.86
N605 X-0.094 Y41.634 Z-6.853
N606 X-0.177 Y41.682 Z-6.832
N607 X-0.255 Y41.727 Z-6.795
N608 X-0.333 Y41.772 Z-6.76
N609 X-0.414 Y41.819 Z-6.738
N610 X-0.497 Y41.867 Z-6.731
N611 X-3.481 Y43.59
N612 X-3.554 Y43.634
N613 X-3.625 Y43.682 Z-6.73
N614 X-3.694 Y43.732
N615 X-3.76 Y43.786
N616 X-3.824 Y43.843
N617 X-3.886 Y43.902 Z-6.729
N618 X-3.944 Y43.965 Z-6.728
N619 X-4 Y44.029
N620 X-4.053 Y44.097 Z-6.727
N621 X-4.103 Y44.166 Z-6.726
N622 X-4.149 Y44.238 Z-6.725
N623 X-4.193 Y44.312 Z-6.724
N624 X-4.233 Y44.387 Z-6.723
N625 X-4.269 Y44.464 Z-6.722
N626 X-4.302 Y44.543 Z-6.721
N627 X-4.332 Y44.624 Z-6.72
N628 X-4.357 Y44.705 Z-6.718
N629 X-4.379 Y44.788 Z-6.717
N630 X-4.398 Y44.871 Z-6.716
N631 X-4.413 Y44.955 Z-6.714
N632 X-4.423 Y45.04 Z-6.712
N633 X-4.43 Y45.125 Z-6.711
N634 X-4.434 Y45.211 Z-6.709
N635 X-4.433 Y45.296 Z-6.707
N636 X-4.429 Y45.381 Z-6.706
N637 X-4.42 Y45.467 Z-6.704
N638 X-4.408 Y45.551 Z-6.702
N639 X-4.392 Y45.635 Z-6.7
N640 X-4.373 Y45.718 Z-6.698
N641 X-4.349 Y45.8 Z-6.696
N642 X-4.322 Y45.882 Z-6.694
N643 X-4.292 Y45.961 Z-6.693
N644 X-4.257 Y46.04 Z-6.691
N645 X-4.22 Y46.116 Z-6.689
N646 X-4.179 Y46.191 Z-6.687
N647 X-3.084 Y48.087 Z-6.636
N648 X-3.04 Y48.16 Z-6.634
N649 X-2.992 Y48.231 Z-6.632
N650 X-2.942 Y48.3 Z-6.63
N651 X-2.888 Y48.366 Z-6.628
N652 X-2.831 Y48.43 Z-6.626
N653 X-2.771 Y48.492 Z-6.624
N654 X-2.709 Y48.55 Z-6.622
N655 X-2.644 Y48.606 Z-6.621
N656 X-2.577 Y48.659 Z-6.619
N657 X-2.508 Y48.708 Z-6.617
N658 X-2.436 Y48.755 Z-6.615
N659 X-2.362 Y48.798 Z-6.614
N660 X-2.287 Y48.838 Z-6.612
N661 X-2.209 Y48.875 Z-6.61
N662 X-2.131 Y48.908 Z-6.609
N663 X-2.05 Y48.937 Z-6.607
N664 X-1.969 Y48.963 Z-6.606
N665 X-1.886 Y48.985 Z-6.604
N666 X-1.803 Y49.003 Z-6.603
N667 X-1.719 Y49.018 Z-6.602
N668 X-1.634 Y49.029 Z-6.6
N669 X-1.549 Y49.036 Z-6.599
N670 X-1.463 Y49.039 Z-6.598
N671 X-1.378 Y49.038 Z-6.597
N672 X-1.292 Y49.034 Z-6.596
N673 X-1.207 Y49.026
N674 X-1.123 Y49.013 Z-6.595
N675 X-1.039 Y48.998 Z-6.594
N676 X-0.955 Y48.978
N677 X-0.873 Y48.955 Z-6.593
N678 X-0.792 Y48.927
N679 X-0.712 Y48.897 Z-6.592
N680 X-0.634 Y48.863
N681 X-0.557 Y48.825
N682 X-0.482 Y48.784
N683 X-0.399 Y48.736 Z-6.599
N684 X-0.318 Y48.689 Z-6.621
N685 X-0.24 Y48.644 Z-6.657
N686 X-0.166 Y48.602 Z-6.691
N687 X-0.089 Y48.557 Z-6.713
N688 X-0.01 Y48.511 Z-6.722
N689 X1.801 Y47.466 Z-6.766
N690 X4.824 Y45.721 Z-6.822
N691 X7.697 Y44.062 Z-6.852
N692 X10.896 Y42.214 Z-6.863
N693 X14.559 Y40.1 Z-6.842
N694 X14.641 Y40.052 Z-6.834
N695 X14.722 Y40.006 Z-6.813
N696 X14.798 Y39.962 Z-6.777
N697 X14.876 Y39.917 Z-6.741
N698 X14.957 Y39.87 Z-6.72
N699 X15.04 Y39.822 Z-6.712
N700 X19.668 Y37.15
N701 G3 X22.27 Y37.848 I0.952 J1.65
N702 G1 X23.364 Y39.742
N703 G3 X22.667 Y42.345 I-1.65 J0.952
N704 G1 X22.583 Y42.393 Z-6.72
N705 X22.502 Y42.44 Z-6.741
N706 X22.425 Y42.484 Z-6.777
N707 X22.386 Y42.507 Z-6.799
N708 X22.307 Y42.552 Z-6.835
N709 X22.225 Y42.6 Z-6.857
N710 X22.141 Y42.648 Z-6.864
N711 X17.915 Y45.088 Z-6.837
N712 X14.723 Y46.931 Z-6.786
N713 X11.721 Y48.664 Z-6.714
N714 X8.751 Y50.379 Z-6.62
N715 X5.473 Y52.271 Z-6.491
N716 X1.569 Y54.525 Z-6.299
N717 X-0.01 Y55.437 Z-6.211
N718 X-0.129 Y55.506 Z-6.197
N719 X-0.246 Y55.573 Z-6.168
N720 X-0.359 Y55.639 Z-6.124
N721 X-0.468 Y55.701 Z-6.067
N722 X-0.571 Y55.761 Z-5.996
N723 X-0.666 Y55.816 Z-5.913
N724 X-0.753 Y55.866 Z-5.818
N725 X-0.831 Y55.911 Z-5.713
N726 X-0.898 Y55.95 Z-5.599
N727 X-0.954 Y55.982 Z-5.477
N728 X-0.999 Y56.008 Z-5.349
N729 X-1.031 Y56.026 Z-5.216
N730 X-1.05 Y56.038 Z-5.08
N731 X-1.057 Y56.041 Z-4.942
N732 G0 Z5
N733 X27.236 Y5.078
N734 Z0.791
N735 G1 Z0.179 F4622.8
N736 X27.242 Y5.074 Z0.042
N737 X27.261 Y5.063 Z-0.094
N738 X27.293 Y5.045 Z-0.226
N739 X27.337 Y5.019 Z-0.353
N740 X27.392 Y4.987 Z-0.475
N741 X27.459 Y4.949 Z-0.588
N742 X27.536 Y4.905 Z-0.693
N743 X27.622 Y4.855 Z-0.788
N744 X27.716 Y4.8 Z-0.871
N745 X27.818 Y4.742 Z-0.942
N746 X27.926 Y4.679 Z-1
N747 X28.038 Y4.614 Z-1.044
N748 X28.154 Y4.547 Z-1.074
N749 X28.272 Y4.479 Z-1.089
N750 X28.391 Y4.411
N751 X28.509 Y4.342 Z-1.075
N752 X32.105 Y2.266 Z-0.41
N753 X33.134 Y1.672 Z-0.224
N754 X33.873 Y1.245 Z-0.123
N755 X34.615 Y0.817 Z-0.053
N756 X35.358 Y0.388 Z-0.012
N757 X36.047 Y-0.009 Z0
N758 X36.169 Y-0.08 Z0.01
N759 X36.289 Y-0.149 Z0.035
N760 X36.406 Y-0.217 Z0.076
N761 X36.518 Y-0.281 Z0.132
N762 X36.624 Y-0.343 Z0.201
N763 X36.723 Y-0.4 Z0.284
N764 X36.814 Y-0.452 Z0.379
N765 X36.895 Y-0.499 Z0.484
N766 X36.965 Y-0.539 Z0.6
N767 X37.023 Y-0.573 Z0.724
N768 X37.07 Y-0.6 Z0.854
N769 X37.103 Y-0.619 Z0.99
N770 X37.123 Y-0.631 Z1.129
N771 X37.13 Y-0.635 Z1.27
N772 G0 Z5
N773 X34.591 Y7.757
N774 Z-0.019
N775 G1 Z-0.621 F4622.8
N776 X34.597 Y7.753 Z-0.757
N777 X34.616 Y7.743 Z-0.891
N778 X34.647 Y7.725 Z-1.023
N779 X34.69 Y7.7 Z-1.149
N780 X34.745 Y7.668 Z-1.27
N781 X34.81 Y7.63 Z-1.383
N782 X34.886 Y7.587 Z-1.487
N783 X34.971 Y7.538 Z-1.582
N784 X35.064 Y7.484 Z-1.665
N785 X35.164 Y7.426 Z-1.736
N786 X35.27 Y7.365 Z-1.795
N787 X35.382 Y7.301 Z-1.84
N788 X35.496 Y7.234 Z-1.871
N789 X35.613 Y7.167 Z-1.888
N790 X35.731 Y7.099 Z-1.89
N791 X35.848 Y7.031 Z-1.878
N792 X36.9 Y6.424 Z-1.703
N793 X40.503 Y4.344 Z-1.076
N794 X44.101 Y2.266 Z-0.41
N795 X45.13 Y1.672 Z-0.224
N796 X45.869 Y1.245 Z-0.123
N797 X46.611 Y0.817 Z-0.053
N798 X47.354 Y0.388 Z-0.012
N799 X48.043 Y-0.009 Z0
N800 X48.123 Y-0.056 Z0.008
N801 X48.201 Y-0.101 Z0.03
N802 X48.276 Y-0.144 Z0.065
N803 X48.354 Y-0.189 Z0.1
N804 X48.435 Y-0.236 Z0.122
N805 X48.518 Y-0.284 Z0.13
N806 X57.515 Y-5.478
N807 G3 X60.118 Y-4.781 I0.952 J1.65
N808 G1 X61.211 Y-2.886
N809 G3 X60.514 Y-0.284 I-1.65 J0.952
N810 G1 X60.431 Y-0.236 Z0.122
N811 X60.35 Y-0.189 Z0.1
N812 X60.272 Y-0.144 Z0.065
N813 X60.197 Y-0.101 Z0.03
N814 X60.119 Y-0.056 Z0.008
N815 X60.038 Y-0.009 Z0
N816 X59.35 Y0.388 Z-0.012
N817 X58.607 Y0.817 Z-0.053
N818 X57.865 Y1.245 Z-0.123
N819 X57.126 Y1.672 Z-0.224
N820 X56.097 Y2.266 Z-0.41
N821 X52.499 Y4.344 Z-1.076
N822 X48.895 Y6.424 Z-1.703
N823 X45.288 Y8.507 Z-2.292
N824 X41.675 Y10.593 Z-2.845
N825 X40.734 Y11.136 Z-2.982
N826 X40.654 Y11.182 Z-2.987
N827 X40.575 Y11.228 Z-2.979
N828 X40.497 Y11.273 Z-2.957
N829 X40.423 Y11.316 Z-2.923
N830 X40.346 Y11.36 Z-2.887
N831 X40.264 Y11.407 Z-2.865
N832 X40.181 Y11.455 Z-2.858
N833 X40.108 Y11.5
N834 X40.037 Y11.547 Z-2.859
N835 X39.968 Y11.598 Z-2.861
N836 X39.902 Y11.651 Z-2.864
N837 X39.837 Y11.708 Z-2.867
N838 X39.776 Y11.767 Z-2.871
N839 X39.717 Y11.829 Z-2.876
N840 X39.661 Y11.893 Z-2.881
N841 X39.608 Y11.96 Z-2.887
N842 X39.558 Y12.029 Z-2.894
N843 X39.511 Y12.1 Z-2.901
N844 X39.467 Y12.173 Z-2.91
N845 X39.427 Y12.248 Z-2.918
N846 X39.39 Y12.324 Z-2.928
N847 X39.356 Y12.402 Z-2.938
N848 X39.326 Y12.482 Z-2.948
N849 X39.3 Y12.562 Z-2.959
N850 X39.277 Y12.644 Z-2.971
N851 X39.258 Y12.726 Z-2.983
N852 X39.243 Y12.81 Z-2.995
N853 X39.232 Y12.893 Z-3.008
N854 X39.224 Y12.977 Z-3.022
N855 X39.22 Y13.062 Z-3.036
N856 Y13.146 Z-3.05
N857 X39.224 Y13.23 Z-3.064
N858 X39.232 Y13.314 Z-3.079
N859 X39.243 Y13.397 Z-3.095
N860 X39.258 Y13.48 Z-3.11
N861 X39.277 Y13.562 Z-3.126
N862 X39.3 Y13.643 Z-3.142
N863 X39.326 Y13.723 Z-3.158
N864 X39.356 Y13.801 Z-3.174
N865 X39.389 Y13.878 Z-3.19
N866 X39.426 Y13.953 Z-3.206
N867 X39.466 Y14.027 Z-3.223
N868 X40.595 Y15.983 Z-3.664
N869 X40.639 Y16.055 Z-3.68
N870 X40.686 Y16.124 Z-3.696
N871 X40.736 Y16.192 Z-3.713
N872 X40.789 Y16.257 Z-3.729
N873 X40.845 Y16.319 Z-3.745
N874 X40.904 Y16.379 Z-3.761
N875 X40.965 Y16.437 Z-3.776
N876 X41.029 Y16.491 Z-3.792
N877 X41.096 Y16.543 Z-3.807
N878 X41.164 Y16.591 Z-3.822
N879 X41.235 Y16.637 Z-3.836
N880 X41.308 Y16.679 Z-3.851
N881 X41.383 Y16.717 Z-3.865
N882 X41.46 Y16.753 Z-3.878
N883 X41.538 Y16.785 Z-3.891
N884 X41.618 Y16.813 Z-3.904
N885 X41.699 Y16.838 Z-3.916
N886 X41.781 Y16.859 Z-3.927
N887 X41.864 Y16.877 Z-3.938
N888 X41.947 Y16.89 Z-3.949
N889 X42.032 Y16.9 Z-3.959
N890 X42.117 Y16.907 Z-3.968
N891 X42.202 Y16.909 Z-3.977
N892 X42.287 Y16.908 Z-3.985
N893 X42.372 Y16.903 Z-3.992
N894 X42.456 Y16.894 Z-3.999
N895 X42.541 Y16.881 Z-4.005
N896 X42.624 Y16.865 Z-4.011
N897 X42.707 Y16.845 Z-4.015
N898 X42.789 Y16.821 Z-4.019
N899 X42.87 Y16.794 Z-4.023
N900 X42.95 Y16.763 Z-4.025
N901 X43.028 Y16.729 Z-4.027
N902 X43.105 Y16.691 Z-4.028
N903 X43.18 Y16.65
N904 X43.356 Y16.548
N905 X43.439 Y16.5 Z-4.036
N906 X43.52 Y16.453 Z-4.058
N907 X43.598 Y16.408 Z-4.093
N908 X43.669 Y16.367 Z-4.127
N909 X43.744 Y16.324 Z-4.148
N910 X43.821 Y16.279 Z-4.158
N911 X43.899 Y16.235 Z-4.154
N912 X46.434 Y14.771 Z-3.84
N913 X50.055 Y12.681 Z-3.361
N914 X53.671 Y10.593 Z-2.845
N915 X57.283 Y8.507 Z-2.292
N916 X60.891 Y6.424 Z-1.703
N917 X64.494 Y4.344 Z-1.076
N918 X68.092 Y2.266 Z-0.41
N919 X69.122 Y1.672 Z-0.224
N920 X69.861 Y1.245 Z-0.123
N921 X70.602 Y0.817 Z-0.053
N922 X71.345 Y0.388 Z-0.012
N923 X72.034 Y-0.009 Z0
N924 X72.156 Y-0.08 Z0.01
N925 X72.276 Y-0.149 Z0.035
N926 X72.393 Y-0.217 Z0.076
N927 X72.506 Y-0.281 Z0.132
N928 X72.612 Y-0.343 Z0.201
N929 X72.711 Y-0.4 Z0.284
N930 X72.801 Y-0.452 Z0.379
N931 X72.882 Y-0.499 Z0.484
N932 X72.952 Y-0.539 Z0.6
N933 X73.011 Y-0.573 Z0.724
N934 X73.057 Y-0.6 Z0.854
N935 X73.091 Y-0.619 Z0.99
N936 X73.111 Y-0.631 Z1.129
N937 X73.118 Y-0.635 Z1.27
N938 G0 Z5
N939 X75.566 Y4.877
N940 Z0.853
N941 G1 Z0.242 F4622.8
N942 X75.573 Y4.874 Z0.105
N943 X75.592 Y4.862 Z-0.031
N944 X75.624 Y4.844 Z-0.163
N945 X75.668 Y4.819 Z-0.29
N946 X75.723 Y4.787 Z-0.412
N947 X75.79 Y4.748 Z-0.525
N948 X75.867 Y4.704 Z-0.63
N949 X75.953 Y4.654 Z-0.725
N950 X76.047 Y4.6 Z-0.808
N951 X76.149 Y4.541 Z-0.879
N952 X76.257 Y4.479 Z-0.937
N953 X76.369 Y4.414 Z-0.981
N954 X76.485 Y4.347 Z-1.011
N955 X76.603 Y4.278 Z-1.026
N956 X76.722 Y4.21
N957 X76.841 Y4.142 Z-1.012
N958 X80.088 Y2.266 Z-0.41
N959 X81.118 Y1.672 Z-0.224
N960 X81.857 Y1.245 Z-0.123
N961 X82.598 Y0.817 Z-0.053
N962 X83.341 Y0.388 Z-0.012
N963 X84.03 Y-0.009 Z0
N964 X84.152 Y-0.08 Z0.01
N965 X84.272 Y-0.149 Z0.035
N966 X84.389 Y-0.217 Z0.076
N967 X84.501 Y-0.281 Z0.132
N968 X84.608 Y-0.343 Z0.201
N969 X84.707 Y-0.4 Z0.284
N970 X84.797 Y-0.452 Z0.379
N971 X84.878 Y-0.499 Z0.484
N972 X84.948 Y-0.539 Z0.6
N973 X85.007 Y-0.573 Z0.724
N974 X85.053 Y-0.6 Z0.854
N975 X85.086 Y-0.619 Z0.99
N976 X85.107 Y-0.631 Z1.129
N977 X85.114 Y-0.635 Z1.27
N978 G0 Z5
N979 X83.563 Y7.186
N980 Z0.149
N981 G1 Z-0.456 F4622.8
N982 X83.569 Y7.183 Z-0.593
N983 X83.588 Y7.172 Z-0.727
N984 X83.62 Y7.153 Z-0.859
N985 X83.663 Y7.128 Z-0.986
N986 X83.718 Y7.097 Z-1.107
N987 X83.784 Y7.059 Z-1.22
N988 X83.86 Y7.015 Z-1.324
N989 X83.945 Y6.965 Z-1.419
N990 X84.039 Y6.911 Z-1.502
N991 X84.14 Y6.853 Z-1.573
N992 X84.247 Y6.792 Z-1.632
N993 X84.358 Y6.727 Z-1.677
N994 X84.473 Y6.661 Z-1.707
N995 X84.591 Y6.593 Z-1.724
N996 X84.709 Y6.525 Z-1.725
N997 X84.827 Y6.457 Z-1.712
N998 X88.486 Y4.344 Z-1.076
N999 X92.084 Y2.266 Z-0.41
N1000 X93.114 Y1.672 Z-0.224
N1001 X93.853 Y1.245 Z-0.123
N1002 X94.594 Y0.817 Z-0.053
N1003 X95.337 Y0.388 Z-0.012
N1004 X96.026 Y-0.009 Z0
N1005 X96.106 Y-0.056 Z0.008
N1006 X96.185 Y-0.101 Z0.03
N1007 X96.26 Y-0.144 Z0.065
N1008 X96.337 Y-0.189 Z0.1
N1009 X96.419 Y-0.236 Z0.122
N1010 X96.502 Y-0.284 Z0.13
N1011 X105.499 Y-5.478
N1012 G3 X108.101 Y-4.781 I0.952 J1.65
N1013 G1 X109.195 Y-2.886
N1014 G3 X108.498 Y-0.284 I-1.65 J0.952
N1015 G1 X108.414 Y-0.236 Z0.122
N1016 X108.333 Y-0.189 Z0.1
N1017 X108.256 Y-0.144 Z0.065
N1018 X108.181 Y-0.101 Z0.03
N1019 X108.102 Y-0.056 Z0.008
N1020 X108.022 Y-0.009 Z0
N1021 X107.333 Y0.388 Z-0.012
N1022 X106.59 Y0.817 Z-0.053
N1023 X105.848 Y1.245 Z-0.123
N1024 X105.109 Y1.672 Z-0.224
N1025 X104.08 Y2.266 Z-0.41
N1026 X100.482 Y4.344 Z-1.076
N1027 X96.879 Y6.424 Z-1.703
N1028 X93.271 Y8.507 Z-2.292
N1029 X90.041 Y10.372 Z-2.788
N1030 X89.96 Y10.418 Z-2.793
N1031 X89.88 Y10.465 Z-2.785
N1032 X89.802 Y10.51 Z-2.763
N1033 X89.727 Y10.553 Z-2.729
N1034 X89.649 Y10.598 Z-2.693
N1035 X89.568 Y10.645 Z-2.671
N1036 X89.485 Y10.693 Z-2.664
N1037 X89.412 Y10.738
N1038 X89.34 Y10.785 Z-2.665
N1039 X89.272 Y10.836 Z-2.667
N1040 X89.205 Y10.889 Z-2.67
N1041 X89.141 Y10.946 Z-2.673
N1042 X89.079 Y11.005 Z-2.677
N1043 X89.021 Y11.067 Z-2.682
N1044 X88.965 Y11.131 Z-2.687
N1045 X88.911 Y11.198 Z-2.693
N1046 X88.861 Y11.267 Z-2.7
N1047 X88.814 Y11.338 Z-2.707
N1048 X88.771 Y11.411 Z-2.715
N1049 X88.73 Y11.486 Z-2.724
N1050 X88.693 Y11.562 Z-2.733
N1051 X88.66 Y11.64 Z-2.743
N1052 X88.63 Y11.72 Z-2.754
N1053 X88.604 Y11.8 Z-2.765
N1054 X88.581 Y11.882 Z-2.776
N1055 X88.562 Y11.964 Z-2.788
N1056 X88.547 Y12.048 Z-2.801
N1057 X88.535 Y12.131 Z-2.814
N1058 X88.528 Y12.215 Z-2.827
N1059 X88.524 Y12.3 Z-2.841
N1060 Y12.384 Z-2.856
N1061 X88.527 Y12.468 Z-2.87
N1062 X88.535 Y12.552 Z-2.885
N1063 X88.546 Y12.635 Z-2.9
N1064 X88.562 Y12.718 Z-2.916
N1065 X88.58 Y12.8 Z-2.931
N1066 X88.603 Y12.881 Z-2.947
N1067 X88.629 Y12.961 Z-2.963
N1068 X88.659 Y13.039 Z-2.979
N1069 X88.693 Y13.116 Z-2.995
N1070 X88.729 Y13.191 Z-3.012
N1071 X88.77 Y13.265 Z-3.028
N1072 X89.899 Y15.221 Z-3.468
N1073 X89.942 Y15.292 Z-3.484
N1074 X89.989 Y15.362 Z-3.501
N1075 X90.039 Y15.429 Z-3.517
N1076 X90.092 Y15.495 Z-3.533
N1077 X90.148 Y15.557 Z-3.549
N1078 X90.207 Y15.617 Z-3.565
N1079 X90.269 Y15.674 Z-3.581
N1080 X90.333 Y15.729 Z-3.596
N1081 X90.399 Y15.78 Z-3.611
N1082 X90.468 Y15.829 Z-3.626
N1083 X90.539 Y15.874 Z-3.641
N1084 X90.612 Y15.916 Z-3.655
N1085 X90.687 Y15.955 Z-3.669
N1086 X90.763 Y15.991 Z-3.682
N1087 X90.842 Y16.023 Z-3.695
N1088 X90.921 Y16.051 Z-3.708
N1089 X91.002 Y16.076 Z-3.72
N1090 X91.084 Y16.097 Z-3.731
N1091 X91.167 Y16.114 Z-3.742
N1092 X91.251 Y16.128 Z-3.753
N1093 X91.335 Y16.138 Z-3.763
N1094 X91.42 Y16.144 Z-3.772
N1095 X91.505 Y16.147 Z-3.781
N1096 X91.59 Y16.146 Z-3.789
N1097 X91.675 Y16.14 Z-3.796
N1098 X91.76 Y16.132 Z-3.803
N1099 X91.844 Y16.119 Z-3.809
N1100 X91.928 Y16.103 Z-3.815
N1101 X92.011 Y16.083 Z-3.819
N1102 X92.093 Y16.059 Z-3.823
N1103 X92.174 Y16.032 Z-3.827
N1104 X92.254 Y16.001 Z-3.829
N1105 X92.332 Y15.966 Z-3.831
N1106 X92.409 Y15.929 Z-3.832
N1107 X92.484 Y15.888
N1108 X92.939 Y15.625
N1109 X93.022 Y15.577 Z-3.84
N1110 X93.104 Y15.53 Z-3.861
N1111 X93.181 Y15.485 Z-3.897
N1112 X93.253 Y15.443 Z-3.931
N1113 X93.328 Y15.4 Z-3.952
N1114 X93.405 Y15.355 Z-3.962
N1115 X93.483 Y15.311 Z-3.958
N1116 X94.418 Y14.771 Z-3.84
N1117 X98.038 Y12.681 Z-3.361
N1118 X101.654 Y10.593 Z-2.845
N1119 X105.267 Y8.507 Z-2.292
N1120 X108.875 Y6.424 Z-1.703
N1121 X112.478 Y4.344 Z-1.076
N1122 X116.076 Y2.266 Z-0.41
N1123 X117.105 Y1.672 Z-0.224
N1124 X117.844 Y1.245 Z-0.123
N1125 X118.586 Y0.817 Z-0.053
N1126 X119.329 Y0.388 Z-0.012
N1127 X120.018 Y-0.009 Z0
N1128 X120.14 Y-0.08 Z0.01
N1129 X120.26 Y-0.149 Z0.035
N1130 X120.377 Y-0.217 Z0.076
N1131 X120.489 Y-0.281 Z0.132
N1132 X120.595 Y-0.343 Z0.201
N1133 X120.694 Y-0.4 Z0.284
N1134 X120.785 Y-0.452 Z0.379
N1135 X120.865 Y-0.499 Z0.484
N1136 X120.936 Y-0.539 Z0.6
N1137 X120.994 Y-0.573 Z0.724
N1138 X121.041 Y-0.6 Z0.854
N1139 X121.074 Y-0.619 Z0.99
N1140 X121.094 Y-0.631 Z1.129
N1141 X121.101 Y-0.635 Z1.27
N1142 G0 Z5
N1143 X123.684 Y4.8
N1144 Z0.878
N1145 G1 Z0.266 F4622.8
N1146 X123.69 Y4.796 Z0.129
N1147 X123.709 Y4.785 Z-0.006
N1148 X123.741 Y4.767 Z-0.139
N1149 X123.785 Y4.741 Z-0.266
N1150 X123.841 Y4.709 Z-0.387
N1151 X123.907 Y4.671 Z-0.501
N1152 X123.984 Y4.626 Z-0.606
N1153 X124.07 Y4.577 Z-0.7
N1154 X124.165 Y4.522 Z-0.784
N1155 X124.267 Y4.463 Z-0.855
N1156 X124.374 Y4.401 Z-0.913
N1157 X124.487 Y4.336 Z-0.957
N1158 X124.603 Y4.269 Z-0.986
N1159 X124.721 Y4.201 Z-1.002
N1160 X124.84 Y4.132
N1161 X124.958 Y4.064 Z-0.988
N1162 X128.072 Y2.266 Z-0.41
N1163 X129.101 Y1.672 Z-0.224
N1164 X129.84 Y1.245 Z-0.123
N1165 X130.582 Y0.817 Z-0.053
N1166 X131.325 Y0.388 Z-0.012
N1167 X132.014 Y-0.009 Z0
N1168 X132.135 Y-0.08 Z0.01
N1169 X132.256 Y-0.149 Z0.035
N1170 X132.372 Y-0.217 Z0.076
N1171 X132.485 Y-0.281 Z0.132
N1172 X132.591 Y-0.343 Z0.201
N1173 X132.69 Y-0.4 Z0.284
N1174 X132.781 Y-0.452 Z0.379
N1175 X132.861 Y-0.499 Z0.484
N1176 X132.931 Y-0.539 Z0.6
N1177 X132.99 Y-0.573 Z0.724
N1178 X133.036 Y-0.6 Z0.854
N1179 X133.07 Y-0.619 Z0.99
N1180 X133.09 Y-0.631 Z1.129
N1181 X133.097 Y-0.635 Z1.27
N1182 G0 Z5
N1183 X132.468 Y6.654
N1184 Z0.308
N1185 G1 Z-0.3 F4622.8
N1186 X132.475 Y6.65 Z-0.436
N1187 X132.494 Y6.639 Z-0.571
N1188 X132.525 Y6.621 Z-0.702
N1189 X132.568 Y6.596 Z-0.829
N1190 X132.624 Y6.564 Z-0.95
N1191 X132.69 Y6.526 Z-1.064
N1192 X132.766 Y6.482 Z-1.168
N1193 X132.851 Y6.433 Z-1.263
N1194 X132.945 Y6.379 Z-1.346
N1195 X133.046 Y6.321 Z-1.417
N1196 X133.153 Y6.259 Z-1.476
N1197 X133.264 Y6.194 Z-1.52
N1198 X133.38 Y6.128 Z-1.551
N1199 X133.497 Y6.06 Z-1.567
N1200 X133.615 Y5.992 Z-1.568
N1201 X133.733 Y5.924 Z-1.555
N1202 X136.47 Y4.344 Z-1.076
N1203 X140.068 Y2.266 Z-0.41
N1204 X141.097 Y1.672 Z-0.224
N1205 X141.836 Y1.245 Z-0.123
N1206 X142.578 Y0.817 Z-0.053
N1207 X143.321 Y0.388 Z-0.012
N1208 X144.009 Y-0.009 Z0
N1209 X144.131 Y-0.08 Z0.01
N1210 X144.251 Y-0.149 Z0.035
N1211 X144.368 Y-0.217 Z0.076
N1212 X144.481 Y-0.281 Z0.132
N1213 X144.587 Y-0.343 Z0.201
N1214 X144.686 Y-0.4 Z0.284
N1215 X144.776 Y-0.452 Z0.379
N1216 X144.857 Y-0.499 Z0.484
N1217 X144.927 Y-0.539 Z0.6
N1218 X144.986 Y-0.573 Z0.724
N1219 X145.032 Y-0.6 Z0.854
N1220 X145.066 Y-0.619 Z0.99
N1221 X145.086 Y-0.631 Z1.129
N1222 X145.093 Y-0.635 Z1.27
N1223 G0 Z5
N1224 X138.053 Y10.355
N1225 Z-0.745
N1226 G1 Z-1.337 F4622.8
N1227 X138.06 Y10.352 Z-1.472
N1228 X138.078 Y10.341 Z-1.606
N1229 X138.109 Y10.323 Z-1.736
N1230 X138.152 Y10.298 Z-1.862
N1231 X138.206 Y10.267 Z-1.982
N1232 X138.271 Y10.23 Z-2.095
N1233 X138.345 Y10.187 Z-2.199
N1234 X138.429 Y10.138 Z-2.293
N1235 X138.521 Y10.085 Z-2.377
N1236 X138.621 Y10.028 Z-2.448
N1237 X138.726 Y9.967 Z-2.507
N1238 X138.836 Y9.903 Z-2.553
N1239 X138.95 Y9.838 Z-2.585
N1240 X139.066 Y9.771 Z-2.603
N1241 X139.183 Y9.703 Z-2.607
N1242 X139.3 Y9.636 Z-2.596
N1243 X141.254 Y8.507 Z-2.292
N1244 X144.862 Y6.424 Z-1.703
N1245 X148.465 Y4.344 Z-1.076
N1246 X152.063 Y2.266 Z-0.41
N1247 X153.093 Y1.672 Z-0.224
N1248 X153.832 Y1.245 Z-0.123
N1249 X154.573 Y0.817 Z-0.053
N1250 X155.316 Y0.388 Z-0.012
N1251 X156.005 Y-0.009 Z0
N1252 X156.086 Y-0.056 Z0.008
N1253 X156.164 Y-0.101 Z0.03
N1254 X156.239 Y-0.144 Z0.065
N1255 X156.317 Y-0.189 Z0.1
N1256 X156.398 Y-0.236 Z0.122
N1257 X156.481 Y-0.284 Z0.13
N1258 X165.478 Y-5.478
N1259 G3 X168.08 Y-4.781 I0.952 J1.65
N1260 G1 X169.174 Y-2.886
N1261 G3 X168.477 Y-0.284 I-1.65 J0.952
N1262 G1 X168.394 Y-0.236 Z0.122
N1263 X168.312 Y-0.189 Z0.1
N1264 X168.235 Y-0.144 Z0.065
N1265 X168.16 Y-0.101 Z0.03
N1266 X168.081 Y-0.056 Z0.008
N1267 X168.001 Y-0.009 Z0
N1268 X167.312 Y0.388 Z-0.012
N1269 X166.569 Y0.817 Z-0.053
N1270 X165.828 Y1.245 Z-0.123
N1271 X165.089 Y1.672 Z-0.224
N1272 X164.059 Y2.266 Z-0.41
N1273 X160.461 Y4.344 Z-1.076
N1274 X156.858 Y6.424 Z-1.703
N1275 X153.25 Y8.507 Z-2.292
N1276 X149.638 Y10.593 Z-2.845
N1277 X146.021 Y12.681 Z-3.361
N1278 X143.02 Y14.414 Z-3.761
N1279 X142.942 Y14.459 Z-3.765
N1280 X142.864 Y14.504 Z-3.756
N1281 X142.787 Y14.548 Z-3.734
N1282 X142.715 Y14.59 Z-3.7
N1283 X142.637 Y14.634 Z-3.665
N1284 X142.556 Y14.681 Z-3.643
N1285 X142.473 Y14.729 Z-3.636
N1286 X141.531 Y15.273
N1287 X141.458 Y15.317
N1288 X141.387 Y15.365 Z-3.637
N1289 X141.318 Y15.416 Z-3.639
N1290 X141.252 Y15.469 Z-3.641
N1291 X141.187 Y15.526 Z-3.645
N1292 X141.126 Y15.585 Z-3.648
N1293 X141.067 Y15.647 Z-3.653
N1294 X141.011 Y15.711 Z-3.658
N1295 X140.958 Y15.778 Z-3.664
N1296 X140.908 Y15.847 Z-3.671
N1297 X140.861 Y15.918 Z-3.678
N1298 X140.817 Y15.991 Z-3.686
N1299 X140.777 Y16.066 Z-3.695
N1300 X140.74 Y16.142 Z-3.704
N1301 X140.707 Y16.221 Z-3.714
N1302 X140.677 Y16.3 Z-3.724
N1303 X140.65 Y16.381 Z-3.735
N1304 X140.628 Y16.462 Z-3.746
N1305 X140.609 Y16.545 Z-3.758
N1306 X140.594 Y16.628 Z-3.77
N1307 X140.582 Y16.712 Z-3.783
N1308 X140.574 Y16.796 Z-3.796
N1309 X140.571 Y16.88 Z-3.81
N1310 Y16.964 Z-3.824
N1311 X140.574 Y17.049 Z-3.838
N1312 X140.582 Y17.133 Z-3.853
N1313 X140.593 Y17.216 Z-3.868
N1314 X140.609 Y17.299 Z-3.883
N1315 X140.627 Y17.381 Z-3.898
N1316 X140.65 Y17.462 Z-3.914
N1317 X140.676 Y17.541 Z-3.929
N1318 X140.706 Y17.62 Z-3.945
N1319 X140.74 Y17.697 Z-3.961
N1320 X140.777 Y17.772 Z-3.977
N1321 X140.817 Y17.846 Z-3.993
N1322 X141.945 Y19.8 Z-4.425
N1323 X141.988 Y19.871 Z-4.441
N1324 X142.035 Y19.941 Z-4.457
N1325 X142.085 Y20.008 Z-4.473
N1326 X142.138 Y20.074 Z-4.489
N1327 X142.194 Y20.136 Z-4.504
N1328 X142.253 Y20.196 Z-4.52
N1329 X142.315 Y20.254 Z-4.535
N1330 X142.379 Y20.308 Z-4.551
N1331 X142.445 Y20.36 Z-4.565
N1332 X142.514 Y20.408 Z-4.58
N1333 X142.585 Y20.454 Z-4.594
N1334 X142.658 Y20.496 Z-4.608
N1335 X142.733 Y20.535 Z-4.622
N1336 X142.81 Y20.57 Z-4.635
N1337 X142.888 Y20.602 Z-4.648
N1338 X142.968 Y20.631 Z-4.66
N1339 X143.049 Y20.655 Z-4.672
N1340 X143.131 Y20.677 Z-4.683
N1341 X143.214 Y20.694 Z-4.694
N1342 X143.297 Y20.708 Z-4.705
N1343 X143.382 Y20.718 Z-4.714
N1344 X143.466 Y20.724 Z-4.723
N1345 X143.551 Y20.727 Z-4.732
N1346 X143.637 Y20.725 Z-4.74
N1347 X143.722 Y20.72 Z-4.747
N1348 X143.806 Y20.711 Z-4.754
N1349 X143.891 Y20.699 Z-4.76
N1350 X143.974 Y20.683 Z-4.765
N1351 X144.057 Y20.662 Z-4.77
N1352 X144.14 Y20.639 Z-4.774
N1353 X144.22 Y20.612 Z-4.777
N1354 X144.3 Y20.581 Z-4.779
N1355 X144.378 Y20.546 Z-4.781
N1356 X144.455 Y20.509 Z-4.782
N1357 X144.53 Y20.467 Z-4.783
N1358 X144.613 Y20.419 Z-4.79
N1359 X144.695 Y20.373 Z-4.812
N1360 X144.772 Y20.328 Z-4.847
N1361 X144.842 Y20.288 Z-4.88
N1362 X144.914 Y20.246 Z-4.902
N1363 X144.989 Y20.203 Z-4.912
N1364 X145.064 Y20.159 Z-4.91
N1365 X147.226 Y18.911 Z-4.683
N1366 X150.853 Y16.817 Z-4.274
N1367 X154.477 Y14.725 Z-3.83
N1368 X158.097 Y12.635 Z-3.35
N1369 X158.151 Y12.603 Z-3.339
N1370 X158.224 Y12.563 Z-3.321
N1371 X158.299 Y12.527 Z-3.303
N1372 X158.376 Y12.493 Z-3.285
N1373 X158.454 Y12.464 Z-3.268
N1374 X158.534 Y12.438 Z-3.251
N1375 X158.614 Y12.415 Z-3.234
N1376 X158.696 Y12.396 Z-3.217
N1377 X158.779 Y12.381 Z-3.201
N1378 X158.862 Y12.37 Z-3.185
N1379 X158.946 Y12.362 Z-3.169
N1380 X159.03 Y12.359 Z-3.154
N1381 X159.114 Z-3.14
N1382 X159.198 Y12.362 Z-3.126
N1383 X159.282 Y12.37 Z-3.112
N1384 X159.366 Y12.382 Z-3.099
N1385 X159.449 Y12.397 Z-3.087
N1386 X159.532 Y12.416 Z-3.075
N1387 X159.614 Y12.438 Z-3.064
N1388 X159.694 Y12.464 Z-3.054
N1389 X159.774 Y12.494 Z-3.044
N1390 X159.852 Y12.528 Z-3.036
N1391 X159.929 Y12.564 Z-3.027
N1392 X160.004 Y12.605 Z-3.02
N1393 X160.077 Y12.648 Z-3.013
N1394 X160.148 Y12.695 Z-3.007
N1395 X160.218 Y12.745 Z-3.002
N1396 X160.285 Y12.798 Z-2.998
N1397 X160.35 Y12.853 Z-2.994
N1398 X160.412 Y12.912 Z-2.992
N1399 X160.471 Y12.973 Z-2.99
N1400 X160.528 Y13.037 Z-2.989
N1401 X160.582 Y13.103 Z-2.988
N1402 X160.633 Y13.172 Z-2.989
N1403 X160.681 Y13.243 Z-2.99
N1404 X160.726 Y13.315 Z-2.993
N1405 X161.834 Y15.204 Z-3.06
N1406 X161.875 Y15.279 Z-3.063
N1407 X161.914 Y15.355 Z-3.067
N1408 X161.948 Y15.433 Z-3.072
N1409 X161.98 Y15.513 Z-3.077
N1410 X162.008 Y15.593 Z-3.084
N1411 X162.032 Y15.675 Z-3.091
N1412 X162.052 Y15.758 Z-3.098
N1413 X162.069 Y15.841 Z-3.107
N1414 X162.083 Y15.925 Z-3.116
N1415 X162.092 Y16.009 Z-3.126
N1416 X162.098 Y16.094 Z-3.137
N1417 X162.1 Y16.179 Z-3.148
N1418 X162.098 Y16.263 Z-3.16
N1419 X162.092 Y16.348 Z-3.172
N1420 X162.083 Y16.432 Z-3.186
N1421 X162.069 Y16.515 Z-3.199
N1422 X162.052 Y16.598 Z-3.213
N1423 X162.032 Y16.679 Z-3.228
N1424 X162.008 Y16.76 Z-3.243
N1425 X161.98 Y16.839 Z-3.259
N1426 X161.948 Y16.917 Z-3.275
N1427 X161.914 Y16.993 Z-3.292
N1428 X161.875 Y17.068 Z-3.308
N1429 X161.834 Y17.141 Z-3.325
N1430 X161.789 Y17.211 Z-3.343
N1431 X161.741 Y17.28 Z-3.361
N1432 X161.69 Y17.346 Z-3.378
N1433 X161.636 Y17.41 Z-3.396
N1434 X161.579 Y17.471 Z-3.415
N1435 X161.519 Y17.529 Z-3.433
N1436 X161.457 Y17.585 Z-3.451
N1437 X161.393 Y17.638 Z-3.47
N1438 X161.325 Y17.688 Z-3.488
N1439 X161.256 Y17.734 Z-3.506
N1440 X161.185 Y17.778 Z-3.525
N1441 X154.82 Y21.453 Z-5.125
N1442 X154.745 Y21.495 Z-5.138
N1443 X151.111 Y23.594 Z-5.467
N1444 X147.476 Y25.692 Z-5.761
N1445 X144.984 Y27.131 Z-5.943
N1446 X144.864 Y27.2 Z-5.944
N1447 X144.745 Y27.269 Z-5.93
N1448 X144.628 Y27.337 Z-5.901
N1449 X144.514 Y27.403 Z-5.858
N1450 X144.405 Y27.465 Z-5.801
N1451 X144.302 Y27.525 Z-5.73
N1452 X144.206 Y27.58 Z-5.647
N1453 X144.119 Y27.631 Z-5.553
N1454 X144.041 Y27.675 Z-5.447
N1455 X143.974 Y27.714 Z-5.333
N1456 X143.917 Y27.747 Z-5.211
N1457 X143.873 Y27.773 Z-5.083
N1458 X143.841 Y27.791 Z-4.95
N1459 X143.821 Y27.803 Z-4.813
N1460 X143.815 Y27.806 Z-4.675
N1461 G0 Z5
N1462 X156.291 Y27.529
N1463 Z-4.021
N1464 G1 Z-4.791 F4622.8
N1465 X156.284 Y27.533 Z-4.928
N1466 X156.265 Y27.544 Z-5.064
N1467 X156.233 Y27.562 Z-5.197
N1468 X156.189 Y27.588 Z-5.325
N1469 X156.133 Y27.62 Z-5.446
N1470 X156.066 Y27.659 Z-5.56
N1471 X155.989 Y27.703 Z-5.665
N1472 X155.902 Y27.754 Z-5.76
N1473 X155.807 Y27.808 Z-5.843
N1474 X155.705 Y27.867 Z-5.914
N1475 X155.596 Y27.93 Z-5.971
N1476 X155.483 Y27.995 Z-6.015
N1477 X155.367 Y28.063 Z-6.045
N1478 X155.248 Y28.131 Z-6.059
N1479 X151.608 Y30.233 Z-6.278
N1480 X147.967 Y32.335 Z-6.462
N1481 X144.326 Y34.437 Z-6.611
N1482 X140.497 Y36.647 Z-6.731
N1483 X139.054 Y37.481 Z-6.766
N1484 X138.937 Y37.548 Z-6.762
N1485 X138.822 Y37.615 Z-6.744
N1486 X138.709 Y37.68 Z-6.711
N1487 X138.599 Y37.743 Z-6.665
N1488 X138.494 Y37.804 Z-6.605
N1489 X138.395 Y37.861 Z-6.534
N1490 X138.304 Y37.914 Z-6.45
N1491 X138.221 Y37.962 Z-6.356
N1492 X138.146 Y38.005 Z-6.252
N1493 X138.082 Y38.042 Z-6.139
N1494 X138.028 Y38.073 Z-6.02
N1495 X137.986 Y38.097 Z-5.894
N1496 X137.955 Y38.115 Z-5.764
N1497 X137.937 Y38.126 Z-5.631
N1498 X137.931 Y38.129 Z-5.497
N1499 G0 Z5
N1500 X107.941 Y13.889
N1501 Z-1.59
N1502 G1 Z-2.508 F4622.8
N1503 X107.935 Y13.892 Z-2.64
N1504 X107.917 Y13.903 Z-2.771
N1505 X107.887 Y13.92 Z-2.9
N1506 X107.846 Y13.944 Z-3.024
N1507 X107.794 Y13.974 Z-3.142
N1508 X107.732 Y14.01 Z-3.253
N1509 X107.659 Y14.052 Z-3.356
N1510 X107.578 Y14.099 Z-3.45
N1511 X107.489 Y14.15 Z-3.534
N1512 X107.393 Y14.206 Z-3.607
N1513 X107.29 Y14.265 Z-3.667
N1514 X107.183 Y14.327 Z-3.715
N1515 X107.072 Y14.391 Z-3.749
N1516 X106.958 Y14.456 Z-3.77
N1517 X103.335 Y16.548 Z-4.219
N1518 X99.709 Y18.642 Z-4.633
N1519 X96.08 Y20.737 Z-5.01
N1520 X95.224 Y21.231 Z-5.094
N1521 X95.149 Y21.274 Z-5.095
N1522 X95.076 Y21.317 Z-5.085
N1523 X95.004 Y21.358 Z-5.064
N1524 X94.935 Y21.398 Z-5.031
N1525 X94.858 Y21.443 Z-4.996
N1526 X94.776 Y21.49 Z-4.974
N1527 X94.693 Y21.538 Z-4.967
N1528 X91.14 Y23.589
N1529 X91.067 Y23.633
N1530 X90.996 Y23.681 Z-4.968
N1531 X90.927 Y23.731 Z-4.969
N1532 X90.861 Y23.785 Z-4.972
N1533 X90.797 Y23.842 Z-4.974
N1534 X90.735 Y23.901 Z-4.978
N1535 X90.676 Y23.963 Z-4.982
N1536 X90.62 Y24.027 Z-4.987
N1537 X90.567 Y24.094 Z-4.992
N1538 X90.517 Y24.163 Z-4.998
N1539 X90.471 Y24.235 Z-5.004
N1540 X90.427 Y24.308 Z-5.011
N1541 X90.387 Y24.383 Z-5.019
N1542 X90.35 Y24.46 Z-5.027
N1543 X90.317 Y24.538 Z-5.035
N1544 X90.287 Y24.617 Z-5.044
N1545 X90.261 Y24.698 Z-5.054
N1546 X90.238 Y24.78 Z-5.064
N1547 X90.219 Y24.863 Z-5.074
N1548 X90.204 Y24.946 Z-5.085
N1549 X90.193 Y25.03 Z-5.096
N1550 X90.185 Y25.115 Z-5.108
N1551 X90.182 Y25.199 Z-5.12
N1552 Y25.284 Z-5.132
N1553 X90.186 Y25.368 Z-5.144
N1554 X90.193 Y25.452 Z-5.157
N1555 X90.205 Y25.536 Z-5.17
N1556 X90.22 Y25.619 Z-5.184
N1557 X90.239 Y25.701 Z-5.197
N1558 X90.262 Y25.783 Z-5.211
N1559 X90.289 Y25.863 Z-5.225
N1560 X90.319 Y25.942 Z-5.239
N1561 X90.352 Y26.019 Z-5.253
N1562 X90.389 Y26.095 Z-5.267
N1563 X90.43 Y26.169 Z-5.281
N1564 X91.55 Y28.109 Z-5.656
N1565 X91.594 Y28.181 Z-5.67
N1566 X91.641 Y28.251 Z-5.684
N1567 X91.691 Y28.318 Z-5.698
N1568 X91.744 Y28.384 Z-5.712
N1569 X91.8 Y28.447 Z-5.726
N1570 X91.859 Y28.507 Z-5.739
N1571 X91.921 Y28.565 Z-5.753
N1572 X91.985 Y28.62 Z-5.766
N1573 X92.052 Y28.671 Z-5.779
N1574 X92.121 Y28.72 Z-5.792
N1575 X92.192 Y28.766 Z-5.805
N1576 X92.265 Y28.808 Z-5.817
N1577 X92.34 Y28.847 Z-5.829
N1578 X92.417 Y28.883 Z-5.84
N1579 X92.496 Y28.915 Z-5.852
N1580 X92.575 Y28.944 Z-5.862
N1581 X92.656 Y28.969 Z-5.873
N1582 X92.739 Y28.99 Z-5.883
N1583 X92.822 Y29.008 Z-5.892
N1584 X92.906 Y29.022 Z-5.901
N1585 X92.99 Y29.032 Z-5.91
N1586 X93.075 Y29.039 Z-5.918
N1587 X93.16 Y29.041 Z-5.925
N1588 X93.245 Y29.04 Z-5.932
N1589 X93.33 Y29.035 Z-5.939
N1590 X93.415 Y29.027 Z-5.945
N1591 X93.5 Y29.014 Z-5.95
N1592 X93.583 Y28.998 Z-5.955
N1593 X93.666 Y28.978 Z-5.959
N1594 X93.748 Y28.954 Z-5.962
N1595 X93.829 Y28.927 Z-5.965
N1596 X93.909 Y28.896 Z-5.967
N1597 X93.987 Y28.862 Z-5.969
N1598 X94.064 Y28.824 Z-5.97
N1599 X94.139 Y28.783
N1600 X94.222 Y28.735 Z-5.977
N1601 X94.304 Y28.688 Z-5.999
N1602 X94.381 Y28.644 Z-6.035
N1603 X94.446 Y28.606 Z-6.066
N1604 X94.514 Y28.567 Z-6.087
N1605 X94.584 Y28.526 Z-6.098
N1606 X94.655 Y28.485 Z-6.099
N1607 X97.387 Y26.908 Z-5.916
N1608 X101.024 Y24.809 Z-5.642
N1609 X104.659 Y22.71 Z-5.333
N1610 X104.776 Y22.642 Z-5.316
N1611 X104.89 Y22.576 Z-5.284
N1612 X105.001 Y22.512 Z-5.239
N1613 X105.107 Y22.451 Z-5.18
N1614 X105.207 Y22.393 Z-5.109
N1615 X105.299 Y22.34 Z-5.025
N1616 X105.384 Y22.291 Z-4.931
N1617 X105.459 Y22.248 Z-4.826
N1618 X105.525 Y22.21 Z-4.714
N1619 X105.579 Y22.178 Z-4.593
N1620 X105.622 Y22.154 Z-4.467
N1621 X105.653 Y22.136 Z-4.336
N1622 X105.672 Y22.125 Z-4.202
N1623 X105.678 Y22.121 Z-4.066
N1624 G0 Z5
N1625 X57.154 Y15.508
N1626 Z-1.955
N1627 G1 Z-2.858 F4622.8
N1628 X57.147 Y15.511 Z-2.992
N1629 X57.129 Y15.522 Z-3.123
N1630 X57.099 Y15.539 Z-3.252
N1631 X57.058 Y15.563 Z-3.377
N1632 X57.005 Y15.593 Z-3.495
N1633 X56.942 Y15.63 Z-3.607
N1634 X56.869 Y15.672 Z-3.71
N1635 X56.788 Y15.719 Z-3.804
N1636 X56.698 Y15.771 Z-3.888
N1637 X56.601 Y15.827 Z-3.96
N1638 X56.497 Y15.887 Z-4.02
N1639 X56.39 Y15.949 Z-4.068
N1640 X56.278 Y16.013 Z-4.102
N1641 X56.164 Y16.079 Z-4.122
N1642 X52.537 Y18.173 Z-4.543
N1643 X48.908 Y20.268 Z-4.929
N1644 X45.323 Y22.338 Z-5.275
N1645 X45.249 Y22.381 Z-5.276
N1646 X45.176 Y22.423 Z-5.266
N1647 X45.104 Y22.465 Z-5.244
N1648 X45.035 Y22.504 Z-5.212
N1649 X44.958 Y22.549 Z-5.176
N1650 X44.877 Y22.596 Z-5.154
N1651 X44.793 Y22.644 Z-5.147
N1652 X40.675 Y25.022
N1653 X40.601 Y25.066
N1654 X40.53 Y25.114 Z-5.148
N1655 X40.462 Y25.165 Z-5.15
N1656 X40.395 Y25.218 Z-5.152
N1657 X40.331 Y25.275 Z-5.155
N1658 X40.27 Y25.334 Z-5.158
N1659 X40.211 Y25.396 Z-5.162
N1660 X40.155 Y25.461 Z-5.167
N1661 X40.102 Y25.527 Z-5.172
N1662 X40.052 Y25.597 Z-5.177
N1663 X40.005 Y25.668 Z-5.184
N1664 X39.961 Y25.741 Z-5.19
N1665 X39.921 Y25.816 Z-5.198
N1666 X39.884 Y25.893 Z-5.205
N1667 X39.851 Y25.971 Z-5.214
N1668 X39.821 Y26.051 Z-5.222
N1669 X39.795 Y26.132 Z-5.232
N1670 X39.773 Y26.214 Z-5.241
N1671 X39.754 Y26.296 Z-5.251
N1672 X39.739 Y26.38 Z-5.262
N1673 X39.727 Y26.464 Z-5.273
N1674 X39.72 Y26.548 Z-5.284
N1675 X39.716 Y26.633 Z-5.296
N1676 Y26.718 Z-5.307
N1677 X39.72 Y26.802 Z-5.32
N1678 X39.728 Y26.886 Z-5.332
N1679 X39.74 Y26.97 Z-5.345
N1680 X39.755 Y27.053 Z-5.358
N1681 X39.774 Y27.135 Z-5.371
N1682 X39.797 Y27.217 Z-5.384
N1683 X39.824 Y27.297 Z-5.397
N1684 X39.854 Y27.376 Z-5.411
N1685 X39.887 Y27.453 Z-5.424
N1686 X39.924 Y27.529 Z-5.438
N1687 X39.965 Y27.603 Z-5.452
N1688 X41.083 Y29.54 Z-5.814
N1689 X41.127 Y29.612 Z-5.828
N1690 X41.174 Y29.682 Z-5.842
N1691 X41.225 Y29.75 Z-5.855
N1692 X41.278 Y29.816 Z-5.869
N1693 X41.334 Y29.879 Z-5.882
N1694 X41.393 Y29.939 Z-5.895
N1695 X41.455 Y29.997 Z-5.908
N1696 X41.519 Y30.052 Z-5.921
N1697 X41.586 Y30.104 Z-5.934
N1698 X41.655 Y30.153 Z-5.946
N1699 X41.726 Y30.198 Z-5.959
N1700 X41.799 Y30.241 Z-5.97
N1701 X41.874 Y30.28 Z-5.982
N1702 X41.951 Y30.316 Z-5.993
N1703 X42.03 Y30.348 Z-6.004
N1704 X42.109 Y30.377 Z-6.015
N1705 X42.191 Y30.402 Z-6.025
N1706 X42.273 Y30.423 Z-6.034
N1707 X42.356 Y30.441 Z-6.044
N1708 X42.44 Y30.455 Z-6.052
N1709 X42.524 Y30.465 Z-6.061
N1710 X42.609 Y30.472 Z-6.068
N1711 X42.694 Y30.474 Z-6.076
N1712 X42.779 Y30.473 Z-6.083
N1713 X42.865 Y30.468 Z-6.089
N1714 X42.949 Y30.46 Z-6.094
N1715 X43.034 Y30.447 Z-6.099
N1716 X43.118 Y30.431 Z-6.104
N1717 X43.201 Y30.411 Z-6.108
N1718 X43.283 Y30.388 Z-6.111
N1719 X43.364 Y30.36 Z-6.114
N1720 X43.444 Y30.33 Z-6.116
N1721 X43.522 Y30.295 Z-6.118
N1722 X43.599 Y30.257 Z-6.119
N1723 X43.674 Y30.216
N1724 X43.757 Y30.168 Z-6.126
N1725 X43.838 Y30.121 Z-6.148
N1726 X43.916 Y30.077 Z-6.184
N1727 X43.98 Y30.039 Z-6.215
N1728 X44.047 Y30 Z-6.236
N1729 X44.117 Y29.961 Z-6.247
N1730 X44.187 Y29.92 Z-6.248
N1731 X47.376 Y28.079 Z-6.053
N1732 X51.013 Y25.979 Z-5.799
N1733 X54.65 Y23.879 Z-5.509
N1734 X54.72 Y23.839 Z-5.499
N1735 X54.788 Y23.799 Z-5.477
N1736 X54.854 Y23.761 Z-5.446
N1737 X54.931 Y23.717 Z-5.41
N1738 X55.013 Y23.67 Z-5.389
N1739 X55.096 Y23.622 Z-5.381
N1740 X55.171 Y23.581 Z-5.382
N1741 X55.248 Y23.543
N1742 X55.326 Y23.509 Z-5.384
N1743 X55.406 Y23.478 Z-5.385
N1744 X55.487 Y23.451 Z-5.387
N1745 X55.569 Y23.427 Z-5.39
N1746 X55.652 Y23.407 Z-5.393
N1747 X55.736 Y23.391 Z-5.397
N1748 X55.82 Y23.379 Z-5.4
N1749 X55.905 Y23.371 Z-5.405
N1750 X55.99 Y23.366 Z-5.41
N1751 X56.076 Y23.365 Z-5.415
N1752 X56.161 Y23.368 Z-5.421
N1753 X56.246 Y23.374 Z-5.427
N1754 X56.331 Y23.385 Z-5.433
N1755 X56.415 Y23.399 Z-5.44
N1756 X56.498 Y23.417 Z-5.447
N1757 X56.58 Y23.439 Z-5.455
N1758 X56.661 Y23.464 Z-5.463
N1759 X56.741 Y23.493 Z-5.471
N1760 X56.82 Y23.526 Z-5.479
N1761 X56.897 Y23.562 Z-5.488
N1762 X56.972 Y23.601 Z-5.497
N1763 X57.046 Y23.644 Z-5.506
N1764 X57.117 Y23.69 Z-5.516
N1765 X57.186 Y23.739 Z-5.526
N1766 X57.253 Y23.792 Z-5.536
N1767 X57.318 Y23.847 Z-5.546
N1768 X57.38 Y23.905 Z-5.556
N1769 X57.439 Y23.966 Z-5.566
N1770 X57.495 Y24.029 Z-5.577
N1771 X57.549 Y24.095 Z-5.587
N1772 X57.599 Y24.163 Z-5.598
N1773 X57.647 Y24.234 Z-5.608
N1774 X57.691 Y24.306 Z-5.619
N1775 X58.8 Y26.227 Z-5.898
N1776 X58.84 Y26.301 Z-5.909
N1777 X58.878 Y26.377 Z-5.919
N1778 X58.911 Y26.455 Z-5.93
N1779 X58.942 Y26.534 Z-5.941
N1780 X58.968 Y26.615 Z-5.951
N1781 X58.991 Y26.696 Z-5.961
N1782 X59.011 Y26.779 Z-5.972
N1783 X59.026 Y26.863 Z-5.982
N1784 X59.038 Y26.947 Z-5.992
N1785 X59.046 Y27.031 Z-6.001
N1786 X59.05 Y27.116 Z-6.011
N1787 X59.051 Y27.201 Z-6.02
N1788 X59.047 Y27.286 Z-6.029
N1789 X59.04 Y27.371 Z-6.038
N1790 X59.029 Y27.455 Z-6.046
N1791 X59.014 Y27.539 Z-6.055
N1792 X58.995 Y27.622 Z-6.063
N1793 X58.973 Y27.704 Z-6.07
N1794 X58.947 Y27.785 Z-6.077
N1795 X58.917 Y27.865 Z-6.084
N1796 X58.884 Y27.944 Z-6.091
N1797 X58.847 Y28.021 Z-6.097
N1798 X58.807 Y28.096 Z-6.102
N1799 X58.764 Y28.169 Z-6.108
N1800 X58.717 Y28.241 Z-6.112
N1801 X58.667 Y28.31 Z-6.117
N1802 X58.614 Y28.377 Z-6.121
N1803 X58.558 Y28.442 Z-6.124
N1804 X58.5 Y28.504 Z-6.127
N1805 X58.438 Y28.563 Z-6.13
N1806 X58.374 Y28.62 Z-6.132
N1807 X58.308 Y28.673 Z-6.134
N1808 X58.239 Y28.724 Z-6.135
N1809 X58.168 Y28.772 Z-6.136
N1810 X58.095 Y28.816
N1811 X56.336 Y29.831
N1812 X56.253 Y29.879 Z-6.143
N1813 X56.172 Y29.926 Z-6.165
N1814 X56.094 Y29.971 Z-6.201
N1815 X56.024 Y30.011 Z-6.234
N1816 X55.951 Y30.054 Z-6.255
N1817 X55.877 Y30.097 Z-6.265
N1818 X52.236 Y32.199 Z-6.451
N1819 X48.594 Y34.301 Z-6.603
N1820 X44.938 Y36.412 Z-6.72
N1821 X41.052 Y38.655 Z-6.807
N1822 X37.165 Y40.9 Z-6.854
N1823 X33.396 Y43.076 Z-6.863
N1824 X29.508 Y45.321 Z-6.831
N1825 X26.485 Y47.066 Z-6.781
N1826 X23.654 Y48.7 Z-6.712
N1827 X21.015 Y50.224 Z-6.63
N1828 X18.069 Y51.925 Z-6.516
N1829 X14.792 Y53.817 Z-6.364
N1830 X10.889 Y56.07 Z-6.145
N1831 X7.946 Y57.769 Z-5.953
N1832 X5.004 Y59.468 Z-5.738
N1833 X2.063 Y61.166 Z-5.501
N1834 X-0.01 Y62.363 Z-5.32
N1835 X-0.079 Y62.403 Z-5.308
N1836 X-0.146 Y62.442 Z-5.287
N1837 X-0.211 Y62.479 Z-5.257
N1838 X-0.288 Y62.523 Z-5.221
N1839 X-0.369 Y62.57 Z-5.199
N1840 X-0.453 Y62.618 Z-5.192
N1841 X-3.436 Y64.341
N1842 X-3.509 Y64.385 Z-5.191
N1843 X-3.58 Y64.433 Z-5.19
N1844 X-3.649 Y64.483 Z-5.188
N1845 X-3.716 Y64.537 Z-5.185
N1846 X-3.78 Y64.593 Z-5.182
N1847 X-3.841 Y64.652 Z-5.177
N1848 X-3.9 Y64.714 Z-5.172
N1849 X-3.956 Y64.778 Z-5.166
N1850 X-4.009 Y64.845 Z-5.16
N1851 X-4.06 Y64.914 Z-5.153
N1852 X-4.107 Y64.985 Z-5.144
N1853 X-4.15 Y65.058 Z-5.136
N1854 X-4.191 Y65.133 Z-5.126
N1855 X-4.228 Y65.209 Z-5.116
N1856 X-4.261 Y65.287 Z-5.105
N1857 X-4.291 Y65.366 Z-5.094
N1858 X-4.318 Y65.446 Z-5.082
N1859 X-4.341 Y65.528 Z-5.069
N1860 X-4.36 Y65.61 Z-5.056
N1861 X-4.375 Y65.693 Z-5.043
N1862 X-4.387 Y65.777 Z-5.028
N1863 X-4.394 Y65.861 Z-5.014
N1864 X-4.398 Y65.945 Z-4.999
N1865 X-4.399 Y66.029 Z-4.983
N1866 X-4.395 Y66.113 Z-4.968
N1867 X-4.388 Y66.196 Z-4.951
N1868 X-4.376 Y66.279 Z-4.935
N1869 X-4.361 Y66.362 Z-4.918
N1870 X-4.342 Y66.443 Z-4.901
N1871 X-4.32 Y66.524 Z-4.884
N1872 X-4.294 Y66.604 Z-4.866
N1873 X-4.264 Y66.682 Z-4.849
N1874 X-4.231 Y66.759 Z-4.831
N1875 X-4.194 Y66.834 Z-4.813
N1876 X-4.154 Y66.907 Z-4.796
N1877 X-3.018 Y68.874 Z-4.313
N1878 X-2.975 Y68.945 Z-4.295
N1879 X-2.928 Y69.015 Z-4.277
N1880 X-2.879 Y69.082 Z-4.26
N1881 X-2.826 Y69.147 Z-4.242
N1882 X-2.77 Y69.209 Z-4.225
N1883 X-2.711 Y69.269 Z-4.208
N1884 X-2.65 Y69.326 Z-4.191
N1885 X-2.586 Y69.38 Z-4.174
N1886 X-2.52 Y69.432 Z-4.157
N1887 X-2.451 Y69.48 Z-4.141
N1888 X-2.38 Y69.525 Z-4.125
N1889 X-2.307 Y69.567 Z-4.11
N1890 X-2.232 Y69.605 Z-4.095
N1891 X-2.156 Y69.641 Z-4.08
N1892 X-2.078 Y69.672 Z-4.066
N1893 X-1.998 Y69.701 Z-4.052
N1894 X-1.917 Y69.725 Z-4.039
N1895 X-1.835 Y69.746 Z-4.027
N1896 X-1.753 Y69.763 Z-4.015
N1897 X-1.669 Y69.777 Z-4.003
N1898 X-1.585 Y69.787 Z-3.993
N1899 X-1.5 Y69.793 Z-3.982
N1900 X-1.415 Y69.795 Z-3.973
N1901 X-1.33 Y69.794 Z-3.964
N1902 X-1.245 Y69.789 Z-3.956
N1903 X-1.16 Y69.78 Z-3.949
N1904 X-1.076 Y69.767 Z-3.942
N1905 X-0.992 Y69.751 Z-3.936
N1906 X-0.91 Y69.73 Z-3.931
N1907 X-0.828 Y69.707 Z-3.927
N1908 X-0.747 Y69.679 Z-3.923
N1909 X-0.667 Y69.648 Z-3.92
N1910 X-0.589 Y69.614 Z-3.918
N1911 X-0.512 Y69.576 Z-3.917
N1912 X-0.437 Y69.535
N1913 X-0.354 Y69.487 Z-3.924
N1914 X-0.273 Y69.44 Z-3.946
N1915 X-0.195 Y69.396 Z-3.982
N1916 X-0.136 Y69.361 Z-4.01
N1917 X-0.074 Y69.325 Z-4.031
N1918 X-0.01 Y69.289 Z-4.043
N1919 X1.028 Y68.689 Z-4.168
N1920 X3.961 Y66.996 Z-4.508
N1921 X6.566 Y65.492 Z-4.791
N1922 X9.503 Y63.796 Z-5.087
N1923 X13.399 Y61.547 Z-5.445
N1924 X16.669 Y59.659 Z-5.712
N1925 X19.611 Y57.96 Z-5.93
N1926 X22.554 Y56.261 Z-6.124
N1927 X25.167 Y54.753 Z-6.277
N1928 X28.112 Y53.052 Z-6.429
N1929 X32.017 Y50.798 Z-6.595
N1930 X35.314 Y48.894 Z-6.703
N1931 X38.143 Y47.261 Z-6.774
N1932 X40.997 Y45.613 Z-6.824
N1933 X43.87 Y43.954 Z-6.854
N1934 X47.243 Y42.007 Z-6.863
N1935 X51.131 Y39.762 Z-6.835
N1936 X55.018 Y37.518 Z-6.768
N1937 X58.879 Y35.289 Z-6.662
N1938 X58.958 Y35.244 Z-6.653
N1939 X59.034 Y35.199 Z-6.632
N1940 X59.108 Y35.157 Z-6.597
N1941 X59.185 Y35.112 Z-6.562
N1942 X59.267 Y35.065 Z-6.54
N1943 X59.35 Y35.017 Z-6.533
N1944 X61.057 Y34.032
N1945 X61.132 Y33.991
N1946 X61.209 Y33.953
N1947 X61.287 Y33.919
N1948 X61.367 Y33.888
N1949 X61.448 Y33.861 Z-6.534
N1950 X61.53 Y33.838
N1951 X61.613 Y33.818 Z-6.535
N1952 X61.697 Y33.802 Z-6.536
N1953 X61.782 Y33.79 Z-6.537
N1954 X61.867 Y33.782 Z-6.538
N1955 X61.952 Y33.777 Z-6.539
N1956 X62.038 Z-6.54
N1957 X62.123 Y33.78 Z-6.541
N1958 X62.208 Y33.787 Z-6.543
N1959 X62.293 Y33.798 Z-6.544
N1960 X62.377 Y33.812 Z-6.546
N1961 X62.461 Y33.831 Z-6.547
N1962 X62.543 Y33.853 Z-6.549
N1963 X62.625 Y33.879 Z-6.551
N1964 X62.705 Y33.908 Z-6.553
N1965 X62.784 Y33.941 Z-6.554
N1966 X62.861 Y33.977 Z-6.556
N1967 X62.937 Y34.017 Z-6.558
N1968 X63.011 Y34.061 Z-6.56
N1969 X63.082 Y34.107 Z-6.563
N1970 X63.152 Y34.157 Z-6.565
N1971 X63.219 Y34.21 Z-6.567
N1972 X63.284 Y34.265 Z-6.569
N1973 X63.346 Y34.324 Z-6.572
N1974 X63.406 Y34.385 Z-6.574
N1975 X63.462 Y34.449 Z-6.576
N1976 X63.516 Y34.516 Z-6.579
N1977 X63.567 Y34.584 Z-6.581
N1978 X63.614 Y34.655 Z-6.583
N1979 X63.659 Y34.728 Z-6.586
N1980 X64.753 Y36.624 Z-6.647
N1981 X64.795 Y36.699 Z-6.649
N1982 X64.832 Y36.776 Z-6.651
N1983 X64.866 Y36.854 Z-6.654
N1984 X64.897 Y36.934 Z-6.656
N1985 X64.924 Y37.015 Z-6.659
N1986 X64.947 Y37.097 Z-6.661
N1987 X64.967 Y37.181 Z-6.663
N1988 X64.983 Y37.265 Z-6.665
N1989 X64.995 Y37.349 Z-6.668
N1990 X65.003 Y37.434 Z-6.67
N1991 X65.008 Y37.52 Z-6.672
N1992 Y37.605 Z-6.674
N1993 X65.005 Y37.691 Z-6.676
N1994 X64.998 Y37.776 Z-6.678
N1995 X64.987 Y37.86 Z-6.68
N1996 X64.973 Y37.945 Z-6.682
N1997 X64.954 Y38.028 Z-6.683
N1998 X64.932 Y38.111 Z-6.685
N1999 X64.906 Y38.192 Z-6.687
N2000 X64.877 Y38.272 Z-6.688
N2001 X64.844 Y38.351 Z-6.69
N2002 X64.807 Y38.429 Z-6.691
N2003 X64.767 Y38.504 Z-6.692
N2004 X64.724 Y38.578 Z-6.693
N2005 X64.677 Y38.649 Z-6.695
N2006 X64.628 Y38.719 Z-6.696
N2007 X64.575 Y38.786
N2008 X64.519 Y38.851 Z-6.697
N2009 X64.46 Y38.913 Z-6.698
N2010 X64.399 Y38.973
N2011 X64.335 Y39.029 Z-6.699
N2012 X64.269 Y39.083
N2013 X64.2 Y39.134 Z-6.7
N2014 X64.129 Y39.182
N2015 X64.056 Y39.226
N2016 X63.973 Y39.274 Z-6.707
N2017 X63.891 Y39.321 Z-6.729
N2018 X63.814 Y39.366 Z-6.765
N2019 X63.738 Y39.41 Z-6.8
N2020 X63.658 Y39.456 Z-6.822
N2021 X63.576 Y39.503 Z-6.829
N2022 X59.688 Y41.748 Z-6.862
N2023 X56.204 Y43.759 Z-6.856
N2024 X53.331 Y45.418 Z-6.829
N2025 X50.477 Y47.066 Z-6.781
N2026 X47.646 Y48.7 Z-6.712
N2027 X45.007 Y50.224 Z-6.63
N2028 X42.06 Y51.925 Z-6.516
N2029 X38.784 Y53.817 Z-6.364
N2030 X34.881 Y56.07 Z-6.145
N2031 X31.938 Y57.769 Z-5.953
N2032 X28.996 Y59.468 Z-5.738
N2033 X26.055 Y61.166 Z-5.501
N2034 X23.116 Y62.863 Z-5.24
N2035 X19.518 Y64.94 Z-4.892
N2036 X15.957 Y66.996 Z-4.508
N2037 X13.024 Y68.689 Z-4.168
N2038 X10.093 Y70.382 Z-3.804
N2039 X6.835 Y72.262 Z-3.373
N2040 X3.285 Y74.312 Z-2.868
N2041 X0.034 Y76.189 Z-2.373
N2042 X-0.01 Y76.215 Z-2.366
N2043 X-0.068 Y76.248 Z-2.353
N2044 X-0.124 Y76.28 Z-2.333
N2045 X-0.178 Y76.311 Z-2.307
N2046 X-0.255 Y76.356 Z-2.271
N2047 X-0.337 Y76.403 Z-2.249
N2048 X-0.42 Y76.451 Z-2.242
N2049 X-3.405 Y78.175
N2050 X-3.478 Y78.219 Z-2.241
N2051 X-3.549 Y78.266 Z-2.239
N2052 X-3.618 Y78.317 Z-2.236
N2053 X-3.685 Y78.37 Z-2.232
N2054 X-3.75 Y78.426 Z-2.226
N2055 X-3.812 Y78.484 Z-2.219
N2056 X-3.871 Y78.545 Z-2.211
N2057 X-3.927 Y78.609 Z-2.202
N2058 X-3.981 Y78.674 Z-2.191
N2059 X-4.032 Y78.742 Z-2.18
N2060 X-4.079 Y78.812 Z-2.167
N2061 X-4.124 Y78.884 Z-2.153
N2062 X-4.165 Y78.957 Z-2.138
N2063 X-4.203 Y79.032 Z-2.122
N2064 X-4.237 Y79.109 Z-2.105
N2065 X-4.268 Y79.186 Z-2.087
N2066 X-4.296 Y79.265 Z-2.068
N2067 X-4.32 Y79.345 Z-2.049
N2068 X-4.34 Y79.425 Z-2.028
N2069 X-4.356 Y79.506 Z-2.006
N2070 X-4.369 Y79.588 Z-1.984
N2071 X-4.378 Y79.669 Z-1.961
N2072 X-4.383 Y79.751 Z-1.937
N2073 X-4.385 Y79.833 Z-1.913
N2074 X-4.382 Y79.915 Z-1.888
N2075 X-4.376 Y79.996 Z-1.862
N2076 X-4.366 Y80.077 Z-1.836
N2077 X-4.352 Y80.157 Z-1.81
N2078 X-4.335 Y80.237 Z-1.783
N2079 X-4.314 Y80.315 Z-1.756
N2080 X-4.289 Y80.392 Z-1.728
N2081 X-4.261 Y80.468 Z-1.7
N2082 X-4.229 Y80.542 Z-1.672
N2083 X-4.194 Y80.615 Z-1.644
N2084 X-4.155 Y80.685 Z-1.616
N2085 X-2.956 Y82.763 Z-0.782
N2086 X-2.914 Y82.832 Z-0.754
N2087 X-2.868 Y82.899 Z-0.726
N2088 X-2.82 Y82.964 Z-0.698
N2089 X-2.768 Y83.026 Z-0.671
N2090 X-2.714 Y83.086 Z-0.643
N2091 X-2.657 Y83.143 Z-0.616
N2092 X-2.597 Y83.198 Z-0.589
N2093 X-2.534 Y83.25 Z-0.563
N2094 X-2.469 Y83.299 Z-0.537
N2095 X-2.402 Y83.345 Z-0.511
N2096 X-2.332 Y83.388 Z-0.486
N2097 X-2.261 Y83.428 Z-0.462
N2098 X-2.187 Y83.464 Z-0.438
N2099 X-2.112 Y83.497 Z-0.415
N2100 X-2.035 Y83.527 Z-0.392
N2101 X-1.956 Y83.553 Z-0.371
N2102 X-1.877 Y83.576 Z-0.35
N2103 X-1.796 Y83.595 Z-0.33
N2104 X-1.714 Y83.611 Z-0.311
N2105 X-1.631 Y83.623 Z-0.293
N2106 X-1.548 Y83.631 Z-0.276
N2107 X-1.464 Y83.636 Z-0.26
N2108 X-1.38 Y83.637 Z-0.246
N2109 X-1.295 Y83.634 Z-0.232
N2110 X-1.211 Y83.628 Z-0.219
N2111 X-1.127 Y83.618 Z-0.207
N2112 X-1.043 Y83.604 Z-0.197
N2113 X-0.96 Y83.587 Z-0.188
N2114 X-0.877 Y83.566 Z-0.18
N2115 X-0.796 Y83.542 Z-0.173
N2116 X-0.715 Y83.514 Z-0.167
N2117 X-0.636 Y83.483 Z-0.163
N2118 X-0.558 Y83.448 Z-0.16
N2119 X-0.481 Y83.41 Z-0.158
N2120 X-0.406 Y83.369 Z-0.157
N2121 X-0.323 Y83.321 Z-0.164
N2122 X-0.242 Y83.274 Z-0.186
N2123 X-0.164 Y83.229 Z-0.222
N2124 X-0.089 Y83.186 Z-0.257
N2125 X-0.01 Y83.14 Z-0.278
N2126 X1.351 Y82.354 Z-0.533
N2127 X4.262 Y80.674 Z-1.068
N2128 X7.177 Y78.991 Z-1.578
N2129 X10.389 Y77.136 Z-2.113
N2130 X13.967 Y75.071 Z-2.671
N2131 X16.891 Y73.382 Z-3.1
N2132 X19.818 Y71.692 Z-3.506
N2133 X22.747 Y70.001 Z-3.888
N2134 X25.679 Y68.309 Z-4.247
N2135 X29.239 Y66.254 Z-4.651
N2136 X32.504 Y64.368 Z-4.99
N2137 X35.442 Y62.672 Z-5.271
N2138 X38.381 Y60.975 Z-5.528
N2139 X41.322 Y59.277 Z-5.764
N2140 X44.892 Y57.216 Z-6.02
N2141 X48.497 Y55.135 Z-6.24
N2142 X51.442 Y53.435 Z-6.396
N2143 X54.387 Y51.734 Z-6.53
N2144 X57.334 Y50.033 Z-6.641
N2145 X59.978 Y48.506 Z-6.722
N2146 X62.98 Y46.773 Z-6.791
N2147 X66.848 Y44.54 Z-6.847
N2148 X70.58 Y42.385 Z-6.864
N2149 X102.494 Y23.96 Z-5.092
N2150 X102.568 Y23.919 Z-5.088
N2151 X102.645 Y23.881 Z-5.085
N2152 X102.723 Y23.847 Z-5.082
N2153 X102.803 Y23.816 Z-5.081
N2154 X102.884 Y23.789 Z-5.08
N2155 X102.966 Y23.765 Z-5.079
N2156 X103.049 Y23.745 Z-5.08
N2157 X103.133 Y23.729 Z-5.081
N2158 X103.218 Y23.716 Z-5.083
N2159 X103.303 Y23.707 Z-5.085
N2160 X103.388 Y23.702 Z-5.088
N2161 X103.473 Y23.701 Z-5.092
N2162 X103.559 Y23.703 Z-5.097
N2163 X103.644 Y23.709 Z-5.102
N2164 X103.729 Y23.719 Z-5.108
N2165 X103.813 Y23.733 Z-5.115
N2166 X103.896 Y23.75 Z-5.122
N2167 X103.979 Y23.771 Z-5.129
N2168 X104.06 Y23.796 Z-5.138
N2169 X104.14 Y23.824 Z-5.147
N2170 X104.219 Y23.856 Z-5.156
N2171 X104.296 Y23.891 Z-5.166
N2172 X104.372 Y23.93 Z-5.177
N2173 X104.445 Y23.972 Z-5.188
N2174 X104.517 Y24.017 Z-5.2
N2175 X104.586 Y24.066 Z-5.212
N2176 X104.654 Y24.117 Z-5.224
N2177 X104.718 Y24.171 Z-5.237
N2178 X104.78 Y24.229 Z-5.25
N2179 X104.84 Y24.288 Z-5.264
N2180 X104.897 Y24.351 Z-5.278
N2181 X104.95 Y24.416 Z-5.292
N2182 X105.001 Y24.483 Z-5.307
N2183 X105.049 Y24.553 Z-5.321
N2184 X105.093 Y24.624 Z-5.336
N2185 X106.234 Y26.561 Z-5.74
N2186 X106.275 Y26.635 Z-5.755
N2187 X106.312 Y26.71 Z-5.77
N2188 X106.347 Y26.787 Z-5.786
N2189 X106.377 Y26.865 Z-5.801
N2190 X106.404 Y26.945 Z-5.817
N2191 X106.427 Y27.025 Z-5.832
N2192 X106.447 Y27.107 Z-5.848
N2193 X106.463 Y27.19 Z-5.864
N2194 X106.475 Y27.273 Z-5.879
N2195 X106.483 Y27.356 Z-5.895
N2196 X106.488 Y27.44 Z-5.91
N2197 X106.489 Y27.525 Z-5.925
N2198 X106.485 Y27.609 Z-5.94
N2199 X106.478 Y27.693 Z-5.955
N2200 X106.467 Y27.776 Z-5.969
N2201 X106.453 Y27.859 Z-5.983
N2202 X106.434 Y27.941 Z-5.997
N2203 X106.412 Y28.023 Z-6.011
N2204 X106.387 Y28.103 Z-6.024
N2205 X106.357 Y28.183 Z-6.037
N2206 X106.324 Y28.261 Z-6.049
N2207 X106.288 Y28.337 Z-6.061
N2208 X106.248 Y28.412 Z-6.073
N2209 X106.205 Y28.485 Z-6.084
N2210 X106.158 Y28.556 Z-6.094
N2211 X106.108 Y28.624 Z-6.104
N2212 X106.056 Y28.691 Z-6.114
N2213 X106 Y28.755 Z-6.123
N2214 X105.941 Y28.817 Z-6.131
N2215 X105.88 Y28.876 Z-6.139
N2216 X105.816 Y28.932 Z-6.146
N2217 X105.75 Y28.986 Z-6.152
N2218 X105.681 Y29.037 Z-6.158
N2219 X105.61 Y29.084 Z-6.163
N2220 X105.537 Y29.128 Z-6.167
N2221 X101.896 Y31.23 Z-6.37
N2222 X98.255 Y33.333 Z-6.537
N2223 X94.612 Y35.436 Z-6.67
N2224 X90.748 Y37.667 Z-6.773
N2225 X86.861 Y39.911 Z-6.838
N2226 X82.973 Y42.156 Z-6.864
N2227 X79.689 Y44.052 Z-6.853
N2228 X76.816 Y45.711 Z-6.822
N2229 X73.793 Y47.456 Z-6.767
N2230 X70.294 Y49.476 Z-6.675
N2231 X66.714 Y51.543 Z-6.544
N2232 X63.769 Y53.243 Z-6.413
N2233 X60.824 Y54.944 Z-6.259
N2234 X58.211 Y56.452 Z-6.103
N2235 X55.599 Y57.96 Z-5.93
N2236 X52.657 Y59.659 Z-5.712
N2237 X49.386 Y61.547 Z-5.445
N2238 X45.491 Y63.796 Z-5.087
N2239 X42.554 Y65.492 Z-4.791
N2240 X39.949 Y66.996 Z-4.508
N2241 X37.016 Y68.689 Z-4.168
N2242 X34.085 Y70.382 Z-3.804
N2243 X30.827 Y72.262 Z-3.373
N2244 X27.277 Y74.312 Z-2.868
N2245 X24.026 Y76.189 Z-2.373
N2246 X21.106 Y77.875 Z-1.903
N2247 X18.19 Y79.558 Z-1.409
N2248 X14.622 Y81.619 Z-0.772
N2249 X11.875 Y83.204 Z-0.259
N2250 X11.219 Y83.583 Z-0.16
N2251 X10.56 Y83.963 Z-0.085
N2252 X9.9 Y84.345 Z-0.034
N2253 X9.238 Y84.727 Z-0.006
N2254 X8.749 Y85.009 Z0
N2255 X8.667 Y85.056 Z0.008
N2256 X8.588 Y85.102 Z0.03
N2257 X8.512 Y85.146 Z0.065
N2258 X8.435 Y85.19 Z0.1
N2259 X8.354 Y85.237 Z0.122
N2260 X8.27 Y85.285 Z0.13
N2261 G2 X7.573 Y87.888 I0.953 J1.65
N2262 G1 X8.667 Y89.783
N2263 G2 X11.269 Y90.48 I1.65 J-0.952
N2264 G1 X20.266 Y85.285
N2265 X20.349 Y85.237 Z0.122
N2266 X20.431 Y85.19 Z0.1
N2267 X20.508 Y85.146 Z0.065
N2268 X20.584 Y85.102 Z0.03
N2269 X20.663 Y85.056 Z0.008
N2270 X20.745 Y85.009 Z0
N2271 X21.233 Y84.727 Z-0.006
N2272 X21.895 Y84.345 Z-0.034
N2273 X22.556 Y83.963 Z-0.085
N2274 X23.215 Y83.583 Z-0.16
N2275 X23.871 Y83.204 Z-0.259
N2276 X26.617 Y81.619 Z-0.772
N2277 X30.186 Y79.558 Z-1.409
N2278 X33.102 Y77.875 Z-1.903
N2279 X36.022 Y76.189 Z-2.373
N2280 X39.273 Y74.312 Z-2.868
N2281 X42.823 Y72.262 Z-3.373
N2282 X46.081 Y70.382 Z-3.804
N2283 X49.012 Y68.689 Z-4.168
N2284 X51.945 Y66.996 Z-4.508
N2285 X55.506 Y64.94 Z-4.892
N2286 X59.104 Y62.863 Z-5.24
N2287 X62.043 Y61.166 Z-5.501
N2288 X64.983 Y59.468 Z-5.738
N2289 X67.925 Y57.769 Z-5.953
N2290 X70.868 Y56.07 Z-6.145
N2291 X74.772 Y53.817 Z-6.364
N2292 X78.048 Y51.925 Z-6.516
N2293 X80.994 Y50.224 Z-6.63
N2294 X83.634 Y48.7 Z-6.712
N2295 X86.465 Y47.066 Z-6.781
N2296 X89.488 Y45.321 Z-6.831
N2297 X92.868 Y43.369 Z-6.861
N2298 X96.654 Y41.183 Z-6.858
N2299 X100.541 Y38.939 Z-6.815
N2300 X104.429 Y36.694 Z-6.733
N2301 X108.26 Y34.482 Z-6.614
N2302 X108.338 Y34.437 Z-6.605
N2303 X108.415 Y34.393 Z-6.584
N2304 X108.487 Y34.351 Z-6.55
N2305 X108.565 Y34.306 Z-6.514
N2306 X108.646 Y34.259 Z-6.492
N2307 X108.729 Y34.211 Z-6.485
N2308 X110.134 Y33.4
N2309 X110.209 Y33.359
N2310 X110.286 Y33.321
N2311 X110.364 Y33.287
N2312 X110.444 Y33.257 Z-6.486
N2313 X110.525 Y33.23
N2314 X110.607 Y33.206 Z-6.487
N2315 X110.691 Y33.186 Z-6.488
N2316 X110.775 Y33.171 Z-6.489
N2317 X110.859 Y33.158 Z-6.49
N2318 X110.944 Y33.15 Z-6.491
N2319 X111.03 Y33.146 Z-6.492
N2320 X111.115 Y33.145 Z-6.494
N2321 X111.201 Y33.148 Z-6.495
N2322 X111.286 Y33.155 Z-6.497
N2323 X111.371 Y33.166 Z-6.499
N2324 X111.455 Y33.181 Z-6.5
N2325 X111.538 Y33.199 Z-6.502
N2326 X111.621 Y33.221 Z-6.504
N2327 X111.702 Y33.247 Z-6.506
N2328 X111.783 Y33.276 Z-6.508
N2329 X111.861 Y33.309 Z-6.511
N2330 X111.939 Y33.346 Z-6.513
N2331 X112.014 Y33.386 Z-6.515
N2332 X112.088 Y33.429 Z-6.518
N2333 X112.16 Y33.475 Z-6.52
N2334 X112.229 Y33.525 Z-6.523
N2335 X112.296 Y33.578 Z-6.526
N2336 X112.361 Y33.634 Z-6.528
N2337 X112.423 Y33.692 Z-6.531
N2338 X112.483 Y33.753 Z-6.534
N2339 X112.54 Y33.817 Z-6.537
N2340 X112.593 Y33.884 Z-6.539
N2341 X112.644 Y33.953 Z-6.542
N2342 X112.692 Y34.023 Z-6.545
N2343 X112.736 Y34.096 Z-6.548
N2344 X113.831 Y35.993 Z-6.62
N2345 X113.872 Y36.068 Z-6.623
N2346 X113.91 Y36.145 Z-6.626
N2347 X113.944 Y36.223 Z-6.629
N2348 X113.974 Y36.303 Z-6.632
N2349 X114.001 Y36.384 Z-6.634
N2350 X114.025 Y36.466 Z-6.637
N2351 X114.044 Y36.549 Z-6.64
N2352 X114.06 Y36.633 Z-6.643
N2353 X114.072 Y36.718 Z-6.645
N2354 X114.081 Y36.803 Z-6.648
N2355 X114.085 Y36.888 Z-6.65
N2356 X114.086 Y36.974 Z-6.653
N2357 X114.083 Y37.059 Z-6.655
N2358 X114.075 Y37.144 Z-6.657
N2359 X114.065 Y37.229 Z-6.66
N2360 X114.05 Y37.313 Z-6.662
N2361 X114.032 Y37.397 Z-6.664
N2362 X114.009 Y37.479 Z-6.666
N2363 X113.984 Y37.561 Z-6.668
N2364 X113.954 Y37.641 Z-6.67
N2365 X113.921 Y37.72 Z-6.671
N2366 X113.885 Y37.797 Z-6.673
N2367 X113.845 Y37.873 Z-6.675
N2368 X113.801 Y37.946 Z-6.676
N2369 X113.755 Y38.018 Z-6.677
N2370 X113.705 Y38.087 Z-6.678
N2371 X113.652 Y38.155 Z-6.679
N2372 X113.596 Y38.219 Z-6.68
N2373 X113.538 Y38.282 Z-6.681
N2374 X113.476 Y38.341 Z-6.682
N2375 X113.412 Y38.398
N2376 X113.346 Y38.452 Z-6.683
N2377 X113.277 Y38.502
N2378 X113.206 Y38.55
N2379 X113.133 Y38.594 Z-6.684
N2380 X113.05 Y38.643 Z-6.691
N2381 X112.969 Y38.689 Z-6.713
N2382 X112.891 Y38.734 Z-6.748
N2383 X112.815 Y38.778 Z-6.783
N2384 X112.736 Y38.824 Z-6.805
N2385 X112.655 Y38.871 Z-6.813
N2386 X108.767 Y41.115 Z-6.857
N2387 X105.033 Y43.271 Z-6.862
N2388 X101.483 Y45.32 Z-6.831
N2389 X98.46 Y47.066 Z-6.781
N2390 X95.63 Y48.7 Z-6.712
N2391 X92.99 Y50.224 Z-6.63
N2392 X90.044 Y51.925 Z-6.516
N2393 X86.767 Y53.817 Z-6.364
N2394 X82.864 Y56.07 Z-6.145
N2395 X79.921 Y57.769 Z-5.953
N2396 X76.979 Y59.468 Z-5.738
N2397 X74.039 Y61.166 Z-5.501
N2398 X71.099 Y62.863 Z-5.24
N2399 X67.502 Y64.94 Z-4.892
N2400 X63.941 Y66.996 Z-4.508
N2401 X61.007 Y68.689 Z-4.168
N2402 X58.076 Y70.381 Z-3.804
N2403 X54.819 Y72.262 Z-3.373
N2404 X51.269 Y74.312 Z-2.868
N2405 X48.018 Y76.189 Z-2.373
N2406 X45.098 Y77.875 Z-1.903
N2407 X42.181 Y79.558 Z-1.409
N2408 X38.613 Y81.619 Z-0.772
N2409 X35.867 Y83.204 Z-0.259
N2410 X35.211 Y83.583 Z-0.16
N2411 X34.552 Y83.963 Z-0.085
N2412 X33.891 Y84.345 Z-0.034
N2413 X33.229 Y84.727 Z-0.006
N2414 X32.74 Y85.009 Z0
N2415 X32.659 Y85.056 Z0.008
N2416 X32.58 Y85.102 Z0.03
N2417 X32.504 Y85.146 Z0.065
N2418 X32.427 Y85.19 Z0.1
N2419 X32.345 Y85.237 Z0.122
N2420 X32.262 Y85.285 Z0.13
N2421 G2 X31.565 Y87.888 I0.953 J1.65
N2422 G1 X32.659 Y89.783
N2423 G2 X35.261 Y90.48 I1.65 J-0.952
N2424 G1 X44.258 Y85.285
N2425 X44.341 Y85.237 Z0.122
N2426 X44.422 Y85.19 Z0.1
N2427 X44.5 Y85.146 Z0.065
N2428 X44.576 Y85.102 Z0.03
N2429 X44.655 Y85.056 Z0.008
N2430 X44.736 Y85.009 Z0
N2431 X45.225 Y84.727 Z-0.006
N2432 X45.887 Y84.345 Z-0.034
N2433 X46.548 Y83.963 Z-0.085
N2434 X47.207 Y83.583 Z-0.16
N2435 X47.863 Y83.204 Z-0.259
N2436 X50.609 Y81.619 Z-0.772
N2437 X54.177 Y79.558 Z-1.409
N2438 X57.094 Y77.875 Z-1.903
N2439 X60.014 Y76.189 Z-2.373
N2440 X63.265 Y74.312 Z-2.868
N2441 X66.814 Y72.262 Z-3.373
N2442 X70.072 Y70.382 Z-3.804
N2443 X73.003 Y68.689 Z-4.168
N2444 X75.936 Y66.996 Z-4.508
N2445 X78.542 Y65.492 Z-4.791
N2446 X81.478 Y63.796 Z-5.087
N2447 X85.374 Y61.547 Z-5.445
N2448 X88.645 Y59.659 Z-5.712
N2449 X91.586 Y57.96 Z-5.93
N2450 X94.529 Y56.261 Z-6.124
N2451 X97.142 Y54.753 Z-6.277
N2452 X100.087 Y53.052 Z-6.429
N2453 X103.992 Y50.798 Z-6.595
N2454 X107.289 Y48.894 Z-6.703
N2455 X110.118 Y47.261 Z-6.774
N2456 X112.972 Y45.613 Z-6.824
N2457 X115.846 Y43.954 Z-6.854
N2458 X119.17 Y42.035 Z-6.863
N2459 X119.254 Y41.986 Z-6.856
N2460 X119.336 Y41.939 Z-6.835
N2461 X119.414 Y41.894 Z-6.799
N2462 X119.415 Y41.893 Z-6.798
N2463 X119.493 Y41.848 Z-6.762
N2464 X119.574 Y41.802 Z-6.74
N2465 X119.657 Y41.753 Z-6.733
N2466 X129.028 Y36.343
N2467 G3 X131.631 Y37.04 I0.952 J1.65
N2468 G1 X132.725 Y38.935
N2469 G3 X132.027 Y41.538 I-1.65 J0.952
N2470 G1 X131.944 Y41.586 Z-6.74
N2471 X131.863 Y41.633 Z-6.762
N2472 X131.785 Y41.677 Z-6.798
N2473 X131.708 Y41.722 Z-6.834
N2474 X131.626 Y41.769 Z-6.855
N2475 X131.542 Y41.818 Z-6.863
N2476 X128.01 Y43.857 Z-6.855
N2477 X125.137 Y45.516 Z-6.827
N2478 X122.283 Y47.163 Z-6.777
N2479 X119.621 Y48.7 Z-6.712
N2480 X116.982 Y50.224 Z-6.63
N2481 X114.036 Y51.925 Z-6.516
N2482 X110.759 Y53.817 Z-6.364
N2483 X106.856 Y56.07 Z-6.145
N2484 X103.913 Y57.769 Z-5.953
N2485 X100.971 Y59.468 Z-5.738
N2486 X98.03 Y61.166 Z-5.501
N2487 X95.091 Y62.863 Z-5.24
N2488 X91.493 Y64.94 Z-4.892
N2489 X87.932 Y66.996 Z-4.508
N2490 X84.999 Y68.689 Z-4.168
N2491 X82.068 Y70.381 Z-3.804
N2492 X78.81 Y72.262 Z-3.373
N2493 X75.26 Y74.312 Z-2.868
N2494 X72.01 Y76.189 Z-2.373
N2495 X69.09 Y77.875 Z-1.903
N2496 X66.173 Y79.558 Z-1.409
N2497 X62.605 Y81.619 Z-0.772
N2498 X59.859 Y83.204 Z-0.259
N2499 X59.203 Y83.583 Z-0.16
N2500 X58.544 Y83.963 Z-0.085
N2501 X57.883 Y84.345 Z-0.034
N2502 X57.221 Y84.727 Z-0.006
N2503 X56.732 Y85.009 Z0
N2504 X56.651 Y85.056 Z0.008
N2505 X56.571 Y85.102 Z0.03
N2506 X56.496 Y85.146 Z0.065
N2507 X56.418 Y85.19 Z0.1
N2508 X56.337 Y85.237 Z0.122
N2509 X56.254 Y85.285 Z0.13
N2510 G2 X55.556 Y87.888 I0.952 J1.65
N2511 G1 X56.65 Y89.783
N2512 G2 X59.253 Y90.48 I1.65 J-0.952
N2513 G1 X68.25 Y85.285
N2514 X68.333 Y85.237 Z0.122
N2515 X68.414 Y85.19 Z0.1
N2516 X68.492 Y85.146 Z0.065
N2517 X68.567 Y85.102 Z0.03
N2518 X68.647 Y85.056 Z0.008
N2519 X68.728 Y85.009 Z0
N2520 X69.217 Y84.727 Z-0.006
N2521 X69.879 Y84.345 Z-0.034
N2522 X70.54 Y83.963 Z-0.085
N2523 X71.198 Y83.583 Z-0.16
N2524 X71.855 Y83.204 Z-0.259
N2525 X73.326 Y82.354 Z-0.533
N2526 X76.237 Y80.674 Z-1.068
N2527 X79.152 Y78.991 Z-1.578
N2528 X82.364 Y77.136 Z-2.113
N2529 X85.942 Y75.071 Z-2.671
N2530 X88.867 Y73.382 Z-3.1
N2531 X91.793 Y71.692 Z-3.506
N2532 X94.723 Y70.001 Z-3.888
N2533 X97.654 Y68.309 Z-4.247
N2534 X101.214 Y66.254 Z-4.651
N2535 X104.48 Y64.368 Z-4.99
N2536 X107.417 Y62.672 Z-5.271
N2537 X110.357 Y60.975 Z-5.528
N2538 X113.297 Y59.277 Z-5.764
N2539 X116.867 Y57.216 Z-6.02
N2540 X120.472 Y55.135 Z-6.24
N2541 X123.417 Y53.435 Z-6.396
N2542 X126.362 Y51.734 Z-6.53
N2543 X129.309 Y50.033 Z-6.641
N2544 X131.953 Y48.506 Z-6.722
N2545 X134.786 Y46.871 Z-6.788
N2546 X138.316 Y44.833 Z-6.843
N2547 X142.373 Y42.491 Z-6.864
N2548 X146.281 Y40.234 Z-6.844
N2549 X150.168 Y37.99 Z-6.785
N2550 X154.042 Y35.753 Z-6.687
N2551 X157.688 Y33.648 Z-6.559
N2552 X157.765 Y33.604 Z-6.55
N2553 X157.841 Y33.56 Z-6.529
N2554 X157.913 Y33.518 Z-6.495
N2555 X157.99 Y33.474 Z-6.459
N2556 X158.072 Y33.427 Z-6.437
N2557 X158.155 Y33.379 Z-6.43
N2558 X159.268 Y32.736
N2559 X159.343 Y32.695
N2560 X159.42 Y32.657
N2561 X159.498 Y32.623 Z-6.431
N2562 X159.578 Y32.592
N2563 X159.659 Y32.565 Z-6.432
N2564 X159.741 Y32.542 Z-6.433
N2565 X159.825 Y32.522 Z-6.434
N2566 X159.909 Y32.506 Z-6.435
N2567 X159.993 Y32.494 Z-6.436
N2568 X160.078 Y32.486 Z-6.437
N2569 X160.164 Y32.481 Z-6.439
N2570 X160.249 Z-6.441
N2571 X160.335 Y32.484 Z-6.442
N2572 X160.42 Y32.491 Z-6.444
N2573 X160.504 Y32.502 Z-6.446
N2574 X160.589 Y32.516 Z-6.448
N2575 X160.672 Y32.535 Z-6.451
N2576 X160.755 Y32.557 Z-6.453
N2577 X160.836 Y32.582 Z-6.455
N2578 X160.916 Y32.612 Z-6.458
N2579 X160.995 Y32.645 Z-6.461
N2580 X161.073 Y32.681 Z-6.463
N2581 X161.148 Y32.721 Z-6.466
N2582 X161.222 Y32.764 Z-6.469
N2583 X161.293 Y32.811 Z-6.472
N2584 X161.363 Y32.861 Z-6.475
N2585 X161.43 Y32.913 Z-6.478
N2586 X161.495 Y32.969 Z-6.481
N2587 X161.557 Y33.028 Z-6.484
N2588 X161.617 Y33.089 Z-6.488
N2589 X161.673 Y33.153 Z-6.491
N2590 X161.727 Y33.219 Z-6.494
N2591 X161.778 Y33.288 Z-6.497
N2592 X161.825 Y33.359 Z-6.501
N2593 X161.87 Y33.432 Z-6.504
N2594 X162.965 Y35.329 Z-6.589
N2595 X163.006 Y35.404 Z-6.592
N2596 X163.044 Y35.481 Z-6.596
N2597 X163.078 Y35.559 Z-6.599
N2598 X163.109 Y35.639 Z-6.602
N2599 X163.136 Y35.72 Z-6.606
N2600 X163.159 Y35.802 Z-6.609
N2601 X163.179 Y35.885 Z-6.612
N2602 X163.194 Y35.969 Z-6.615
N2603 X163.206 Y36.054 Z-6.618
N2604 X163.215 Y36.139 Z-6.621
N2605 X163.219 Y36.224 Z-6.624
N2606 X163.22 Y36.31 Z-6.627
N2607 X163.217 Y36.395 Z-6.63
N2608 X163.21 Y36.48 Z-6.633
N2609 X163.199 Y36.565 Z-6.635
N2610 X163.184 Y36.649 Z-6.638
N2611 X163.166 Y36.732 Z-6.64
N2612 X163.143 Y36.815 Z-6.643
N2613 X163.118 Y36.896 Z-6.645
N2614 X163.088 Y36.977 Z-6.647
N2615 X163.055 Y37.055 Z-6.649
N2616 X163.019 Y37.133 Z-6.651
N2617 X162.979 Y37.208 Z-6.653
N2618 X162.935 Y37.282 Z-6.654
N2619 X162.889 Y37.354 Z-6.656
N2620 X162.839 Y37.423 Z-6.657
N2621 X162.786 Y37.49 Z-6.658
N2622 X162.73 Y37.555 Z-6.659
N2623 X162.672 Y37.617 Z-6.66
N2624 X162.61 Y37.677 Z-6.661
N2625 X162.546 Y37.734 Z-6.662
N2626 X162.48 Y37.787
N2627 X162.411 Y37.838 Z-6.663
N2628 X162.34 Y37.886
N2629 X162.267 Y37.93
N2630 X162.184 Y37.978 Z-6.67
N2631 X162.103 Y38.025 Z-6.692
N2632 X162.025 Y38.07 Z-6.728
N2633 X161.95 Y38.113 Z-6.763
N2634 X161.871 Y38.159 Z-6.784
N2635 X161.79 Y38.206 Z-6.793
N2636 X157.902 Y40.451 Z-6.848
N2637 X154.352 Y42.5 Z-6.864
N2638 X150.312 Y44.833 Z-6.843
N2639 X146.782 Y46.871 Z-6.788
N2640 X143.949 Y48.506 Z-6.722
N2641 X141.305 Y50.033 Z-6.641
N2642 X138.358 Y51.734 Z-6.53
N2643 X135.413 Y53.435 Z-6.396
N2644 X132.468 Y55.135 Z-6.24
N2645 X128.863 Y57.216 Z-6.02
N2646 X125.293 Y59.277 Z-5.764
N2647 X122.352 Y60.975 Z-5.528
N2648 X119.413 Y62.672 Z-5.271
N2649 X116.475 Y64.368 Z-4.99
N2650 X113.21 Y66.254 Z-4.651
N2651 X109.65 Y68.309 Z-4.247
N2652 X106.718 Y70.001 Z-3.888
N2653 X103.789 Y71.692 Z-3.506
N2654 X100.862 Y73.382 Z-3.1
N2655 X97.938 Y75.071 Z-2.671
N2656 X94.36 Y77.136 Z-2.113
N2657 X91.148 Y78.991 Z-1.578
N2658 X88.233 Y80.674 Z-1.068
N2659 X85.322 Y82.354 Z-0.533
N2660 X83.85 Y83.204 Z-0.259
N2661 X83.194 Y83.583 Z-0.16
N2662 X82.535 Y83.963 Z-0.085
N2663 X81.875 Y84.345 Z-0.034
N2664 X81.213 Y84.727 Z-0.006
N2665 X80.724 Y85.009 Z0
N2666 X80.643 Y85.056 Z0.008
N2667 X80.563 Y85.102 Z0.03
N2668 X80.487 Y85.146 Z0.065
N2669 X80.41 Y85.19 Z0.1
N2670 X80.329 Y85.237 Z0.122
N2671 X80.245 Y85.285 Z0.13
N2672 G2 X79.548 Y87.888 I0.952 J1.65
N2673 G1 X80.642 Y89.783
N2674 G2 X83.244 Y90.48 I1.65 J-0.952
N2675 G1 X92.241 Y85.285
N2676 X92.325 Y85.237 Z0.122
N2677 X92.406 Y85.19 Z0.1
N2678 X92.483 Y85.146 Z0.065
N2679 X92.559 Y85.102 Z0.03
N2680 X92.638 Y85.056 Z0.008
N2681 X92.72 Y85.009 Z0
N2682 X93.209 Y84.727 Z-0.006
N2683 X93.871 Y84.345 Z-0.034
N2684 X94.531 Y83.963 Z-0.085
N2685 X95.19 Y83.583 Z-0.16
N2686 X95.846 Y83.204 Z-0.259
N2687 X98.593 Y81.619 Z-0.772
N2688 X102.161 Y79.558 Z-1.409
N2689 X105.077 Y77.875 Z-1.903
N2690 X107.997 Y76.189 Z-2.373
N2691 X111.248 Y74.312 Z-2.868
N2692 X114.798 Y72.262 Z-3.373
N2693 X118.056 Y70.381 Z-3.804
N2694 X120.987 Y68.689 Z-4.168
N2695 X123.92 Y66.996 Z-4.508
N2696 X127.481 Y64.94 Z-4.892
N2697 X131.079 Y62.863 Z-5.24
N2698 X134.018 Y61.166 Z-5.501
N2699 X136.959 Y59.468 Z-5.738
N2700 X139.9 Y57.769 Z-5.953
N2701 X142.844 Y56.07 Z-6.145
N2702 X146.747 Y53.817 Z-6.364
N2703 X150.023 Y51.925 Z-6.516
N2704 X152.969 Y50.224 Z-6.63
N2705 X155.609 Y48.7 Z-6.712
N2706 X158.44 Y47.066 Z-6.781
N2707 X161.294 Y45.418 Z-6.829
N2708 X164.336 Y43.662 Z-6.857
N2709 X167.874 Y41.619 Z-6.861
N2710 X167.958 Y41.571 Z-6.854
N2711 X168.039 Y41.524 Z-6.832
N2712 X168.117 Y41.479 Z-6.796
N2713 X168.194 Y41.434 Z-6.761
N2714 X168.275 Y41.387 Z-6.739
N2715 X168.359 Y41.339 Z-6.732
N2716 X175.653 Y37.128
N2717 G3 X178.255 Y37.825 I0.952 J1.65
N2718 G1 X179.349 Y39.72
N2719 G3 X178.652 Y42.322 I-1.65 J0.952
N2720 G1 X178.568 Y42.37 Z-6.739
N2721 X178.487 Y42.417 Z-6.761
N2722 X178.41 Y42.462 Z-6.796
N2723 X178.405 Y42.465 Z-6.799
N2724 X178.327 Y42.51 Z-6.835
N2725 X178.244 Y42.557 Z-6.857
N2726 X178.16 Y42.606 Z-6.864
N2727 X174.104 Y44.948 Z-6.84
N2728 X170.574 Y46.986 Z-6.784
N2729 X167.741 Y48.622 Z-6.716
N2730 X164.77 Y50.337 Z-6.623
N2731 X161.824 Y52.038 Z-6.508
N2732 X158.217 Y54.12 Z-6.338
N2733 X154.644 Y56.183 Z-6.132
N2734 X151.701 Y57.882 Z-5.939
N2735 X148.76 Y59.58 Z-5.723
N2736 X146.149 Y61.087 Z-5.512
N2737 X143.54 Y62.594 Z-5.283
N2738 X140.603 Y64.29 Z-5.003
N2739 X137.337 Y66.176 Z-4.665
N2740 X133.447 Y68.421 Z-4.224
N2741 X130.516 Y70.113 Z-3.864
N2742 X127.916 Y71.614 Z-3.524
N2743 X125.318 Y73.114 Z-3.166
N2744 X122.722 Y74.613 Z-2.789
N2745 X120.128 Y76.111 Z-2.394
N2746 X117.536 Y77.607 Z-1.979
N2747 X114.947 Y79.102 Z-1.545
N2748 X112.36 Y80.596 Z-1.092
N2749 X109.776 Y82.088 Z-0.62
N2750 X107.978 Y83.126 Z-0.283
N2751 X107.322 Y83.504 Z-0.179
N2752 X106.664 Y83.885 Z-0.099
N2753 X106.003 Y84.266 Z-0.043
N2754 X105.342 Y84.648 Z-0.01
N2755 X104.715 Y85.009 Z0
N2756 X104.593 Y85.08 Z0.01
N2757 X104.473 Y85.149 Z0.035
N2758 X104.356 Y85.217 Z0.076
N2759 X104.244 Y85.282 Z0.131
N2760 X104.137 Y85.343 Z0.2
N2761 X104.038 Y85.4 Z0.283
N2762 X103.947 Y85.453 Z0.378
N2763 X103.866 Y85.499 Z0.484
N2764 X103.796 Y85.54 Z0.599
N2765 X103.738 Y85.574 Z0.723
N2766 X103.691 Y85.601 Z0.854
N2767 X103.658 Y85.62 Z0.99
N2768 X103.637 Y85.632 Z1.129
N2769 X103.63 Y85.636 Z1.27
N2770 G0 Z5
N2771 X171.464 Y4.917
N2772 Z0.841
N2773 G1 Z0.229 F4622.8
N2774 X171.471 Y4.913 Z0.092
N2775 X171.49 Y4.902 Z-0.043
N2776 X171.522 Y4.884 Z-0.175
N2777 X171.565 Y4.859 Z-0.303
N2778 X171.621 Y4.827 Z-0.424
N2779 X171.688 Y4.788 Z-0.538
N2780 X171.764 Y4.744 Z-0.643
N2781 X171.851 Y4.694 Z-0.737
N2782 X171.945 Y4.639 Z-0.82
N2783 X172.047 Y4.581 Z-0.891
N2784 X172.155 Y4.518 Z-0.949
N2785 X172.267 Y4.453 Z-0.993
N2786 X172.383 Y4.387 Z-1.023
N2787 X172.501 Y4.318 Z-1.039
N2788 X172.62 Y4.25
N2789 X172.738 Y4.181 Z-1.025
N2790 X176.055 Y2.266 Z-0.41
N2791 X177.084 Y1.672 Z-0.224
N2792 X177.824 Y1.245 Z-0.123
N2793 X178.565 Y0.817 Z-0.053
N2794 X179.308 Y0.388 Z-0.012
N2795 X179.997 Y-0.009 Z0
N2796 X180.119 Y-0.08 Z0.01
N2797 X180.239 Y-0.149 Z0.035
N2798 X180.356 Y-0.217 Z0.076
N2799 X180.468 Y-0.281 Z0.132
N2800 X180.575 Y-0.343 Z0.201
N2801 X180.674 Y-0.4 Z0.284
N2802 X180.764 Y-0.452 Z0.379
N2803 X180.845 Y-0.499 Z0.484
N2804 X180.915 Y-0.539 Z0.6
N2805 X180.973 Y-0.573 Z0.724
N2806 X181.02 Y-0.6 Z0.854
N2807 X181.053 Y-0.619 Z0.99
N2808 X181.074 Y-0.631 Z1.129
N2809 X181.08 Y-0.635 Z1.27
N2810 G0 Z5
N2811 X181.293 Y6.168
N2812 Z0.455
N2813 G1 Z-0.155 F4622.8
N2814 X181.299 Y6.165 Z-0.291
N2815 X181.318 Y6.154 Z-0.426
N2816 X181.35 Y6.135 Z-0.558
N2817 X181.394 Y6.11 Z-0.685
N2818 X181.449 Y6.078 Z-0.806
N2819 X181.515 Y6.04 Z-0.919
N2820 X181.591 Y5.996 Z-1.024
N2821 X181.677 Y5.947 Z-1.118
N2822 X181.771 Y5.893 Z-1.202
N2823 X181.872 Y5.834 Z-1.273
N2824 X181.979 Y5.772 Z-1.331
N2825 X182.091 Y5.708 Z-1.376
N2826 X182.206 Y5.641 Z-1.406
N2827 X182.324 Y5.573 Z-1.422
N2828 X182.442 Y5.505 Z-1.423
N2829 X182.56 Y5.437 Z-1.41
N2830 X184.78 Y4.155 Z-1.016
N2831 X188.051 Y2.266 Z-0.41
N2832 X189.08 Y1.672 Z-0.224
N2833 X189.819 Y1.245 Z-0.123
N2834 X190.561 Y0.817 Z-0.053
N2835 X191.304 Y0.388 Z-0.012
N2836 X191.993 Y-0.009 Z0
N2837 X192.115 Y-0.08 Z0.01
N2838 X192.235 Y-0.149 Z0.035
N2839 X192.352 Y-0.217 Z0.076
N2840 X192.464 Y-0.281 Z0.132
N2841 X192.57 Y-0.343 Z0.201
N2842 X192.669 Y-0.4 Z0.284
N2843 X192.76 Y-0.452 Z0.379
N2844 X192.841 Y-0.499 Z0.484
N2845 X192.911 Y-0.539 Z0.6
N2846 X192.969 Y-0.573 Z0.724
N2847 X193.016 Y-0.6 Z0.854
N2848 X193.049 Y-0.619 Z0.99
N2849 X193.069 Y-0.631 Z1.129
N2850 X193.076 Y-0.635 Z1.27
N2851 G0 Z5
N2852 X200.935 Y1.753
N2853 Z1.76
N2854 G1 Z0.837 F4622.8
N2855 X200.929 Y1.757 Z0.7
N2856 X200.91 Y1.768 Z0.564
N2857 X200.878 Y1.787 Z0.431
N2858 X200.833 Y1.812 Z0.303
N2859 X200.777 Y1.845 Z0.181
N2860 X200.71 Y1.884 Z0.067
N2861 X200.633 Y1.928 Z-0.038
N2862 X200.546 Y1.978 Z-0.132
N2863 X200.451 Y2.033 Z-0.215
N2864 X200.348 Y2.092 Z-0.286
N2865 X200.24 Y2.155 Z-0.344
N2866 X200.127 Y2.22 Z-0.387
N2867 X200.01 Y2.288 Z-0.417
N2868 X197.1 Y3.968 Z-0.956
N2869 X194.153 Y5.669 Z-1.478
N2870 X190.875 Y7.562 Z-2.029
N2871 X188.505 Y8.93 Z-2.407
N2872 X188.423 Y8.977 Z-2.413
N2873 X188.342 Y9.024 Z-2.405
N2874 X188.263 Y9.07 Z-2.383
N2875 X188.187 Y9.114 Z-2.348
N2876 X188.11 Y9.158 Z-2.313
N2877 X188.028 Y9.205 Z-2.291
N2878 X187.945 Y9.253 Z-2.284
N2879 X187.872 Y9.298
N2880 X187.801 Y9.345 Z-2.285
N2881 X187.732 Y9.396 Z-2.287
N2882 X187.666 Y9.449 Z-2.289
N2883 X187.602 Y9.506 Z-2.293
N2884 X187.54 Y9.565 Z-2.297
N2885 X187.481 Y9.627 Z-2.301
N2886 X187.425 Y9.691 Z-2.307
N2887 X187.372 Y9.758 Z-2.313
N2888 X187.322 Y9.827 Z-2.319
N2889 X187.275 Y9.898 Z-2.327
N2890 X187.231 Y9.971 Z-2.335
N2891 X187.191 Y10.046 Z-2.343
N2892 X187.154 Y10.123 Z-2.352
N2893 X187.121 Y10.201 Z-2.362
N2894 X187.091 Y10.28 Z-2.372
N2895 X187.064 Y10.361 Z-2.383
N2896 X187.042 Y10.442 Z-2.395
N2897 X187.023 Y10.525 Z-2.407
N2898 X187.008 Y10.608 Z-2.419
N2899 X186.996 Y10.692 Z-2.432
N2900 X186.988 Y10.776 Z-2.445
N2901 X186.985 Y10.86 Z-2.459
N2902 Y10.944 Z-2.473
N2903 X186.988 Y11.029 Z-2.487
N2904 X186.996 Y11.113 Z-2.502
N2905 X187.007 Y11.196 Z-2.517
N2906 X187.022 Y11.279 Z-2.532
N2907 X187.041 Y11.361 Z-2.548
N2908 X187.064 Y11.442 Z-2.564
N2909 X187.09 Y11.521 Z-2.579
N2910 X187.12 Y11.6 Z-2.595
N2911 X187.154 Y11.677 Z-2.611
N2912 X187.19 Y11.752 Z-2.627
N2913 X187.231 Y11.826 Z-2.644
N2914 X188.359 Y13.78 Z-3.078
N2915 X188.403 Y13.852 Z-3.094
N2916 X188.45 Y13.922 Z-3.11
N2917 X188.5 Y13.989 Z-3.126
N2918 X188.553 Y14.054 Z-3.142
N2919 X188.609 Y14.117 Z-3.158
N2920 X188.667 Y14.177 Z-3.174
N2921 X188.729 Y14.234 Z-3.189
N2922 X188.793 Y14.289 Z-3.204
N2923 X188.859 Y14.34 Z-3.219
N2924 X188.928 Y14.389 Z-3.234
N2925 X188.999 Y14.434 Z-3.249
N2926 X189.072 Y14.476 Z-3.263
N2927 X189.147 Y14.515 Z-3.276
N2928 X189.224 Y14.551 Z-3.29
N2929 X189.302 Y14.582 Z-3.302
N2930 X189.382 Y14.611 Z-3.315
N2931 X189.463 Y14.636 Z-3.327
N2932 X189.545 Y14.657 Z-3.338
N2933 X189.628 Y14.674 Z-3.349
N2934 X189.711 Y14.688 Z-3.359
N2935 X189.796 Y14.698 Z-3.369
N2936 X189.881 Y14.704 Z-3.378
N2937 X189.966 Y14.707 Z-3.387
N2938 X190.051 Y14.706 Z-3.395
N2939 X190.136 Y14.701 Z-3.402
N2940 X190.22 Y14.692 Z-3.409
N2941 X190.305 Y14.679 Z-3.415
N2942 X190.389 Y14.663 Z-3.42
N2943 X190.472 Y14.643 Z-3.425
N2944 X190.554 Y14.619 Z-3.429
N2945 X190.635 Y14.592 Z-3.432
N2946 X190.714 Y14.561 Z-3.435
N2947 X190.793 Y14.527 Z-3.437
N2948 X190.869 Y14.489 Z-3.438
N2949 X190.944 Y14.448
N2950 X191.961 Y13.861
N2951 X192.044 Y13.813 Z-3.445
N2952 X192.126 Y13.766 Z-3.467
N2953 X192.203 Y13.721 Z-3.503
N2954 X192.276 Y13.679 Z-3.537
N2955 X192.352 Y13.635 Z-3.558
N2956 X192.43 Y13.59 Z-3.567
N2957 X192.509 Y13.544 Z-3.563
N2958 X193.141 Y13.179 Z-3.478
N2959 X196.43 Y11.281 Z-3.018
N2960 X200.01 Y9.214 Z-2.482
N2961 X200.069 Y9.18 Z-2.47
N2962 X200.126 Y9.146 Z-2.45
N2963 X200.181 Y9.115 Z-2.423
N2964 X200.259 Y9.07 Z-2.387
N2965 X200.34 Y9.023 Z-2.365
N2966 X200.423 Y8.975 Z-2.358
N2967 X200.498 Y8.934
N2968 X200.575 Y8.896 Z-2.36
N2969 X200.653 Y8.861 Z-2.362
N2970 X200.733 Y8.83 Z-2.366
N2971 X200.813 Y8.803 Z-2.37
N2972 X200.895 Y8.779 Z-2.376
N2973 X200.978 Y8.758 Z-2.383
N2974 X201.062 Y8.742 Z-2.39
N2975 X201.146 Y8.729 Z-2.398
N2976 X201.23 Y8.719 Z-2.408
N2977 X201.315 Y8.714 Z-2.418
N2978 X201.4 Y8.712 Z-2.429
N2979 X201.484 Y8.713 Z-2.441
N2980 X201.568 Y8.719 Z-2.454
N2981 X201.652 Y8.728 Z-2.468
N2982 X201.736 Y8.741 Z-2.482
N2983 X201.818 Y8.758 Z-2.498
N2984 X201.9 Y8.778 Z-2.514
N2985 X201.98 Y8.802 Z-2.53
N2986 X202.059 Y8.829 Z-2.548
N2987 X202.137 Y8.86 Z-2.566
N2988 X202.213 Y8.894 Z-2.585
N2989 X202.287 Y8.932 Z-2.604
N2990 X202.359 Y8.973 Z-2.623
N2991 X202.43 Y9.017 Z-2.644
N2992 X202.498 Y9.065 Z-2.664
N2993 X202.564 Y9.115 Z-2.685
N2994 X202.627 Y9.168 Z-2.707
N2995 X202.688 Y9.224 Z-2.728
N2996 X202.746 Y9.283 Z-2.75
N2997 X202.801 Y9.344 Z-2.772
N2998 X202.853 Y9.408 Z-2.795
N2999 X202.903 Y9.474 Z-2.817
N3000 X202.949 Y9.543 Z-2.84
N3001 X202.992 Y9.613 Z-2.863
N3002 X204.154 Y11.626 Z-3.501
N3003 X204.193 Y11.698 Z-3.524
N3004 X204.229 Y11.772 Z-3.546
N3005 X204.262 Y11.848 Z-3.569
N3006 X204.291 Y11.925 Z-3.591
N3007 X204.317 Y12.004 Z-3.613
N3008 X204.339 Y12.084 Z-3.635
N3009 X204.357 Y12.164 Z-3.657
N3010 X204.371 Y12.246 Z-3.679
N3011 X204.382 Y12.328 Z-3.7
N3012 X204.389 Y12.411 Z-3.72
N3013 X204.392 Y12.494 Z-3.74
N3014 X204.391 Y12.577 Z-3.76
N3015 X204.387 Y12.66 Z-3.779
N3016 X204.378 Y12.743 Z-3.798
N3017 X204.366 Y12.826 Z-3.816
N3018 X204.351 Y12.908 Z-3.833
N3019 X204.331 Y12.989 Z-3.85
N3020 X204.308 Y13.07 Z-3.866
N3021 X204.281 Y13.15 Z-3.881
N3022 X204.251 Y13.228 Z-3.896
N3023 X204.217 Y13.306 Z-3.91
N3024 X204.179 Y13.381 Z-3.922
N3025 X204.138 Y13.456 Z-3.934
N3026 X204.094 Y13.528 Z-3.946
N3027 X204.047 Y13.598 Z-3.956
N3028 X203.997 Y13.667 Z-3.965
N3029 X203.943 Y13.733 Z-3.974
N3030 X203.887 Y13.797 Z-3.981
N3031 X203.828 Y13.859 Z-3.988
N3032 X203.766 Y13.917 Z-3.993
N3033 X203.702 Y13.974 Z-3.998
N3034 X203.635 Y14.027 Z-4.001
N3035 X203.566 Y14.077 Z-4.004
N3036 X203.495 Y14.125 Z-4.005
N3037 X203.422 Y14.169 Z-4.006
N3038 X200.438 Y15.892
N3039 X200.355 Y15.94 Z-4.013
N3040 X200.274 Y15.987 Z-4.035
N3041 X200.196 Y16.032 Z-4.071
N3042 X200.137 Y16.066 Z-4.1
N3043 X200.074 Y16.102 Z-4.12
N3044 X200.01 Y16.139 Z-4.132
N3045 X197.077 Y17.832 Z-4.476
N3046 X194.844 Y19.122 Z-4.722
N3047 X194.768 Y19.166 Z-4.725
N3048 X194.693 Y19.209 Z-4.715
N3049 X194.62 Y19.252 Z-4.693
N3050 X194.549 Y19.292 Z-4.66
N3051 X194.472 Y19.337 Z-4.625
N3052 X194.391 Y19.384 Z-4.603
N3053 X194.307 Y19.432 Z-4.596
N3054 X191.678 Y20.95
N3055 X191.605 Y20.994
N3056 X191.534 Y21.042 Z-4.597
N3057 X191.465 Y21.092 Z-4.599
N3058 X191.399 Y21.146 Z-4.601
N3059 X191.335 Y21.202 Z-4.604
N3060 X191.273 Y21.262 Z-4.607
N3061 X191.214 Y21.324 Z-4.612
N3062 X191.158 Y21.388 Z-4.617
N3063 X191.105 Y21.455 Z-4.622
N3064 X191.055 Y21.524 Z-4.628
N3065 X191.008 Y21.595 Z-4.635
N3066 X190.965 Y21.668 Z-4.642
N3067 X190.925 Y21.743 Z-4.65
N3068 X190.888 Y21.82 Z-4.659
N3069 X190.854 Y21.898 Z-4.668
N3070 X190.824 Y21.978 Z-4.677
N3071 X190.798 Y22.058 Z-4.687
N3072 X190.776 Y22.14 Z-4.698
N3073 X190.757 Y22.223 Z-4.709
N3074 X190.742 Y22.306 Z-4.72
N3075 X190.73 Y22.39 Z-4.732
N3076 X190.723 Y22.474 Z-4.744
N3077 X190.719 Y22.559 Z-4.757
N3078 Y22.643 Z-4.77
N3079 X190.723 Y22.728 Z-4.783
N3080 X190.731 Y22.812 Z-4.796
N3081 X190.742 Y22.895 Z-4.81
N3082 X190.757 Y22.978 Z-4.824
N3083 X190.776 Y23.06 Z-4.838
N3084 X190.799 Y23.141 Z-4.853
N3085 X190.826 Y23.222 Z-4.867
N3086 X190.856 Y23.3 Z-4.882
N3087 X190.889 Y23.377 Z-4.897
N3088 X190.926 Y23.453 Z-4.911
N3089 X190.967 Y23.527 Z-4.926
N3090 X192.089 Y25.472 Z-5.322
N3091 X192.133 Y25.544 Z-5.337
N3092 X192.18 Y25.614 Z-5.352
N3093 X192.23 Y25.681 Z-5.367
N3094 X192.283 Y25.747 Z-5.381
N3095 X192.34 Y25.809 Z-5.396
N3096 X192.398 Y25.87 Z-5.41
N3097 X192.46 Y25.927 Z-5.425
N3098 X192.524 Y25.982 Z-5.439
N3099 X192.591 Y26.034 Z-5.452
N3100 X192.66 Y26.082 Z-5.466
N3101 X192.731 Y26.128 Z-5.479
N3102 X192.804 Y26.17 Z-5.492
N3103 X192.879 Y26.209 Z-5.505
N3104 X192.956 Y26.245 Z-5.517
N3105 X193.034 Y26.277 Z-5.529
N3106 X193.114 Y26.306 Z-5.54
N3107 X193.195 Y26.331 Z-5.551
N3108 X193.277 Y26.352 Z-5.561
N3109 X193.36 Y26.37 Z-5.571
N3110 X193.444 Y26.383 Z-5.581
N3111 X193.528 Y26.394 Z-5.59
N3112 X193.613 Y26.4 Z-5.598
N3113 X193.698 Y26.403 Z-5.606
N3114 X193.783 Y26.401 Z-5.614
N3115 X193.869 Y26.396 Z-5.62
N3116 X193.953 Y26.388 Z-5.626
N3117 X194.038 Y26.375 Z-5.632
N3118 X194.122 Y26.359 Z-5.637
N3119 X194.205 Y26.339 Z-5.641
N3120 X194.287 Y26.315 Z-5.645
N3121 X194.368 Y26.288 Z-5.648
N3122 X194.447 Y26.257 Z-5.65
N3123 X194.526 Y26.223 Z-5.652
N3124 X194.602 Y26.185 Z-5.653
N3125 X194.677 Y26.144
N3126 X194.76 Y26.096 Z-5.66
N3127 X194.842 Y26.049 Z-5.682
N3128 X194.919 Y26.004 Z-5.718
N3129 X194.986 Y25.966 Z-5.749
N3130 X195.055 Y25.926 Z-5.771
N3131 X195.126 Y25.885 Z-5.781
N3132 X195.198 Y25.843
N3133 X196.375 Y25.164 Z-5.69
N3134 X200.01 Y23.065 Z-5.387
N3135 X200.08 Y23.025 Z-5.376
N3136 X200.147 Y22.986 Z-5.355
N3137 X200.212 Y22.948 Z-5.324
N3138 X200.29 Y22.904 Z-5.288
N3139 X200.371 Y22.857 Z-5.267
N3140 X200.454 Y22.809 Z-5.259
N3141 X200.529 Y22.767 Z-5.26
N3142 X200.606 Y22.73
N3143 X200.684 Y22.696 Z-5.262
N3144 X200.764 Y22.665 Z-5.264
N3145 X200.845 Y22.638 Z-5.266
N3146 X200.927 Y22.614 Z-5.269
N3147 X201.01 Y22.594 Z-5.273
N3148 X201.094 Y22.578 Z-5.277
N3149 X201.179 Y22.566 Z-5.281
N3150 X201.264 Y22.557 Z-5.286
N3151 X201.349 Y22.552 Z-5.292
N3152 X201.434 Y22.551 Z-5.298
N3153 X201.519 Y22.554 Z-5.304
N3154 X201.604 Y22.561 Z-5.311
N3155 X201.689 Y22.571 Z-5.319
N3156 X201.773 Y22.585 Z-5.326
N3157 X201.856 Y22.603 Z-5.335
N3158 X201.938 Y22.625 Z-5.343
N3159 X202.019 Y22.65 Z-5.352
N3160 X202.099 Y22.679 Z-5.362
N3161 X202.178 Y22.711 Z-5.371
N3162 X202.255 Y22.747 Z-5.381
N3163 X202.33 Y22.786 Z-5.392
N3164 X202.403 Y22.829 Z-5.402
N3165 X202.475 Y22.875 Z-5.413
N3166 X202.544 Y22.924 Z-5.424
N3167 X202.611 Y22.976 Z-5.436
N3168 X202.675 Y23.031 Z-5.447
N3169 X202.737 Y23.089 Z-5.459
N3170 X202.796 Y23.15 Z-5.471
N3171 X202.852 Y23.213 Z-5.482
N3172 X202.905 Y23.278 Z-5.495
N3173 X202.956 Y23.346 Z-5.507
N3174 X203.003 Y23.417 Z-5.519
N3175 X203.047 Y23.489 Z-5.531
N3176 X204.16 Y25.418 Z-5.852
N3177 X204.201 Y25.492 Z-5.864
N3178 X204.238 Y25.568 Z-5.876
N3179 X204.272 Y25.645 Z-5.888
N3180 X204.302 Y25.724 Z-5.9
N3181 X204.329 Y25.805 Z-5.912
N3182 X204.352 Y25.886 Z-5.924
N3183 X204.371 Y25.969 Z-5.936
N3184 X204.386 Y26.052 Z-5.947
N3185 X204.398 Y26.136 Z-5.959
N3186 X204.406 Y26.22 Z-5.97
N3187 X204.41 Y26.305 Z-5.98
N3188 Y26.39 Z-5.991
N3189 X204.407 Y26.475 Z-6.001
N3190 X204.399 Y26.559 Z-6.011
N3191 X204.388 Y26.643 Z-6.021
N3192 X204.373 Y26.727 Z-6.03
N3193 X204.355 Y26.81 Z-6.039
N3194 X204.332 Y26.892 Z-6.048
N3195 X204.306 Y26.973 Z-6.056
N3196 X204.276 Y27.053 Z-6.064
N3197 X204.243 Y27.131 Z-6.072
N3198 X204.206 Y27.208 Z-6.078
N3199 X204.166 Y27.283 Z-6.085
N3200 X204.123 Y27.357 Z-6.091
N3201 X204.076 Y27.428 Z-6.096
N3202 X204.026 Y27.497 Z-6.102
N3203 X203.973 Y27.564 Z-6.106
N3204 X203.917 Y27.629 Z-6.11
N3205 X203.858 Y27.691 Z-6.114
N3206 X203.797 Y27.75 Z-6.117
N3207 X203.733 Y27.807 Z-6.119
N3208 X203.666 Y27.86 Z-6.121
N3209 X203.597 Y27.911 Z-6.122
N3210 X203.526 Y27.959 Z-6.123
N3211 X203.453 Y28.003
N3212 X200.469 Y29.726
N3213 X200.386 Y29.774 Z-6.131
N3214 X200.304 Y29.821 Z-6.152
N3215 X200.227 Y29.866 Z-6.188
N3216 X200.157 Y29.906 Z-6.221
N3217 X200.085 Y29.948 Z-6.242
N3218 X200.01 Y29.991 Z-6.252
N3219 X197.065 Y31.691 Z-6.408
N3220 X193.424 Y33.793 Z-6.569
N3221 X191.36 Y34.985 Z-6.644
N3222 X191.242 Y35.053 Z-6.642
N3223 X191.126 Y35.12 Z-6.624
N3224 X191.012 Y35.186 Z-6.592
N3225 X190.901 Y35.25 Z-6.547
N3226 X190.795 Y35.311 Z-6.488
N3227 X190.695 Y35.369 Z-6.417
N3228 X190.603 Y35.422 Z-6.333
N3229 X190.519 Y35.471 Z-6.239
N3230 X190.443 Y35.514 Z-6.135
N3231 X190.378 Y35.552 Z-6.022
N3232 X190.324 Y35.583 Z-5.901
N3233 X190.281 Y35.608 Z-5.775
N3234 X190.25 Y35.626 Z-5.644
N3235 X190.231 Y35.637 Z-5.511
N3236 X190.225 Y35.64 Z-5.375
N3237 G0 Z5
N3238 X201.091 Y36.293
N3239 Z-4.781
N3240 G1 Z-5.472 F4622.8
N3241 X201.084 Y36.297 Z-5.613
N3242 X201.064 Y36.308 Z-5.752
N3243 X201.03 Y36.328 Z-5.887
N3244 X200.984 Y36.354 Z-6.018
N3245 X200.926 Y36.388 Z-6.141
N3246 X200.856 Y36.428 Z-6.257
N3247 X200.775 Y36.475 Z-6.363
N3248 X200.685 Y36.527 Z-6.457
N3249 X200.586 Y36.584 Z-6.54
N3250 X200.48 Y36.645 Z-6.61
N3251 X200.368 Y36.71 Z-6.665
N3252 X200.252 Y36.777 Z-6.706
N3253 X200.132 Y36.847 Z-6.732
N3254 X200.01 Y36.917 Z-6.742
N3255 X196.292 Y39.064 Z-6.817
N3256 X193.08 Y40.918 Z-6.853
N3257 X189.575 Y42.942 Z-6.863
N3258 X185.58 Y45.248 Z-6.833
N3259 X182.557 Y46.993 Z-6.783
N3260 X179.893 Y48.531 Z-6.721
N3261 X177.253 Y50.055 Z-6.64
N3262 X174.307 Y51.756 Z-6.528
N3263 X171.362 Y53.457 Z-6.394
N3264 X168.086 Y55.348 Z-6.219
N3265 X164.184 Y57.601 Z-5.973
N3266 X161.242 Y59.299 Z-5.761
N3267 X158.301 Y60.997 Z-5.525
N3268 X155.362 Y62.694 Z-5.267
N3269 X152.424 Y64.39 Z-4.986
N3270 X148.829 Y66.466 Z-4.612
N3271 X145.269 Y68.521 Z-4.203
N3272 X142.338 Y70.214 Z-3.841
N3273 X139.409 Y71.905 Z-3.456
N3274 X136.154 Y73.784 Z-3.001
N3275 X132.607 Y75.832 Z-2.47
N3276 X129.687 Y77.518 Z-2.005
N3277 X126.769 Y79.202 Z-1.515
N3278 X123.855 Y80.885 Z-1.002
N3279 X120.617 Y82.754 Z-0.403
N3280 X119.799 Y83.226 Z-0.253
N3281 X119.143 Y83.605 Z-0.155
N3282 X118.484 Y83.986 Z-0.082
N3283 X117.823 Y84.367 Z-0.032
N3284 X117.161 Y84.75 Z-0.005
N3285 X116.711 Y85.009 Z0
N3286 X116.63 Y85.056 Z0.008
N3287 X116.55 Y85.102 Z0.03
N3288 X116.475 Y85.146 Z0.065
N3289 X116.397 Y85.191 Z0.1
N3290 X116.316 Y85.238 Z0.122
N3291 X116.233 Y85.286 Z0.13
N3292 G2 X115.535 Y87.888 I0.952 J1.65
N3293 G1 X116.629 Y89.783
N3294 G2 X119.231 Y90.48 I1.65 J-0.952
N3295 G1 X128.229 Y85.285
N3296 X128.312 Y85.237 Z0.122
N3297 X128.394 Y85.19 Z0.1
N3298 X128.471 Y85.146 Z0.065
N3299 X128.547 Y85.102 Z0.03
N3300 X128.626 Y85.056 Z0.008
N3301 X128.707 Y85.009 Z0
N3302 X129.219 Y84.714 Z-0.006
N3303 X129.881 Y84.332 Z-0.035
N3304 X130.541 Y83.95 Z-0.087
N3305 X131.2 Y83.57 Z-0.163
N3306 X131.856 Y83.191 Z-0.263
N3307 X134.602 Y81.606 Z-0.776
N3308 X138.171 Y79.546 Z-1.413
N3309 X141.087 Y77.862 Z-1.906
N3310 X144.007 Y76.176 Z-2.376
N3311 X147.258 Y74.299 Z-2.871
N3312 X150.808 Y72.25 Z-3.376
N3313 X154.065 Y70.369 Z-3.807
N3314 X156.996 Y68.676 Z-4.171
N3315 X159.93 Y66.983 Z-4.511
N3316 X162.535 Y65.479 Z-4.793
N3317 X165.471 Y63.783 Z-5.09
N3318 X169.367 Y61.534 Z-5.447
N3319 X172.638 Y59.646 Z-5.714
N3320 X175.58 Y57.947 Z-5.931
N3321 X178.523 Y56.248 Z-6.125
N3322 X181.467 Y54.549 Z-6.297
N3323 X185.04 Y52.486 Z-6.475
N3324 X188.648 Y50.402 Z-6.619
N3325 X191.619 Y48.687 Z-6.713
N3326 X194.283 Y47.149 Z-6.778
N3327 X197.137 Y45.502 Z-6.827
N3328 X200.01 Y43.843 Z-6.855
N3329 X200.095 Y43.794 Z-6.848
N3330 X200.178 Y43.746 Z-6.827
N3331 X200.257 Y43.7 Z-6.79
N3332 X200.334 Y43.655 Z-6.755
N3333 X200.415 Y43.609 Z-6.733
N3334 X200.499 Y43.56 Z-6.725
N3335 X200.574 Y43.519
N3336 X200.65 Y43.482
N3337 X200.729 Y43.448
N3338 X200.809 Y43.417 Z-6.724
N3339 X200.89 Y43.39 Z-6.723
N3340 X200.972 Y43.366
N3341 X201.055 Y43.347 Z-6.721
N3342 X201.139 Y43.331 Z-6.72
N3343 X201.224 Y43.319 Z-6.719
N3344 X201.309 Y43.31 Z-6.717
N3345 X201.394 Y43.306 Z-6.716
N3346 X201.48 Y43.305 Z-6.714
N3347 X201.565 Y43.308 Z-6.712
N3348 X201.65 Y43.315 Z-6.71
N3349 X201.735 Y43.326 Z-6.708
N3350 X201.819 Y43.341 Z-6.705
N3351 X201.903 Y43.359 Z-6.703
N3352 X201.985 Y43.381 Z-6.7
N3353 X202.067 Y43.407 Z-6.697
N3354 X202.147 Y43.436 Z-6.695
N3355 X202.226 Y43.469 Z-6.692
N3356 X202.303 Y43.506 Z-6.689
N3357 X202.378 Y43.546 Z-6.686
N3358 X202.452 Y43.589 Z-6.682
N3359 X202.524 Y43.635 Z-6.679
N3360 X202.593 Y43.685 Z-6.676
N3361 X202.661 Y43.738 Z-6.672
N3362 X202.725 Y43.793 Z-6.669
N3363 X202.787 Y43.852 Z-6.665
N3364 X202.847 Y43.913 Z-6.662
N3365 X202.904 Y43.977 Z-6.658
N3366 X202.957 Y44.044 Z-6.655
N3367 X203.008 Y44.112 Z-6.651
N3368 X203.056 Y44.183 Z-6.647
N3369 X203.1 Y44.256 Z-6.644
N3370 X204.196 Y46.154 Z-6.549
N3371 X204.237 Y46.229 Z-6.546
N3372 X204.274 Y46.306 Z-6.542
N3373 X204.309 Y46.384 Z-6.539
N3374 X204.339 Y46.464 Z-6.535
N3375 X204.366 Y46.545 Z-6.531
N3376 X204.39 Y46.627 Z-6.528
N3377 X204.409 Y46.71 Z-6.524
N3378 X204.425 Y46.794 Z-6.521
N3379 X204.437 Y46.879 Z-6.517
N3380 X204.445 Y46.964 Z-6.514
N3381 X204.45 Y47.049 Z-6.511
N3382 Y47.134 Z-6.508
N3383 X204.447 Y47.22 Z-6.504
N3384 X204.44 Y47.305 Z-6.501
N3385 X204.429 Y47.39 Z-6.498
N3386 X204.415 Y47.474 Z-6.496
N3387 X204.396 Y47.557 Z-6.493
N3388 X204.374 Y47.64 Z-6.49
N3389 X204.348 Y47.721 Z-6.488
N3390 X204.319 Y47.801 Z-6.486
N3391 X204.286 Y47.88 Z-6.483
N3392 X204.249 Y47.957 Z-6.481
N3393 X204.209 Y48.033 Z-6.479
N3394 X204.166 Y48.107 Z-6.477
N3395 X204.119 Y48.178 Z-6.476
N3396 X204.069 Y48.248 Z-6.474
