%
(Toan's Customize Nameplate)
(T1  D=0.5 CR=0 - ZMIN=-0.2702 - ball end mill)
(T2  D=0.5 CR=0 - ZMIN=-0.3346 - flat end mill)
N0 G90
N1 G17
(2D Pocket1)
N2 T2 M6
N3 S10000 M3
N5 G0 X0.6585 Y0.6877
N6 Z0.5906
N7 Z0.1969
N8 G1 Z0.1484 F20
N9 G3 X0.6595 Y0.687 Z0.1375 I0.1309 J0.1982
N10 X0.6625 Y0.6851 Z0.1272 I0.1299 J0.1988
N11 X0.6674 Y0.6821 Z0.1178 I0.1269 J0.2007
N12 X0.674 Y0.6783 Z0.1099 I0.1221 J0.2037
N13 X0.682 Y0.674 Z0.1039 I0.1155 J0.2075
N14 X0.6913 Y0.6696 Z0.1 I0.1074 J0.2118
N15 X0.7012 Y0.6653 Z0.0984 I0.0982 J0.2162
N16 X0.8777 Y1.1063 Z0.0724 I0.0882 J0.2205
N17 X0.7012 Y0.6653 Z0.0463 I-0.0882 J-0.2205
N18 X0.8777 Y1.1063 Z0.0203 I0.0882 J0.2205
N19 X0.7012 Y0.6653 Z-0.0058 I-0.0882 J-0.2205
N20 X0.8777 Y1.1063 Z-0.0319 I0.0882 J0.2205
N21 X0.7012 Y0.6653 Z-0.0579 I-0.0882 J-0.2205
N22 X0.8777 Y1.1063 Z-0.084 I0.0882 J0.2205
N23 X0.7012 Y0.6653 Z-0.11 I-0.0882 J-0.2205
N24 X0.8777 Y1.1063 Z-0.1361 I0.0882 J0.2205
N25 X0.7012 Y0.6653 Z-0.1621 I-0.0882 J-0.2205
N26 X0.8777 Y1.1063 Z-0.1882 I0.0882 J0.2205
N27 X0.7012 Y0.6653 Z-0.2142 I-0.0882 J-0.2205
N28 X0.8777 Y1.1063 Z-0.2403 I0.0882 J0.2205
N29 X0.7012 Y0.6653 Z-0.2664 I-0.0882 J-0.2205
N30 X0.8777 Y1.1063 Z-0.2924 I0.0882 J0.2205
N31 X0.7012 Y0.6653 Z-0.3185 I-0.0882 J-0.2205
N32 X1.027 Y0.8858 Z-0.3346 I0.0882 J0.2205
N33 X0.9415 I-0.0427 J0 F30
N34 X1.502 I0.2802 J0
N35 X0.4665 I-0.5177 J0
N36 X1.502 I0.5177 J0
N37 X1.5007 Y0.8969 Z-0.3334 I-0.05 J0
N38 X1.4973 Y0.9068 Z-0.3297 I-0.0488 J-0.011
N39 X1.4926 Y0.915 Z-0.3237 I-0.0454 J-0.021
N40 X1.4874 Y0.9211 Z-0.3158 I-0.0406 J-0.0292
N41 X1.483 Y0.925 Z-0.3063 I-0.0355 J-0.0352
N42 X1.48 Y0.9272 Z-0.2958 I-0.031 J-0.0392
N43 X1.479 Y0.9279 Z-0.2846 I-0.0281 J-0.0414
N44 G0 Z0.5906
N45 X2.6271 Y0.6877
N46 Z0.1969
N47 G1 Z0.1484 F20
N48 G3 X2.6281 Y0.687 Z0.1375 I0.1309 J0.1982
N49 X2.631 Y0.6851 Z0.1272 I0.1299 J0.1988
N50 X2.6359 Y0.6821 Z0.1178 I0.1269 J0.2007
N51 X2.6425 Y0.6783 Z0.1099 I0.1221 J0.2037
N52 X2.6505 Y0.674 Z0.1039 I0.1155 J0.2075
N53 X2.6598 Y0.6696 Z0.1 I0.1074 J0.2118
N54 X2.6697 Y0.6653 Z0.0984 I0.0982 J0.2162
N55 X2.8462 Y1.1063 Z0.0724 I0.0882 J0.2205
N56 X2.6697 Y0.6653 Z0.0463 I-0.0882 J-0.2205
N57 X2.8462 Y1.1063 Z0.0203 I0.0882 J0.2205
N58 X2.6697 Y0.6653 Z-0.0058 I-0.0882 J-0.2205
N59 X2.8462 Y1.1063 Z-0.0319 I0.0882 J0.2205
N60 X2.6697 Y0.6653 Z-0.0579 I-0.0882 J-0.2205
N61 X2.8462 Y1.1063 Z-0.084 I0.0882 J0.2205
N62 X2.6697 Y0.6653 Z-0.11 I-0.0882 J-0.2205
N63 X2.8462 Y1.1063 Z-0.1361 I0.0882 J0.2205
N64 X2.6697 Y0.6653 Z-0.1621 I-0.0882 J-0.2205
N65 X2.8462 Y1.1063 Z-0.1882 I0.0882 J0.2205
N66 X2.6697 Y0.6653 Z-0.2142 I-0.0882 J-0.2205
N67 X2.8462 Y1.1063 Z-0.2403 I0.0882 J0.2205
N68 X2.6697 Y0.6653 Z-0.2664 I-0.0882 J-0.2205
N69 X2.8462 Y1.1063 Z-0.2924 I0.0882 J0.2205
N70 X2.6697 Y0.6653 Z-0.3185 I-0.0882 J-0.2205
N71 X2.9955 Y0.8858 Z-0.3346 I0.0882 J0.2205
N72 X2.91 I-0.0427 J0 F30
N73 X3.4705 I0.2802 J0
N74 X2.435 I-0.5177 J0
N75 X3.4705 I0.5177 J0
N76 X3.4692 Y0.8969 Z-0.3334 I-0.05 J0
N77 X3.4658 Y0.9068 Z-0.3297 I-0.0488 J-0.011
N78 X3.4611 Y0.915 Z-0.3237 I-0.0454 J-0.021
N79 X3.456 Y0.9211 Z-0.3158 I-0.0406 J-0.0292
N80 X3.4515 Y0.925 Z-0.3063 I-0.0355 J-0.0352
N81 X3.4485 Y0.9272 Z-0.2958 I-0.031 J-0.0392
N82 X3.4475 Y0.9279 Z-0.2846 I-0.0281 J-0.0414
N83 G0 Z0.5906
N84 X4.5956 Y0.6877
N85 Z0.1969
N86 G1 Z0.1484 F20
N87 G3 X4.5966 Y0.687 Z0.1375 I0.1309 J0.1982
N88 X4.5995 Y0.6851 Z0.1272 I0.1299 J0.1988
N89 X4.6044 Y0.6821 Z0.1178 I0.1269 J0.2007
N90 X4.611 Y0.6783 Z0.1099 I0.1221 J0.2037
N91 X4.619 Y0.674 Z0.1039 I0.1155 J0.2075
N92 X4.6283 Y0.6696 Z0.1 I0.1074 J0.2118
N93 X4.6382 Y0.6653 Z0.0984 I0.0982 J0.2162
N94 X4.8147 Y1.1063 Z0.0724 I0.0882 J0.2205
N95 X4.6382 Y0.6653 Z0.0463 I-0.0882 J-0.2205
N96 X4.8147 Y1.1063 Z0.0203 I0.0882 J0.2205
N97 X4.6382 Y0.6653 Z-0.0058 I-0.0882 J-0.2205
N98 X4.8147 Y1.1063 Z-0.0319 I0.0882 J0.2205
N99 X4.6382 Y0.6653 Z-0.0579 I-0.0882 J-0.2205
N100 X4.8147 Y1.1063 Z-0.084 I0.0882 J0.2205
N101 X4.6382 Y0.6653 Z-0.11 I-0.0882 J-0.2205
N102 X4.8147 Y1.1063 Z-0.1361 I0.0882 J0.2205
N103 X4.6382 Y0.6653 Z-0.1621 I-0.0882 J-0.2205
N104 X4.8147 Y1.1063 Z-0.1882 I0.0882 J0.2205
N105 X4.6382 Y0.6653 Z-0.2142 I-0.0882 J-0.2205
N106 X4.8147 Y1.1063 Z-0.2403 I0.0882 J0.2205
N107 X4.6382 Y0.6653 Z-0.2664 I-0.0882 J-0.2205
N108 X4.8147 Y1.1063 Z-0.2924 I0.0882 J0.2205
N109 X4.6382 Y0.6653 Z-0.3185 I-0.0882 J-0.2205
N110 X4.964 Y0.8858 Z-0.3346 I0.0882 J0.2205
N111 X4.8785 I-0.0427 J0 F30
N112 X5.439 I0.2802 J0
N113 X4.4035 I-0.5177 J0
N114 X5.439 I0.5177 J0
N115 X5.4377 Y0.8969 Z-0.3334 I-0.05 J0
N116 X5.4343 Y0.9068 Z-0.3297 I-0.0488 J-0.011
N117 X5.4296 Y0.915 Z-0.3237 I-0.0454 J-0.021
N118 X5.4245 Y0.9211 Z-0.3158 I-0.0406 J-0.0292
N119 X5.42 Y0.925 Z-0.3063 I-0.0355 J-0.0352
N120 X5.417 Y0.9272 Z-0.2958 I-0.031 J-0.0392
N121 X5.416 Y0.9279 Z-0.2846 I-0.0281 J-0.0414
N122 G0 Z0.5906
N123 X6.5641 Y0.6877
N124 Z0.1969
N125 G1 Z0.1484 F20
N126 G3 X6.5651 Y0.687 Z0.1375 I0.1309 J0.1982
N127 X6.568 Y0.6851 Z0.1272 I0.1299 J0.1988
N128 X6.5729 Y0.6821 Z0.1178 I0.1269 J0.2007
N129 X6.5795 Y0.6783 Z0.1099 I0.1221 J0.2037
N130 X6.5876 Y0.674 Z0.1039 I0.1155 J0.2075
N131 X6.5968 Y0.6696 Z0.1 I0.1074 J0.2118
N132 X6.6067 Y0.6653 Z0.0984 I0.0982 J0.2162
N133 X6.7832 Y1.1063 Z0.0724 I0.0882 J0.2205
N134 X6.6067 Y0.6653 Z0.0463 I-0.0882 J-0.2205
N135 X6.7832 Y1.1063 Z0.0203 I0.0882 J0.2205
N136 X6.6067 Y0.6653 Z-0.0058 I-0.0882 J-0.2205
N137 X6.7832 Y1.1063 Z-0.0319 I0.0882 J0.2205
N138 X6.6067 Y0.6653 Z-0.0579 I-0.0882 J-0.2205
N139 X6.7832 Y1.1063 Z-0.084 I0.0882 J0.2205
N140 X6.6067 Y0.6653 Z-0.11 I-0.0882 J-0.2205
N141 X6.7832 Y1.1063 Z-0.1361 I0.0882 J0.2205
N142 X6.6067 Y0.6653 Z-0.1621 I-0.0882 J-0.2205
N143 X6.7832 Y1.1063 Z-0.1882 I0.0882 J0.2205
N144 X6.6067 Y0.6653 Z-0.2142 I-0.0882 J-0.2205
N145 X6.7832 Y1.1063 Z-0.2403 I0.0882 J0.2205
N146 X6.6067 Y0.6653 Z-0.2664 I-0.0882 J-0.2205
N147 X6.7832 Y1.1063 Z-0.2924 I0.0882 J0.2205
N148 X6.6067 Y0.6653 Z-0.3185 I-0.0882 J-0.2205
N149 X6.9325 Y0.8858 Z-0.3346 I0.0882 J0.2205
N150 X6.847 I-0.0427 J0 F30
N151 X7.4075 I0.2802 J0
N152 X6.372 I-0.5177 J0
N153 X7.4075 I0.5177 J0
N154 X7.4062 Y0.8969 Z-0.3334 I-0.05 J0
N155 X7.4028 Y0.9068 Z-0.3297 I-0.0488 J-0.011
N156 X7.3981 Y0.915 Z-0.3237 I-0.0454 J-0.021
N157 X7.393 Y0.9211 Z-0.3158 I-0.0406 J-0.0292
N158 X7.3885 Y0.925 Z-0.3063 I-0.0355 J-0.0352
N159 X7.3855 Y0.9272 Z-0.2958 I-0.031 J-0.0392
N160 X7.3845 Y0.9279 Z-0.2846 I-0.0281 J-0.0414
N161 G0 Z0.5906
N163 M5
(Parallel1 (2))
N164 T1 M6
N165 S7260 M3
N167 G0 X0.0456 Y-0.0253
N168 Z0.5906
N169 Z0.0778
N170 G1 Z0.05 F182
N171 X0.0453 Y-0.0252 Z0.0444
N172 X0.0445 Y-0.0247 Z0.0389
N173 X0.0432 Y-0.0239 Z0.0335
N174 X0.0413 Y-0.0229 Z0.0283
N175 X0.039 Y-0.0215 Z0.0234
N176 X0.0362 Y-0.0199 Z0.0188
N177 X0.0329 Y-0.018 Z0.0147
N178 X0.0293 Y-0.0159 Z0.0109
N179 X0.0253 Y-0.0137 Z0.0077
N180 X0.0211 Y-0.0112 Z0.005
N181 X0.0166 Y-0.0086 Z0.0028
N182 X0.012 Y-0.0059 Z0.0013
N183 X0.0072 Y-0.0032 Z0.0003
N184 X0.0023 Y-0.0004 Z0
N185 X-0.0003 Y0.0012
N186 X-0.0049 Y0.0038 Z0.0003
N187 X-0.0093 Y0.0064 Z0.0011
N188 X-0.0137 Y0.0089 Z0.0024
N189 X-0.018 Y0.0113 Z0.0043
N190 X-0.022 Y0.0137 Z0.0067
N191 X-0.0258 Y0.0159 Z0.0095
N192 X-0.0293 Y0.0179 Z0.0128
N193 X-0.0325 Y0.0198 Z0.0165
N194 X-0.0354 Y0.0214 Z0.0206
N195 X-0.0379 Y0.0228 Z0.025
N196 X-0.0399 Y0.024 Z0.0296
N197 X-0.0416 Y0.025 Z0.0345
N198 X-0.0427 Y0.0256 Z0.0396
N199 X-0.0434 Y0.0261 Z0.0448
N200 X-0.0437 Y0.0262 Z0.05
N201 G0 Z0.1969
N202 X-0.05 Y0.3025
N203 Z-0.0033
N204 G1 Z-0.0235 F182
N205 X-0.0497 Y0.3024 Z-0.0289
N206 X-0.049 Y0.3019 Z-0.0342
N207 X-0.0478 Y0.3012 Z-0.0394
N208 X-0.0461 Y0.3002 Z-0.0444
N209 X-0.0439 Y0.299 Z-0.0491
N210 X-0.0413 Y0.2975 Z-0.0536
N211 X-0.0383 Y0.2958 Z-0.0577
N212 X-0.035 Y0.2939 Z-0.0614
N213 X-0.0313 Y0.2917 Z-0.0647
N214 X-0.0274 Y0.2894 Z-0.0675
N215 X-0.0232 Y0.287 Z-0.0698
N216 X-0.0188 Y0.2845 Z-0.0716
N217 X-0.0143 Y0.2819 Z-0.0728
N218 X-0.0097 Y0.2792 Z-0.0734
N219 X-0.005 Y0.2765 Z-0.0735
N220 X-0.0004 Y0.2739 Z-0.073
N221 X0.1004 Y0.2157 Z-0.0559
N222 X0.2035 Y0.1561 Z-0.0376
N223 X0.3194 Y0.0892 Z-0.0161
N224 X0.3599 Y0.0658 Z-0.0088
N225 X0.389 Y0.049 Z-0.0049
N226 X0.4182 Y0.0322 Z-0.0021
N227 X0.4475 Y0.0153 Z-0.0005
N228 X0.4746 Y-0.0004 Z0
N229 X0.4778 Y-0.0022 Z0.0003
N230 X0.4809 Y-0.004 Z0.0012
N231 X0.4838 Y-0.0057 Z0.0025
N232 X0.4869 Y-0.0074 Z0.004
N233 X0.4901 Y-0.0093 Z0.0048
N234 X0.4933 Y-0.0112 Z0.0051
N235 X0.8475 Y-0.2157
N236 G3 X0.95 Y-0.1882 I0.0375 J0.065
N237 G1 X0.9931 Y-0.1136
N238 G3 X0.9656 Y-0.0112 I-0.065 J0.0375
N239 G1 X0.9623 Y-0.0093 Z0.0048
N240 X0.9591 Y-0.0074 Z0.004
N241 X0.9561 Y-0.0057 Z0.0025
N242 X0.9531 Y-0.004 Z0.0012
N243 X0.95 Y-0.0022 Z0.0003
N244 X0.9469 Y-0.0004 Z0
N245 X0.9198 Y0.0153 Z-0.0005
N246 X0.8905 Y0.0322 Z-0.0021
N247 X0.8613 Y0.049 Z-0.0049
N248 X0.8322 Y0.0658 Z-0.0088
N249 X0.7917 Y0.0892 Z-0.0161
N250 X0.6629 Y0.1636 Z-0.04
N251 X0.5353 Y0.2373 Z-0.0624
N252 X0.3933 Y0.3192 Z-0.0859
N253 X0.264 Y0.3939 Z-0.106
N254 X0.1346 Y0.4686 Z-0.1248
N255 X-0.0004 Y0.5465 Z-0.1433
N256 X-0.0035 Y0.5483 Z-0.1435
N257 X-0.0066 Y0.5501 Z-0.1431
N258 X-0.0096 Y0.5519 Z-0.1423
N259 X-0.0125 Y0.5535 Z-0.1409
N260 X-0.0155 Y0.5553 Z-0.1395
N261 X-0.0187 Y0.5571 Z-0.1387
N262 X-0.022 Y0.559 Z-0.1384
N263 X-0.1394 Y0.6268
N264 X-0.1423 Y0.6286
N265 X-0.1451 Y0.6304 Z-0.1385
N266 X-0.1478 Y0.6324
N267 X-0.1504 Y0.6345 Z-0.1387
N268 X-0.153 Y0.6367 Z-0.1388
N269 X-0.1554 Y0.6391 Z-0.139
N270 X-0.1577 Y0.6415 Z-0.1392
N271 X-0.1599 Y0.644 Z-0.1395
N272 X-0.162 Y0.6466 Z-0.1397
N273 X-0.164 Y0.6493 Z-0.1401
N274 X-0.1658 Y0.6521 Z-0.1404
N275 X-0.1676 Y0.655 Z-0.1408
N276 X-0.1691 Y0.6579 Z-0.1412
N277 X-0.1706 Y0.6609 Z-0.1416
N278 X-0.1719 Y0.664 Z-0.1421
N279 X-0.1731 Y0.6671 Z-0.1425
N280 X-0.1742 Y0.6703 Z-0.143
N281 X-0.1751 Y0.6735 Z-0.1436
N282 X-0.1758 Y0.6767 Z-0.1441
N283 X-0.1764 Y0.68 Z-0.1447
N284 X-0.1769 Y0.6832 Z-0.1453
N285 X-0.1772 Y0.6865 Z-0.1459
N286 X-0.1774 Y0.6898 Z-0.1466
N287 Y0.6931 Z-0.1472
N288 X-0.1772 Y0.6964 Z-0.1479
N289 X-0.177 Y0.6997 Z-0.1486
N290 X-0.1765 Y0.703 Z-0.1493
N291 X-0.1759 Y0.7062 Z-0.15
N292 X-0.1752 Y0.7094 Z-0.1507
N293 X-0.1743 Y0.7126 Z-0.1514
N294 X-0.1733 Y0.7157 Z-0.1522
N295 X-0.1721 Y0.7188 Z-0.1529
N296 X-0.1708 Y0.7218 Z-0.1537
N297 X-0.1694 Y0.7247 Z-0.1544
N298 X-0.1678 Y0.7276 Z-0.1552
N299 X-0.1228 Y0.8055 Z-0.1758
N300 X-0.1211 Y0.8083 Z-0.1766
N301 X-0.1193 Y0.811 Z-0.1773
N302 X-0.1174 Y0.8137 Z-0.1781
N303 X-0.1153 Y0.8162 Z-0.1788
N304 X-0.1131 Y0.8187 Z-0.1796
N305 X-0.1108 Y0.821 Z-0.1803
N306 X-0.1084 Y0.8232 Z-0.181
N307 X-0.1059 Y0.8254 Z-0.1817
N308 X-0.1033 Y0.8274 Z-0.1824
N309 X-0.1006 Y0.8293 Z-0.1831
N310 X-0.0978 Y0.831 Z-0.1838
N311 X-0.0949 Y0.8327 Z-0.1844
N312 X-0.092 Y0.8342 Z-0.1851
N313 X-0.089 Y0.8356 Z-0.1857
N314 X-0.0859 Y0.8368 Z-0.1863
N315 X-0.0828 Y0.8379 Z-0.1869
N316 X-0.0796 Y0.8389 Z-0.1874
N317 X-0.0764 Y0.8397 Z-0.188
N318 X-0.0731 Y0.8404 Z-0.1885
N319 X-0.0698 Y0.8409 Z-0.189
N320 X-0.0665 Y0.8413 Z-0.1894
N321 X-0.0632 Y0.8415 Z-0.1898
N322 X-0.0598 Y0.8416 Z-0.1903
N323 X-0.0565 Y0.8415 Z-0.1906
N324 X-0.0531 Y0.8413 Z-0.191
N325 X-0.0498 Y0.841 Z-0.1913
N326 X-0.0465 Y0.8404 Z-0.1916
N327 X-0.0432 Y0.8398 Z-0.1918
N328 X-0.0399 Y0.839 Z-0.192
N329 X-0.0367 Y0.8381 Z-0.1922
N330 X-0.0335 Y0.837 Z-0.1924
N331 X-0.0304 Y0.8358 Z-0.1925
N332 X-0.0273 Y0.8344 Z-0.1926
N333 X-0.0243 Y0.8329
N334 X-0.0213 Y0.8313
N335 X-0.0181 Y0.8294 Z-0.1929
N336 X-0.0149 Y0.8276 Z-0.1938
N337 X-0.0118 Y0.8258 Z-0.1952
N338 X-0.0091 Y0.8242 Z-0.1965
N339 X-0.0063 Y0.8226 Z-0.1973
N340 X-0.0033 Y0.8209 Z-0.1977
N341 X-0.0004 Y0.8192 Z-0.1976
N342 X0.0907 Y0.7666 Z-0.1884
N343 X0.2205 Y0.6917 Z-0.1742
N344 X0.2231 Y0.6902 Z-0.1738
N345 X0.2256 Y0.6887 Z-0.1729
N346 X0.228 Y0.6873 Z-0.1718
N347 X0.2311 Y0.6856 Z-0.1704
N348 X0.2343 Y0.6837 Z-0.1695
N349 X0.2375 Y0.6818 Z-0.1692
N350 X0.2405 Y0.6802
N351 X0.2435 Y0.6787 Z-0.1693
N352 X0.2466 Y0.6774 Z-0.1694
N353 X0.2497 Y0.6762 Z-0.1695
N354 X0.2529 Y0.6751 Z-0.1696
N355 X0.2561 Y0.6742 Z-0.1698
N356 X0.2594 Y0.6734 Z-0.17
N357 X0.2627 Y0.6727 Z-0.1702
N358 X0.266 Y0.6722 Z-0.1705
N359 X0.2694 Y0.6719 Z-0.1707
N360 X0.2727 Y0.6717 Z-0.171
N361 X0.2761 Y0.6716 Z-0.1714
N362 X0.2794 Y0.6717 Z-0.1717
N363 X0.2827 Y0.6719 Z-0.1721
N364 X0.2861 Y0.6723 Z-0.1725
N365 X0.2893 Y0.6729 Z-0.173
N366 X0.2926 Y0.6736 Z-0.1734
N367 X0.2958 Y0.6744 Z-0.1739
N368 X0.299 Y0.6754 Z-0.1744
N369 X0.3022 Y0.6765 Z-0.175
N370 X0.3052 Y0.6777 Z-0.1755
N371 X0.3082 Y0.6791 Z-0.1761
N372 X0.3112 Y0.6806 Z-0.1766
N373 X0.3141 Y0.6823 Z-0.1772
N374 X0.3169 Y0.6841 Z-0.1778
N375 X0.3196 Y0.686 Z-0.1785
N376 X0.3222 Y0.688 Z-0.1791
N377 X0.3247 Y0.6901 Z-0.1797
N378 X0.3271 Y0.6924 Z-0.1804
N379 X0.3294 Y0.6947 Z-0.1811
N380 X0.3316 Y0.6972 Z-0.1817
N381 X0.3337 Y0.6997 Z-0.1824
N382 X0.3357 Y0.7024 Z-0.1831
N383 X0.3375 Y0.7051 Z-0.1838
N384 X0.3392 Y0.7079 Z-0.1844
N385 X0.3838 Y0.7852 Z-0.2029
N386 X0.3854 Y0.7881 Z-0.2036
N387 X0.3869 Y0.7911 Z-0.2043
N388 X0.3882 Y0.7941 Z-0.205
N389 X0.3894 Y0.7972 Z-0.2057
N390 X0.3904 Y0.8003 Z-0.2063
N391 X0.3913 Y0.8035 Z-0.207
N392 X0.392 Y0.8067 Z-0.2076
N393 X0.3926 Y0.81 Z-0.2083
N394 X0.3931 Y0.8133 Z-0.2089
N395 X0.3933 Y0.8165 Z-0.2095
N396 X0.3935 Y0.8199 Z-0.2102
N397 Y0.8232 Z-0.2107
N398 X0.3933 Y0.8265 Z-0.2113
N399 X0.393 Y0.8298 Z-0.2119
N400 X0.3926 Y0.8331 Z-0.2124
N401 X0.392 Y0.8363 Z-0.213
N402 X0.3912 Y0.8396 Z-0.2135
N403 X0.3903 Y0.8428 Z-0.2139
N404 X0.3893 Y0.846 Z-0.2144
N405 X0.3881 Y0.8491 Z-0.2148
N406 X0.3868 Y0.8522 Z-0.2153
N407 X0.3853 Y0.8552 Z-0.2156
N408 X0.3837 Y0.8581 Z-0.216
N409 X0.382 Y0.861 Z-0.2163
N410 X0.3802 Y0.8638 Z-0.2167
N411 X0.3782 Y0.8665 Z-0.2169
N412 X0.3761 Y0.8691 Z-0.2172
N413 X0.3739 Y0.8716 Z-0.2174
N414 X0.3716 Y0.8741 Z-0.2176
N415 X0.3691 Y0.8764 Z-0.2178
N416 X0.3666 Y0.8786 Z-0.2179
N417 X0.364 Y0.8807 Z-0.218
N418 X0.3613 Y0.8827 Z-0.2181
N419 X0.3585 Y0.8846
N420 X0.3556 Y0.8863 Z-0.2182
N421 X0.2031 Y0.9744
N422 X0.1998 Y0.9763 Z-0.2184
N423 X0.1966 Y0.9781 Z-0.2193
N424 X0.1936 Y0.9799 Z-0.2207
N425 X0.191 Y0.9814 Z-0.222
N426 X0.1882 Y0.983 Z-0.2228
N427 X0.1854 Y0.9846 Z-0.2232
N428 X0.0552 Y1.0598 Z-0.2329
N429 X-0.0004 Y1.0919 Z-0.2368
N430 X-0.0032 Y1.0935
N431 X-0.006 Y1.0951 Z-0.2363
N432 X-0.0086 Y1.0966 Z-0.2355
N433 X-0.0112 Y1.0981 Z-0.2343
N434 X-0.0143 Y1.0999 Z-0.2329
N435 X-0.0175 Y1.1017 Z-0.232
N436 X-0.0208 Y1.1036 Z-0.2317
N437 X-0.1382 Y1.1715
N438 X-0.1411 Y1.1732
N439 X-0.1439 Y1.1751
N440 X-0.1466 Y1.1771 Z-0.2318
N441 X-0.1492 Y1.1792
N442 X-0.1518 Y1.1814 Z-0.2319
N443 X-0.1542 Y1.1838 Z-0.232
N444 X-0.1565 Y1.1862 Z-0.2321
N445 X-0.1587 Y1.1888 Z-0.2322
N446 X-0.1608 Y1.1914 Z-0.2323
N447 X-0.1627 Y1.1941 Z-0.2325
N448 X-0.1646 Y1.197 Z-0.2326
N449 X-0.1663 Y1.1999 Z-0.2328
N450 X-0.1679 Y1.2028 Z-0.233
N451 X-0.1693 Y1.2059 Z-0.2332
N452 X-0.1706 Y1.209 Z-0.2334
N453 X-0.1718 Y1.2121 Z-0.2336
N454 X-0.1728 Y1.2153 Z-0.2338
N455 X-0.1737 Y1.2185 Z-0.234
N456 X-0.1744 Y1.2218 Z-0.2343
N457 X-0.175 Y1.2251 Z-0.2346
N458 X-0.1754 Y1.2284 Z-0.2348
N459 X-0.1757 Y1.2318 Z-0.2351
N460 X-0.1758 Y1.2351 Z-0.2354
N461 Y1.2385 Z-0.2357
N462 X-0.1756 Y1.2418 Z-0.236
N463 X-0.1753 Y1.2452 Z-0.2363
N464 X-0.1749 Y1.2485 Z-0.2366
N465 X-0.1742 Y1.2518 Z-0.2369
N466 X-0.1735 Y1.255 Z-0.2373
N467 X-0.1726 Y1.2583 Z-0.2376
N468 X-0.1715 Y1.2615 Z-0.2379
N469 X-0.1703 Y1.2646 Z-0.2383
N470 X-0.169 Y1.2676 Z-0.2386
N471 X-0.1675 Y1.2707 Z-0.2389
N472 X-0.1659 Y1.2736 Z-0.2393
N473 X-0.1224 Y1.3489 Z-0.2481
N474 X-0.1207 Y1.3517 Z-0.2484
N475 X-0.1188 Y1.3545 Z-0.2488
N476 X-0.1168 Y1.3572 Z-0.2491
N477 X-0.1147 Y1.3598 Z-0.2494
N478 X-0.1125 Y1.3623 Z-0.2498
N479 X-0.1102 Y1.3647 Z-0.2501
N480 X-0.1077 Y1.367 Z-0.2504
N481 X-0.1052 Y1.3692 Z-0.2507
N482 X-0.1025 Y1.3712 Z-0.2511
N483 X-0.0998 Y1.3732 Z-0.2514
N484 X-0.097 Y1.375 Z-0.2517
N485 X-0.0941 Y1.3767 Z-0.252
N486 X-0.0911 Y1.3782 Z-0.2523
N487 X-0.0881 Y1.3797 Z-0.2525
N488 X-0.085 Y1.381 Z-0.2528
N489 X-0.0819 Y1.3821 Z-0.2531
N490 X-0.0786 Y1.3831 Z-0.2533
N491 X-0.0754 Y1.384 Z-0.2536
N492 X-0.0721 Y1.3847 Z-0.2538
N493 X-0.0688 Y1.3853 Z-0.254
N494 X-0.0655 Y1.3857 Z-0.2542
N495 X-0.0621 Y1.3859 Z-0.2544
N496 X-0.0588 Y1.3861 Z-0.2546
N497 X-0.0554 Y1.386 Z-0.2547
N498 X-0.0521 Y1.3858 Z-0.2549
N499 X-0.0487 Y1.3855 Z-0.255
N500 X-0.0454 Y1.385 Z-0.2552
N501 X-0.0421 Y1.3844 Z-0.2553
N502 X-0.0388 Y1.3836 Z-0.2554
N503 X-0.0356 Y1.3827 Z-0.2555
N504 X-0.0324 Y1.3816
N505 X-0.0292 Y1.3804 Z-0.2556
N506 X-0.0261 Y1.3791
N507 X-0.0231 Y1.3776
N508 X-0.0202 Y1.376 Z-0.2557
N509 X-0.0169 Y1.3741 Z-0.2559
N510 X-0.0137 Y1.3722 Z-0.2568
N511 X-0.0106 Y1.3705 Z-0.2582
N512 X-0.0082 Y1.3691 Z-0.2594
N513 X-0.0057 Y1.3676 Z-0.2602
N514 X-0.003 Y1.3661 Z-0.2607
N515 X-0.0004 Y1.3646
N516 X0.1163 Y1.2972 Z-0.2562
N517 X0.2467 Y1.2219 Z-0.2501
N518 X0.2496 Y1.2202 Z-0.2497
N519 X0.2525 Y1.2185 Z-0.2489
N520 X0.2553 Y1.2169 Z-0.2476
N521 X0.2584 Y1.2152 Z-0.2462
N522 X0.2616 Y1.2133 Z-0.2453
N523 X0.2648 Y1.2114 Z-0.245
N524 X0.2763 Y1.2048
N525 X0.2793 Y1.2032
N526 X0.2823 Y1.2017
N527 X0.2854 Y1.2003 Z-0.2451
N528 X0.2885 Y1.1991
N529 X0.2917 Y1.1981
N530 X0.295 Y1.1971 Z-0.2452
N531 X0.2982 Y1.1964
N532 X0.3016 Y1.1957 Z-0.2453
N533 X0.3049 Y1.1953 Z-0.2454
N534 X0.3082 Y1.1949 Z-0.2455
N535 X0.3116 Y1.1948
N536 X0.315 Y1.1947 Z-0.2456
N537 X0.3183 Y1.1948 Z-0.2457
N538 X0.3217 Y1.1951 Z-0.2459
N539 X0.325 Y1.1955 Z-0.246
N540 X0.3283 Y1.1961 Z-0.2461
N541 X0.3316 Y1.1968 Z-0.2462
N542 X0.3349 Y1.1977 Z-0.2464
N543 X0.3381 Y1.1987 Z-0.2465
N544 X0.3412 Y1.1999 Z-0.2467
N545 X0.3443 Y1.2012 Z-0.2468
N546 X0.3474 Y1.2026 Z-0.247
N547 X0.3503 Y1.2042 Z-0.2471
N548 X0.3532 Y1.2059 Z-0.2473
N549 X0.3561 Y1.2077 Z-0.2475
N550 X0.3588 Y1.2097 Z-0.2477
N551 X0.3614 Y1.2117 Z-0.2479
N552 X0.364 Y1.2139 Z-0.248
N553 X0.3664 Y1.2162 Z-0.2482
N554 X0.3688 Y1.2186 Z-0.2484
N555 X0.371 Y1.2211 Z-0.2486
N556 X0.3731 Y1.2238 Z-0.2488
N557 X0.3751 Y1.2265 Z-0.249
N558 X0.377 Y1.2292 Z-0.2492
N559 X0.3787 Y1.2321 Z-0.2494
N560 X0.4219 Y1.3069 Z-0.2544
N561 X0.4235 Y1.3099 Z-0.2546
N562 X0.425 Y1.3129 Z-0.2548
N563 X0.4264 Y1.316 Z-0.255
N564 X0.4276 Y1.3191 Z-0.2552
N565 X0.4286 Y1.3223 Z-0.2554
N566 X0.4295 Y1.3255 Z-0.2556
N567 X0.4303 Y1.3288 Z-0.2558
N568 X0.4309 Y1.3321 Z-0.256
N569 X0.4314 Y1.3354 Z-0.2562
N570 X0.4317 Y1.3388 Z-0.2563
N571 X0.4319 Y1.3421 Z-0.2565
N572 Y1.3455 Z-0.2567
N573 X0.4318 Y1.3489 Z-0.2568
N574 X0.4315 Y1.3522 Z-0.257
N575 X0.4311 Y1.3555 Z-0.2572
N576 X0.4305 Y1.3589 Z-0.2573
N577 X0.4298 Y1.3621 Z-0.2575
N578 X0.4289 Y1.3654 Z-0.2576
N579 X0.4279 Y1.3686 Z-0.2577
N580 X0.4267 Y1.3718 Z-0.2579
N581 X0.4254 Y1.3749 Z-0.258
N582 X0.424 Y1.3779 Z-0.2581
N583 X0.4224 Y1.3809 Z-0.2582
N584 X0.4207 Y1.3838 Z-0.2583
N585 X0.4189 Y1.3866 Z-0.2584
N586 X0.4169 Y1.3893 Z-0.2585
N587 X0.4148 Y1.392
N588 X0.4127 Y1.3945 Z-0.2586
N589 X0.4103 Y1.397 Z-0.2587
N590 X0.4079 Y1.3993
N591 X0.4054 Y1.4015
N592 X0.4028 Y1.4037 Z-0.2588
N593 X0.4001 Y1.4057
N594 X0.3973 Y1.4075
N595 X0.3944 Y1.4093
N596 X0.3911 Y1.4112 Z-0.2591
N597 X0.3879 Y1.413 Z-0.26
N598 X0.3849 Y1.4148 Z-0.2614
N599 X0.382 Y1.4165 Z-0.2627
N600 X0.3789 Y1.4182 Z-0.2636
N601 X0.3758 Y1.42 Z-0.2639
N602 X0.2296 Y1.5044 Z-0.2674
N603 X0.0699 Y1.5966 Z-0.2696
N604 X-0.0004 Y1.6372 Z-0.2701
N605 X-0.0037 Y1.6391 Z-0.2698
N606 X-0.007 Y1.641 Z-0.269
N607 X-0.01 Y1.6428 Z-0.2675
N608 X-0.0131 Y1.6446 Z-0.2661
N609 X-0.0163 Y1.6464 Z-0.2653
N610 X-0.0196 Y1.6483 Z-0.265
N611 X-0.1371 Y1.7161
N612 X-0.1399 Y1.7179
N613 X-0.1427 Y1.7197
N614 X-0.1454 Y1.7217
N615 X-0.1481 Y1.7239
N616 X-0.1506 Y1.7261 Z-0.2649
N617 X-0.153 Y1.7284
N618 X-0.1553 Y1.7309
N619 X-0.1575 Y1.7334
N620 X-0.1596 Y1.7361 Z-0.2648
N621 X-0.1615 Y1.7388
N622 X-0.1634 Y1.7416
N623 X-0.1651 Y1.7445 Z-0.2647
N624 X-0.1666 Y1.7475
N625 X-0.1681 Y1.7506
N626 X-0.1694 Y1.7537 Z-0.2646
N627 X-0.1705 Y1.7568
N628 X-0.1715 Y1.76 Z-0.2645
N629 X-0.1724 Y1.7633
N630 X-0.1731 Y1.7666 Z-0.2644
N631 X-0.1737 Y1.7699 Z-0.2643
N632 X-0.1741 Y1.7732
N633 X-0.1744 Y1.7766 Z-0.2642
N634 X-0.1746 Y1.7799 Z-0.2641
N635 X-0.1745 Y1.7833
N636 X-0.1744 Y1.7867 Z-0.264
N637 X-0.174 Y1.79 Z-0.2639
N638 X-0.1735 Y1.7934
N639 X-0.1729 Y1.7967 Z-0.2638
N640 X-0.1721 Y1.7999 Z-0.2637
N641 X-0.1712 Y1.8032 Z-0.2636
N642 X-0.1702 Y1.8064
N643 X-0.169 Y1.8095 Z-0.2635
N644 X-0.1676 Y1.8126 Z-0.2634
N645 X-0.1661 Y1.8156 Z-0.2633
N646 X-0.1645 Y1.8186
N647 X-0.1214 Y1.8932 Z-0.2613
N648 X-0.1197 Y1.8961 Z-0.2612
N649 X-0.1178 Y1.8989 Z-0.2611
N650 X-0.1158 Y1.9016 Z-0.261
N651 X-0.1137 Y1.9042
N652 X-0.1115 Y1.9067 Z-0.2609
N653 X-0.1091 Y1.9091 Z-0.2608
N654 X-0.1067 Y1.9114 Z-0.2607
N655 X-0.1041 Y1.9136
N656 X-0.1015 Y1.9157 Z-0.2606
N657 X-0.0987 Y1.9177 Z-0.2605
N658 X-0.0959 Y1.9195 Z-0.2604
N659 X-0.093 Y1.9212
N660 X-0.09 Y1.9228 Z-0.2603
N661 X-0.087 Y1.9242 Z-0.2602
N662 X-0.0839 Y1.9255
N663 X-0.0807 Y1.9267 Z-0.2601
N664 X-0.0775 Y1.9277
N665 X-0.0743 Y1.9285 Z-0.26
N666 X-0.071 Y1.9293
N667 X-0.0677 Y1.9298 Z-0.2599
N668 X-0.0643 Y1.9303
N669 X-0.061 Y1.9305 Z-0.2598
N670 X-0.0576 Y1.9307
N671 X-0.0542 Y1.9306 Z-0.2597
N672 X-0.0509 Y1.9305
N673 X-0.0475 Y1.9301
N674 X-0.0442 Y1.9297 Z-0.2596
N675 X-0.0409 Y1.929
N676 X-0.0376 Y1.9283
N677 X-0.0344 Y1.9273
N678 X-0.0312 Y1.9263
N679 X-0.028 Y1.9251 Z-0.2595
N680 X-0.025 Y1.9237
N681 X-0.0219 Y1.9222
N682 X-0.019 Y1.9206
N683 X-0.0157 Y1.9187 Z-0.2598
N684 X-0.0125 Y1.9169 Z-0.2607
N685 X-0.0095 Y1.9151 Z-0.2621
N686 X-0.0066 Y1.9134 Z-0.2634
N687 X-0.0035 Y1.9117 Z-0.2643
N688 X-0.0004 Y1.9099 Z-0.2646
N689 X0.0709 Y1.8687 Z-0.2664
N690 X0.1899 Y1.8 Z-0.2686
N691 X0.303 Y1.7347 Z-0.2698
N692 X0.429 Y1.662 Z-0.2702
N693 X0.5732 Y1.5787 Z-0.2694
N694 X0.5764 Y1.5769 Z-0.2691
N695 X0.5796 Y1.575 Z-0.2682
N696 X0.5826 Y1.5733 Z-0.2668
N697 X0.5857 Y1.5715 Z-0.2654
N698 X0.5889 Y1.5697 Z-0.2646
N699 X0.5921 Y1.5678 Z-0.2643
N700 X0.7743 Y1.4626
N701 G3 X0.8768 Y1.4901 I0.0375 J0.065
N702 G1 X0.9198 Y1.5647
N703 G3 X0.8924 Y1.6671 I-0.065 J0.0375
N704 G1 X0.8891 Y1.669 Z-0.2646
N705 X0.8859 Y1.6709 Z-0.2654
N706 X0.8829 Y1.6726 Z-0.2668
N707 X0.8813 Y1.6735 Z-0.2677
N708 X0.8782 Y1.6753 Z-0.2691
N709 X0.875 Y1.6772 Z-0.27
N710 X0.8717 Y1.6791 Z-0.2702
N711 X0.7053 Y1.7751 Z-0.2692
N712 X0.5797 Y1.8477 Z-0.2672
N713 X0.4615 Y1.9159 Z-0.2643
N714 X0.3445 Y1.9834 Z-0.2606
N715 X0.2155 Y2.0579 Z-0.2556
N716 X0.0618 Y2.1467 Z-0.248
N717 X-0.0004 Y2.1826 Z-0.2445
N718 X-0.0051 Y2.1853 Z-0.244
N719 X-0.0097 Y2.1879 Z-0.2428
N720 X-0.0141 Y2.1905 Z-0.2411
N721 X-0.0184 Y2.193 Z-0.2388
N722 X-0.0225 Y2.1953 Z-0.2361
N723 X-0.0262 Y2.1975 Z-0.2328
N724 X-0.0296 Y2.1995 Z-0.2291
N725 X-0.0327 Y2.2012 Z-0.2249
N726 X-0.0354 Y2.2027 Z-0.2204
N727 X-0.0376 Y2.204 Z-0.2156
N728 X-0.0393 Y2.205 Z-0.2106
N729 X-0.0406 Y2.2058 Z-0.2054
N730 X-0.0413 Y2.2062 Z-0.2
N731 X-0.0416 Y2.2064 Z-0.1946
N732 G0 Z0.1969
N733 X1.0723 Y0.1999
N734 Z0.0311
N735 G1 Z0.007 F182
N736 X1.0725 Y0.1998 Z0.0016
N737 X1.0733 Y0.1993 Z-0.0037
N738 X1.0745 Y0.1986 Z-0.0089
N739 X1.0763 Y0.1976 Z-0.0139
N740 X1.0784 Y0.1964 Z-0.0187
N741 X1.0811 Y0.1948 Z-0.0232
N742 X1.0841 Y0.1931 Z-0.0273
N743 X1.0875 Y0.1911 Z-0.031
N744 X1.0912 Y0.189 Z-0.0343
N745 X1.0952 Y0.1867 Z-0.0371
N746 X1.0994 Y0.1842 Z-0.0394
N747 X1.1039 Y0.1817 Z-0.0411
N748 X1.1084 Y0.179 Z-0.0423
N749 X1.1131 Y0.1763 Z-0.0429
N750 X1.1178 Y0.1736
N751 X1.1224 Y0.171 Z-0.0423
N752 X1.264 Y0.0892 Z-0.0161
N753 X1.3045 Y0.0658 Z-0.0088
N754 X1.3336 Y0.049 Z-0.0049
N755 X1.3628 Y0.0322 Z-0.0021
N756 X1.392 Y0.0153 Z-0.0005
N757 X1.4192 Y-0.0004 Z0
N758 X1.424 Y-0.0031 Z0.0004
N759 X1.4287 Y-0.0059 Z0.0014
N760 X1.4333 Y-0.0085 Z0.003
N761 X1.4377 Y-0.0111 Z0.0052
N762 X1.4419 Y-0.0135 Z0.0079
N763 X1.4458 Y-0.0157 Z0.0112
N764 X1.4494 Y-0.0178 Z0.0149
N765 X1.4525 Y-0.0196 Z0.0191
N766 X1.4553 Y-0.0212 Z0.0236
N767 X1.4576 Y-0.0226 Z0.0285
N768 X1.4594 Y-0.0236 Z0.0336
N769 X1.4607 Y-0.0244 Z0.039
N770 X1.4615 Y-0.0248 Z0.0444
N771 X1.4618 Y-0.025 Z0.05
N772 G0 Z0.1969
N773 X1.3618 Y0.3054
N774 Z-0.0007
N775 G1 Z-0.0245 F182
N776 X1.3621 Y0.3053 Z-0.0298
N777 X1.3628 Y0.3048 Z-0.0351
N778 X1.3641 Y0.3041 Z-0.0403
N779 X1.3658 Y0.3031 Z-0.0452
N780 X1.3679 Y0.3019 Z-0.05
N781 X1.3705 Y0.3004 Z-0.0544
N782 X1.3735 Y0.2987 Z-0.0585
N783 X1.3768 Y0.2968 Z-0.0623
N784 X1.3805 Y0.2946 Z-0.0655
N785 X1.3844 Y0.2924 Z-0.0684
N786 X1.3886 Y0.2899 Z-0.0707
N787 X1.393 Y0.2874 Z-0.0724
N788 X1.3975 Y0.2848 Z-0.0737
N789 X1.4021 Y0.2822 Z-0.0743
N790 X1.4067 Y0.2795 Z-0.0744
N791 X1.4113 Y0.2768 Z-0.0739
N792 X1.4527 Y0.2529 Z-0.067
N793 X1.5946 Y0.171 Z-0.0423
N794 X1.7362 Y0.0892 Z-0.0161
N795 X1.7768 Y0.0658 Z-0.0088
N796 X1.8059 Y0.049 Z-0.0049
N797 X1.8351 Y0.0322 Z-0.0021
N798 X1.8643 Y0.0153 Z-0.0005
N799 X1.8914 Y-0.0004 Z0
N800 X1.8946 Y-0.0022 Z0.0003
N801 X1.8977 Y-0.004 Z0.0012
N802 X1.9006 Y-0.0057 Z0.0025
N803 X1.9037 Y-0.0074 Z0.004
N804 X1.9069 Y-0.0093 Z0.0048
N805 X1.9102 Y-0.0112 Z0.0051
N806 X2.2644 Y-0.2157
N807 G3 X2.3668 Y-0.1882 I0.0375 J0.065
N808 G1 X2.4099 Y-0.1136
N809 G3 X2.3824 Y-0.0112 I-0.065 J0.0375
N810 G1 X2.3792 Y-0.0093 Z0.0048
N811 X2.376 Y-0.0074 Z0.004
N812 X2.3729 Y-0.0057 Z0.0025
N813 X2.37 Y-0.004 Z0.0012
N814 X2.3669 Y-0.0022 Z0.0003
N815 X2.3637 Y-0.0004 Z0
N816 X2.3366 Y0.0153 Z-0.0005
N817 X2.3073 Y0.0322 Z-0.0021
N818 X2.2782 Y0.049 Z-0.0049
N819 X2.2491 Y0.0658 Z-0.0088
N820 X2.2085 Y0.0892 Z-0.0161
N821 X2.0669 Y0.171 Z-0.0423
N822 X1.925 Y0.2529 Z-0.067
N823 X1.783 Y0.3349 Z-0.0902
N824 X1.6408 Y0.417 Z-0.112
N825 X1.6037 Y0.4384 Z-0.1174
N826 X1.6006 Y0.4402 Z-0.1176
N827 X1.5974 Y0.442 Z-0.1173
N828 X1.5944 Y0.4438 Z-0.1164
N829 X1.5915 Y0.4455 Z-0.1151
N830 X1.5884 Y0.4473 Z-0.1137
N831 X1.5852 Y0.4491 Z-0.1128
N832 X1.5819 Y0.451 Z-0.1125
N833 X1.5791 Y0.4527
N834 X1.5763 Y0.4546 Z-0.1126
N835 X1.5735 Y0.4566
N836 X1.5709 Y0.4587 Z-0.1127
N837 X1.5684 Y0.4609 Z-0.1129
N838 X1.566 Y0.4633 Z-0.113
N839 X1.5637 Y0.4657 Z-0.1132
N840 X1.5615 Y0.4682 Z-0.1134
N841 X1.5594 Y0.4709 Z-0.1137
N842 X1.5574 Y0.4736 Z-0.1139
N843 X1.5555 Y0.4764 Z-0.1142
N844 X1.5538 Y0.4793 Z-0.1145
N845 X1.5522 Y0.4822 Z-0.1149
N846 X1.5508 Y0.4852 Z-0.1153
N847 X1.5495 Y0.4883 Z-0.1157
N848 X1.5483 Y0.4914 Z-0.1161
N849 X1.5472 Y0.4946 Z-0.1165
N850 X1.5464 Y0.4978 Z-0.117
N851 X1.5456 Y0.501 Z-0.1174
N852 X1.545 Y0.5043 Z-0.1179
N853 X1.5446 Y0.5076 Z-0.1184
N854 X1.5443 Y0.5109 Z-0.119
N855 X1.5441 Y0.5142 Z-0.1195
N856 Y0.5176 Z-0.1201
N857 X1.5442 Y0.5209 Z-0.1206
N858 X1.5445 Y0.5242 Z-0.1212
N859 X1.545 Y0.5275 Z-0.1218
N860 X1.5456 Y0.5307 Z-0.1224
N861 X1.5463 Y0.5339 Z-0.1231
N862 X1.5472 Y0.5371 Z-0.1237
N863 X1.5483 Y0.5403 Z-0.1243
N864 X1.5494 Y0.5433 Z-0.125
N865 X1.5507 Y0.5464 Z-0.1256
N866 X1.5522 Y0.5493 Z-0.1262
N867 X1.5538 Y0.5522 Z-0.1269
N868 X1.5982 Y0.6292 Z-0.1442
N869 X1.6 Y0.6321 Z-0.1449
N870 X1.6018 Y0.6348 Z-0.1455
N871 X1.6038 Y0.6375 Z-0.1462
N872 X1.6059 Y0.64 Z-0.1468
N873 X1.6081 Y0.6425 Z-0.1474
N874 X1.6104 Y0.6449 Z-0.1481
N875 X1.6128 Y0.6471 Z-0.1487
N876 X1.6153 Y0.6493 Z-0.1493
N877 X1.6179 Y0.6513 Z-0.1499
N878 X1.6206 Y0.6532 Z-0.1505
N879 X1.6234 Y0.655 Z-0.151
N880 X1.6263 Y0.6566 Z-0.1516
N881 X1.6293 Y0.6582 Z-0.1521
N882 X1.6323 Y0.6596 Z-0.1527
N883 X1.6354 Y0.6608 Z-0.1532
N884 X1.6385 Y0.6619 Z-0.1537
N885 X1.6417 Y0.6629 Z-0.1542
N886 X1.6449 Y0.6637 Z-0.1546
N887 X1.6482 Y0.6644 Z-0.1551
N888 X1.6515 Y0.665 Z-0.1555
N889 X1.6548 Y0.6654 Z-0.1559
N890 X1.6581 Y0.6656 Z-0.1562
N891 X1.6615 Y0.6657 Z-0.1566
N892 X1.6648 Z-0.1569
N893 X1.6682 Y0.6655 Z-0.1572
N894 X1.6715 Y0.6651 Z-0.1574
N895 X1.6748 Y0.6646 Z-0.1577
N896 X1.6781 Y0.664 Z-0.1579
N897 X1.6814 Y0.6632 Z-0.1581
N898 X1.6846 Y0.6622 Z-0.1582
N899 X1.6878 Y0.6612 Z-0.1584
N900 X1.6909 Y0.66 Z-0.1585
N901 X1.694 Y0.6586
N902 X1.6971 Y0.6571 Z-0.1586
N903 X1.7 Y0.6555
N904 X1.7069 Y0.6515
N905 X1.7102 Y0.6496 Z-0.1589
N906 X1.7134 Y0.6478 Z-0.1597
N907 X1.7165 Y0.646 Z-0.1612
N908 X1.7193 Y0.6444 Z-0.1625
N909 X1.7222 Y0.6427 Z-0.1633
N910 X1.7252 Y0.6409 Z-0.1637
N911 X1.7283 Y0.6392 Z-0.1636
N912 X1.8281 Y0.5815 Z-0.1512
N913 X1.9707 Y0.4992 Z-0.1323
N914 X2.113 Y0.417 Z-0.112
N915 X2.2553 Y0.3349 Z-0.0902
N916 X2.3973 Y0.2529 Z-0.067
N917 X2.5392 Y0.171 Z-0.0423
N918 X2.6808 Y0.0892 Z-0.0161
N919 X2.7213 Y0.0658 Z-0.0088
N920 X2.7504 Y0.049 Z-0.0049
N921 X2.7796 Y0.0322 Z-0.0021
N922 X2.8089 Y0.0153 Z-0.0005
N923 X2.836 Y-0.0004 Z0
N924 X2.8408 Y-0.0031 Z0.0004
N925 X2.8455 Y-0.0059 Z0.0014
N926 X2.8501 Y-0.0085 Z0.003
N927 X2.8545 Y-0.0111 Z0.0052
N928 X2.8587 Y-0.0135 Z0.0079
N929 X2.8626 Y-0.0157 Z0.0112
N930 X2.8662 Y-0.0178 Z0.0149
N931 X2.8694 Y-0.0196 Z0.0191
N932 X2.8721 Y-0.0212 Z0.0236
N933 X2.8744 Y-0.0226 Z0.0285
N934 X2.8763 Y-0.0236 Z0.0336
N935 X2.8776 Y-0.0244 Z0.039
N936 X2.8784 Y-0.0248 Z0.0444
N937 X2.8786 Y-0.025 Z0.05
N938 G0 Z0.1969
N939 X2.9751 Y0.192
N940 Z0.0336
N941 G1 Z0.0095 F182
N942 X2.9753 Y0.1919 Z0.0041
N943 X2.9761 Y0.1914 Z-0.0012
N944 X2.9773 Y0.1907 Z-0.0064
N945 X2.979 Y0.1897 Z-0.0114
N946 X2.9812 Y0.1885 Z-0.0162
N947 X2.9838 Y0.1869 Z-0.0207
N948 X2.9869 Y0.1852 Z-0.0248
N949 X2.9903 Y0.1832 Z-0.0285
N950 X2.994 Y0.1811 Z-0.0318
N951 X2.998 Y0.1788 Z-0.0346
N952 X3.0022 Y0.1763 Z-0.0369
N953 X3.0067 Y0.1738 Z-0.0386
N954 X3.0112 Y0.1711 Z-0.0398
N955 X3.0159 Y0.1684 Z-0.0404
N956 X3.0206 Y0.1657
N957 X3.0252 Y0.1631 Z-0.0398
N958 X3.1531 Y0.0892 Z-0.0161
N959 X3.1936 Y0.0658 Z-0.0088
N960 X3.2227 Y0.049 Z-0.0049
N961 X3.2519 Y0.0322 Z-0.0021
N962 X3.2812 Y0.0153 Z-0.0005
N963 X3.3083 Y-0.0004 Z0
N964 X3.3131 Y-0.0031 Z0.0004
N965 X3.3178 Y-0.0059 Z0.0014
N966 X3.3224 Y-0.0085 Z0.003
N967 X3.3268 Y-0.0111 Z0.0052
N968 X3.331 Y-0.0135 Z0.0079
N969 X3.3349 Y-0.0157 Z0.0112
N970 X3.3385 Y-0.0178 Z0.0149
N971 X3.3417 Y-0.0196 Z0.0191
N972 X3.3444 Y-0.0212 Z0.0236
N973 X3.3467 Y-0.0226 Z0.0285
N974 X3.3485 Y-0.0236 Z0.0336
N975 X3.3499 Y-0.0244 Z0.039
N976 X3.3507 Y-0.0248 Z0.0444
N977 X3.3509 Y-0.025 Z0.05
N978 G0 Z0.1969
N979 X3.2899 Y0.2829
N980 Z0.0059
N981 G1 Z-0.018 F182
N982 X3.2901 Y0.2828 Z-0.0233
N983 X3.2909 Y0.2823 Z-0.0286
N984 X3.2921 Y0.2816 Z-0.0338
N985 X3.2938 Y0.2806 Z-0.0388
N986 X3.296 Y0.2794 Z-0.0436
N987 X3.2986 Y0.2779 Z-0.048
N988 X3.3016 Y0.2762 Z-0.0521
N989 X3.3049 Y0.2742 Z-0.0559
N990 X3.3086 Y0.2721 Z-0.0591
N991 X3.3126 Y0.2698 Z-0.0619
N992 X3.3168 Y0.2674 Z-0.0642
N993 X3.3212 Y0.2648 Z-0.066
N994 X3.3257 Y0.2622 Z-0.0672
N995 X3.3303 Y0.2596 Z-0.0679
N996 X3.335 Y0.2569
N997 X3.3396 Y0.2542 Z-0.0674
N998 X3.4837 Y0.171 Z-0.0423
N999 X3.6254 Y0.0892 Z-0.0161
N1000 X3.6659 Y0.0658 Z-0.0088
N1001 X3.695 Y0.049 Z-0.0049
N1002 X3.7242 Y0.0322 Z-0.0021
N1003 X3.7534 Y0.0153 Z-0.0005
N1004 X3.7805 Y-0.0004 Z0
N1005 X3.7837 Y-0.0022 Z0.0003
N1006 X3.7868 Y-0.004 Z0.0012
N1007 X3.7898 Y-0.0057 Z0.0025
N1008 X3.7928 Y-0.0074 Z0.004
N1009 X3.796 Y-0.0093 Z0.0048
N1010 X3.7993 Y-0.0112 Z0.0051
N1011 X4.1535 Y-0.2157
N1012 G3 X4.2559 Y-0.1882 I0.0375 J0.065
N1013 G1 X4.299 Y-0.1136
N1014 G3 X4.2716 Y-0.0112 I-0.065 J0.0375
N1015 G1 X4.2683 Y-0.0093 Z0.0048
N1016 X4.2651 Y-0.0074 Z0.004
N1017 X4.262 Y-0.0057 Z0.0025
N1018 X4.2591 Y-0.004 Z0.0012
N1019 X4.256 Y-0.0022 Z0.0003
N1020 X4.2528 Y-0.0004 Z0
N1021 X4.2257 Y0.0153 Z-0.0005
N1022 X4.1965 Y0.0322 Z-0.0021
N1023 X4.1673 Y0.049 Z-0.0049
N1024 X4.1382 Y0.0658 Z-0.0088
N1025 X4.0976 Y0.0892 Z-0.0161
N1026 X3.956 Y0.171 Z-0.0423
N1027 X3.8141 Y0.2529 Z-0.067
N1028 X3.6721 Y0.3349 Z-0.0902
N1029 X3.5449 Y0.4083 Z-0.1098
N1030 X3.5418 Y0.4102 Z-0.11
N1031 X3.5386 Y0.412 Z-0.1097
N1032 X3.5355 Y0.4138 Z-0.1088
N1033 X3.5325 Y0.4155 Z-0.1074
N1034 X3.5295 Y0.4173 Z-0.106
N1035 X3.5263 Y0.4191 Z-0.1052
N1036 X3.523 Y0.421 Z-0.1049
N1037 X3.5201 Y0.4227
N1038 X3.5173 Y0.4246
N1039 X3.5146 Y0.4266 Z-0.105
N1040 X3.512 Y0.4287 Z-0.1051
N1041 X3.5095 Y0.4309 Z-0.1052
N1042 X3.5071 Y0.4333 Z-0.1054
N1043 X3.5047 Y0.4357 Z-0.1056
N1044 X3.5025 Y0.4382 Z-0.1058
N1045 X3.5005 Y0.4409 Z-0.106
N1046 X3.4985 Y0.4436 Z-0.1063
N1047 X3.4966 Y0.4464 Z-0.1066
N1048 X3.4949 Y0.4492 Z-0.1069
N1049 X3.4933 Y0.4522 Z-0.1072
N1050 X3.4919 Y0.4552 Z-0.1076
N1051 X3.4905 Y0.4583 Z-0.108
N1052 X3.4894 Y0.4614 Z-0.1084
N1053 X3.4883 Y0.4646 Z-0.1089
N1054 X3.4874 Y0.4678 Z-0.1093
N1055 X3.4867 Y0.471 Z-0.1098
N1056 X3.4861 Y0.4743 Z-0.1103
N1057 X3.4856 Y0.4776 Z-0.1108
N1058 X3.4853 Y0.4809 Z-0.1113
N1059 X3.4852 Y0.4842 Z-0.1119
N1060 Y0.4876 Z-0.1124
N1061 X3.4853 Y0.4909 Z-0.113
N1062 X3.4856 Y0.4942 Z-0.1136
N1063 X3.4861 Y0.4975 Z-0.1142
N1064 X3.4867 Y0.5007 Z-0.1148
N1065 X3.4874 Y0.5039 Z-0.1154
N1066 X3.4883 Y0.5071 Z-0.116
N1067 X3.4893 Y0.5103 Z-0.1167
N1068 X3.4905 Y0.5133 Z-0.1173
N1069 X3.4918 Y0.5164 Z-0.1179
N1070 X3.4933 Y0.5193 Z-0.1186
N1071 X3.4949 Y0.5222 Z-0.1192
N1072 X3.5393 Y0.5992 Z-0.1365
N1073 X3.541 Y0.6021 Z-0.1372
N1074 X3.5429 Y0.6048 Z-0.1378
N1075 X3.5449 Y0.6075 Z-0.1385
N1076 X3.5469 Y0.61 Z-0.1391
N1077 X3.5491 Y0.6125 Z-0.1397
N1078 X3.5515 Y0.6148 Z-0.1404
N1079 X3.5539 Y0.6171 Z-0.141
N1080 X3.5564 Y0.6192 Z-0.1416
N1081 X3.559 Y0.6213 Z-0.1422
N1082 X3.5617 Y0.6232 Z-0.1428
N1083 X3.5645 Y0.625 Z-0.1433
N1084 X3.5674 Y0.6266 Z-0.1439
N1085 X3.5703 Y0.6282 Z-0.1444
N1086 X3.5734 Y0.6296 Z-0.145
N1087 X3.5764 Y0.6308 Z-0.1455
N1088 X3.5796 Y0.6319 Z-0.146
N1089 X3.5828 Y0.6329 Z-0.1464
N1090 X3.586 Y0.6337 Z-0.1469
N1091 X3.5893 Y0.6344 Z-0.1473
N1092 X3.5926 Y0.635 Z-0.1478
N1093 X3.5959 Y0.6354 Z-0.1481
N1094 X3.5992 Y0.6356 Z-0.1485
N1095 X3.6026 Y0.6357 Z-0.1489
N1096 X3.6059 Z-0.1492
N1097 X3.6093 Y0.6354 Z-0.1495
N1098 X3.6126 Y0.6351 Z-0.1497
N1099 X3.6159 Y0.6346 Z-0.15
N1100 X3.6192 Y0.634 Z-0.1502
N1101 X3.6225 Y0.6332 Z-0.1504
N1102 X3.6257 Y0.6322 Z-0.1505
N1103 X3.6289 Y0.6312 Z-0.1507
N1104 X3.632 Y0.6299 Z-0.1508
N1105 X3.6351 Y0.6286
N1106 X3.6381 Y0.6271 Z-0.1509
N1107 X3.6411 Y0.6255
N1108 X3.659 Y0.6151
N1109 X3.6623 Y0.6132 Z-0.1512
N1110 X3.6655 Y0.6114 Z-0.152
N1111 X3.6685 Y0.6096 Z-0.1534
N1112 X3.6714 Y0.608 Z-0.1548
N1113 X3.6743 Y0.6063 Z-0.1556
N1114 X3.6774 Y0.6045 Z-0.156
N1115 X3.6804 Y0.6028 Z-0.1558
N1116 X3.7172 Y0.5815 Z-0.1512
N1117 X3.8598 Y0.4992 Z-0.1323
N1118 X4.0021 Y0.417 Z-0.112
N1119 X4.1444 Y0.3349 Z-0.0902
N1120 X4.2864 Y0.2529 Z-0.067
N1121 X4.4283 Y0.171 Z-0.0423
N1122 X4.5699 Y0.0892 Z-0.0161
N1123 X4.6104 Y0.0658 Z-0.0088
N1124 X4.6395 Y0.049 Z-0.0049
N1125 X4.6687 Y0.0322 Z-0.0021
N1126 X4.698 Y0.0153 Z-0.0005
N1127 X4.7251 Y-0.0004 Z0
N1128 X4.7299 Y-0.0031 Z0.0004
N1129 X4.7346 Y-0.0059 Z0.0014
N1130 X4.7392 Y-0.0085 Z0.003
N1131 X4.7437 Y-0.0111 Z0.0052
N1132 X4.7478 Y-0.0135 Z0.0079
N1133 X4.7517 Y-0.0157 Z0.0112
N1134 X4.7553 Y-0.0178 Z0.0149
N1135 X4.7585 Y-0.0196 Z0.0191
N1136 X4.7612 Y-0.0212 Z0.0236
N1137 X4.7636 Y-0.0226 Z0.0285
N1138 X4.7654 Y-0.0236 Z0.0336
N1139 X4.7667 Y-0.0244 Z0.039
N1140 X4.7675 Y-0.0248 Z0.0444
N1141 X4.7678 Y-0.025 Z0.05
N1142 G0 Z0.1969
N1143 X4.8694 Y0.189
N1144 Z0.0345
N1145 G1 Z0.0105 F182
N1146 X4.8697 Y0.1888 Z0.0051
N1147 X4.8704 Y0.1884 Z-0.0002
N1148 X4.8717 Y0.1877 Z-0.0055
N1149 X4.8734 Y0.1867 Z-0.0105
N1150 X4.8756 Y0.1854 Z-0.0153
N1151 X4.8782 Y0.1839 Z-0.0197
N1152 X4.8813 Y0.1821 Z-0.0239
N1153 X4.8847 Y0.1802 Z-0.0276
N1154 X4.8884 Y0.178 Z-0.0309
N1155 X4.8924 Y0.1757 Z-0.0336
N1156 X4.8966 Y0.1733 Z-0.0359
N1157 X4.9011 Y0.1707 Z-0.0377
N1158 X4.9056 Y0.1681 Z-0.0388
N1159 X4.9103 Y0.1654 Z-0.0394
N1160 X4.915 Y0.1627 Z-0.0395
N1161 X4.9196 Y0.16 Z-0.0389
N1162 X5.0422 Y0.0892 Z-0.0161
N1163 X5.0827 Y0.0658 Z-0.0088
N1164 X5.1118 Y0.049 Z-0.0049
N1165 X5.141 Y0.0322 Z-0.0021
N1166 X5.1703 Y0.0153 Z-0.0005
N1167 X5.1974 Y-0.0004 Z0
N1168 X5.2022 Y-0.0031 Z0.0004
N1169 X5.2069 Y-0.0059 Z0.0014
N1170 X5.2115 Y-0.0085 Z0.003
N1171 X5.2159 Y-0.0111 Z0.0052
N1172 X5.2201 Y-0.0135 Z0.0079
N1173 X5.224 Y-0.0157 Z0.0112
N1174 X5.2276 Y-0.0178 Z0.0149
N1175 X5.2308 Y-0.0196 Z0.0191
N1176 X5.2335 Y-0.0212 Z0.0236
N1177 X5.2358 Y-0.0226 Z0.0285
N1178 X5.2377 Y-0.0236 Z0.0336
N1179 X5.239 Y-0.0244 Z0.039
N1180 X5.2398 Y-0.0248 Z0.0444
N1181 X5.24 Y-0.025 Z0.05
N1182 G0 Z0.1969
N1183 X5.2153 Y0.262
N1184 Z0.0121
N1185 G1 Z-0.0118 F182
N1186 X5.2155 Y0.2618 Z-0.0172
N1187 X5.2163 Y0.2614 Z-0.0225
N1188 X5.2175 Y0.2607 Z-0.0277
N1189 X5.2192 Y0.2597 Z-0.0327
N1190 X5.2214 Y0.2584 Z-0.0374
N1191 X5.224 Y0.2569 Z-0.0419
N1192 X5.227 Y0.2552 Z-0.046
N1193 X5.2304 Y0.2533 Z-0.0497
N1194 X5.234 Y0.2511 Z-0.053
N1195 X5.238 Y0.2488 Z-0.0558
N1196 X5.2422 Y0.2464 Z-0.0581
N1197 X5.2466 Y0.2439 Z-0.0599
N1198 X5.2512 Y0.2412 Z-0.0611
N1199 X5.2558 Y0.2386 Z-0.0617
N1200 X5.2604 Y0.2359 Z-0.0618
N1201 X5.2651 Y0.2332 Z-0.0612
N1202 X5.3728 Y0.171 Z-0.0423
N1203 X5.5145 Y0.0892 Z-0.0161
N1204 X5.555 Y0.0658 Z-0.0088
N1205 X5.5841 Y0.049 Z-0.0049
N1206 X5.6133 Y0.0322 Z-0.0021
N1207 X5.6425 Y0.0153 Z-0.0005
N1208 X5.6697 Y-0.0004 Z0
N1209 X5.6745 Y-0.0031 Z0.0004
N1210 X5.6792 Y-0.0059 Z0.0014
N1211 X5.6838 Y-0.0085 Z0.003
N1212 X5.6882 Y-0.0111 Z0.0052
N1213 X5.6924 Y-0.0135 Z0.0079
N1214 X5.6963 Y-0.0157 Z0.0112
N1215 X5.6999 Y-0.0178 Z0.0149
N1216 X5.703 Y-0.0196 Z0.0191
N1217 X5.7058 Y-0.0212 Z0.0236
N1218 X5.7081 Y-0.0226 Z0.0285
N1219 X5.7099 Y-0.0236 Z0.0336
N1220 X5.7112 Y-0.0244 Z0.039
N1221 X5.712 Y-0.0248 Z0.0444
N1222 X5.7123 Y-0.025 Z0.05
N1223 G0 Z0.1969
N1224 X5.4352 Y0.4077
N1225 Z-0.0293
N1226 G1 Z-0.0526 F182
N1227 X5.4354 Y0.4075 Z-0.058
N1228 X5.4362 Y0.4071 Z-0.0632
N1229 X5.4374 Y0.4064 Z-0.0684
N1230 X5.439 Y0.4054 Z-0.0733
N1231 X5.4412 Y0.4042 Z-0.078
N1232 X5.4437 Y0.4027 Z-0.0825
N1233 X5.4467 Y0.401 Z-0.0866
N1234 X5.45 Y0.3991 Z-0.0903
N1235 X5.4536 Y0.397 Z-0.0936
N1236 X5.4575 Y0.3948 Z-0.0964
N1237 X5.4617 Y0.3924 Z-0.0987
N1238 X5.466 Y0.3899 Z-0.1005
N1239 X5.4705 Y0.3873 Z-0.1018
N1240 X5.475 Y0.3847 Z-0.1025
N1241 X5.4797 Y0.382 Z-0.1026
N1242 X5.4842 Y0.3794 Z-0.1022
N1243 X5.5612 Y0.3349 Z-0.0902
N1244 X5.7032 Y0.2529 Z-0.067
N1245 X5.8451 Y0.171 Z-0.0423
N1246 X5.9867 Y0.0892 Z-0.0161
N1247 X6.0273 Y0.0658 Z-0.0088
N1248 X6.0564 Y0.049 Z-0.0049
N1249 X6.0856 Y0.0322 Z-0.0021
N1250 X6.1148 Y0.0153 Z-0.0005
N1251 X6.1419 Y-0.0004 Z0
N1252 X6.1451 Y-0.0022 Z0.0003
N1253 X6.1482 Y-0.004 Z0.0012
N1254 X6.1511 Y-0.0057 Z0.0025
N1255 X6.1542 Y-0.0074 Z0.004
N1256 X6.1574 Y-0.0093 Z0.0048
N1257 X6.1607 Y-0.0112 Z0.0051
N1258 X6.5149 Y-0.2157
N1259 G3 X6.6173 Y-0.1882 I0.0375 J0.065
N1260 G1 X6.6604 Y-0.1136
N1261 G3 X6.6329 Y-0.0112 I-0.065 J0.0375
N1262 G1 X6.6297 Y-0.0093 Z0.0048
N1263 X6.6265 Y-0.0074 Z0.004
N1264 X6.6234 Y-0.0057 Z0.0025
N1265 X6.6205 Y-0.004 Z0.0012
N1266 X6.6174 Y-0.0022 Z0.0003
N1267 X6.6142 Y-0.0004 Z0
N1268 X6.5871 Y0.0153 Z-0.0005
N1269 X6.5578 Y0.0322 Z-0.0021
N1270 X6.5286 Y0.049 Z-0.0049
N1271 X6.4996 Y0.0658 Z-0.0088
N1272 X6.459 Y0.0892 Z-0.0161
N1273 X6.3174 Y0.171 Z-0.0423
N1274 X6.1755 Y0.2529 Z-0.067
N1275 X6.0335 Y0.3349 Z-0.0902
N1276 X5.8913 Y0.417 Z-0.112
N1277 X5.7489 Y0.4992 Z-0.1323
N1278 X5.6307 Y0.5675 Z-0.1481
N1279 X5.6276 Y0.5692 Z-0.1482
N1280 X5.6245 Y0.571 Z-0.1479
N1281 X5.6216 Y0.5727 Z-0.147
N1282 X5.6187 Y0.5744 Z-0.1457
N1283 X5.6156 Y0.5762 Z-0.1443
N1284 X5.6124 Y0.578 Z-0.1434
N1285 X5.6092 Y0.5799 Z-0.1431
N1286 X5.5721 Y0.6013
N1287 X5.5692 Y0.6031
N1288 X5.5664 Y0.6049 Z-0.1432
N1289 X5.5637 Y0.6069 Z-0.1433
N1290 X5.5611 Y0.609 Z-0.1434
N1291 X5.5586 Y0.6112 Z-0.1435
N1292 X5.5561 Y0.6136 Z-0.1436
N1293 X5.5538 Y0.616 Z-0.1438
N1294 X5.5516 Y0.6185 Z-0.144
N1295 X5.5495 Y0.6212 Z-0.1443
N1296 X5.5476 Y0.6239 Z-0.1445
N1297 X5.5457 Y0.6267 Z-0.1448
N1298 X5.544 Y0.6296 Z-0.1451
N1299 X5.5424 Y0.6325 Z-0.1455
N1300 X5.5409 Y0.6355 Z-0.1458
N1301 X5.5396 Y0.6386 Z-0.1462
N1302 X5.5385 Y0.6417 Z-0.1466
N1303 X5.5374 Y0.6449 Z-0.147
N1304 X5.5365 Y0.6481 Z-0.1475
N1305 X5.5358 Y0.6514 Z-0.148
N1306 X5.5352 Y0.6546 Z-0.1484
N1307 X5.5347 Y0.6579 Z-0.1489
N1308 X5.5344 Y0.6613 Z-0.1495
N1309 X5.5343 Y0.6646 Z-0.15
N1310 Y0.6679 Z-0.1505
N1311 X5.5344 Y0.6712 Z-0.1511
N1312 X5.5347 Y0.6745 Z-0.1517
N1313 X5.5352 Y0.6778 Z-0.1523
N1314 X5.5358 Y0.6811 Z-0.1529
N1315 X5.5365 Y0.6843 Z-0.1535
N1316 X5.5374 Y0.6875 Z-0.1541
N1317 X5.5384 Y0.6906 Z-0.1547
N1318 X5.5396 Y0.6937 Z-0.1553
N1319 X5.5409 Y0.6967 Z-0.156
N1320 X5.5424 Y0.6997 Z-0.1566
N1321 X5.544 Y0.7026 Z-0.1572
N1322 X5.5884 Y0.7795 Z-0.1742
N1323 X5.5901 Y0.7823 Z-0.1748
N1324 X5.5919 Y0.7851 Z-0.1755
N1325 X5.5939 Y0.7877 Z-0.1761
N1326 X5.596 Y0.7903 Z-0.1767
N1327 X5.5982 Y0.7928 Z-0.1773
N1328 X5.6005 Y0.7951 Z-0.178
N1329 X5.6029 Y0.7974 Z-0.1786
N1330 X5.6055 Y0.7995 Z-0.1792
N1331 X5.6081 Y0.8016 Z-0.1797
N1332 X5.6108 Y0.8035 Z-0.1803
N1333 X5.6136 Y0.8053 Z-0.1809
N1334 X5.6165 Y0.8069 Z-0.1814
N1335 X5.6194 Y0.8085 Z-0.182
N1336 X5.6224 Y0.8098 Z-0.1825
N1337 X5.6255 Y0.8111 Z-0.183
N1338 X5.6286 Y0.8122 Z-0.1835
N1339 X5.6318 Y0.8132 Z-0.1839
N1340 X5.6351 Y0.814 Z-0.1844
N1341 X5.6383 Y0.8147 Z-0.1848
N1342 X5.6416 Y0.8153 Z-0.1852
N1343 X5.6449 Y0.8157 Z-0.1856
N1344 X5.6483 Y0.8159 Z-0.186
N1345 X5.6516 Y0.816 Z-0.1863
N1346 X5.655 Z-0.1866
N1347 X5.6583 Y0.8158 Z-0.1869
N1348 X5.6617 Y0.8154 Z-0.1872
N1349 X5.665 Y0.8149 Z-0.1874
N1350 X5.6683 Y0.8143 Z-0.1876
N1351 X5.6716 Y0.8135 Z-0.1878
N1352 X5.6748 Y0.8126 Z-0.1879
N1353 X5.678 Y0.8115 Z-0.1881
N1354 X5.6811 Y0.8103 Z-0.1882
N1355 X5.6842 Y0.8089
N1356 X5.6872 Y0.8074 Z-0.1883
N1357 X5.6902 Y0.8058
N1358 X5.6934 Y0.8039 Z-0.1886
N1359 X5.6966 Y0.8021 Z-0.1894
N1360 X5.6997 Y0.8003 Z-0.1908
N1361 X5.7024 Y0.7987 Z-0.1921
N1362 X5.7053 Y0.7971 Z-0.193
N1363 X5.7082 Y0.7954 Z-0.1934
N1364 X5.7112 Y0.7937 Z-0.1933
N1365 X5.7963 Y0.7445 Z-0.1844
N1366 X5.9391 Y0.6621 Z-0.1683
N1367 X6.0818 Y0.5797 Z-0.1508
N1368 X6.2243 Y0.4974 Z-0.1319
N1369 X6.2264 Y0.4962 Z-0.1315
N1370 X6.2293 Y0.4946 Z-0.1308
N1371 X6.2323 Y0.4932 Z-0.13
N1372 X6.2353 Y0.4919 Z-0.1293
N1373 X6.2384 Y0.4907 Z-0.1287
N1374 X6.2415 Y0.4897 Z-0.128
N1375 X6.2447 Y0.4888 Z-0.1273
N1376 X6.2479 Y0.488 Z-0.1266
N1377 X6.2511 Y0.4874 Z-0.126
N1378 X6.2544 Y0.487 Z-0.1254
N1379 X6.2577 Y0.4867 Z-0.1248
N1380 X6.261 Y0.4866 Z-0.1242
N1381 X6.2643 Z-0.1236
N1382 X6.2676 Y0.4867 Z-0.1231
N1383 X6.271 Y0.487 Z-0.1225
N1384 X6.2743 Y0.4875 Z-0.122
N1385 X6.2775 Y0.4881 Z-0.1215
N1386 X6.2808 Y0.4888 Z-0.1211
N1387 X6.284 Y0.4897 Z-0.1206
N1388 X6.2872 Y0.4907 Z-0.1202
N1389 X6.2903 Y0.4919 Z-0.1199
N1390 X6.2934 Y0.4932 Z-0.1195
N1391 X6.2964 Y0.4947 Z-0.1192
N1392 X6.2994 Y0.4962 Z-0.1189
N1393 X6.3022 Y0.498 Z-0.1186
N1394 X6.3051 Y0.4998 Z-0.1184
N1395 X6.3078 Y0.5018 Z-0.1182
N1396 X6.3104 Y0.5038 Z-0.118
N1397 X6.313 Y0.506 Z-0.1179
N1398 X6.3154 Y0.5083 Z-0.1178
N1399 X6.3178 Y0.5108 Z-0.1177
N1400 X6.32 Y0.5133
N1401 X6.3221 Y0.5159
N1402 X6.3241 Y0.5186
N1403 X6.326 Y0.5214
N1404 X6.3278 Y0.5242 Z-0.1178
N1405 X6.3714 Y0.5986 Z-0.1205
N1406 X6.373 Y0.6015 Z-0.1206
N1407 X6.3745 Y0.6045 Z-0.1208
N1408 X6.3759 Y0.6076 Z-0.1209
N1409 X6.3772 Y0.6107 Z-0.1212
N1410 X6.3783 Y0.6139 Z-0.1214
N1411 X6.3792 Y0.6171 Z-0.1217
N1412 X6.38 Y0.6204 Z-0.122
N1413 X6.3807 Y0.6237 Z-0.1223
N1414 X6.3812 Y0.627 Z-0.1227
N1415 X6.3816 Y0.6303 Z-0.1231
N1416 X6.3818 Y0.6336 Z-0.1235
N1417 X6.3819 Y0.637 Z-0.1239
N1418 X6.3818 Y0.6403 Z-0.1244
N1419 X6.3816 Y0.6436 Z-0.1249
N1420 X6.3812 Y0.6469 Z-0.1254
N1421 X6.3807 Y0.6502 Z-0.126
N1422 X6.38 Y0.6534 Z-0.1265
N1423 X6.3792 Y0.6567 Z-0.1271
N1424 X6.3783 Y0.6598 Z-0.1277
N1425 X6.3772 Y0.663 Z-0.1283
N1426 X6.3759 Y0.666 Z-0.1289
N1427 X6.3745 Y0.669 Z-0.1296
N1428 X6.373 Y0.672 Z-0.1303
N1429 X6.3714 Y0.6748 Z-0.1309
N1430 X6.3696 Y0.6776 Z-0.1316
N1431 X6.3678 Y0.6803 Z-0.1323
N1432 X6.3657 Y0.6829 Z-0.133
N1433 X6.3636 Y0.6854 Z-0.1337
N1434 X6.3614 Y0.6878 Z-0.1344
N1435 X6.359 Y0.6901 Z-0.1352
N1436 X6.3566 Y0.6923 Z-0.1359
N1437 X6.354 Y0.6944 Z-0.1366
N1438 X6.3514 Y0.6964 Z-0.1373
N1439 X6.3487 Y0.6982 Z-0.138
N1440 X6.3459 Y0.6999 Z-0.1388
N1441 X6.0953 Y0.8446 Z-0.2018
N1442 X6.0923 Y0.8463 Z-0.2023
N1443 X5.9493 Y0.9289 Z-0.2152
N1444 X5.8062 Y1.0115 Z-0.2268
N1445 X5.708 Y1.0682 Z-0.234
N1446 X5.7033 Y1.0709
N1447 X5.6986 Y1.0736 Z-0.2335
N1448 X5.694 Y1.0763 Z-0.2323
N1449 X5.6895 Y1.0788 Z-0.2306
N1450 X5.6852 Y1.0813 Z-0.2284
N1451 X5.6812 Y1.0837 Z-0.2256
N1452 X5.6774 Y1.0858 Z-0.2223
N1453 X5.674 Y1.0878 Z-0.2186
N1454 X5.6709 Y1.0896 Z-0.2145
N1455 X5.6683 Y1.0911 Z-0.21
N1456 X5.666 Y1.0924 Z-0.2052
N1457 X5.6643 Y1.0934 Z-0.2001
N1458 X5.663 Y1.0941 Z-0.1949
N1459 X5.6623 Y1.0946 Z-0.1895
N1460 X5.662 Y1.0947 Z-0.1841
N1461 G0 Z0.1969
N1462 X6.1532 Y1.0838
N1463 Z-0.1583
N1464 G1 Z-0.1886 F182
N1465 X6.1529 Y1.084 Z-0.194
N1466 X6.1522 Y1.0844 Z-0.1994
N1467 X6.1509 Y1.0851 Z-0.2046
N1468 X6.1492 Y1.0861 Z-0.2096
N1469 X6.147 Y1.0874 Z-0.2144
N1470 X6.1443 Y1.0889 Z-0.2189
N1471 X6.1413 Y1.0907 Z-0.223
N1472 X6.1379 Y1.0927 Z-0.2268
N1473 X6.1341 Y1.0948 Z-0.23
N1474 X6.1301 Y1.0971 Z-0.2328
N1475 X6.1258 Y1.0996 Z-0.2351
N1476 X6.1214 Y1.1022 Z-0.2368
N1477 X6.1168 Y1.1048 Z-0.238
N1478 X6.1121 Y1.1075 Z-0.2385
N1479 X5.9688 Y1.1903 Z-0.2472
N1480 X5.8255 Y1.273 Z-0.2544
N1481 X5.6821 Y1.3558 Z-0.2603
N1482 X5.5314 Y1.4428 Z-0.265
N1483 X5.4746 Y1.4756 Z-0.2664
N1484 X5.47 Y1.4783 Z-0.2662
N1485 X5.4654 Y1.4809 Z-0.2655
N1486 X5.461 Y1.4835 Z-0.2642
N1487 X5.4567 Y1.486 Z-0.2624
N1488 X5.4525 Y1.4883 Z-0.2601
N1489 X5.4486 Y1.4906 Z-0.2572
N1490 X5.445 Y1.4927 Z-0.2539
N1491 X5.4418 Y1.4946 Z-0.2502
N1492 X5.4388 Y1.4963 Z-0.2461
N1493 X5.4363 Y1.4977 Z-0.2417
N1494 X5.4342 Y1.4989 Z-0.237
N1495 X5.4325 Y1.4999 Z-0.2321
N1496 X5.4313 Y1.5006 Z-0.2269
N1497 X5.4306 Y1.501 Z-0.2217
N1498 X5.4303 Y1.5012 Z-0.2164
N1499 G0 Z0.1969
N1500 X4.2496 Y0.5468
N1501 Z-0.0626
N1502 G1 Z-0.0987 F182
N1503 X4.2494 Y0.5469 Z-0.1039
N1504 X4.2487 Y0.5474 Z-0.1091
N1505 X4.2475 Y0.548 Z-0.1142
N1506 X4.2459 Y0.549 Z-0.119
N1507 X4.2439 Y0.5502 Z-0.1237
N1508 X4.2414 Y0.5516 Z-0.1281
N1509 X4.2386 Y0.5532 Z-0.1321
N1510 X4.2354 Y0.5551 Z-0.1358
N1511 X4.2318 Y0.5571 Z-0.1391
N1512 X4.2281 Y0.5593 Z-0.142
N1513 X4.224 Y0.5616 Z-0.1444
N1514 X4.2198 Y0.564 Z-0.1463
N1515 X4.2154 Y0.5666 Z-0.1476
N1516 X4.211 Y0.5691 Z-0.1484
N1517 X4.0683 Y0.6515 Z-0.1661
N1518 X3.9256 Y0.7339 Z-0.1824
N1519 X3.7827 Y0.8164 Z-0.1972
N1520 X3.749 Y0.8359 Z-0.2005
N1521 X3.746 Y0.8376 Z-0.2006
N1522 X3.7431 Y0.8392 Z-0.2002
N1523 X3.7403 Y0.8409 Z-0.1994
N1524 X3.7376 Y0.8424 Z-0.1981
N1525 X3.7345 Y0.8442 Z-0.1967
N1526 X3.7313 Y0.846 Z-0.1958
N1527 X3.7281 Y0.8479 Z-0.1955
N1528 X3.5882 Y0.9287
N1529 X3.5853 Y0.9304
N1530 X3.5825 Y0.9323 Z-0.1956
N1531 X3.5798 Y0.9343
N1532 X3.5772 Y0.9364 Z-0.1957
N1533 X3.5747 Y0.9386 Z-0.1958
N1534 X3.5722 Y0.941 Z-0.196
N1535 X3.5699 Y0.9434 Z-0.1961
N1536 X3.5677 Y0.946 Z-0.1963
N1537 X3.5656 Y0.9486 Z-0.1965
N1538 X3.5637 Y0.9513 Z-0.1968
N1539 X3.5618 Y0.9541 Z-0.197
N1540 X3.5601 Y0.957 Z-0.1973
N1541 X3.5585 Y0.96 Z-0.1976
N1542 X3.5571 Y0.963 Z-0.1979
N1543 X3.5558 Y0.9661 Z-0.1982
N1544 X3.5546 Y0.9692 Z-0.1986
N1545 X3.5536 Y0.9724 Z-0.199
N1546 X3.5527 Y0.9756 Z-0.1994
N1547 X3.5519 Y0.9789 Z-0.1998
N1548 X3.5513 Y0.9821 Z-0.2002
N1549 X3.5509 Y0.9854 Z-0.2006
N1550 X3.5506 Y0.9888 Z-0.2011
N1551 X3.5505 Y0.9921 Z-0.2016
N1552 Y0.9954 Z-0.202
N1553 X3.5506 Y0.9988 Z-0.2025
N1554 X3.5509 Y1.0021 Z-0.203
N1555 X3.5514 Y1.0054 Z-0.2036
N1556 X3.552 Y1.0086 Z-0.2041
N1557 X3.5527 Y1.0119 Z-0.2046
N1558 X3.5536 Y1.0151 Z-0.2052
N1559 X3.5547 Y1.0182 Z-0.2057
N1560 X3.5559 Y1.0213 Z-0.2062
N1561 X3.5572 Y1.0244 Z-0.2068
N1562 X3.5586 Y1.0273 Z-0.2074
N1563 X3.5602 Y1.0303 Z-0.2079
N1564 X3.6043 Y1.1066 Z-0.2227
N1565 X3.6061 Y1.1095 Z-0.2232
N1566 X3.6079 Y1.1122 Z-0.2238
N1567 X3.6099 Y1.1149 Z-0.2243
N1568 X3.612 Y1.1175 Z-0.2249
N1569 X3.6142 Y1.12 Z-0.2254
N1570 X3.6165 Y1.1223 Z-0.226
N1571 X3.6189 Y1.1246 Z-0.2265
N1572 X3.6215 Y1.1268 Z-0.227
N1573 X3.6241 Y1.1288 Z-0.2275
N1574 X3.6268 Y1.1307 Z-0.228
N1575 X3.6296 Y1.1325 Z-0.2285
N1576 X3.6325 Y1.1342 Z-0.229
N1577 X3.6354 Y1.1357 Z-0.2295
N1578 X3.6385 Y1.1371 Z-0.2299
N1579 X3.6416 Y1.1384 Z-0.2304
N1580 X3.6447 Y1.1395 Z-0.2308
N1581 X3.6479 Y1.1405 Z-0.2312
N1582 X3.6511 Y1.1414 Z-0.2316
N1583 X3.6544 Y1.1421 Z-0.232
N1584 X3.6577 Y1.1426 Z-0.2323
N1585 X3.661 Y1.143 Z-0.2327
N1586 X3.6644 Y1.1433 Z-0.233
N1587 X3.6677 Y1.1434 Z-0.2333
N1588 X3.6711 Y1.1433 Z-0.2336
N1589 X3.6744 Y1.1431 Z-0.2338
N1590 X3.6778 Y1.1428 Z-0.234
N1591 X3.6811 Y1.1423 Z-0.2342
N1592 X3.6844 Y1.1417 Z-0.2344
N1593 X3.6877 Y1.1409 Z-0.2346
N1594 X3.6909 Y1.1399 Z-0.2347
N1595 X3.6941 Y1.1389 Z-0.2348
N1596 X3.6972 Y1.1377 Z-0.2349
N1597 X3.7003 Y1.1363 Z-0.235
N1598 X3.7033 Y1.1348
N1599 X3.7063 Y1.1332
N1600 X3.7095 Y1.1313 Z-0.2353
N1601 X3.7127 Y1.1295 Z-0.2362
N1602 X3.7158 Y1.1277 Z-0.2376
N1603 X3.7184 Y1.1262 Z-0.2388
N1604 X3.721 Y1.1247 Z-0.2396
N1605 X3.7238 Y1.1231 Z-0.2401
N1606 X3.7266 Y1.1215
N1607 X3.8341 Y1.0594 Z-0.2329
N1608 X3.9773 Y0.9767 Z-0.2221
N1609 X4.1204 Y0.8941 Z-0.21
N1610 X4.125 Y0.8914 Z-0.2093
N1611 X4.1295 Y0.8888 Z-0.208
N1612 X4.1339 Y0.8863 Z-0.2063
N1613 X4.1381 Y0.8839 Z-0.2039
N1614 X4.142 Y0.8816 Z-0.2011
N1615 X4.1456 Y0.8795 Z-0.1978
N1616 X4.149 Y0.8776 Z-0.1941
N1617 X4.1519 Y0.8759 Z-0.19
N1618 X4.1545 Y0.8744 Z-0.1856
N1619 X4.1567 Y0.8732 Z-0.1808
N1620 X4.1583 Y0.8722 Z-0.1759
N1621 X4.1596 Y0.8715 Z-0.1707
N1622 X4.1603 Y0.8711 Z-0.1654
N1623 X4.1606 Y0.8709 Z-0.1601
N1624 G0 Z0.1969
N1625 X2.2501 Y0.6105
N1626 Z-0.077
N1627 G1 Z-0.1125 F182
N1628 X2.2499 Y0.6107 Z-0.1178
N1629 X2.2492 Y0.6111 Z-0.123
N1630 X2.248 Y0.6118 Z-0.128
N1631 X2.2464 Y0.6127 Z-0.1329
N1632 X2.2443 Y0.6139 Z-0.1376
N1633 X2.2418 Y0.6153 Z-0.142
N1634 X2.239 Y0.617 Z-0.1461
N1635 X2.2357 Y0.6189 Z-0.1498
N1636 X2.2322 Y0.6209 Z-0.1531
N1637 X2.2284 Y0.6231 Z-0.1559
N1638 X2.2243 Y0.6255 Z-0.1583
N1639 X2.2201 Y0.6279 Z-0.1601
N1640 X2.2157 Y0.6305 Z-0.1615
N1641 X2.2112 Y0.633 Z-0.1623
N1642 X2.0684 Y0.7155 Z-0.1789
N1643 X1.9255 Y0.798 Z-0.194
N1644 X1.7844 Y0.8795 Z-0.2077
N1645 X1.7815 Y0.8811
N1646 X1.7786 Y0.8828 Z-0.2073
N1647 X1.7757 Y0.8844 Z-0.2065
N1648 X1.773 Y0.886 Z-0.2052
N1649 X1.77 Y0.8878 Z-0.2038
N1650 X1.7668 Y0.8896 Z-0.2029
N1651 X1.7635 Y0.8915 Z-0.2026
N1652 X1.6014 Y0.9851
N1653 X1.5985 Y0.9869 Z-0.2027
N1654 X1.5957 Y0.9887
N1655 X1.593 Y0.9907 Z-0.2028
N1656 X1.5904 Y0.9928
N1657 X1.5878 Y0.9951 Z-0.2029
N1658 X1.5854 Y0.9974 Z-0.2031
N1659 X1.5831 Y0.9998 Z-0.2032
N1660 X1.5809 Y1.0024 Z-0.2034
N1661 X1.5788 Y1.005 Z-0.2036
N1662 X1.5768 Y1.0077 Z-0.2038
N1663 X1.575 Y1.0105 Z-0.2041
N1664 X1.5733 Y1.0134 Z-0.2043
N1665 X1.5717 Y1.0164 Z-0.2046
N1666 X1.5703 Y1.0194 Z-0.2049
N1667 X1.5689 Y1.0225 Z-0.2053
N1668 X1.5678 Y1.0256 Z-0.2056
N1669 X1.5667 Y1.0288 Z-0.206
N1670 X1.5658 Y1.032 Z-0.2063
N1671 X1.5651 Y1.0353 Z-0.2067
N1672 X1.5645 Y1.0386 Z-0.2072
N1673 X1.5641 Y1.0419 Z-0.2076
N1674 X1.5638 Y1.0452 Z-0.208
N1675 X1.5636 Y1.0485 Z-0.2085
N1676 Y1.0519 Z-0.209
N1677 X1.5638 Y1.0552 Z-0.2094
N1678 X1.5641 Y1.0585 Z-0.2099
N1679 X1.5646 Y1.0618 Z-0.2104
N1680 X1.5652 Y1.0651 Z-0.2109
N1681 X1.5659 Y1.0683 Z-0.2114
N1682 X1.5668 Y1.0715 Z-0.212
N1683 X1.5679 Y1.0747 Z-0.2125
N1684 X1.569 Y1.0778 Z-0.213
N1685 X1.5704 Y1.0808 Z-0.2136
N1686 X1.5718 Y1.0838 Z-0.2141
N1687 X1.5734 Y1.0867 Z-0.2146
N1688 X1.6175 Y1.163 Z-0.2289
N1689 X1.6192 Y1.1658 Z-0.2294
N1690 X1.621 Y1.1686 Z-0.23
N1691 X1.623 Y1.1713 Z-0.2305
N1692 X1.6251 Y1.1739 Z-0.231
N1693 X1.6273 Y1.1763 Z-0.2316
N1694 X1.6296 Y1.1787 Z-0.2321
N1695 X1.6321 Y1.181 Z-0.2326
N1696 X1.6346 Y1.1831 Z-0.2331
N1697 X1.6372 Y1.1852 Z-0.2336
N1698 X1.64 Y1.1871 Z-0.2341
N1699 X1.6428 Y1.1889 Z-0.2346
N1700 X1.6456 Y1.1906 Z-0.2351
N1701 X1.6486 Y1.1921 Z-0.2355
N1702 X1.6516 Y1.1935 Z-0.236
N1703 X1.6547 Y1.1948 Z-0.2364
N1704 X1.6579 Y1.1959 Z-0.2368
N1705 X1.661 Y1.1969 Z-0.2372
N1706 X1.6643 Y1.1978 Z-0.2376
N1707 X1.6676 Y1.1985 Z-0.2379
N1708 X1.6709 Y1.199 Z-0.2383
N1709 X1.6742 Y1.1994 Z-0.2386
N1710 X1.6775 Y1.1997 Z-0.2389
N1711 X1.6809 Y1.1998 Z-0.2392
N1712 X1.6842 Y1.1997 Z-0.2395
N1713 X1.6876 Y1.1995 Z-0.2397
N1714 X1.6909 Y1.1992 Z-0.2399
N1715 X1.6942 Y1.1987 Z-0.2401
N1716 X1.6975 Y1.1981 Z-0.2403
N1717 X1.7008 Y1.1973 Z-0.2405
N1718 X1.704 Y1.1964 Z-0.2406
N1719 X1.7072 Y1.1953 Z-0.2407
N1720 X1.7104 Y1.1941 Z-0.2408
N1721 X1.7135 Y1.1927 Z-0.2409
N1722 X1.7165 Y1.1912
N1723 X1.7194 Y1.1896
N1724 X1.7227 Y1.1877 Z-0.2412
N1725 X1.7259 Y1.1859 Z-0.242
N1726 X1.729 Y1.1841 Z-0.2435
N1727 X1.7315 Y1.1827 Z-0.2447
N1728 X1.7342 Y1.1811 Z-0.2455
N1729 X1.7369 Y1.1795 Z-0.2459
N1730 X1.7396 Y1.178 Z-0.246
N1731 X1.8652 Y1.1055 Z-0.2383
N1732 X2.0084 Y1.0228 Z-0.2283
N1733 X2.1516 Y0.9401 Z-0.2169
N1734 X2.1543 Y0.9385 Z-0.2165
N1735 X2.157 Y0.937 Z-0.2156
N1736 X2.1596 Y0.9355 Z-0.2144
N1737 X2.1627 Y0.9337 Z-0.213
N1738 X2.1659 Y0.9319 Z-0.2122
N1739 X2.1691 Y0.93 Z-0.2119
N1740 X2.1721 Y0.9284
N1741 X2.1751 Y0.9269
N1742 X2.1782 Y0.9255
N1743 X2.1813 Y0.9243 Z-0.212
N1744 X2.1845 Y0.9233 Z-0.2121
N1745 X2.1877 Y0.9223 Z-0.2122
N1746 X2.191 Y0.9216 Z-0.2123
N1747 X2.1943 Y0.9209 Z-0.2125
N1748 X2.1976 Y0.9204 Z-0.2126
N1749 X2.201 Y0.9201 Z-0.2128
N1750 X2.2043 Y0.9199 Z-0.213
N1751 X2.2077 Z-0.2132
N1752 X2.2111 Y0.92 Z-0.2134
N1753 X2.2144 Y0.9203 Z-0.2137
N1754 X2.2177 Y0.9207 Z-0.2139
N1755 X2.221 Y0.9212 Z-0.2142
N1756 X2.2243 Y0.9219 Z-0.2145
N1757 X2.2276 Y0.9228 Z-0.2148
N1758 X2.2308 Y0.9238 Z-0.2151
N1759 X2.2339 Y0.9249 Z-0.2154
N1760 X2.237 Y0.9262 Z-0.2157
N1761 X2.24 Y0.9276 Z-0.2161
N1762 X2.243 Y0.9292 Z-0.2164
N1763 X2.2459 Y0.9309 Z-0.2168
N1764 X2.2487 Y0.9327 Z-0.2172
N1765 X2.2514 Y0.9346 Z-0.2175
N1766 X2.2541 Y0.9367 Z-0.2179
N1767 X2.2566 Y0.9389 Z-0.2183
N1768 X2.259 Y0.9411 Z-0.2187
N1769 X2.2614 Y0.9435 Z-0.2191
N1770 X2.2636 Y0.946 Z-0.2196
N1771 X2.2657 Y0.9486 Z-0.22
N1772 X2.2677 Y0.9513 Z-0.2204
N1773 X2.2696 Y0.9541 Z-0.2208
N1774 X2.2713 Y0.9569 Z-0.2212
N1775 X2.3149 Y1.0325 Z-0.2322
N1776 X2.3165 Y1.0355 Z-0.2326
N1777 X2.318 Y1.0385 Z-0.2331
N1778 X2.3193 Y1.0415 Z-0.2335
N1779 X2.3205 Y1.0447 Z-0.2339
N1780 X2.3216 Y1.0478 Z-0.2343
N1781 X2.3225 Y1.051 Z-0.2347
N1782 X2.3233 Y1.0543 Z-0.2351
N1783 X2.3239 Y1.0576 Z-0.2355
N1784 X2.3243 Y1.0609 Z-0.2359
N1785 X2.3247 Y1.0642 Z-0.2363
N1786 X2.3248 Y1.0676 Z-0.2366
N1787 Y1.0709 Z-0.237
N1788 X2.3247 Y1.0743 Z-0.2374
N1789 X2.3244 Y1.0776 Z-0.2377
N1790 X2.324 Y1.0809 Z-0.238
N1791 X2.3234 Y1.0842 Z-0.2384
N1792 X2.3226 Y1.0875 Z-0.2387
N1793 X2.3218 Y1.0907 Z-0.239
N1794 X2.3207 Y1.0939 Z-0.2393
N1795 X2.3196 Y1.0971 Z-0.2395
N1796 X2.3183 Y1.1001 Z-0.2398
N1797 X2.3168 Y1.1032 Z-0.24
N1798 X2.3152 Y1.1061 Z-0.2402
N1799 X2.3135 Y1.109 Z-0.2405
N1800 X2.3117 Y1.1118 Z-0.2406
N1801 X2.3097 Y1.1146 Z-0.2408
N1802 X2.3076 Y1.1172 Z-0.241
N1803 X2.3054 Y1.1197 Z-0.2411
N1804 X2.3031 Y1.1222 Z-0.2412
N1805 X2.3007 Y1.1245 Z-0.2413
N1806 X2.2982 Y1.1268 Z-0.2414
N1807 X2.2956 Y1.1289 Z-0.2415
N1808 X2.2929 Y1.1309
N1809 X2.2901 Y1.1327 Z-0.2416
N1810 X2.2872 Y1.1345
N1811 X2.218 Y1.1745
N1812 X2.2147 Y1.1764 Z-0.2419
N1813 X2.2115 Y1.1782 Z-0.2427
N1814 X2.2084 Y1.18 Z-0.2441
N1815 X2.2057 Y1.1815 Z-0.2454
N1816 X2.2028 Y1.1832 Z-0.2463
N1817 X2.1999 Y1.1849 Z-0.2467
N1818 X2.0565 Y1.2677 Z-0.254
N1819 X1.9132 Y1.3504 Z-0.2599
N1820 X1.7692 Y1.4335 Z-0.2646
N1821 X1.6162 Y1.5219 Z-0.268
N1822 X1.4632 Y1.6102 Z-0.2699
N1823 X1.3148 Y1.6959 Z-0.2702
N1824 X1.1617 Y1.7843 Z-0.2689
N1825 X1.0427 Y1.853 Z-0.267
N1826 X0.9313 Y1.9173 Z-0.2643
N1827 X0.8274 Y1.9773 Z-0.261
N1828 X0.7114 Y2.0443 Z-0.2565
N1829 X0.5824 Y2.1188 Z-0.2505
N1830 X0.4287 Y2.2075 Z-0.2419
N1831 X0.3128 Y2.2744 Z-0.2344
N1832 X0.197 Y2.3413 Z-0.2259
N1833 X0.0812 Y2.4081 Z-0.2166
N1834 X-0.0004 Y2.4552 Z-0.2094
N1835 X-0.0031 Y2.4568 Z-0.209
N1836 X-0.0058 Y2.4583 Z-0.2082
N1837 X-0.0083 Y2.4598 Z-0.2069
N1838 X-0.0113 Y2.4616 Z-0.2055
N1839 X-0.0145 Y2.4634 Z-0.2047
N1840 X-0.0178 Y2.4653 Z-0.2044
N1841 X-0.1353 Y2.5331
N1842 X-0.1382 Y2.5349
N1843 X-0.141 Y2.5367 Z-0.2043
N1844 X-0.1437 Y2.5387
N1845 X-0.1463 Y2.5408 Z-0.2041
N1846 X-0.1488 Y2.543 Z-0.204
N1847 X-0.1512 Y2.5454 Z-0.2038
N1848 X-0.1536 Y2.5478 Z-0.2036
N1849 X-0.1558 Y2.5503 Z-0.2034
N1850 X-0.1579 Y2.553 Z-0.2031
N1851 X-0.1598 Y2.5557 Z-0.2029
N1852 X-0.1617 Y2.5585 Z-0.2025
N1853 X-0.1634 Y2.5613 Z-0.2022
N1854 X-0.165 Y2.5643 Z-0.2018
N1855 X-0.1664 Y2.5673 Z-0.2014
N1856 X-0.1678 Y2.5703 Z-0.201
N1857 X-0.169 Y2.5735 Z-0.2005
N1858 X-0.17 Y2.5766 Z-0.2001
N1859 X-0.1709 Y2.5798 Z-0.1996
N1860 X-0.1716 Y2.5831 Z-0.1991
N1861 X-0.1722 Y2.5863 Z-0.1985
N1862 X-0.1727 Y2.5896 Z-0.198
N1863 X-0.173 Y2.5929 Z-0.1974
N1864 X-0.1732 Y2.5962 Z-0.1968
N1865 Y2.5996 Z-0.1962
N1866 X-0.173 Y2.6029 Z-0.1956
N1867 X-0.1727 Y2.6062 Z-0.1949
N1868 X-0.1723 Y2.6094 Z-0.1943
N1869 X-0.1717 Y2.6127 Z-0.1936
N1870 X-0.171 Y2.6159 Z-0.193
N1871 X-0.1701 Y2.6191 Z-0.1923
N1872 X-0.1691 Y2.6222 Z-0.1916
N1873 X-0.1679 Y2.6253 Z-0.1909
N1874 X-0.1666 Y2.6283 Z-0.1902
N1875 X-0.1651 Y2.6313 Z-0.1895
N1876 X-0.1635 Y2.6341 Z-0.1888
N1877 X-0.1188 Y2.7116 Z-0.1698
N1878 X-0.1171 Y2.7144 Z-0.1691
N1879 X-0.1153 Y2.7171 Z-0.1684
N1880 X-0.1133 Y2.7198 Z-0.1677
N1881 X-0.1112 Y2.7223 Z-0.167
N1882 X-0.109 Y2.7248 Z-0.1663
N1883 X-0.1067 Y2.7271 Z-0.1657
N1884 X-0.1043 Y2.7294 Z-0.165
N1885 X-0.1018 Y2.7315 Z-0.1643
N1886 X-0.0992 Y2.7335 Z-0.1637
N1887 X-0.0965 Y2.7354 Z-0.163
N1888 X-0.0937 Y2.7372 Z-0.1624
N1889 X-0.0908 Y2.7389 Z-0.1618
N1890 X-0.0879 Y2.7404 Z-0.1612
N1891 X-0.0849 Y2.7418 Z-0.1606
N1892 X-0.0818 Y2.743 Z-0.1601
N1893 X-0.0787 Y2.7441 Z-0.1595
N1894 X-0.0755 Y2.7451 Z-0.159
N1895 X-0.0723 Y2.7459 Z-0.1585
N1896 X-0.069 Y2.7466 Z-0.1581
N1897 X-0.0657 Y2.7471 Z-0.1576
N1898 X-0.0624 Y2.7475 Z-0.1572
N1899 X-0.0591 Y2.7478 Z-0.1568
N1900 X-0.0557 Z-0.1564
N1901 X-0.0524 Z-0.1561
N1902 X-0.049 Y2.7476 Z-0.1558
N1903 X-0.0457 Y2.7472 Z-0.1555
N1904 X-0.0424 Y2.7467 Z-0.1552
N1905 X-0.0391 Y2.7461 Z-0.155
N1906 X-0.0358 Y2.7453 Z-0.1548
N1907 X-0.0326 Y2.7444 Z-0.1546
N1908 X-0.0294 Y2.7433 Z-0.1545
N1909 X-0.0263 Y2.7421 Z-0.1543
N1910 X-0.0232 Y2.7407
N1911 X-0.0202 Y2.7392 Z-0.1542
N1912 X-0.0172 Y2.7376
N1913 X-0.0139 Y2.7357 Z-0.1545
N1914 X-0.0107 Y2.7339 Z-0.1554
N1915 X-0.0077 Y2.7321 Z-0.1568
N1916 X-0.0053 Y2.7308 Z-0.1579
N1917 X-0.0029 Y2.7293 Z-0.1587
N1918 X-0.0004 Y2.7279 Z-0.1592
N1919 X0.0405 Y2.7043 Z-0.1641
N1920 X0.156 Y2.6376 Z-0.1775
N1921 X0.2585 Y2.5784 Z-0.1886
N1922 X0.3741 Y2.5117 Z-0.2003
N1923 X0.5275 Y2.4231 Z-0.2144
N1924 X0.6563 Y2.3488 Z-0.2249
N1925 X0.7721 Y2.2819 Z-0.2334
N1926 X0.888 Y2.215 Z-0.2411
N1927 X0.9908 Y2.1556 Z-0.2471
N1928 X1.1068 Y2.0887 Z-0.2531
N1929 X1.2605 Y1.9999 Z-0.2596
N1930 X1.3903 Y1.925 Z-0.2639
N1931 X1.5017 Y1.8607 Z-0.2667
N1932 X1.6141 Y1.7958 Z-0.2687
N1933 X1.7272 Y1.7305 Z-0.2698
N1934 X1.86 Y1.6538 Z-0.2702
N1935 X2.013 Y1.5655 Z-0.2691
N1936 X2.1661 Y1.4771 Z-0.2664
N1937 X2.3181 Y1.3893 Z-0.2623
N1938 X2.3212 Y1.3875 Z-0.2619
N1939 X2.3242 Y1.3858 Z-0.2611
N1940 X2.3271 Y1.3841 Z-0.2597
N1941 X2.3301 Y1.3824 Z-0.2583
N1942 X2.3333 Y1.3805 Z-0.2575
N1943 X2.3366 Y1.3786 Z-0.2572
N1944 X2.4038 Y1.3398
N1945 X2.4068 Y1.3382
N1946 X2.4098 Y1.3367
N1947 X2.4129 Y1.3354
N1948 X2.416 Y1.3342
N1949 X2.4192 Y1.3331
N1950 X2.4224 Y1.3322 Z-0.2573
N1951 X2.4257 Y1.3314
N1952 X2.429 Y1.3308
N1953 X2.4324 Y1.3303 Z-0.2574
N1954 X2.4357 Y1.33
N1955 X2.4391 Y1.3298
N1956 X2.4424 Z-0.2575
N1957 X2.4458 Y1.3299
N1958 X2.4492 Y1.3302 Z-0.2576
N1959 X2.4525 Y1.3306
N1960 X2.4558 Y1.3312 Z-0.2577
N1961 X2.4591 Y1.3319 Z-0.2578
N1962 X2.4623 Y1.3328
N1963 X2.4655 Y1.3338 Z-0.2579
N1964 X2.4687 Y1.335 Z-0.258
N1965 X2.4718 Y1.3363
N1966 X2.4749 Y1.3377 Z-0.2581
N1967 X2.4778 Y1.3393 Z-0.2582
N1968 X2.4807 Y1.341 Z-0.2583
N1969 X2.4836 Y1.3428 Z-0.2584
N1970 X2.4863 Y1.3448 Z-0.2585
N1971 X2.4889 Y1.3468
N1972 X2.4915 Y1.349 Z-0.2586
N1973 X2.4939 Y1.3513 Z-0.2587
N1974 X2.4963 Y1.3538 Z-0.2588
N1975 X2.4985 Y1.3563 Z-0.2589
N1976 X2.5006 Y1.3589 Z-0.259
N1977 X2.5026 Y1.3616 Z-0.2591
N1978 X2.5045 Y1.3644 Z-0.2592
N1979 X2.5063 Y1.3673 Z-0.2593
N1980 X2.5493 Y1.4419 Z-0.2617
N1981 X2.551 Y1.4449 Z-0.2618
N1982 X2.5524 Y1.4479 Z-0.2619
N1983 X2.5538 Y1.451 Z-0.262
N1984 X2.555 Y1.4541 Z-0.2621
N1985 X2.5561 Y1.4573
N1986 X2.557 Y1.4605 Z-0.2622
N1987 X2.5578 Y1.4638 Z-0.2623
N1988 X2.5584 Y1.4671 Z-0.2624
N1989 X2.5589 Y1.4704 Z-0.2625
N1990 X2.5592 Y1.4738 Z-0.2626
N1991 X2.5594 Y1.4772 Z-0.2627
N1992 Y1.4805 Z-0.2628
N1993 X2.5593 Y1.4839
N1994 X2.559 Y1.4872 Z-0.2629
N1995 X2.5586 Y1.4906 Z-0.263
N1996 X2.558 Y1.4939 Z-0.2631
N1997 X2.5572 Y1.4972
N1998 X2.5564 Y1.5004 Z-0.2632
N1999 X2.5554 Y1.5036 Z-0.2633
N2000 X2.5542 Y1.5068
N2001 X2.5529 Y1.5099 Z-0.2634
N2002 X2.5515 Y1.5129
N2003 X2.5499 Y1.5159 Z-0.2635
N2004 X2.5482 Y1.5188
N2005 X2.5464 Y1.5216 Z-0.2636
N2006 X2.5444 Y1.5244
N2007 X2.5423 Y1.527
N2008 X2.5401 Y1.5296 Z-0.2637
N2009 X2.5378 Y1.532
N2010 X2.5354 Y1.5344
N2011 X2.5329 Y1.5366
N2012 X2.5303 Y1.5387 Z-0.2638
N2013 X2.5276 Y1.5407
N2014 X2.5248 Y1.5426
N2015 X2.5219 Y1.5443
N2016 X2.5186 Y1.5462 Z-0.2641
N2017 X2.5154 Y1.5481 Z-0.2649
N2018 X2.5124 Y1.5498 Z-0.2663
N2019 X2.5094 Y1.5516 Z-0.2677
N2020 X2.5062 Y1.5534 Z-0.2686
N2021 X2.503 Y1.5552 Z-0.2689
N2022 X2.3499 Y1.6436 Z-0.2702
N2023 X2.2128 Y1.7228 Z-0.2699
N2024 X2.0996 Y1.7881 Z-0.2689
N2025 X1.9873 Y1.853 Z-0.267
N2026 X1.8758 Y1.9173 Z-0.2643
N2027 X1.7719 Y1.9773 Z-0.261
N2028 X1.6559 Y2.0443 Z-0.2565
N2029 X1.5269 Y2.1188 Z-0.2505
N2030 X1.3733 Y2.2075 Z-0.2419
N2031 X1.2574 Y2.2744 Z-0.2344
N2032 X1.1416 Y2.3413 Z-0.2259
N2033 X1.0258 Y2.4081 Z-0.2166
N2034 X0.9101 Y2.4749 Z-0.2063
N2035 X0.7684 Y2.5567 Z-0.1926
N2036 X0.6282 Y2.6376 Z-0.1775
N2037 X0.5128 Y2.7043 Z-0.1641
N2038 X0.3974 Y2.7709 Z-0.1498
N2039 X0.2691 Y2.845 Z-0.1328
N2040 X0.1293 Y2.9257 Z-0.1129
N2041 X0.0014 Y2.9996 Z-0.0934
N2042 X-0.0004 Y3.0006 Z-0.0931
N2043 X-0.0027 Y3.0019 Z-0.0926
N2044 X-0.0049 Y3.0032 Z-0.0919
N2045 X-0.007 Y3.0044 Z-0.0908
N2046 X-0.0101 Y3.0061 Z-0.0894
N2047 X-0.0133 Y3.008 Z-0.0885
N2048 X-0.0165 Y3.0099 Z-0.0883
N2049 X-0.1341 Y3.0777
N2050 X-0.1369 Y3.0795 Z-0.0882
N2051 X-0.1397 Y3.0814
N2052 X-0.1425 Y3.0833 Z-0.088
N2053 X-0.1451 Y3.0854 Z-0.0879
N2054 X-0.1476 Y3.0876 Z-0.0876
N2055 X-0.1501 Y3.0899 Z-0.0874
N2056 X-0.1524 Y3.0923 Z-0.0871
N2057 X-0.1546 Y3.0948 Z-0.0867
N2058 X-0.1567 Y3.0974 Z-0.0863
N2059 X-0.1587 Y3.1001 Z-0.0858
N2060 X-0.1606 Y3.1028 Z-0.0853
N2061 X-0.1624 Y3.1057 Z-0.0848
N2062 X-0.164 Y3.1086 Z-0.0842
N2063 X-0.1655 Y3.1115 Z-0.0836
N2064 X-0.1668 Y3.1145 Z-0.0829
N2065 X-0.168 Y3.1176 Z-0.0822
N2066 X-0.1691 Y3.1207 Z-0.0814
N2067 X-0.1701 Y3.1238 Z-0.0807
N2068 X-0.1709 Y3.127 Z-0.0798
N2069 X-0.1715 Y3.1302 Z-0.079
N2070 X-0.172 Y3.1334 Z-0.0781
N2071 X-0.1724 Y3.1366 Z-0.0772
N2072 X-0.1726 Y3.1398 Z-0.0763
N2073 Y3.143 Z-0.0753
N2074 X-0.1725 Y3.1463 Z-0.0743
N2075 X-0.1723 Y3.1495 Z-0.0733
N2076 X-0.1719 Y3.1526 Z-0.0723
N2077 X-0.1714 Y3.1558 Z-0.0712
N2078 X-0.1707 Y3.1589 Z-0.0702
N2079 X-0.1698 Y3.162 Z-0.0691
N2080 X-0.1689 Y3.165 Z-0.068
N2081 X-0.1678 Y3.168 Z-0.0669
N2082 X-0.1665 Y3.1709 Z-0.0658
N2083 X-0.1651 Y3.1738 Z-0.0647
N2084 X-0.1636 Y3.1766 Z-0.0636
N2085 X-0.1164 Y3.2584 Z-0.0308
N2086 X-0.1147 Y3.2611 Z-0.0297
N2087 X-0.1129 Y3.2637 Z-0.0286
N2088 X-0.111 Y3.2663 Z-0.0275
N2089 X-0.109 Y3.2687 Z-0.0264
N2090 X-0.1069 Y3.2711 Z-0.0253
N2091 X-0.1046 Y3.2734 Z-0.0243
N2092 X-0.1022 Y3.2755 Z-0.0232
N2093 X-0.0998 Y3.2776 Z-0.0222
N2094 X-0.0972 Y3.2795 Z-0.0211
N2095 X-0.0946 Y3.2813 Z-0.0201
N2096 X-0.0918 Y3.283 Z-0.0191
N2097 X-0.089 Y3.2846 Z-0.0182
N2098 X-0.0861 Y3.286 Z-0.0172
N2099 X-0.0831 Y3.2873 Z-0.0163
N2100 X-0.0801 Y3.2885 Z-0.0155
N2101 X-0.077 Y3.2895 Z-0.0146
N2102 X-0.0739 Y3.2904 Z-0.0138
N2103 X-0.0707 Y3.2912 Z-0.013
N2104 X-0.0675 Y3.2918 Z-0.0123
N2105 X-0.0642 Y3.2922 Z-0.0116
N2106 X-0.0609 Y3.2926 Z-0.0109
N2107 X-0.0576 Y3.2928 Z-0.0103
N2108 X-0.0543 Z-0.0097
N2109 X-0.051 Y3.2927 Z-0.0091
N2110 X-0.0477 Y3.2924 Z-0.0086
N2111 X-0.0444 Y3.292 Z-0.0082
N2112 X-0.0411 Y3.2915 Z-0.0078
N2113 X-0.0378 Y3.2908 Z-0.0074
N2114 X-0.0345 Y3.29 Z-0.0071
N2115 X-0.0313 Y3.2891 Z-0.0068
N2116 X-0.0282 Y3.288 Z-0.0066
N2117 X-0.025 Y3.2867 Z-0.0064
N2118 X-0.022 Y3.2854 Z-0.0063
N2119 X-0.0189 Y3.2839 Z-0.0062
N2120 X-0.016 Y3.2822
N2121 X-0.0127 Y3.2804 Z-0.0065
N2122 X-0.0095 Y3.2785 Z-0.0073
N2123 X-0.0065 Y3.2767 Z-0.0087
N2124 X-0.0035 Y3.275 Z-0.0101
N2125 X-0.0004 Y3.2732 Z-0.011
N2126 X0.0532 Y3.2423 Z-0.021
N2127 X0.1678 Y3.1761 Z-0.042
N2128 X0.2826 Y3.1099 Z-0.0621
N2129 X0.409 Y3.0369 Z-0.0832
N2130 X0.5499 Y2.9555 Z-0.1052
N2131 X0.665 Y2.8891 Z-0.1221
N2132 X0.7802 Y2.8225 Z-0.138
N2133 X0.8956 Y2.756 Z-0.1531
N2134 X1.011 Y2.6893 Z-0.1672
N2135 X1.1511 Y2.6084 Z-0.1831
N2136 X1.2797 Y2.5342 Z-0.1964
N2137 X1.3954 Y2.4674 Z-0.2075
N2138 X1.5111 Y2.4006 Z-0.2177
N2139 X1.6269 Y2.3337 Z-0.2269
N2140 X1.7674 Y2.2526 Z-0.237
N2141 X1.9093 Y2.1707 Z-0.2457
N2142 X2.0253 Y2.1037 Z-0.2518
N2143 X2.1412 Y2.0368 Z-0.2571
N2144 X2.2572 Y1.9698 Z-0.2615
N2145 X2.3613 Y1.9097 Z-0.2646
N2146 X2.4795 Y1.8415 Z-0.2674
N2147 X2.6318 Y1.7535 Z-0.2696
N2148 X2.7787 Y1.6687 Z-0.2702
N2149 X4.0352 Y0.9433 Z-0.2005
N2150 X4.0381 Y0.9417 Z-0.2003
N2151 X4.0411 Y0.9402 Z-0.2002
N2152 X4.0442 Y0.9388 Z-0.2001
N2153 X4.0474 Y0.9376 Z-0.2
N2154 X4.0506 Y0.9366
N2155 X4.0538 Y0.9356
N2156 X4.0571 Y0.9348
N2157 X4.0604 Y0.9342
N2158 X4.0637 Y0.9337 Z-0.2001
N2159 X4.067 Y0.9333 Z-0.2002
N2160 X4.0704 Y0.9331 Z-0.2003
N2161 X4.0738 Z-0.2005
N2162 X4.0771 Y0.9332 Z-0.2007
N2163 X4.0805 Y0.9334 Z-0.2009
N2164 X4.0838 Y0.9338 Z-0.2011
N2165 X4.0871 Y0.9344 Z-0.2014
N2166 X4.0904 Y0.935 Z-0.2016
N2167 X4.0936 Y0.9359 Z-0.2019
N2168 X4.0969 Y0.9369 Z-0.2023
N2169 X4.1 Y0.938 Z-0.2026
N2170 X4.1031 Y0.9392 Z-0.203
N2171 X4.1061 Y0.9406 Z-0.2034
N2172 X4.1091 Y0.9421 Z-0.2038
N2173 X4.112 Y0.9438 Z-0.2043
N2174 X4.1148 Y0.9456 Z-0.2047
N2175 X4.1176 Y0.9475 Z-0.2052
N2176 X4.1202 Y0.9495 Z-0.2057
N2177 X4.1228 Y0.9516 Z-0.2062
N2178 X4.1252 Y0.9539 Z-0.2067
N2179 X4.1276 Y0.9562 Z-0.2072
N2180 X4.1298 Y0.9587 Z-0.2078
N2181 X4.1319 Y0.9613 Z-0.2084
N2182 X4.1339 Y0.9639 Z-0.2089
N2183 X4.1358 Y0.9666 Z-0.2095
N2184 X4.1375 Y0.9695 Z-0.2101
N2185 X4.1824 Y1.0457 Z-0.226
N2186 X4.184 Y1.0486 Z-0.2266
N2187 X4.1855 Y1.0516 Z-0.2272
N2188 X4.1869 Y1.0546 Z-0.2278
N2189 X4.1881 Y1.0577 Z-0.2284
N2190 X4.1891 Y1.0608 Z-0.229
N2191 X4.1901 Y1.064 Z-0.2296
N2192 X4.1908 Y1.0672 Z-0.2302
N2193 X4.1915 Y1.0705 Z-0.2308
N2194 X4.1919 Y1.0737 Z-0.2315
N2195 X4.1923 Y1.077 Z-0.2321
N2196 X4.1924 Y1.0803 Z-0.2327
N2197 X4.1925 Y1.0836 Z-0.2333
N2198 X4.1923 Y1.087 Z-0.2339
N2199 X4.1921 Y1.0903 Z-0.2344
N2200 X4.1916 Y1.0935 Z-0.235
N2201 X4.1911 Y1.0968 Z-0.2356
N2202 X4.1903 Y1.1001 Z-0.2361
N2203 X4.1895 Y1.1033 Z-0.2366
N2204 X4.1884 Y1.1064 Z-0.2372
N2205 X4.1873 Y1.1096 Z-0.2377
N2206 X4.186 Y1.1126 Z-0.2382
N2207 X4.1846 Y1.1156 Z-0.2386
N2208 X4.183 Y1.1186 Z-0.2391
N2209 X4.1813 Y1.1214 Z-0.2395
N2210 X4.1795 Y1.1242 Z-0.2399
N2211 X4.1775 Y1.1269 Z-0.2403
N2212 X4.1754 Y1.1296 Z-0.2407
N2213 X4.1732 Y1.1321 Z-0.241
N2214 X4.1709 Y1.1345 Z-0.2414
N2215 X4.1685 Y1.1369 Z-0.2417
N2216 X4.166 Y1.1391 Z-0.242
N2217 X4.1634 Y1.1412 Z-0.2422
N2218 X4.1607 Y1.1432 Z-0.2424
N2219 X4.1579 Y1.145 Z-0.2426
N2220 X4.155 Y1.1468 Z-0.2428
N2221 X4.0117 Y1.2295 Z-0.2508
N2222 X3.8683 Y1.3123 Z-0.2574
N2223 X3.7249 Y1.3951 Z-0.2626
N2224 X3.5728 Y1.483 Z-0.2667
N2225 X3.4197 Y1.5713 Z-0.2692
N2226 X3.2667 Y1.6597 Z-0.2702
N2227 X3.1374 Y1.7343 Z-0.2698
N2228 X3.0242 Y1.7996 Z-0.2686
N2229 X2.9052 Y1.8684 Z-0.2664
N2230 X2.7675 Y1.9479 Z-0.2628
N2231 X2.6265 Y2.0292 Z-0.2576
N2232 X2.5106 Y2.0962 Z-0.2525
N2233 X2.3946 Y2.1631 Z-0.2464
N2234 X2.2918 Y2.2225 Z-0.2403
N2235 X2.1889 Y2.2819 Z-0.2334
N2236 X2.0731 Y2.3488 Z-0.2249
N2237 X1.9443 Y2.4231 Z-0.2144
N2238 X1.791 Y2.5117 Z-0.2003
N2239 X1.6754 Y2.5784 Z-0.1886
N2240 X1.5728 Y2.6376 Z-0.1775
N2241 X1.4573 Y2.7043 Z-0.1641
N2242 X1.3419 Y2.7709 Z-0.1498
N2243 X1.2137 Y2.845 Z-0.1328
N2244 X1.0739 Y2.9257 Z-0.1129
N2245 X0.9459 Y2.9996 Z-0.0934
N2246 X0.831 Y3.0659 Z-0.0749
N2247 X0.7161 Y3.1322 Z-0.0555
N2248 X0.5757 Y3.2133 Z-0.0304
N2249 X0.4675 Y3.2758 Z-0.0102
N2250 X0.4417 Y3.2907 Z-0.0063
N2251 X0.4158 Y3.3056 Z-0.0034
N2252 X0.3897 Y3.3207 Z-0.0013
N2253 X0.3637 Y3.3357 Z-0.0002
N2254 X0.3444 Y3.3468 Z0
N2255 X0.3412 Y3.3487 Z0.0003
N2256 X0.3381 Y3.3505 Z0.0012
N2257 X0.3351 Y3.3522 Z0.0025
N2258 X0.3321 Y3.354 Z0.004
N2259 X0.3289 Y3.3558 Z0.0048
N2260 X0.3256 Y3.3577 Z0.0051
N2261 G2 X0.2982 Y3.4601 I0.0375 J0.065
N2262 G1 X0.3412 Y3.5347
N2263 G2 X0.4437 Y3.5622 I0.065 J-0.0375
N2264 G1 X0.7979 Y3.3577
N2265 X0.8012 Y3.3558 Z0.0048
N2266 X0.8044 Y3.354 Z0.004
N2267 X0.8074 Y3.3522 Z0.0025
N2268 X0.8104 Y3.3505 Z0.0012
N2269 X0.8135 Y3.3487 Z0.0003
N2270 X0.8167 Y3.3468 Z0
N2271 X0.836 Y3.3357 Z-0.0002
N2272 X0.862 Y3.3207 Z-0.0013
N2273 X0.888 Y3.3056 Z-0.0034
N2274 X0.914 Y3.2907 Z-0.0063
N2275 X0.9398 Y3.2758 Z-0.0102
N2276 X1.0479 Y3.2133 Z-0.0304
N2277 X1.1884 Y3.1322 Z-0.0555
N2278 X1.3032 Y3.0659 Z-0.0749
N2279 X1.4182 Y2.9996 Z-0.0934
N2280 X1.5462 Y2.9257 Z-0.1129
N2281 X1.6859 Y2.845 Z-0.1328
N2282 X1.8142 Y2.7709 Z-0.1498
N2283 X1.9296 Y2.7043 Z-0.1641
N2284 X2.0451 Y2.6376 Z-0.1775
N2285 X2.1853 Y2.5567 Z-0.1926
N2286 X2.3269 Y2.4749 Z-0.2063
N2287 X2.4426 Y2.4081 Z-0.2166
N2288 X2.5584 Y2.3413 Z-0.2259
N2289 X2.6742 Y2.2744 Z-0.2344
N2290 X2.7901 Y2.2075 Z-0.2419
N2291 X2.9438 Y2.1188 Z-0.2505
N2292 X3.0728 Y2.0443 Z-0.2565
N2293 X3.1887 Y1.9773 Z-0.261
N2294 X3.2927 Y1.9173 Z-0.2643
N2295 X3.4041 Y1.853 Z-0.267
N2296 X3.5231 Y1.7843 Z-0.2689
N2297 X3.6562 Y1.7074 Z-0.2701
N2298 X3.8053 Y1.6214 Z-0.27
N2299 X3.9583 Y1.533 Z-0.2683
N2300 X4.1114 Y1.4447 Z-0.2651
N2301 X4.2622 Y1.3576 Z-0.2604
N2302 X4.2653 Y1.3558 Z-0.26
N2303 X4.2683 Y1.3541 Z-0.2592
N2304 X4.2712 Y1.3524 Z-0.2579
N2305 X4.2742 Y1.3506 Z-0.2564
N2306 X4.2774 Y1.3488 Z-0.2556
N2307 X4.2807 Y1.3469 Z-0.2553
N2308 X4.336 Y1.315
N2309 X4.3389 Y1.3133
N2310 X4.342 Y1.3119
N2311 X4.3451 Y1.3105
N2312 X4.3482 Y1.3093
N2313 X4.3514 Y1.3082 Z-0.2554
N2314 X4.3546 Y1.3073
N2315 X4.3579 Y1.3066
N2316 X4.3612 Y1.3059 Z-0.2555
N2317 X4.3645 Y1.3055
N2318 X4.3679 Y1.3051 Z-0.2556
N2319 X4.3712 Y1.3049
N2320 X4.3746 Z-0.2557
N2321 X4.378 Y1.305
N2322 X4.3813 Y1.3053 Z-0.2558
N2323 X4.3847 Y1.3057
N2324 X4.388 Y1.3063 Z-0.2559
N2325 X4.3913 Y1.307 Z-0.256
N2326 X4.3945 Y1.3079 Z-0.2561
N2327 X4.3977 Y1.3089 Z-0.2562
N2328 X4.4009 Y1.3101
N2329 X4.404 Y1.3114 Z-0.2563
N2330 X4.407 Y1.3128 Z-0.2564
N2331 X4.41 Y1.3144 Z-0.2565
N2332 X4.4129 Y1.3161 Z-0.2566
N2333 X4.4157 Y1.3179 Z-0.2567
N2334 X4.4185 Y1.3199 Z-0.2568
N2335 X4.4211 Y1.322 Z-0.2569
N2336 X4.4237 Y1.3242 Z-0.257
N2337 X4.4261 Y1.3265 Z-0.2571
N2338 X4.4285 Y1.3289 Z-0.2572
N2339 X4.4307 Y1.3314 Z-0.2573
N2340 X4.4328 Y1.334 Z-0.2575
N2341 X4.4348 Y1.3367 Z-0.2576
N2342 X4.4367 Y1.3395 Z-0.2577
N2343 X4.4384 Y1.3424 Z-0.2578
N2344 X4.4815 Y1.4171 Z-0.2606
N2345 X4.4832 Y1.42 Z-0.2608
N2346 X4.4846 Y1.423 Z-0.2609
N2347 X4.486 Y1.4261 Z-0.261
N2348 X4.4872 Y1.4292 Z-0.2611
N2349 X4.4882 Y1.4324 Z-0.2612
N2350 X4.4892 Y1.4357 Z-0.2613
N2351 X4.4899 Y1.4389 Z-0.2614
N2352 X4.4906 Y1.4423 Z-0.2615
N2353 X4.491 Y1.4456 Z-0.2616
N2354 X4.4914 Y1.4489 Z-0.2617
N2355 X4.4915 Y1.4523 Z-0.2618
N2356 X4.4916 Y1.4557 Z-0.2619
N2357 X4.4914 Y1.459 Z-0.262
N2358 X4.4912 Y1.4624 Z-0.2621
N2359 X4.4907 Y1.4657 Z-0.2622
N2360 X4.4902 Y1.469 Z-0.2623
N2361 X4.4894 Y1.4723 Z-0.2624
N2362 X4.4886 Y1.4756
N2363 X4.4875 Y1.4788 Z-0.2625
N2364 X4.4864 Y1.4819 Z-0.2626
N2365 X4.4851 Y1.485 Z-0.2627
N2366 X4.4836 Y1.4881
N2367 X4.4821 Y1.491 Z-0.2628
N2368 X4.4804 Y1.4939
N2369 X4.4785 Y1.4968 Z-0.2629
N2370 X4.4766 Y1.4995
N2371 X4.4745 Y1.5022 Z-0.263
N2372 X4.4723 Y1.5047
N2373 X4.47 Y1.5072
N2374 X4.4676 Y1.5095 Z-0.2631
N2375 X4.4651 Y1.5117
N2376 X4.4624 Y1.5138
N2377 X4.4597 Y1.5158
N2378 X4.4569 Y1.5177
N2379 X4.4541 Y1.5195
N2380 X4.4508 Y1.5214 Z-0.2634
N2381 X4.4476 Y1.5232 Z-0.2643
N2382 X4.4445 Y1.525 Z-0.2657
N2383 X4.4416 Y1.5267 Z-0.2671
N2384 X4.4384 Y1.5285 Z-0.2679
N2385 X4.4352 Y1.5303 Z-0.2682
N2386 X4.2822 Y1.6187 Z-0.27
N2387 X4.1352 Y1.7036 Z-0.2702
N2388 X3.9954 Y1.7843 Z-0.2689
N2389 X3.8764 Y1.853 Z-0.267
N2390 X3.7649 Y1.9173 Z-0.2643
N2391 X3.661 Y1.9773 Z-0.261
N2392 X3.545 Y2.0443 Z-0.2565
N2393 X3.416 Y2.1188 Z-0.2505
N2394 X3.2624 Y2.2075 Z-0.2419
N2395 X3.1465 Y2.2744 Z-0.2344
N2396 X3.0307 Y2.3413 Z-0.2259
N2397 X2.9149 Y2.4081 Z-0.2166
N2398 X2.7992 Y2.4749 Z-0.2063
N2399 X2.6576 Y2.5567 Z-0.1926
N2400 X2.5173 Y2.6376 Z-0.1775
N2401 X2.4019 Y2.7043 Z-0.1641
N2402 X2.2865 Y2.7709 Z-0.1498
N2403 X2.1582 Y2.845 Z-0.1328
N2404 X2.0185 Y2.9257 Z-0.1129
N2405 X1.8905 Y2.9996 Z-0.0934
N2406 X1.7755 Y3.0659 Z-0.0749
N2407 X1.6607 Y3.1322 Z-0.0555
N2408 X1.5202 Y3.2133 Z-0.0304
N2409 X1.4121 Y3.2758 Z-0.0102
N2410 X1.3863 Y3.2907 Z-0.0063
N2411 X1.3603 Y3.3056 Z-0.0034
N2412 X1.3343 Y3.3207 Z-0.0013
N2413 X1.3082 Y3.3357 Z-0.0002
N2414 X1.289 Y3.3468 Z0
N2415 X1.2858 Y3.3487 Z0.0003
N2416 X1.2827 Y3.3505 Z0.0012
N2417 X1.2797 Y3.3522 Z0.0025
N2418 X1.2766 Y3.354 Z0.004
N2419 X1.2734 Y3.3558 Z0.0048
N2420 X1.2702 Y3.3577 Z0.0051
N2421 G2 X1.2427 Y3.4601 I0.0375 J0.065
N2422 G1 X1.2858 Y3.5347
N2423 G2 X1.3882 Y3.5622 I0.065 J-0.0375
N2424 G1 X1.7424 Y3.3577
N2425 X1.7457 Y3.3558 Z0.0048
N2426 X1.7489 Y3.354 Z0.004
N2427 X1.752 Y3.3522 Z0.0025
N2428 X1.7549 Y3.3505 Z0.0012
N2429 X1.7581 Y3.3487 Z0.0003
N2430 X1.7613 Y3.3468 Z0
N2431 X1.7805 Y3.3357 Z-0.0002
N2432 X1.8066 Y3.3207 Z-0.0013
N2433 X1.8326 Y3.3056 Z-0.0034
N2434 X1.8585 Y3.2907 Z-0.0063
N2435 X1.8844 Y3.2758 Z-0.0102
N2436 X1.9925 Y3.2133 Z-0.0304
N2437 X2.133 Y3.1322 Z-0.0555
N2438 X2.2478 Y3.0659 Z-0.0749
N2439 X2.3627 Y2.9996 Z-0.0934
N2440 X2.4907 Y2.9257 Z-0.1129
N2441 X2.6305 Y2.845 Z-0.1328
N2442 X2.7588 Y2.7709 Z-0.1498
N2443 X2.8741 Y2.7043 Z-0.1641
N2444 X2.9896 Y2.6376 Z-0.1775
N2445 X3.0922 Y2.5784 Z-0.1886
N2446 X3.2078 Y2.5117 Z-0.2003
N2447 X3.3612 Y2.4231 Z-0.2144
N2448 X3.4899 Y2.3488 Z-0.2249
N2449 X3.6058 Y2.2819 Z-0.2334
N2450 X3.7216 Y2.215 Z-0.2411
N2451 X3.8245 Y2.1556 Z-0.2471
N2452 X3.9404 Y2.0887 Z-0.2531
N2453 X4.0942 Y1.9999 Z-0.2596
N2454 X4.224 Y1.925 Z-0.2639
N2455 X4.3354 Y1.8607 Z-0.2667
N2456 X4.4477 Y1.7958 Z-0.2687
N2457 X4.5608 Y1.7305 Z-0.2698
N2458 X4.6917 Y1.6549 Z-0.2702
N2459 X4.695 Y1.653 Z-0.2699
N2460 X4.6983 Y1.6511 Z-0.2691
N2461 X4.7013 Y1.6494 Z-0.2677
N2462 X4.7014 Y1.6493 Z-0.2676
N2463 X4.7044 Y1.6476 Z-0.2662
N2464 X4.7076 Y1.6457 Z-0.2654
N2465 X4.7109 Y1.6438 Z-0.2651
N2466 X5.0799 Y1.4308
N2467 G3 X5.1823 Y1.4583 I0.0375 J0.065
N2468 G1 X5.2254 Y1.5329
N2469 G3 X5.1979 Y1.6353 I-0.065 J0.0375
N2470 G1 X5.1947 Y1.6372 Z-0.2654
N2471 X5.1915 Y1.6391 Z-0.2662
N2472 X5.1884 Y1.6408 Z-0.2676
N2473 X5.1853 Y1.6426 Z-0.269
N2474 X5.1821 Y1.6445 Z-0.2699
N2475 X5.1788 Y1.6464 Z-0.2702
N2476 X5.0398 Y1.7266 Z-0.2699
N2477 X4.9267 Y1.792 Z-0.2688
N2478 X4.8143 Y1.8568 Z-0.2668
N2479 X4.7095 Y1.9173 Z-0.2643
N2480 X4.6056 Y1.9773 Z-0.261
N2481 X4.4896 Y2.0443 Z-0.2565
N2482 X4.3606 Y2.1188 Z-0.2505
N2483 X4.2069 Y2.2075 Z-0.2419
N2484 X4.0911 Y2.2744 Z-0.2344
N2485 X3.9752 Y2.3413 Z-0.2259
N2486 X3.8595 Y2.4081 Z-0.2166
N2487 X3.7437 Y2.4749 Z-0.2063
N2488 X3.6021 Y2.5567 Z-0.1926
N2489 X3.4619 Y2.6376 Z-0.1775
N2490 X3.3464 Y2.7043 Z-0.1641
N2491 X3.231 Y2.7709 Z-0.1498
N2492 X3.1028 Y2.845 Z-0.1328
N2493 X2.963 Y2.9257 Z-0.1129
N2494 X2.835 Y2.9996 Z-0.0934
N2495 X2.7201 Y3.0659 Z-0.0749
N2496 X2.6052 Y3.1322 Z-0.0555
N2497 X2.4648 Y3.2133 Z-0.0304
N2498 X2.3566 Y3.2758 Z-0.0102
N2499 X2.3308 Y3.2907 Z-0.0063
N2500 X2.3049 Y3.3056 Z-0.0034
N2501 X2.2789 Y3.3207 Z-0.0013
N2502 X2.2528 Y3.3357 Z-0.0002
N2503 X2.2335 Y3.3468 Z0
N2504 X2.2303 Y3.3487 Z0.0003
N2505 X2.2272 Y3.3505 Z0.0012
N2506 X2.2242 Y3.3522 Z0.0025
N2507 X2.2212 Y3.354 Z0.004
N2508 X2.218 Y3.3558 Z0.0048
N2509 X2.2147 Y3.3577 Z0.0051
N2510 G2 X2.1873 Y3.4601 I0.0375 J0.065
N2511 G1 X2.2303 Y3.5347
N2512 G2 X2.3328 Y3.5622 I0.065 J-0.0375
N2513 G1 X2.687 Y3.3577
N2514 X2.6903 Y3.3558 Z0.0048
N2515 X2.6935 Y3.354 Z0.004
N2516 X2.6965 Y3.3522 Z0.0025
N2517 X2.6995 Y3.3505 Z0.0012
N2518 X2.7026 Y3.3487 Z0.0003
N2519 X2.7058 Y3.3468 Z0
N2520 X2.7251 Y3.3357 Z-0.0002
N2521 X2.7511 Y3.3207 Z-0.0013
N2522 X2.7771 Y3.3056 Z-0.0034
N2523 X2.8031 Y3.2907 Z-0.0063
N2524 X2.8289 Y3.2758 Z-0.0102
N2525 X2.8869 Y3.2423 Z-0.021
N2526 X3.0015 Y3.1761 Z-0.042
N2527 X3.1162 Y3.1099 Z-0.0621
N2528 X3.2427 Y3.0369 Z-0.0832
N2529 X3.3836 Y2.9555 Z-0.1052
N2530 X3.4987 Y2.8891 Z-0.1221
N2531 X3.6139 Y2.8225 Z-0.138
N2532 X3.7292 Y2.756 Z-0.1531
N2533 X3.8446 Y2.6893 Z-0.1672
N2534 X3.9848 Y2.6084 Z-0.1831
N2535 X4.1134 Y2.5342 Z-0.1964
N2536 X4.229 Y2.4674 Z-0.2075
N2537 X4.3447 Y2.4006 Z-0.2177
N2538 X4.4605 Y2.3337 Z-0.2269
N2539 X4.6011 Y2.2526 Z-0.237
N2540 X4.743 Y2.1707 Z-0.2457
N2541 X4.8589 Y2.1037 Z-0.2518
N2542 X4.9749 Y2.0368 Z-0.2571
N2543 X5.0909 Y1.9698 Z-0.2615
N2544 X5.195 Y1.9097 Z-0.2646
N2545 X5.3065 Y1.8453 Z-0.2672
N2546 X5.4455 Y1.7651 Z-0.2694
N2547 X5.6052 Y1.6729 Z-0.2702
N2548 X5.7591 Y1.584 Z-0.2695
N2549 X5.9121 Y1.4957 Z-0.2671
N2550 X6.0646 Y1.4076 Z-0.2633
N2551 X6.2082 Y1.3247 Z-0.2582
N2552 X6.2112 Y1.323 Z-0.2579
N2553 X6.2142 Y1.3213 Z-0.257
N2554 X6.217 Y1.3196 Z-0.2557
N2555 X6.2201 Y1.3179 Z-0.2543
N2556 X6.2233 Y1.316 Z-0.2534
N2557 X6.2266 Y1.3141 Z-0.2532
N2558 X6.2704 Y1.2888
N2559 X6.2734 Y1.2872
N2560 X6.2764 Y1.2857
N2561 X6.2795 Y1.2844
N2562 X6.2826 Y1.2832
N2563 X6.2858 Y1.2821
N2564 X6.289 Y1.2812 Z-0.2533
N2565 X6.2923 Y1.2804
N2566 X6.2956 Y1.2798
N2567 X6.2989 Y1.2793 Z-0.2534
N2568 X6.3023 Y1.279
N2569 X6.3057 Y1.2788 Z-0.2535
N2570 X6.309 Z-0.2536
N2571 X6.3124 Y1.2789
N2572 X6.3157 Y1.2792 Z-0.2537
N2573 X6.3191 Y1.2796 Z-0.2538
N2574 X6.3224 Y1.2802 Z-0.2539
N2575 X6.3257 Y1.2809 Z-0.254
N2576 X6.3289 Y1.2818 Z-0.2541
N2577 X6.3321 Y1.2828
N2578 X6.3353 Y1.2839 Z-0.2542
N2579 X6.3384 Y1.2852 Z-0.2544
N2580 X6.3414 Y1.2867 Z-0.2545
N2581 X6.3444 Y1.2882 Z-0.2546
N2582 X6.3473 Y1.2899 Z-0.2547
N2583 X6.3501 Y1.2918 Z-0.2548
N2584 X6.3529 Y1.2937 Z-0.2549
N2585 X6.3555 Y1.2958 Z-0.255
N2586 X6.3581 Y1.298 Z-0.2552
N2587 X6.3605 Y1.3003 Z-0.2553
N2588 X6.3629 Y1.3027 Z-0.2554
N2589 X6.3651 Y1.3052 Z-0.2555
N2590 X6.3672 Y1.3078 Z-0.2557
N2591 X6.3692 Y1.3105 Z-0.2558
N2592 X6.3711 Y1.3133 Z-0.2559
N2593 X6.3728 Y1.3162 Z-0.2561
N2594 X6.416 Y1.3909 Z-0.2594
N2595 X6.4176 Y1.3939 Z-0.2595
N2596 X6.419 Y1.3969 Z-0.2597
N2597 X6.4204 Y1.4 Z-0.2598
N2598 X6.4216 Y1.4031 Z-0.2599
N2599 X6.4227 Y1.4063 Z-0.2601
N2600 X6.4236 Y1.4095 Z-0.2602
N2601 X6.4244 Y1.4128 Z-0.2603
N2602 X6.425 Y1.4161 Z-0.2604
N2603 X6.4255 Y1.4194 Z-0.2606
N2604 X6.4258 Y1.4228 Z-0.2607
N2605 X6.426 Y1.4261 Z-0.2608
N2606 Y1.4295 Z-0.2609
N2607 X6.4259 Y1.4329 Z-0.261
N2608 X6.4256 Y1.4362 Z-0.2611
N2609 X6.4251 Y1.4396 Z-0.2612
N2610 X6.4246 Y1.4429 Z-0.2613
N2611 X6.4238 Y1.4462 Z-0.2614
N2612 X6.423 Y1.4494 Z-0.2615
N2613 X6.422 Y1.4526 Z-0.2616
N2614 X6.4208 Y1.4558 Z-0.2617
N2615 X6.4195 Y1.4589 Z-0.2618
N2616 X6.4181 Y1.4619
N2617 X6.4165 Y1.4649 Z-0.2619
N2618 X6.4148 Y1.4678 Z-0.262
N2619 X6.4129 Y1.4706
N2620 X6.411 Y1.4734 Z-0.2621
N2621 X6.4089 Y1.476
N2622 X6.4067 Y1.4785 Z-0.2622
N2623 X6.4044 Y1.481
N2624 X6.402 Y1.4833 Z-0.2623
N2625 X6.3995 Y1.4856
N2626 X6.3969 Y1.4877
N2627 X6.3941 Y1.4897
N2628 X6.3913 Y1.4916
N2629 X6.3885 Y1.4933
N2630 X6.3852 Y1.4952 Z-0.2626
N2631 X6.382 Y1.4971 Z-0.2635
N2632 X6.3789 Y1.4988 Z-0.2649
N2633 X6.376 Y1.5005 Z-0.2662
N2634 X6.3729 Y1.5023 Z-0.2671
N2635 X6.3697 Y1.5042 Z-0.2674
N2636 X6.2166 Y1.5925 Z-0.2696
N2637 X6.0769 Y1.6732 Z-0.2702
N2638 X5.9178 Y1.7651 Z-0.2694
N2639 X5.7788 Y1.8453 Z-0.2672
N2640 X5.6673 Y1.9097 Z-0.2646
N2641 X5.5632 Y1.9698 Z-0.2615
N2642 X5.4472 Y2.0368 Z-0.2571
N2643 X5.3312 Y2.1037 Z-0.2518
N2644 X5.2153 Y2.1707 Z-0.2457
N2645 X5.0733 Y2.2526 Z-0.237
N2646 X4.9328 Y2.3337 Z-0.2269
N2647 X4.817 Y2.4006 Z-0.2177
N2648 X4.7013 Y2.4674 Z-0.2075
N2649 X4.5856 Y2.5342 Z-0.1964
N2650 X4.4571 Y2.6084 Z-0.1831
N2651 X4.3169 Y2.6893 Z-0.1672
N2652 X4.2015 Y2.756 Z-0.1531
N2653 X4.0862 Y2.8225 Z-0.138
N2654 X3.971 Y2.8891 Z-0.1221
N2655 X3.8558 Y2.9555 Z-0.1052
N2656 X3.715 Y3.0369 Z-0.0832
N2657 X3.5885 Y3.1099 Z-0.0621
N2658 X3.4738 Y3.1761 Z-0.042
N2659 X3.3591 Y3.2423 Z-0.021
N2660 X3.3012 Y3.2758 Z-0.0102
N2661 X3.2754 Y3.2907 Z-0.0063
N2662 X3.2494 Y3.3056 Z-0.0034
N2663 X3.2234 Y3.3207 Z-0.0013
N2664 X3.1974 Y3.3357 Z-0.0002
N2665 X3.1781 Y3.3468 Z0
N2666 X3.1749 Y3.3487 Z0.0003
N2667 X3.1718 Y3.3505 Z0.0012
N2668 X3.1688 Y3.3522 Z0.0025
N2669 X3.1657 Y3.354 Z0.004
N2670 X3.1625 Y3.3558 Z0.0048
N2671 X3.1593 Y3.3577 Z0.0051
N2672 G2 X3.1318 Y3.4601 I0.0375 J0.065
N2673 G1 X3.1749 Y3.5347
N2674 G2 X3.2773 Y3.5622 I0.065 J-0.0375
N2675 G1 X3.6315 Y3.3577
N2676 X3.6348 Y3.3558 Z0.0048
N2677 X3.638 Y3.354 Z0.004
N2678 X3.6411 Y3.3522 Z0.0025
N2679 X3.6441 Y3.3505 Z0.0012
N2680 X3.6472 Y3.3487 Z0.0003
N2681 X3.6504 Y3.3468 Z0
N2682 X3.6696 Y3.3357 Z-0.0002
N2683 X3.6957 Y3.3207 Z-0.0013
N2684 X3.7217 Y3.3056 Z-0.0034
N2685 X3.7476 Y3.2907 Z-0.0063
N2686 X3.7735 Y3.2758 Z-0.0102
N2687 X3.8816 Y3.2133 Z-0.0304
N2688 X4.0221 Y3.1322 Z-0.0555
N2689 X4.1369 Y3.0659 Z-0.0749
N2690 X4.2519 Y2.9996 Z-0.0934
N2691 X4.3798 Y2.9257 Z-0.1129
N2692 X4.5196 Y2.845 Z-0.1328
N2693 X4.6479 Y2.7709 Z-0.1498
N2694 X4.7633 Y2.7043 Z-0.1641
N2695 X4.8787 Y2.6376 Z-0.1775
N2696 X5.0189 Y2.5567 Z-0.1926
N2697 X5.1606 Y2.4749 Z-0.2063
N2698 X5.2763 Y2.4081 Z-0.2166
N2699 X5.3921 Y2.3413 Z-0.2259
N2700 X5.5079 Y2.2744 Z-0.2344
N2701 X5.6238 Y2.2075 Z-0.2419
N2702 X5.7774 Y2.1188 Z-0.2505
N2703 X5.9064 Y2.0443 Z-0.2565
N2704 X6.0224 Y1.9773 Z-0.261
N2705 X6.1263 Y1.9173 Z-0.2643
N2706 X6.2378 Y1.853 Z-0.267
N2707 X6.3501 Y1.7881 Z-0.2689
N2708 X6.4699 Y1.719 Z-0.27
N2709 X6.6092 Y1.6385 Z-0.2701
N2710 X6.6125 Y1.6366 Z-0.2698
N2711 X6.6157 Y1.6348 Z-0.269
N2712 X6.6188 Y1.633 Z-0.2676
N2713 X6.6218 Y1.6313 Z-0.2662
N2714 X6.625 Y1.6294 Z-0.2653
N2715 X6.6283 Y1.6275 Z-0.265
N2716 X6.9155 Y1.4617
N2717 G3 X7.0179 Y1.4892 I0.0375 J0.065
N2718 G1 X7.061 Y1.5638
N2719 G3 X7.0335 Y1.6662 I-0.065 J0.0375
N2720 G1 X7.0303 Y1.6681 Z-0.2653
N2721 X7.0271 Y1.67 Z-0.2662
N2722 X7.024 Y1.6717 Z-0.2676
N2723 X7.0238 Y1.6718 Z-0.2677
N2724 X7.0207 Y1.6736 Z-0.2691
N2725 X7.0175 Y1.6755 Z-0.27
N2726 X7.0142 Y1.6774 Z-0.2702
N2727 X6.8545 Y1.7696 Z-0.2693
N2728 X6.7155 Y1.8498 Z-0.2671
N2729 X6.604 Y1.9142 Z-0.2644
N2730 X6.487 Y1.9818 Z-0.2607
N2731 X6.371 Y2.0487 Z-0.2562
N2732 X6.229 Y2.1307 Z-0.2495
N2733 X6.0884 Y2.2119 Z-0.2414
N2734 X5.9725 Y2.2788 Z-0.2338
N2735 X5.8567 Y2.3457 Z-0.2253
N2736 X5.7539 Y2.405 Z-0.217
N2737 X5.6512 Y2.4643 Z-0.208
N2738 X5.5355 Y2.5311 Z-0.197
N2739 X5.4069 Y2.6053 Z-0.1837
N2740 X5.2538 Y2.6937 Z-0.1663
N2741 X5.1384 Y2.7604 Z-0.1521
N2742 X5.0361 Y2.8195 Z-0.1387
N2743 X4.9338 Y2.8785 Z-0.1247
N2744 X4.8316 Y2.9375 Z-0.1098
N2745 X4.7295 Y2.9965 Z-0.0942
N2746 X4.6274 Y3.0554 Z-0.0779
N2747 X4.5255 Y3.1143 Z-0.0608
N2748 X4.4236 Y3.1731 Z-0.043
N2749 X4.3219 Y3.2318 Z-0.0244
N2750 X4.2511 Y3.2727 Z-0.0111
N2751 X4.2253 Y3.2876 Z-0.007
N2752 X4.1994 Y3.3025 Z-0.0039
N2753 X4.1734 Y3.3175 Z-0.0017
N2754 X4.1473 Y3.3326 Z-0.0004
N2755 X4.1227 Y3.3468 Z0
N2756 X4.1179 Y3.3496 Z0.0004
N2757 X4.1131 Y3.3523 Z0.0014
N2758 X4.1085 Y3.355 Z0.003
N2759 X4.1041 Y3.3575 Z0.0052
N2760 X4.0999 Y3.36 Z0.0079
N2761 X4.096 Y3.3622 Z0.0111
N2762 X4.0924 Y3.3643 Z0.0149
N2763 X4.0892 Y3.3661 Z0.019
N2764 X4.0865 Y3.3677 Z0.0236
N2765 X4.0842 Y3.3691 Z0.0285
N2766 X4.0823 Y3.3701 Z0.0336
N2767 X4.081 Y3.3709 Z0.039
N2768 X4.0802 Y3.3713 Z0.0444
N2769 X4.0799 Y3.3715 Z0.05
N2770 G0 Z0.1969
N2771 X6.7506 Y0.1936
N2772 Z0.0331
N2773 G1 Z0.009 F182
N2774 X6.7508 Y0.1934 Z0.0036
N2775 X6.7516 Y0.193 Z-0.0017
N2776 X6.7528 Y0.1923 Z-0.0069
N2777 X6.7545 Y0.1913 Z-0.0119
N2778 X6.7567 Y0.19 Z-0.0167
N2779 X6.7594 Y0.1885 Z-0.0212
N2780 X6.7624 Y0.1868 Z-0.0253
N2781 X6.7658 Y0.1848 Z-0.029
N2782 X6.7695 Y0.1827 Z-0.0323
N2783 X6.7735 Y0.1803 Z-0.0351
N2784 X6.7777 Y0.1779 Z-0.0374
N2785 X6.7822 Y0.1753 Z-0.0391
N2786 X6.7867 Y0.1727 Z-0.0403
N2787 X6.7914 Y0.17 Z-0.0409
N2788 X6.7961 Y0.1673
N2789 X6.8007 Y0.1646 Z-0.0403
N2790 X6.9313 Y0.0892 Z-0.0161
N2791 X6.9718 Y0.0658 Z-0.0088
N2792 X7.0009 Y0.049 Z-0.0049
N2793 X7.0301 Y0.0322 Z-0.0021
N2794 X7.0594 Y0.0153 Z-0.0005
N2795 X7.0865 Y-0.0004 Z0
N2796 X7.0913 Y-0.0031 Z0.0004
N2797 X7.096 Y-0.0059 Z0.0014
N2798 X7.1006 Y-0.0085 Z0.003
N2799 X7.105 Y-0.0111 Z0.0052
N2800 X7.1092 Y-0.0135 Z0.0079
N2801 X7.1131 Y-0.0157 Z0.0112
N2802 X7.1167 Y-0.0178 Z0.0149
N2803 X7.1199 Y-0.0196 Z0.0191
N2804 X7.1226 Y-0.0212 Z0.0236
N2805 X7.1249 Y-0.0226 Z0.0285
N2806 X7.1268 Y-0.0236 Z0.0336
N2807 X7.1281 Y-0.0244 Z0.039
N2808 X7.1289 Y-0.0248 Z0.0444
N2809 X7.1291 Y-0.025 Z0.05
N2810 G0 Z0.1969
N2811 X7.1375 Y0.2428
N2812 Z0.0179
N2813 G1 Z-0.0061 F182
N2814 X7.1378 Y0.2427 Z-0.0115
N2815 X7.1385 Y0.2423 Z-0.0168
N2816 X7.1398 Y0.2415 Z-0.022
N2817 X7.1415 Y0.2406 Z-0.027
N2818 X7.1436 Y0.2393 Z-0.0317
N2819 X7.1463 Y0.2378 Z-0.0362
N2820 X7.1493 Y0.2361 Z-0.0403
N2821 X7.1526 Y0.2341 Z-0.044
N2822 X7.1563 Y0.232 Z-0.0473
N2823 X7.1603 Y0.2297 Z-0.0501
N2824 X7.1645 Y0.2273 Z-0.0524
N2825 X7.1689 Y0.2247 Z-0.0542
N2826 X7.1735 Y0.2221 Z-0.0554
N2827 X7.1781 Y0.2194 Z-0.056
N2828 X7.1828 Y0.2167
N2829 X7.1874 Y0.214 Z-0.0555
N2830 X7.2748 Y0.1636 Z-0.04
N2831 X7.4036 Y0.0892 Z-0.0161
N2832 X7.4441 Y0.0658 Z-0.0088
N2833 X7.4732 Y0.049 Z-0.0049
N2834 X7.5024 Y0.0322 Z-0.0021
N2835 X7.5317 Y0.0153 Z-0.0005
N2836 X7.5588 Y-0.0004 Z0
N2837 X7.5636 Y-0.0031 Z0.0004
N2838 X7.5683 Y-0.0059 Z0.0014
N2839 X7.5729 Y-0.0085 Z0.003
N2840 X7.5773 Y-0.0111 Z0.0052
N2841 X7.5815 Y-0.0135 Z0.0079
N2842 X7.5854 Y-0.0157 Z0.0112
N2843 X7.589 Y-0.0178 Z0.0149
N2844 X7.5921 Y-0.0196 Z0.0191
N2845 X7.5949 Y-0.0212 Z0.0236
N2846 X7.5972 Y-0.0226 Z0.0285
N2847 X7.599 Y-0.0236 Z0.0336
N2848 X7.6004 Y-0.0244 Z0.039
N2849 X7.6012 Y-0.0248 Z0.0444
N2850 X7.6014 Y-0.025 Z0.05
N2851 G0 Z0.1969
N2852 X7.9108 Y0.069
N2853 Z0.0693
N2854 G1 Z0.033 F182
N2855 X7.9106 Y0.0692 Z0.0275
N2856 X7.9098 Y0.0696 Z0.0222
N2857 X7.9086 Y0.0703 Z0.017
N2858 X7.9068 Y0.0714 Z0.0119
N2859 X7.9046 Y0.0726 Z0.0071
N2860 X7.902 Y0.0742 Z0.0026
N2861 X7.8989 Y0.0759 Z-0.0015
N2862 X7.8955 Y0.0779 Z-0.0052
N2863 X7.8918 Y0.0801 Z-0.0085
N2864 X7.8877 Y0.0824 Z-0.0113
N2865 X7.8835 Y0.0848 Z-0.0135
N2866 X7.879 Y0.0874 Z-0.0153
N2867 X7.8744 Y0.0901 Z-0.0164
N2868 X7.7598 Y0.1562 Z-0.0377
N2869 X7.6438 Y0.2232 Z-0.0582
N2870 X7.5147 Y0.2977 Z-0.0799
N2871 X7.4214 Y0.3516 Z-0.0948
N2872 X7.4182 Y0.3534 Z-0.095
N2873 X7.415 Y0.3553 Z-0.0947
N2874 X7.4119 Y0.3571 Z-0.0938
N2875 X7.4089 Y0.3588 Z-0.0925
N2876 X7.4059 Y0.3606 Z-0.091
N2877 X7.4027 Y0.3624 Z-0.0902
N2878 X7.3994 Y0.3643 Z-0.0899
N2879 X7.3965 Y0.3661
N2880 X7.3937 Y0.3679 Z-0.09
N2881 X7.391 Y0.3699
N2882 X7.3884 Y0.372 Z-0.0901
N2883 X7.3859 Y0.3742 Z-0.0903
N2884 X7.3835 Y0.3766 Z-0.0904
N2885 X7.3811 Y0.379 Z-0.0906
N2886 X7.3789 Y0.3815 Z-0.0908
N2887 X7.3769 Y0.3842 Z-0.091
N2888 X7.3749 Y0.3869 Z-0.0913
N2889 X7.373 Y0.3897 Z-0.0916
N2890 X7.3713 Y0.3926 Z-0.0919
N2891 X7.3697 Y0.3955 Z-0.0922
N2892 X7.3683 Y0.3985 Z-0.0926
N2893 X7.367 Y0.4016 Z-0.093
N2894 X7.3658 Y0.4047 Z-0.0934
N2895 X7.3647 Y0.4079 Z-0.0938
N2896 X7.3638 Y0.4111 Z-0.0943
N2897 X7.3631 Y0.4144 Z-0.0948
N2898 X7.3625 Y0.4176 Z-0.0952
N2899 X7.362 Y0.4209 Z-0.0957
N2900 X7.3617 Y0.4242 Z-0.0963
N2901 X7.3616 Y0.4276 Z-0.0968
N2902 Y0.4309 Z-0.0974
N2903 X7.3617 Y0.4342 Z-0.0979
N2904 X7.362 Y0.4375 Z-0.0985
N2905 X7.3625 Y0.4408 Z-0.0991
N2906 X7.3631 Y0.444 Z-0.0997
N2907 X7.3638 Y0.4473 Z-0.1003
N2908 X7.3647 Y0.4505 Z-0.1009
N2909 X7.3658 Y0.4536 Z-0.1015
N2910 X7.3669 Y0.4567 Z-0.1022
N2911 X7.3682 Y0.4597 Z-0.1028
N2912 X7.3697 Y0.4627 Z-0.1034
N2913 X7.3713 Y0.4656 Z-0.1041
N2914 X7.4157 Y0.5425 Z-0.1212
N2915 X7.4174 Y0.5454 Z-0.1218
N2916 X7.4193 Y0.5481 Z-0.1224
N2917 X7.4212 Y0.5507 Z-0.1231
N2918 X7.4233 Y0.5533 Z-0.1237
N2919 X7.4255 Y0.5558 Z-0.1243
N2920 X7.4278 Y0.5581 Z-0.125
N2921 X7.4303 Y0.5604 Z-0.1256
N2922 X7.4328 Y0.5625 Z-0.1262
N2923 X7.4354 Y0.5646 Z-0.1268
N2924 X7.4381 Y0.5665 Z-0.1273
N2925 X7.4409 Y0.5683 Z-0.1279
N2926 X7.4438 Y0.5699 Z-0.1284
N2927 X7.4467 Y0.5715 Z-0.129
N2928 X7.4498 Y0.5729 Z-0.1295
N2929 X7.4528 Y0.5741 Z-0.13
N2930 X7.456 Y0.5752 Z-0.1305
N2931 X7.4592 Y0.5762 Z-0.131
N2932 X7.4624 Y0.577 Z-0.1314
N2933 X7.4657 Y0.5777 Z-0.1319
N2934 X7.469 Y0.5783 Z-0.1323
N2935 X7.4723 Y0.5787 Z-0.1326
N2936 X7.4756 Y0.5789 Z-0.133
N2937 X7.479 Y0.579 Z-0.1333
N2938 X7.4823 Z-0.1337
N2939 X7.4857 Y0.5788 Z-0.134
N2940 X7.489 Y0.5784 Z-0.1342
N2941 X7.4923 Y0.5779 Z-0.1345
N2942 X7.4956 Y0.5773 Z-0.1347
N2943 X7.4989 Y0.5765 Z-0.1348
N2944 X7.5021 Y0.5756 Z-0.135
N2945 X7.5053 Y0.5745 Z-0.1351
N2946 X7.5084 Y0.5733 Z-0.1352
N2947 X7.5115 Y0.5719 Z-0.1353
N2948 X7.5145 Y0.5704
N2949 X7.5175 Y0.5688 Z-0.1354
N2950 X7.5575 Y0.5457
N2951 X7.5608 Y0.5438 Z-0.1356
N2952 X7.564 Y0.542 Z-0.1365
N2953 X7.5671 Y0.5402 Z-0.1379
N2954 X7.5699 Y0.5385 Z-0.1392
N2955 X7.5729 Y0.5368 Z-0.1401
N2956 X7.576 Y0.535 Z-0.1404
N2957 X7.5791 Y0.5332 Z-0.1403
N2958 X7.604 Y0.5189 Z-0.1369
N2959 X7.7335 Y0.4441 Z-0.1188
N2960 X7.8744 Y0.3627 Z-0.0977
N2961 X7.8767 Y0.3614 Z-0.0972
N2962 X7.879 Y0.3601 Z-0.0964
N2963 X7.8812 Y0.3588 Z-0.0954
N2964 X7.8842 Y0.3571 Z-0.094
N2965 X7.8874 Y0.3552 Z-0.0931
N2966 X7.8907 Y0.3533 Z-0.0928
N2967 X7.8936 Y0.3517
N2968 X7.8966 Y0.3502 Z-0.0929
N2969 X7.8997 Y0.3489 Z-0.093
N2970 X7.9029 Y0.3477 Z-0.0931
N2971 X7.906 Y0.3466 Z-0.0933
N2972 X7.9093 Y0.3456 Z-0.0935
N2973 X7.9125 Y0.3448 Z-0.0938
N2974 X7.9158 Y0.3442 Z-0.0941
N2975 X7.9191 Y0.3436 Z-0.0944
N2976 X7.9224 Y0.3433 Z-0.0948
N2977 X7.9258 Y0.3431 Z-0.0952
N2978 X7.9291 Y0.343 Z-0.0956
N2979 X7.9324 Z-0.0961
N2980 X7.9358 Y0.3433 Z-0.0966
N2981 X7.9391 Y0.3436 Z-0.0972
N2982 X7.9423 Y0.3441 Z-0.0977
N2983 X7.9456 Y0.3448 Z-0.0983
N2984 X7.9488 Y0.3456 Z-0.099
N2985 X7.952 Y0.3465 Z-0.0996
N2986 X7.9551 Y0.3476 Z-0.1003
N2987 X7.9581 Y0.3488 Z-0.101
N2988 X7.9611 Y0.3502 Z-0.1018
N2989 X7.9641 Y0.3517 Z-0.1025
N2990 X7.9669 Y0.3533 Z-0.1033
N2991 X7.9697 Y0.355 Z-0.1041
N2992 X7.9724 Y0.3569 Z-0.1049
N2993 X7.9749 Y0.3589 Z-0.1057
N2994 X7.9774 Y0.361 Z-0.1066
N2995 X7.9798 Y0.3632 Z-0.1074
N2996 X7.9821 Y0.3655 Z-0.1083
N2997 X7.9843 Y0.3679 Z-0.1092
N2998 X7.9864 Y0.3704 Z-0.11
N2999 X7.9883 Y0.373 Z-0.1109
N3000 X7.9901 Y0.3757 Z-0.1118
N3001 X7.9918 Y0.3785 Z-0.1127
N3002 X8.0375 Y0.4577 Z-0.1378
N3003 X8.0391 Y0.4606 Z-0.1387
N3004 X8.0405 Y0.4635 Z-0.1396
N3005 X8.0418 Y0.4665 Z-0.1405
N3006 X8.043 Y0.4695 Z-0.1414
N3007 X8.044 Y0.4726 Z-0.1423
N3008 X8.0448 Y0.4757 Z-0.1431
N3009 X8.0455 Y0.4789 Z-0.144
N3010 X8.0461 Y0.4821 Z-0.1448
N3011 X8.0465 Y0.4853 Z-0.1457
N3012 X8.0468 Y0.4886 Z-0.1465
N3013 X8.0469 Y0.4919 Z-0.1473
N3014 Y0.4951 Z-0.148
N3015 X8.0467 Y0.4984 Z-0.1488
N3016 X8.0464 Y0.5017 Z-0.1495
N3017 X8.0459 Y0.5049 Z-0.1502
N3018 X8.0453 Y0.5082 Z-0.1509
N3019 X8.0445 Y0.5114 Z-0.1516
N3020 X8.0436 Y0.5146 Z-0.1522
N3021 X8.0426 Y0.5177 Z-0.1528
N3022 X8.0414 Y0.5208 Z-0.1534
N3023 X8.04 Y0.5238 Z-0.1539
N3024 X8.0386 Y0.5268 Z-0.1544
N3025 X8.0369 Y0.5297 Z-0.1549
N3026 X8.0352 Y0.5326 Z-0.1553
N3027 X8.0334 Y0.5354 Z-0.1557
N3028 X8.0314 Y0.5381 Z-0.1561
N3029 X8.0293 Y0.5407 Z-0.1564
N3030 X8.0271 Y0.5432 Z-0.1567
N3031 X8.0247 Y0.5456 Z-0.157
N3032 X8.0223 Y0.5479 Z-0.1572
N3033 X8.0198 Y0.5501 Z-0.1574
N3034 X8.0171 Y0.5522 Z-0.1575
N3035 X8.0144 Y0.5542 Z-0.1576
N3036 X8.0116 Y0.5561 Z-0.1577
N3037 X8.0088 Y0.5578
N3038 X7.8913 Y0.6257
N3039 X7.888 Y0.6276 Z-0.158
N3040 X7.8848 Y0.6294 Z-0.1589
N3041 X7.8818 Y0.6312 Z-0.1603
N3042 X7.8794 Y0.6325 Z-0.1614
N3043 X7.8769 Y0.634 Z-0.1622
N3044 X7.8744 Y0.6354 Z-0.1627
N3045 X7.759 Y0.7021 Z-0.1762
N3046 X7.671 Y0.7528 Z-0.1859
N3047 X7.668 Y0.7546 Z-0.186
N3048 X7.6651 Y0.7563 Z-0.1856
N3049 X7.6622 Y0.7579 Z-0.1848
N3050 X7.6594 Y0.7595 Z-0.1835
N3051 X7.6564 Y0.7613 Z-0.1821
N3052 X7.6532 Y0.7631 Z-0.1812
N3053 X7.6499 Y0.765 Z-0.1809
N3054 X7.5464 Y0.8248
N3055 X7.5435 Y0.8265
N3056 X7.5407 Y0.8284 Z-0.181
N3057 X7.538 Y0.8304
N3058 X7.5354 Y0.8325 Z-0.1811
N3059 X7.5329 Y0.8347 Z-0.1813
N3060 X7.5304 Y0.8371 Z-0.1814
N3061 X7.5281 Y0.8395 Z-0.1816
N3062 X7.5259 Y0.842 Z-0.1818
N3063 X7.5238 Y0.8447 Z-0.182
N3064 X7.5219 Y0.8474 Z-0.1822
N3065 X7.52 Y0.8502 Z-0.1825
N3066 X7.5183 Y0.8531 Z-0.1828
N3067 X7.5167 Y0.856 Z-0.1831
N3068 X7.5153 Y0.859 Z-0.1834
N3069 X7.5139 Y0.8621 Z-0.1838
N3070 X7.5128 Y0.8653 Z-0.1841
N3071 X7.5117 Y0.8684 Z-0.1845
N3072 X7.5109 Y0.8717 Z-0.1849
N3073 X7.5101 Y0.8749 Z-0.1854
N3074 X7.5095 Y0.8782 Z-0.1858
N3075 X7.5091 Y0.8815 Z-0.1863
N3076 X7.5088 Y0.8848 Z-0.1868
N3077 X7.5086 Y0.8881 Z-0.1873
N3078 Y0.8915 Z-0.1878
N3079 X7.5088 Y0.8948 Z-0.1883
N3080 X7.5091 Y0.8981 Z-0.1888
N3081 X7.5095 Y0.9014 Z-0.1894
N3082 X7.5101 Y0.9047 Z-0.1899
N3083 X7.5109 Y0.9079 Z-0.1905
N3084 X7.5118 Y0.9111 Z-0.1911
N3085 X7.5128 Y0.9142 Z-0.1916
N3086 X7.514 Y0.9173 Z-0.1922
N3087 X7.5153 Y0.9204 Z-0.1928
N3088 X7.5168 Y0.9233 Z-0.1934
N3089 X7.5184 Y0.9263 Z-0.1939
N3090 X7.5626 Y1.0028 Z-0.2095
N3091 X7.5643 Y1.0057 Z-0.2101
N3092 X7.5661 Y1.0084 Z-0.2107
N3093 X7.5681 Y1.0111 Z-0.2113
N3094 X7.5702 Y1.0136 Z-0.2119
N3095 X7.5724 Y1.0161 Z-0.2124
N3096 X7.5747 Y1.0185 Z-0.213
N3097 X7.5772 Y1.0208 Z-0.2136
N3098 X7.5797 Y1.0229 Z-0.2141
N3099 X7.5823 Y1.025 Z-0.2147
N3100 X7.585 Y1.0269 Z-0.2152
N3101 X7.5878 Y1.0287 Z-0.2157
N3102 X7.5907 Y1.0303 Z-0.2162
N3103 X7.5937 Y1.0319 Z-0.2167
N3104 X7.5967 Y1.0333 Z-0.2172
N3105 X7.5998 Y1.0345 Z-0.2177
N3106 X7.6029 Y1.0357 Z-0.2181
N3107 X7.6061 Y1.0366 Z-0.2185
N3108 X7.6093 Y1.0375 Z-0.219
N3109 X7.6126 Y1.0382 Z-0.2193
N3110 X7.6159 Y1.0387 Z-0.2197
N3111 X7.6192 Y1.0391 Z-0.2201
N3112 X7.6226 Y1.0394 Z-0.2204
N3113 X7.6259 Y1.0395 Z-0.2207
N3114 X7.6293 Y1.0394 Z-0.221
N3115 X7.6326 Y1.0392 Z-0.2213
N3116 X7.636 Y1.0389 Z-0.2215
N3117 X7.6393 Y1.0384 Z-0.2217
N3118 X7.6426 Y1.0378 Z-0.2219
N3119 X7.6458 Y1.037 Z-0.2221
N3120 X7.6491 Y1.036 Z-0.2222
N3121 X7.6523 Y1.035 Z-0.2224
N3122 X7.6554 Y1.0337
N3123 X7.6585 Y1.0324 Z-0.2225
N3124 X7.6615 Y1.0309
N3125 X7.6645 Y1.0293 Z-0.2226
N3126 X7.6677 Y1.0274 Z-0.2228
N3127 X7.6709 Y1.0256 Z-0.2237
N3128 X7.674 Y1.0238 Z-0.2251
N3129 X7.6766 Y1.0223 Z-0.2264
N3130 X7.6793 Y1.0207 Z-0.2272
N3131 X7.6821 Y1.0191 Z-0.2276
N3132 X7.685 Y1.0175
N3133 X7.7313 Y0.9907 Z-0.224
N3134 X7.8744 Y0.9081 Z-0.2121
N3135 X7.8772 Y0.9065 Z-0.2117
N3136 X7.8798 Y0.905 Z-0.2108
N3137 X7.8824 Y0.9035 Z-0.2096
N3138 X7.8854 Y0.9017 Z-0.2082
N3139 X7.8886 Y0.8999 Z-0.2074
N3140 X7.8919 Y0.898 Z-0.2071
N3141 X7.8949 Y0.8964
N3142 X7.8979 Y0.8949
N3143 X7.901 Y0.8935 Z-0.2072
N3144 X7.9041 Y0.8923
N3145 X7.9073 Y0.8912 Z-0.2073
N3146 X7.9105 Y0.8903 Z-0.2074
N3147 X7.9138 Y0.8895 Z-0.2076
N3148 X7.9171 Y0.8889 Z-0.2077
N3149 X7.9204 Y0.8884 Z-0.2079
N3150 X7.9238 Y0.8881 Z-0.2081
N3151 X7.9271 Y0.8879 Z-0.2083
N3152 X7.9305 Y0.8878 Z-0.2086
N3153 X7.9338 Y0.888 Z-0.2088
N3154 X7.9372 Y0.8882 Z-0.2091
N3155 X7.9405 Y0.8886 Z-0.2094
N3156 X7.9438 Y0.8892 Z-0.2097
N3157 X7.9471 Y0.8899 Z-0.21
N3158 X7.9503 Y0.8907 Z-0.2104
N3159 X7.9535 Y0.8917 Z-0.2107
N3160 X7.9567 Y0.8929 Z-0.2111
N3161 X7.9598 Y0.8941 Z-0.2115
N3162 X7.9628 Y0.8956 Z-0.2119
N3163 X7.9657 Y0.8971 Z-0.2123
N3164 X7.9686 Y0.8988 Z-0.2127
N3165 X7.9714 Y0.9006 Z-0.2131
N3166 X7.9742 Y0.9025 Z-0.2136
N3167 X7.9768 Y0.9046 Z-0.214
N3168 X7.9793 Y0.9067 Z-0.2145
N3169 X7.9818 Y0.909 Z-0.2149
N3170 X7.9841 Y0.9114 Z-0.2154
N3171 X7.9863 Y0.9139 Z-0.2158
N3172 X7.9884 Y0.9165 Z-0.2163
N3173 X7.9904 Y0.9192 Z-0.2168
N3174 X7.9922 Y0.9219 Z-0.2173
N3175 X7.994 Y0.9248 Z-0.2178
N3176 X8.0378 Y1.0007 Z-0.2304
N3177 X8.0394 Y1.0036 Z-0.2309
N3178 X8.0409 Y1.0066 Z-0.2313
N3179 X8.0422 Y1.0097 Z-0.2318
N3180 X8.0434 Y1.0128 Z-0.2323
N3181 X8.0444 Y1.0159 Z-0.2328
N3182 X8.0453 Y1.0191 Z-0.2332
N3183 X8.0461 Y1.0224 Z-0.2337
N3184 X8.0467 Y1.0257 Z-0.2341
N3185 X8.0472 Y1.029 Z-0.2346
N3186 X8.0475 Y1.0323 Z-0.235
N3187 X8.0476 Y1.0356 Z-0.2355
N3188 X8.0477 Y1.039 Z-0.2359
N3189 X8.0475 Y1.0423 Z-0.2363
N3190 X8.0472 Y1.0456 Z-0.2367
N3191 X8.0468 Y1.049 Z-0.2371
N3192 X8.0462 Y1.0522 Z-0.2374
N3193 X8.0455 Y1.0555 Z-0.2378
N3194 X8.0446 Y1.0587 Z-0.2381
N3195 X8.0435 Y1.0619 Z-0.2384
N3196 X8.0424 Y1.0651 Z-0.2387
N3197 X8.0411 Y1.0682 Z-0.239
N3198 X8.0396 Y1.0712 Z-0.2393
N3199 X8.038 Y1.0741 Z-0.2396
N3200 X8.0363 Y1.077 Z-0.2398
N3201 X8.0345 Y1.0798 Z-0.24
N3202 X8.0325 Y1.0826 Z-0.2402
N3203 X8.0304 Y1.0852 Z-0.2404
N3204 X8.0282 Y1.0877 Z-0.2406
N3205 X8.0259 Y1.0902 Z-0.2407
N3206 X8.0235 Y1.0925 Z-0.2408
N3207 X8.021 Y1.0947 Z-0.2409
N3208 X8.0184 Y1.0969 Z-0.241
N3209 X8.0156 Y1.0989
N3210 X8.0129 Y1.1007 Z-0.2411
N3211 X8.01 Y1.1025
N3212 X7.8925 Y1.1703
N3213 X7.8892 Y1.1722 Z-0.2414
N3214 X7.886 Y1.1741 Z-0.2422
N3215 X7.8829 Y1.1758 Z-0.2436
N3216 X7.8802 Y1.1774 Z-0.2449
N3217 X7.8773 Y1.1791 Z-0.2458
N3218 X7.8744 Y1.1807 Z-0.2462
N3219 X7.7585 Y1.2477 Z-0.2523
N3220 X7.6151 Y1.3304 Z-0.2586
N3221 X7.5338 Y1.3774 Z-0.2616
N3222 X7.5292 Y1.38 Z-0.2615
N3223 X7.5246 Y1.3827 Z-0.2608
N3224 X7.5201 Y1.3853 Z-0.2595
N3225 X7.5158 Y1.3878 Z-0.2578
N3226 X7.5116 Y1.3902 Z-0.2554
N3227 X7.5077 Y1.3925 Z-0.2526
N3228 X7.5041 Y1.3946 Z-0.2493
N3229 X7.5007 Y1.3965 Z-0.2456
N3230 X7.4978 Y1.3982 Z-0.2415
N3231 X7.4952 Y1.3997 Z-0.2371
N3232 X7.4931 Y1.4009 Z-0.2323
N3233 X7.4914 Y1.4019 Z-0.2274
N3234 X7.4902 Y1.4026 Z-0.2222
N3235 X7.4894 Y1.403 Z-0.2169
N3236 X7.4892 Y1.4032 Z-0.2116
N3237 G0 Z0.1969
N3238 X7.917 Y1.4289
N3239 Z-0.1882
N3240 G1 Z-0.2154 F182
N3241 X7.9167 Y1.429 Z-0.221
N3242 X7.9159 Y1.4295 Z-0.2265
N3243 X7.9146 Y1.4302 Z-0.2318
N3244 X7.9128 Y1.4313 Z-0.2369
N3245 X7.9105 Y1.4326 Z-0.2418
N3246 X7.9077 Y1.4342 Z-0.2463
N3247 X7.9045 Y1.436 Z-0.2505
N3248 X7.901 Y1.4381 Z-0.2542
N3249 X7.8971 Y1.4403 Z-0.2575
N3250 X7.8929 Y1.4427 Z-0.2602
N3251 X7.8885 Y1.4453 Z-0.2624
N3252 X7.8839 Y1.4479 Z-0.264
N3253 X7.8792 Y1.4507 Z-0.265
N3254 X7.8744 Y1.4534 Z-0.2654
N3255 X7.728 Y1.5379 Z-0.2684
N3256 X7.6016 Y1.6109 Z-0.2698
N3257 X7.4636 Y1.6906 Z-0.2702
N3258 X7.3063 Y1.7814 Z-0.269
N3259 X7.1873 Y1.8501 Z-0.2671
N3260 X7.0824 Y1.9107 Z-0.2646
N3261 X6.9785 Y1.9707 Z-0.2614
N3262 X6.8625 Y2.0377 Z-0.257
N3263 X6.7465 Y2.1046 Z-0.2517
N3264 X6.6176 Y2.1791 Z-0.2449
N3265 X6.4639 Y2.2678 Z-0.2352
N3266 X6.3481 Y2.3346 Z-0.2268
N3267 X6.2323 Y2.4015 Z-0.2175
N3268 X6.1166 Y2.4683 Z-0.2074
N3269 X6.001 Y2.5351 Z-0.1963
N3270 X5.8594 Y2.6168 Z-0.1816
N3271 X5.7193 Y2.6977 Z-0.1655
N3272 X5.6039 Y2.7643 Z-0.1512
N3273 X5.4886 Y2.8309 Z-0.1361
N3274 X5.3604 Y2.9049 Z-0.1182
N3275 X5.2207 Y2.9855 Z-0.0972
N3276 X5.1058 Y3.0519 Z-0.0789
N3277 X4.9909 Y3.1182 Z-0.0597
N3278 X4.8762 Y3.1844 Z-0.0394
N3279 X4.7487 Y3.258 Z-0.0159
N3280 X4.7165 Y3.2766 Z-0.01
N3281 X4.6907 Y3.2915 Z-0.0061
N3282 X4.6647 Y3.3065 Z-0.0032
N3283 X4.6387 Y3.3215 Z-0.0012
N3284 X4.6126 Y3.3366 Z-0.0002
N3285 X4.5949 Y3.3468 Z0
N3286 X4.5917 Y3.3487 Z0.0003
N3287 X4.5886 Y3.3505 Z0.0012
N3288 X4.5856 Y3.3522 Z0.0025
N3289 X4.5826 Y3.354 Z0.004
N3290 X4.5794 Y3.3558 Z0.0048
N3291 X4.5761 Y3.3577 Z0.0051
N3292 G2 X4.5486 Y3.4602 I0.0375 J0.065
N3293 G1 X4.5917 Y3.5348
N3294 G2 X4.6942 Y3.5622 I0.065 J-0.0375
N3295 G1 X5.0484 Y3.3577
N3296 X5.0517 Y3.3558 Z0.0048
N3297 X5.0549 Y3.3539 Z0.004
N3298 X5.0579 Y3.3522 Z0.0025
N3299 X5.0609 Y3.3505 Z0.0012
N3300 X5.064 Y3.3487 Z0.0003
N3301 X5.0672 Y3.3468 Z0
N3302 X5.0874 Y3.3352 Z-0.0003
N3303 X5.1134 Y3.3201 Z-0.0014
N3304 X5.1394 Y3.3051 Z-0.0034
N3305 X5.1654 Y3.2902 Z-0.0064
N3306 X5.1912 Y3.2752 Z-0.0104
N3307 X5.2993 Y3.2128 Z-0.0306
N3308 X5.4398 Y3.1317 Z-0.0556
N3309 X5.5546 Y3.0654 Z-0.0751
N3310 X5.6696 Y2.9991 Z-0.0935
N3311 X5.7976 Y2.9252 Z-0.113
N3312 X5.9373 Y2.8445 Z-0.1329
N3313 X6.0656 Y2.7704 Z-0.1499
N3314 X6.181 Y2.7038 Z-0.1642
N3315 X6.2964 Y2.6371 Z-0.1776
N3316 X6.399 Y2.5779 Z-0.1887
N3317 X6.5146 Y2.5112 Z-0.2004
N3318 X6.668 Y2.4226 Z-0.2144
N3319 X6.7968 Y2.3483 Z-0.225
N3320 X6.9126 Y2.2814 Z-0.2335
N3321 X7.0285 Y2.2145 Z-0.2412
N3322 X7.1444 Y2.1476 Z-0.2479
N3323 X7.285 Y2.0664 Z-0.2549
N3324 X7.4271 Y1.9843 Z-0.2606
N3325 X7.544 Y1.9168 Z-0.2643
N3326 X7.6489 Y1.8563 Z-0.2668
