%
(Program Name       :3 Letters)
(Programmed By      :Bryce Janke)
(Date               :9/27/17)
(Machine            :Nomad)
(Tools Used         :4mm End Mill)
(Estimated Run Time :41s)
N01 G90 G17 G21 (ABSOLUTE POSITIONING, XY PLANE, MM)
N02 M06 T01 (TOOL CHANGE - TOOL 1)
N03 M03 S10000 (TURN SPINDLE ON CW AT 10000 RPM)
N04 G00 X8.0 Y8.0 (RAPID TO POSITION A)
N05 Z50.0 (MOVE TO 50 ABOVE STOCK)
N06 G01 Z-1.5 F300 (PLUNGE INTO STOCK 1.5 MM)
N07 X8.0 Y42.0 F750 (MOVE TO POSTION B AT F750)
N08 G01 X22.0 Y42.0 (MOVE TO POSITION C)
N09 G02 X24.0 Y40.0 I0.0 J-2.0 (ARC ON D)
N10 G01 X24.0 Y10.0 (MOVE TO POINT F)
N11 G02 X22.0 Y8.0 I-2.0 J0.0 (SECOND ARC ON D)
N12 G01 X8.0 Y8.0 (MOVE TO POSITION A, COMPLETE D)
N13 G00 Z5.0 (REMOVE END MILL FROM STOCK)
N14 G00 X32.0 Y8.0 (RAPID TO POSITION I)
N15 G01 Z-1.5 (PLUNGE INTO STOCK)
N16 G01 X46.0 Y8.0 (MOVE TO POSITION J)
N17 G03 X48.0 Y10.0 I0.0 J2.0 (FIRST ARC ON B)
N18 G01 X48.0 Y24.0 (MOVE TO POINT M)
N19 G03 X47.0 Y25.0 I-1.0 J0.0 (ARC ON B)
N20 G01 X32.0 Y25.0 (MOVE TO POINT P)
N21 G01 X47.0 Y25.0 (MOVE BACK TO POINT O)
N22 G03 X48.0 Y26.0 I0.0 J1.0 (ARC ON B)
N23 G01 X48.0 Y40.0 (MOVE TO POINT T)
N24 G03 X46.0 Y42.0 I-2.0 J0.0 (LAST ARC ON B)
N25 G01 X32.0 Y42.0 (MOVE TO W)
N26 G01 X32.0 Y8.0 (MOVE TO X, COMPLETE B)
N27 G00 Z5.0 (REMOVE END MILL FROM STOCK)
N28 G00 X56.0 Y42.0 (RAPID TO POSITION Y)
N29 G01 Z-1.5 (PLUNGE INTO STOCK)
N30 G01 X56.0 Y10.0 (MOVE TO POSITION Z)
N31 G03 X58.0 Y8.0 I2.0 J0.0 (ARC ON U)
N32 G01 X70.0 Y8.0 (MOVE TO POSITION CC)
N33 G03 X72.0 Y10.0 I0.0 J2.0 (LAST ARC ON U)
N34 G01 X72.0 Y42.0 (FINISH U)
N35 G00 Z5.0 (REMOVE FROM STOCK)
N36 G00 X0.0 Y0.0 (RAPID TO ORIGIN)
%