%
(2)
(T1  D=0.5 CR=0 - ZMIN=-0.7874 - flat end mill)
N0 G90
N1 G17
(2D Pocket1)
N2 T1 M6
N3 S5000 M3
N5 G0 X6.3829 Y1.7971
N6 Z0.5906
N7 Z0.1575
N8 G1 Z0.109 F83
N9 G3 X6.3824 Y1.7982 Z0.0981 I-0.222 J-0.0845
N10 X6.3811 Y1.8015 Z0.0878 I-0.2215 J-0.0856
N11 X6.3789 Y1.8068 Z0.0784 I-0.2202 J-0.0889
N12 X6.3758 Y1.8137 Z0.0706 I-0.218 J-0.0942
N13 X6.3718 Y1.8219 Z0.0645 I-0.2149 J-0.1011
N14 X6.3669 Y1.8309 Z0.0606 I-0.2108 J-0.1093
N15 X6.3613 Y1.8402 Z0.0591 I-0.2059 J-0.1183
N16 X5.9606 Y1.585 Z0.033 I-0.2003 J-0.1276
N17 X6.3613 Y1.8402 Z0.0069 I0.2003 J0.1276
N18 X5.9606 Y1.585 Z-0.0191 I-0.2003 J-0.1276
N19 X6.3613 Y1.8402 Z-0.0452 I0.2003 J0.1276
N20 X5.9606 Y1.585 Z-0.0712 I-0.2003 J-0.1276
N21 X6.3613 Y1.8402 Z-0.0973 I0.2003 J0.1276
N22 X5.9606 Y1.585 Z-0.1233 I-0.2003 J-0.1276
N23 X6.3984 Y1.7126 Z-0.1447 I0.2003 J0.1276
N24 X6.0819 I-0.1583 J0 F30
N25 X6.8734 I0.3958 J0
N26 X5.6069 I-0.6333 J0
N27 X7.3484 I0.8708 J0
N28 X5.1319 I-1.1083 J0
N29 X7.3484 I1.1083 J0
N30 X7.3472 Y1.7236 Z-0.1434 I-0.05 J0 F83
N31 X7.3438 Y1.7336 Z-0.1397 I-0.0488 J-0.011
N32 X7.339 Y1.7418 Z-0.1338 I-0.0454 J-0.021
N33 X7.3339 Y1.7478 Z-0.1259 I-0.0406 J-0.0292
N34 X7.3295 Y1.7518 Z-0.1164 I-0.0355 J-0.0352
N35 X7.3265 Y1.754 Z-0.1058 I-0.031 J-0.0392
N36 X7.3254 Y1.7547 Z-0.0947 I-0.0281 J-0.0414
N37 G0 Z0.5906
(2D Contour1)
N39 X-0.0106 Y3.7858
N40 Z0.5906
N41 Z0.1575
N42 G1 Z0.0106 F30
N43 G19 G2 Y3.7358 Z-0.0394 J-0.05 K0
N44 G1 Y3.6858 F83
N45 G17 G3 X0.0394 Y3.6358 I0.05 J0
N46 G1 X6.2402 F30
N47 G2 Y-0.2106 I0 J-1.9232
N48 G1 X0.0394
N49 G2 X-0.2106 Y0.0394 I0 J0.25
N50 G1 Y3.3858
N51 G2 X0.0394 Y3.6358 I0.25 J0
N52 G3 X0.0894 Y3.6858 I0 J0.05 F83
N53 G1 Y3.7358
N54 G19 G3 Y3.7858 Z0.0106 J0 K0.05
N55 G0 Z0.5906
N56 X-0.0106
N57 Z0.1575
N58 G1 Z0 F30
N59 Z-0.7374
N60 G2 Y3.7358 Z-0.7874 J-0.05 K0
N61 G1 Y3.6858 F83
N62 G17 G3 X0.0394 Y3.6358 I0.05 J0
N63 G1 X6.2402 F30
N64 G2 Y-0.2106 I0 J-1.9232
N65 G1 X0.0394
N66 G2 X-0.2106 Y0.0394 I0 J0.25
N67 G1 Y3.3858
N68 G2 X0.0394 Y3.6358 I0.25 J0
N69 G3 X0.0894 Y3.6858 I0 J0.05 F83
N70 G1 Y3.7358
N71 G19 G3 Y3.7858 Z-0.7374 J0 K0.05
N72 G0 Z0.5906
N73 G17
N74 Z1
N75 M5
N76 M30
