%
(1001)
(T1  D=0.5 CR=0 - ZMIN=-0.4331 - flat end mill)
(T5  D=0.5 CR=0.25 - ZMIN=-0.3096 - ball end mill)
N0 G90
N1 G17
(2D Pocket1)
N2 T1 M6
N3 S1241 M3
N5 G0 X1.6906 Y1.2878
N6 Z0.5906
N7 Z0.2894
N8 G1 Z0.1482 F92
N9 G3 X1.6891 Y1.2873 Z0.136 I0.0743 J-0.2256
N10 X1.6849 Y1.2859 Z0.1245 I0.0757 J-0.2251
N11 X1.6782 Y1.2834 Z0.1145 I0.0799 J-0.2236
N12 X1.6695 Y1.2798 Z0.1065 I0.0866 J-0.2211
N13 X1.6595 Y1.2751 Z0.101 I0.0953 J-0.2175
N14 X1.6489 Y1.2695 Z0.0984 I0.1053 J-0.2129
N15 X1.8809 Y0.855 Z0.0331 I0.116 J-0.2072
N16 X1.6489 Y1.2695 Z-0.0321 I-0.116 J0.2072
N17 X1.8809 Y0.855 Z-0.0974 I0.116 J-0.2072
N18 X1.6489 Y1.2695 Z-0.1627 I-0.116 J0.2072
N19 X1.8809 Y0.855 Z-0.228 I0.116 J-0.2072
N20 X2.0024 Y1.0622 Z-0.25 I-0.116 J0.2072
N21 X1.5855 I-0.2084 J0
N22 X2.0039 I0.2092 J0
N23 X1.1105 I-0.4467 J0
N24 X2.0039 I0.4467 J0
N25 X1.9717 Y1.0862 I-0.025 J0
N26 G1 X1.7767 Y1.0273
N27 X1.5834 Y0.9635
N28 G3 X1.5708 Y0.9254 I0.0078 J-0.0237
N29 X1.9589 Y1.1991 Z-0.3153 I0.1941 J0.1369
N30 X1.5708 Y0.9254 Z-0.3806 I-0.1941 J-0.1369
N31 X2.0024 Y1.0622 Z-0.4331 I0.1941 J0.1369
N32 X1.5855 I-0.2084 J0
N33 X2.0039 I0.2092 J0
N34 X1.1105 I-0.4467 J0
N35 X2.0039 I0.4467 J0
N36 X2.0027 Y1.0733 Z-0.4318 I-0.05 J0
N37 X1.9993 Y1.0833 Z-0.4281 I-0.0488 J-0.011
N38 X1.9945 Y1.0914 Z-0.4222 I-0.0454 J-0.021
N39 X1.9894 Y1.0975 Z-0.4142 I-0.0406 J-0.0292
N40 X1.985 Y1.1014 Z-0.4048 I-0.0355 J-0.0352
N41 X1.982 Y1.1036 Z-0.3942 I-0.031 J-0.0392
N42 X1.9809 Y1.1043 Z-0.3831 I-0.0281 J-0.0414
N43 G0 Z0.5906
(2D Pocket2)
N45 X1.5592 Y6.9544
N46 Z0.5906
N47 Z0.2894
N48 G1 Z0.0892 F92
N49 G3 X1.5576 Z0.0769 I0.0044 J-0.2375
N50 X1.5532 Y6.9542 Z0.0654 I0.0059 J-0.2374
N51 X1.546 Y6.9538 Z0.0554 I0.0104 J-0.2373
N52 X1.5367 Y6.9529 Z0.0474 I0.0175 J-0.2369
N53 X1.5257 Y6.9514 Z0.042 I0.0269 J-0.236
N54 X1.5139 Y6.9492 Z0.0394 I0.0378 J-0.2345
N55 X1.6133 Y6.4847 Z-0.0259 I0.0497 J-0.2322
N56 X1.5139 Y6.9492 Z-0.0912 I-0.0497 J0.2322
N57 X1.6133 Y6.4847 Z-0.1565 I0.0497 J-0.2322
N58 X1.5139 Y6.9492 Z-0.2217 I-0.0497 J0.2322
N59 X1.3261 Y6.7169 Z-0.25 I0.0497 J-0.2322
N60 X1.798 I0.236 J0
N61 G1 Y6.8443
N62 G3 X1.7854 Y6.8569 I-0.0126 J0
N63 G1 X1.5307
N64 G3 X1.5181 Y6.8443 I0 J-0.0126
N65 G1 Y5.182
N66 G3 X1.5307 Y5.1695 I0.0126 J0
N67 G1 X1.7854
N68 G3 X1.798 Y5.182 I0 J0.0126
N69 G1 Y6.7169
N70 G2 X1.9308 Y6.9855 I0.3379 J0
N71 G3 X1.8349 Y7.2693 I-0.096 J0.1257
N72 G1 X1.1058
N73 Y4.7571
N74 X2.2104
N75 Y7.2693
N76 X1.8349
N77 G3 X1.8126 Y7.2458 I0 J-0.0223
N78 G1 X1.8177 Y7.1451
N79 G2 X1.817 Y7.138 I-0.0222 J-0.0011
N80 G1 X1.7411 Y6.8655
N81 X1.7394 Y6.8489
N82 G3 X1.7595 Y6.8471 I0.01 J-0.0009
N83 X1.7577 Y6.8538 I-0.01 J0.0009
N84 X1.7061 Y6.9069 Z-0.2565 I-0.1941 J-0.1369
N85 X1.4211 Y6.5269 Z-0.3218 I-0.1425 J-0.19
N86 X1.7061 Y6.9069 Z-0.3871 I0.1425 J0.19
N87 X1.3261 Y6.7169 Z-0.4331 I-0.1425 J-0.19
N88 X1.798 I0.236 J0
N89 G1 Y6.8443
N90 G3 X1.7854 Y6.8569 I-0.0126 J0
N91 G1 X1.5307
N92 G3 X1.5181 Y6.8443 I0 J-0.0126
N93 G1 Y5.182
N94 G3 X1.5307 Y5.1695 I0.0126 J0
N95 G1 X1.7854
N96 G3 X1.798 Y5.182 I0 J0.0126
N97 G1 Y6.7169
N98 G2 X1.9308 Y6.9855 I0.3379 J0
N99 G3 X1.8349 Y7.2693 I-0.096 J0.1257
N100 G1 X1.1058
N101 Y4.7571
N102 X2.2104
N103 Y7.2693
N104 X1.8349
N105 G3 X1.8238 Y7.268 Z-0.4318 I0 J-0.05
N106 X1.8139 Y7.2646 Z-0.4281 I0.011 J-0.0488
N107 X1.8057 Y7.2598 Z-0.4222 I0.021 J-0.0454
N108 X1.7996 Y7.2547 Z-0.4142 I0.0292 J-0.0406
N109 X1.7957 Y7.2503 Z-0.4048 I0.0352 J-0.0355
N110 X1.7935 Y7.2473 Z-0.3942 I0.0392 J-0.031
N111 X1.7928 Y7.2463 Z-0.3831 I0.0414 J-0.0281
N112 G0 Z0.5906
(2D Pocket6)
N114 X2.8592 Y6.9058
N115 Z0.5906
N116 Z0.1969
N117 G1 Z0.1484 F92
N118 G19 G3 Y6.9287 Z0.1064 J0.05 K0
N119 G17 G3 X2.859 Y6.9366 Z0.1022 I-0.1437 J0
N120 X2.8582 Y6.9451 Z0.0995 I-0.1435 J-0.0079
N121 X2.857 Y6.9539 Z0.0984 I-0.1428 J-0.0164
N122 X2.8514 Y6.9753 Z0.0977 I-0.1415 J-0.0252
N123 X2.8438 Y6.9934 Z0.097 I-0.1359 J-0.0466
N124 G1 Y5.8007 Z0.0553
N125 G3 X2.8592 Y5.8653 Z0.053 I-0.1283 J0.0647
N126 G1 Y6.9287 Z0.0158
N127 G3 X2.8514 Y6.9753 Z0.0142 I-0.1437 J0
N128 X2.8438 Y6.9934 Z0.0135 I-0.1359 J-0.0466
N129 G1 Y5.8007 Z-0.0281
N130 G3 X2.8592 Y5.8653 Z-0.0305 I-0.1283 J0.0647
N131 G1 Y6.9287 Z-0.0676
N132 G3 X2.8514 Y6.9753 Z-0.0693 I-0.1437 J0
N133 X2.8438 Y6.9934 Z-0.07 I-0.1359 J-0.0466
N134 G1 Y5.8007 Z-0.1116
N135 G3 X2.8592 Y5.8653 Z-0.114 I-0.1283 J0.0647
N136 G1 Y6.9287 Z-0.1511
N137 G3 X2.8514 Y6.9753 Z-0.1528 I-0.1437 J0
N138 X2.8438 Y6.9934 Z-0.1534 I-0.1359 J-0.0466
N139 G1 Y5.8007 Z-0.1951
N140 G3 X2.8592 Y5.8653 Z-0.1974 I-0.1283 J0.0647
N141 G1 Y6.9287 Z-0.2346
N142 G3 X2.8514 Y6.9753 Z-0.2362 I-0.1437 J0
N143 X2.8438 Y6.9934 I-0.1359 J-0.0466
N144 G1 Y5.8653
N145 Y5.8007
N146 G3 X2.8592 Y5.8653 I-0.1283 J0.0647
N147 G1 Y6.9287
N148 G3 X2.8514 Y6.9753 I-0.1437 J0
N149 X2.8478 Y6.9847 Z-0.2352 I-0.1359 J-0.0466
N150 X2.8438 Y6.9934 Z-0.2322 I-0.1324 J-0.056
N151 G19 G2 Y6.9629 Z-0.1862 J0.0196 K0.046
N152 G0 Z0.5906
N153 G17
N154 M5
(Parallel2)
N155 T5 M6
N156 S1241 M3
N158 G0 X3.4293 Y0.0655
N159 Z0.5906
N160 Z0.0365
N161 G1 Z0.0106 F30
N162 X3.4291 Y0.0654 Z0.005
N163 X3.4283 Y0.0649 Z-0.0005
N164 X3.4269 Y0.0642 Z-0.0058
N165 X3.4251 Y0.0631 Z-0.011
N166 X3.4227 Y0.0617 Z-0.0159
N167 X3.4199 Y0.0601 Z-0.0205
N168 X3.4167 Y0.0583 Z-0.0247
N169 X3.4131 Y0.0562 Z-0.0284
N170 X3.4092 Y0.0539 Z-0.0316
N171 X3.4049 Y0.0515 Z-0.0344
N172 X3.4005 Y0.0489 Z-0.0365
N173 X3.3958 Y0.0462 Z-0.0381
N174 X3.391 Y0.0434 Z-0.039
N175 X3.3862 Y0.0406 Z-0.0394
N176 X3.3834 Y0.039 F50
N177 X3.3789 Y0.0364 Z-0.0391
N178 X3.3744 Y0.0338 Z-0.0383
N179 X3.37 Y0.0313 Z-0.037
N180 X3.3657 Y0.0288 Z-0.0351
N181 X3.3617 Y0.0265 Z-0.0327
N182 X3.3579 Y0.0243 Z-0.0299
N183 X3.3543 Y0.0222 Z-0.0266
N184 X3.3511 Y0.0204 Z-0.0229
N185 X3.3483 Y0.0187 Z-0.0188
N186 X3.3458 Y0.0173 Z-0.0144
N187 X3.3437 Y0.0161 Z-0.0098
N188 X3.3421 Y0.0152 Z-0.0049
N189 X3.3409 Y0.0145 Z0.0002
N190 X3.3402 Y0.0141 Z0.0054
N191 X3.3399 Y0.0139 Z0.0106
N192 G0 Z0.1969
N193 X3.4285 Y0.3537
N194 Z0.0366
N195 G1 Z0.0106 F30
N196 X3.4283 Y0.3535 Z0.0051
N197 X3.4275 Y0.3531 Z-0.0004
N198 X3.4262 Y0.3523 Z-0.0057
N199 X3.4244 Y0.3513 Z-0.0108
N200 X3.4221 Y0.3499 Z-0.0156
N201 X3.4193 Y0.3484 Z-0.0202
N202 X3.4162 Y0.3465 Z-0.0243
N203 X3.4127 Y0.3445 Z-0.0281
N204 X3.4088 Y0.3423 Z-0.0313
N205 X3.4046 Y0.3399 Z-0.0341
N206 X3.4002 Y0.3373 Z-0.0363
N207 X3.3957 Y0.3347 Z-0.0379
N208 X3.391 Y0.332 Z-0.0389
N209 X3.3862 Y0.3292 Z-0.0394
N210 X3.3725 Y0.3213 Z-0.0397 F50
N211 X3.355 Y0.3112 Z-0.0413
N212 X3.3375 Y0.3011 Z-0.0441
N213 X3.3203 Y0.2912 Z-0.0481
N214 X3.3032 Y0.2813 Z-0.0534
N215 X3.2291 Y0.2385 Z-0.0772
N216 X3.1661 Y0.2022 Z-0.0965
N217 X3.1029 Y0.1657 Z-0.115
N218 X3.0268 Y0.1218 Z-0.1361
N219 X2.9505 Y0.0777 Z-0.156
N220 X2.8835 Y0.039 Z-0.1724
N221 X2.8787 Y0.0362 Z-0.1732
N222 X2.8739 Y0.0335 Z-0.1734
N223 X2.8691 Y0.0307 Z-0.1731
N224 X2.8644 Y0.0279 Z-0.1721
N225 X2.8597 Y0.0253 Z-0.1705
N226 X2.8553 Y0.0227 Z-0.1683
N227 X2.8511 Y0.0203 Z-0.1655
N228 X2.8472 Y0.0181 Z-0.1623
N229 X2.8437 Y0.016 Z-0.1586
N230 X2.8405 Y0.0142 Z-0.1544
N231 X2.8377 Y0.0126 Z-0.1498
N232 X2.8354 Y0.0112 Z-0.145
N233 X2.8336 Y0.0102 Z-0.1398
N234 X2.8323 Y0.0094 Z-0.1345
N235 X2.8315 Y0.009 Z-0.129
N236 X2.8312 Y0.0088 Z-0.1234
N237 G0 Z0.1969
N238 X2.3351 Y0.011
N239 Z-0.1931
N240 G1 Z-0.2152 F30
N241 X2.3353 Y0.0111 Z-0.2205
N242 X2.336 Y0.0115 Z-0.2257
N243 X2.3372 Y0.0122 Z-0.2308
N244 X2.3389 Y0.0132 Z-0.2358
N245 X2.341 Y0.0144 Z-0.2405
N246 X2.3435 Y0.0158 Z-0.2449
N247 X2.3464 Y0.0175 Z-0.249
N248 X2.3497 Y0.0194 Z-0.2527
N249 X2.3533 Y0.0215 Z-0.256
N250 X2.3571 Y0.0237 Z-0.2588
N251 X2.3612 Y0.026 Z-0.2611
N252 X2.3655 Y0.0285 Z-0.263
N253 X2.3699 Y0.0311 Z-0.2643
N254 X2.3745 Y0.0337 Z-0.265
N255 X2.379 Y0.0363 Z-0.2652
N256 X2.3836 Y0.039 Z-0.2649
N257 X2.4496 Y0.0771 Z-0.2556 F50
N258 X2.5142 Y0.1144 Z-0.2457
N259 X2.5787 Y0.1516 Z-0.2349
N260 X2.6689 Y0.2037 Z-0.2185
N261 X2.7459 Y0.2482 Z-0.203
N262 X2.81 Y0.2852 Z-0.1892
N263 X2.874 Y0.3221 Z-0.1746
N264 X2.9505 Y0.3663 Z-0.156
N265 X3.0268 Y0.4103 Z-0.1361
N266 X3.1029 Y0.4543 Z-0.115
N267 X3.1661 Y0.4908 Z-0.0965
N268 X3.2291 Y0.5271 Z-0.0772
N269 X3.3032 Y0.5699 Z-0.0534
N270 X3.3203 Y0.5798 Z-0.0481
N271 X3.3375 Y0.5897 Z-0.0441
N272 X3.355 Y0.5998 Z-0.0413
N273 X3.3725 Y0.6099 Z-0.0397
N274 X3.3862 Y0.6178 Z-0.0394
N275 X3.3893 Y0.6196 Z-0.039
N276 X3.3923 Y0.6214 Z-0.0382
N277 X3.3952 Y0.623 Z-0.0368
N278 X3.3983 Y0.6248 Z-0.0354
N279 X3.4015 Y0.6267 Z-0.0346
N280 X3.4048 Y0.6285 Z-0.0343
N281 X3.5297 Y0.7007
N282 G3 X3.5572 Y0.8031 I-0.0375 J0.065
N283 G1 X3.5072 Y0.8897
N284 G3 X3.4048 Y0.9171 I-0.065 J-0.0375
N285 G1 X3.4015 Y0.9152 Z-0.0346
N286 X3.3983 Y0.9134 Z-0.0354
N287 X3.3952 Y0.9116 Z-0.0368
N288 X3.3923 Y0.91 Z-0.0382
N289 X3.3893 Y0.9082 Z-0.039
N290 X3.3862 Y0.9064 Z-0.0394
N291 X3.3725 Y0.8985 Z-0.0397
N292 X3.355 Y0.8884 Z-0.0413
N293 X3.3375 Y0.8783 Z-0.0441
N294 X3.3203 Y0.8683 Z-0.0481
N295 X3.3032 Y0.8585 Z-0.0534
N296 X3.2291 Y0.8157 Z-0.0772
N297 X3.1661 Y0.7793 Z-0.0965
N298 X3.1029 Y0.7429 Z-0.115
N299 X3.0268 Y0.6989 Z-0.1361
N300 X2.9505 Y0.6549 Z-0.156
N301 X2.874 Y0.6107 Z-0.1746
N302 X2.81 Y0.5738 Z-0.1892
N303 X2.7459 Y0.5367 Z-0.203
N304 X2.6688 Y0.4922 Z-0.2185
N305 X2.5787 Y0.4402 Z-0.2349
N306 X2.5141 Y0.4029 Z-0.2457
N307 X2.4495 Y0.3656 Z-0.2556
N308 X2.3848 Y0.3282 Z-0.2647
N309 X2.307 Y0.2833 Z-0.2746
N310 X2.2161 Y0.2309 Z-0.2845
N311 X2.1511 Y0.1933 Z-0.2905
N312 X2.0861 Y0.1558 Z-0.2958
N313 X2.021 Y0.1182 Z-0.3001
N314 X1.9559 Y0.0806 Z-0.3037
N315 X1.8838 Y0.039 Z-0.3066
N316 X1.8791 Y0.0363 Z-0.3065
N317 X1.8745 Y0.0336 Z-0.3059
N318 X1.87 Y0.031 Z-0.3046
N319 X1.8656 Y0.0285 Z-0.3029
N320 X1.8615 Y0.0261 Z-0.3006
N321 X1.8575 Y0.0238 Z-0.2977
N322 X1.8539 Y0.0217 Z-0.2945
N323 X1.8505 Y0.0198 Z-0.2907
N324 X1.8475 Y0.0181 Z-0.2866
N325 X1.845 Y0.0166 Z-0.2822
N326 X1.8428 Y0.0153 Z-0.2774
N327 X1.8411 Y0.0144 Z-0.2725
N328 X1.8399 Y0.0137 Z-0.2673
N329 X1.8392 Y0.0132 Z-0.262
N330 X1.8389 Y0.0131 Z-0.2567
N331 G0 Z0.1969
N332 X1.3429 Y0.0153
N333 Z-0.2179
N334 G1 Z-0.249 F30
N335 X1.3431 Y0.0154 Z-0.2544
N336 X1.3439 Y0.0159 Z-0.2597
N337 X1.3451 Y0.0166 Z-0.2649
N338 X1.3469 Y0.0176 Z-0.27
N339 X1.3491 Y0.0189 Z-0.2748
N340 X1.3517 Y0.0204 Z-0.2793
N341 X1.3548 Y0.0222 Z-0.2834
N342 X1.3582 Y0.0241 Z-0.2871
N343 X1.3619 Y0.0263 Z-0.2904
N344 X1.3659 Y0.0286 Z-0.2932
N345 X1.3702 Y0.0311 Z-0.2954
N346 X1.3746 Y0.0336 Z-0.2972
N347 X1.3792 Y0.0363 Z-0.2983
N348 X1.3839 Y0.039 Z-0.2989
N349 X1.4149 Y0.0569 Z-0.3008 F50
N350 X1.4774 Y0.0929 Z-0.3041
N351 X1.5516 Y0.1358 Z-0.307
N352 X1.6413 Y0.1876 Z-0.3091
N353 X1.7184 Y0.2321 Z-0.3096
N354 X1.8049 Y0.2821 Z-0.3088
N355 X1.8907 Y0.3316 Z-0.3065
N356 X1.9689 Y0.3767 Z-0.3031
N357 X2.0601 Y0.4294 Z-0.2977
N358 X2.1381 Y0.4744 Z-0.2917
N359 X2.2161 Y0.5195 Z-0.2845
N360 X2.307 Y0.5719 Z-0.2746
N361 X2.3848 Y0.6168 Z-0.2647
N362 X2.4495 Y0.6542 Z-0.2556
N363 X2.5141 Y0.6915 Z-0.2457
N364 X2.5787 Y0.7288 Z-0.235
N365 X2.6688 Y0.7808 Z-0.2185
N366 X2.7459 Y0.8253 Z-0.203
N367 X2.8228 Y0.8697 Z-0.1864
N368 X2.8995 Y0.914 Z-0.1686
N369 X2.976 Y0.9582 Z-0.1494
N370 X3.0395 Y0.9949 Z-0.1326
N371 X3.1029 Y1.0314 Z-0.115
N372 X3.1661 Y1.0679 Z-0.0965
N373 X3.2291 Y1.1043 Z-0.0772
N374 X3.3032 Y1.1471 Z-0.0534
N375 X3.3203 Y1.1569 Z-0.0481
N376 X3.3375 Y1.1669 Z-0.0441
N377 X3.355 Y1.177 Z-0.0413
N378 X3.3725 Y1.1871 Z-0.0397
N379 X3.3862 Y1.195 Z-0.0394
N380 X3.3893 Y1.1968 Z-0.039
N381 X3.3923 Y1.1985 Z-0.0382
N382 X3.3952 Y1.2002 Z-0.0368
N383 X3.3983 Y1.202 Z-0.0354
N384 X3.4015 Y1.2038 Z-0.0346
N385 X3.4048 Y1.2057 Z-0.0343
N386 X3.5297 Y1.2779
N387 G3 X3.5572 Y1.3803 I-0.0375 J0.065
N388 G1 X3.5072 Y1.4669
N389 G3 X3.4048 Y1.4943 I-0.065 J-0.0375
N390 G1 X3.4015 Y1.4924 Z-0.0346
N391 X3.3983 Y1.4906 Z-0.0354
N392 X3.3952 Y1.4888 Z-0.0368
N393 X3.3923 Y1.4871 Z-0.0382
N394 X3.3893 Y1.4854 Z-0.039
N395 X3.3862 Y1.4836 Z-0.0394
N396 X3.3725 Y1.4757 Z-0.0397
N397 X3.355 Y1.4656 Z-0.0413
N398 X3.3375 Y1.4555 Z-0.0441
N399 X3.3203 Y1.4455 Z-0.0481
N400 X3.3032 Y1.4357 Z-0.0534
N401 X3.2291 Y1.3929 Z-0.0772
N402 X3.1661 Y1.3565 Z-0.0965
N403 X3.1029 Y1.32 Z-0.115
N404 X3.0395 Y1.2834 Z-0.1326
N405 X2.976 Y1.2468 Z-0.1495
N406 X2.8995 Y1.2026 Z-0.1686
N407 X2.8228 Y1.1583 Z-0.1864
N408 X2.7459 Y1.1139 Z-0.203
N409 X2.6688 Y1.0694 Z-0.2185
N410 X2.5916 Y1.0248 Z-0.2327
N411 X2.5141 Y0.9801 Z-0.2457
N412 X2.4495 Y0.9428 Z-0.2556
N413 X2.3848 Y0.9054 Z-0.2647
N414 X2.307 Y0.8605 Z-0.2746
N415 X2.2161 Y0.8081 Z-0.2845
N416 X2.192 Y0.7941 Z-0.2869
N417 X2.1891 Y0.7924
N418 X2.1862 Y0.7907 Z-0.2865
N419 X2.1833 Y0.7891 Z-0.2857
N420 X2.1806 Y0.7876 Z-0.2844
N421 X2.1776 Y0.7858 Z-0.283
N422 X2.1744 Y0.7839 Z-0.2822
N423 X2.1711 Y0.7821 Z-0.2819
N424 X2.1681 Y0.7804
N425 X2.1651 Y0.779
N426 X2.162 Y0.7776
N427 X2.1589 Y0.7764 Z-0.2818
N428 X2.1557 Y0.7753
N429 X2.1525 Y0.7744
N430 X2.1492 Y0.7736
N431 X2.1459 Y0.773
N432 X2.1426 Y0.7725
N433 X2.1392 Y0.7722 Z-0.2817
N434 X2.1358 Y0.772
N435 X2.1325
N436 X2.1291 Y0.7721 Z-0.2816
N437 X2.1258 Y0.7724
N438 X2.1224 Y0.7728
N439 X2.1191 Y0.7734 Z-0.2815
N440 X2.1158 Y0.7741
N441 X2.1126 Y0.775 Z-0.2814
N442 X2.1094 Y0.776
N443 X2.1062 Y0.7772 Z-0.2813
N444 X2.1031 Y0.7785
N445 X2.1001 Y0.7799 Z-0.2812
N446 X2.0971 Y0.7815
N447 X2.0942 Y0.7832 Z-0.2811
N448 X2.0914 Y0.785
N449 X2.0886 Y0.787 Z-0.281
N450 X2.086 Y0.7891 Z-0.2809
N451 X2.0834 Y0.7913
N452 X2.081 Y0.7936 Z-0.2808
N453 X2.0786 Y0.796 Z-0.2807
N454 X2.0764 Y0.7985
N455 X2.0743 Y0.8011 Z-0.2806
N456 X2.0723 Y0.8038
N457 X2.0704 Y0.8066 Z-0.2805
N458 X2.0687 Y0.8095 Z-0.2804
N459 X2.0187 Y0.8961 Z-0.2785
N460 X2.0171 Y0.899 Z-0.2784
N461 X2.0156 Y0.902
N462 X2.0142 Y0.9051 Z-0.2783
N463 X2.013 Y0.9083
N464 X2.012 Y0.9114 Z-0.2782
N465 X2.011 Y0.9147 Z-0.2781
N466 X2.0103 Y0.918
N467 X2.0096 Y0.9213 Z-0.278
N468 X2.0092 Y0.9246 Z-0.2779
N469 X2.0088 Y0.9279
N470 X2.0087 Y0.9313 Z-0.2778
N471 X2.0086 Y0.9347
N472 X2.0088 Y0.938 Z-0.2777
N473 X2.009 Y0.9414
N474 X2.0095 Y0.9447 Z-0.2776
N475 X2.01 Y0.948
N476 X2.0108 Y0.9513 Z-0.2775
N477 X2.0116 Y0.9546
N478 X2.0127 Y0.9578 Z-0.2774
N479 X2.0138 Y0.9609
N480 X2.0151 Y0.9641 Z-0.2773
N481 X2.0166 Y0.9671
N482 X2.0181 Y0.9701
N483 X2.0198 Y0.973 Z-0.2772
N484 X2.0217 Y0.9758
N485 X2.0236 Y0.9785
N486 X2.0257 Y0.9812
N487 X2.0279 Y0.9837 Z-0.2771
N488 X2.0302 Y0.9862
N489 X2.0326 Y0.9885
N490 X2.0351 Y0.9908
N491 X2.0378 Y0.9929
N492 X2.0405 Y0.9949
N493 X2.0433 Y0.9967
N494 X2.0461 Y0.9985
N495 X2.2189 Y1.0983
N496 X2.2222 Y1.1002 Z-0.2774
N497 X2.2254 Y1.102 Z-0.2782
N498 X2.2285 Y1.1038 Z-0.2796
N499 X2.2312 Y1.1054 Z-0.2809
N500 X2.2341 Y1.107 Z-0.2818
N501 X2.2371 Y1.1087 Z-0.2821
N502 X2.2401 Y1.1105
N503 X2.307 Y1.1491 Z-0.2746
N504 X2.3848 Y1.194 Z-0.2647
N505 X2.4495 Y1.2314 Z-0.2556
N506 X2.5141 Y1.2687 Z-0.2457
N507 X2.5916 Y1.3134 Z-0.2328
N508 X2.6688 Y1.358 Z-0.2185
N509 X2.7459 Y1.4025 Z-0.203
N510 X2.81 Y1.4395 Z-0.1892
N511 X2.8868 Y1.4838 Z-0.1716
N512 X2.9633 Y1.528 Z-0.1528
N513 X3.0395 Y1.572 Z-0.1326
N514 X3.1029 Y1.6086 Z-0.115
N515 X3.1661 Y1.6451 Z-0.0965
N516 X3.2291 Y1.6815 Z-0.0772
N517 X3.3032 Y1.7243 Z-0.0534
N518 X3.3203 Y1.7341 Z-0.0481
N519 X3.3375 Y1.7441 Z-0.0441
N520 X3.355 Y1.7542 Z-0.0413
N521 X3.3725 Y1.7643 Z-0.0397
N522 X3.3862 Y1.7722 Z-0.0394
N523 X3.3893 Y1.774 Z-0.039
N524 X3.3923 Y1.7757 Z-0.0382
N525 X3.3952 Y1.7774 Z-0.0368
N526 X3.3983 Y1.7792 Z-0.0354
N527 X3.4015 Y1.781 Z-0.0346
N528 X3.4048 Y1.7829 Z-0.0343
N529 X3.5297 Y1.855
N530 G3 X3.5572 Y1.9575 I-0.0375 J0.065
N531 G1 X3.5072 Y2.044
N532 G3 X3.4048 Y2.0715 I-0.065 J-0.0375
N533 G1 X3.4015 Y2.0696 Z-0.0346
N534 X3.3983 Y2.0678 Z-0.0354
N535 X3.3952 Y2.066 Z-0.0368
N536 X3.3923 Y2.0643 Z-0.0382
N537 X3.3893 Y2.0626 Z-0.039
N538 X3.3862 Y2.0608 Z-0.0394
N539 X3.3725 Y2.0529 Z-0.0397
N540 X3.355 Y2.0428 Z-0.0413
N541 X3.3375 Y2.0327 Z-0.0441
N542 X3.3203 Y2.0227 Z-0.0481
N543 X3.3032 Y2.0129 Z-0.0534
N544 X3.2291 Y1.9701 Z-0.0772
N545 X3.1661 Y1.9337 Z-0.0965
N546 X3.1029 Y1.8972 Z-0.115
N547 X3.0395 Y1.8606 Z-0.1326
N548 X2.9633 Y1.8166 Z-0.1528
N549 X2.8868 Y1.7724 Z-0.1716
N550 X2.81 Y1.7281 Z-0.1892
N551 X2.7459 Y1.6911 Z-0.203
N552 X2.6688 Y1.6466 Z-0.2185
N553 X2.5916 Y1.602 Z-0.2328
N554 X2.5142 Y1.5573 Z-0.2457
N555 X2.4495 Y1.52 Z-0.2556
N556 X2.3848 Y1.4826 Z-0.2647
N557 X2.307 Y1.4377 Z-0.2746
N558 X2.2161 Y1.3852 Z-0.2845
N559 X2.1783 Y1.3634 Z-0.2882
N560 X2.1754 Y1.3617
N561 X2.1725 Y1.36 Z-0.2878
N562 X2.1696 Y1.3584 Z-0.287
N563 X2.1669 Y1.3568 Z-0.2857
N564 X2.1639 Y1.3551 Z-0.2843
N565 X2.1607 Y1.3532 Z-0.2834
N566 X2.1574 Y1.3513 Z-0.2832
N567 X2.1424 Y1.3427
N568 X2.1395 Y1.3411
N569 X2.1365 Y1.3396
N570 X2.1334 Y1.3382
N571 X2.1302 Y1.337
N572 X2.127 Y1.336
N573 X2.1238 Y1.335 Z-0.2833
N574 X2.1205 Y1.3343
N575 X2.1172 Y1.3336 Z-0.2834
N576 X2.1139 Y1.3332
N577 X2.1105 Y1.3328 Z-0.2835
N578 X2.1072 Y1.3327
N579 X2.1038 Y1.3326 Z-0.2836
N580 X2.1005 Y1.3328 Z-0.2837
N581 X2.0971 Y1.333 Z-0.2838
N582 X2.0938 Y1.3335 Z-0.2839
N583 X2.0904 Y1.334 Z-0.284
N584 X2.0872 Y1.3348 Z-0.2841
N585 X2.0839 Y1.3356 Z-0.2842
N586 X2.0807 Y1.3366 Z-0.2843
N587 X2.0775 Y1.3378 Z-0.2844
N588 X2.0744 Y1.3391 Z-0.2845
N589 X2.0714 Y1.3405 Z-0.2846
N590 X2.0684 Y1.3421 Z-0.2848
N591 X2.0655 Y1.3438 Z-0.2849
N592 X2.0627 Y1.3456 Z-0.285
N593 X2.06 Y1.3476 Z-0.2851
N594 X2.0573 Y1.3497 Z-0.2853
N595 X2.0548 Y1.3519 Z-0.2854
N596 X2.0523 Y1.3542 Z-0.2856
N597 X2.05 Y1.3566 Z-0.2857
N598 X2.0478 Y1.3591 Z-0.2858
N599 X2.0456 Y1.3617 Z-0.286
N600 X2.0436 Y1.3644 Z-0.2861
N601 X2.0418 Y1.3672 Z-0.2863
N602 X2.04 Y1.3701 Z-0.2864
N603 X1.99 Y1.4567 Z-0.2908
N604 X1.9884 Y1.4597 Z-0.291
N605 X1.9869 Y1.4627 Z-0.2911
N606 X1.9855 Y1.4658 Z-0.2913
N607 X1.9843 Y1.4689 Z-0.2914
N608 X1.9833 Y1.4721 Z-0.2916
N609 X1.9824 Y1.4754 Z-0.2917
N610 X1.9816 Y1.4786 Z-0.2918
N611 X1.981 Y1.4819 Z-0.292
N612 X1.9805 Y1.4853 Z-0.2921
N613 X1.9802 Y1.4886 Z-0.2922
N614 X1.98 Y1.492 Z-0.2924
N615 Y1.4953 Z-0.2925
N616 X1.9801 Y1.4987 Z-0.2926
N617 X1.9804 Y1.502 Z-0.2928
N618 X1.9808 Y1.5054 Z-0.2929
N619 X1.9814 Y1.5087 Z-0.293
N620 X1.9821 Y1.512 Z-0.2931
N621 X1.983 Y1.5152 Z-0.2932
N622 X1.984 Y1.5184 Z-0.2933
N623 X1.9851 Y1.5216 Z-0.2934
N624 X1.9864 Y1.5247 Z-0.2935
N625 X1.9879 Y1.5277 Z-0.2936
N626 X1.9895 Y1.5307
N627 X1.9912 Y1.5336 Z-0.2937
N628 X1.993 Y1.5364 Z-0.2938
N629 X1.995 Y1.5392
N630 X1.997 Y1.5418 Z-0.2939
N631 X1.9992 Y1.5444
N632 X2.0015 Y1.5468 Z-0.294
N633 X2.004 Y1.5492
N634 X2.0065 Y1.5514 Z-0.2941
N635 X2.0091 Y1.5535
N636 X2.0118 Y1.5555
N637 X2.0146 Y1.5574
N638 X2.0175 Y1.5591
N639 X2.0207 Y1.561 Z-0.2944
N640 X2.0239 Y1.5629 Z-0.2953
N641 X2.027 Y1.5646 Z-0.2967
N642 X2.0296 Y1.5661 Z-0.2979
N643 X2.0322 Y1.5677 Z-0.2987
N644 X2.035 Y1.5692 Z-0.2991
N645 X2.0378 Y1.5708 Z-0.2992
N646 X2.06 Y1.5837 Z-0.2977
N647 X2.1381 Y1.6288 Z-0.2917
N648 X2.2161 Y1.6738 Z-0.2845
N649 X2.307 Y1.7263 Z-0.2746
N650 X2.3848 Y1.7712 Z-0.2648
N651 X2.4495 Y1.8086 Z-0.2557
N652 X2.5141 Y1.8459 Z-0.2457
N653 X2.5787 Y1.8831 Z-0.235
N654 X2.6688 Y1.9352 Z-0.2185
N655 X2.7459 Y1.9797 Z-0.203
N656 X2.81 Y2.0167 Z-0.1892
N657 X2.8868 Y2.061 Z-0.1716
N658 X2.9633 Y2.1052 Z-0.1528
N659 X3.0395 Y2.1492 Z-0.1326
N660 X3.1029 Y2.1858 Z-0.115
N661 X3.1661 Y2.2223 Z-0.0965
N662 X3.2291 Y2.2587 Z-0.0772
N663 X3.3032 Y2.3014 Z-0.0534
N664 X3.3203 Y2.3113 Z-0.0481
N665 X3.3375 Y2.3213 Z-0.0441
N666 X3.355 Y2.3313 Z-0.0413
N667 X3.3725 Y2.3415 Z-0.0397
N668 X3.3862 Y2.3494 Z-0.0394
N669 X3.3893 Y2.3512 Z-0.039
N670 X3.3923 Y2.3529 Z-0.0382
N671 X3.3952 Y2.3546 Z-0.0368
N672 X3.3983 Y2.3563 Z-0.0354
N673 X3.4015 Y2.3582 Z-0.0346
N674 X3.4048 Y2.3601 Z-0.0343
N675 X3.5297 Y2.4322
N676 G3 X3.5572 Y2.5347 I-0.0375 J0.065
N677 G1 X3.5072 Y2.6212
N678 G3 X3.4048 Y2.6487 I-0.065 J-0.0375
N679 G1 X3.4015 Y2.6468 Z-0.0346
N680 X3.3983 Y2.6449 Z-0.0354
N681 X3.3952 Y2.6432 Z-0.0368
N682 X3.3923 Y2.6415 Z-0.0382
N683 X3.3893 Y2.6397 Z-0.039
N684 X3.3862 Y2.638 Z-0.0394
N685 X3.3725 Y2.6301 Z-0.0397
N686 X3.355 Y2.6199 Z-0.0413
N687 X3.3375 Y2.6099 Z-0.0441
N688 X3.3203 Y2.5999 Z-0.0481
N689 X3.3032 Y2.59 Z-0.0534
N690 X3.2291 Y2.5473 Z-0.0772
N691 X3.1661 Y2.5109 Z-0.0965
N692 X3.1029 Y2.4744 Z-0.115
N693 X3.0395 Y2.4378 Z-0.1327
N694 X2.9633 Y2.3938 Z-0.1528
N695 X2.8868 Y2.3496 Z-0.1716
N696 X2.81 Y2.3053 Z-0.1892
N697 X2.7459 Y2.2683 Z-0.203
N698 X2.6688 Y2.2238 Z-0.2185
N699 X2.5787 Y2.1717 Z-0.235
N700 X2.5141 Y2.1345 Z-0.2457
N701 X2.4495 Y2.0972 Z-0.2557
N702 X2.3848 Y2.0598 Z-0.2648
N703 X2.307 Y2.0149 Z-0.2746
N704 X2.2161 Y1.9624 Z-0.2845
N705 X2.1381 Y1.9174 Z-0.2917
N706 X2.06 Y1.8723 Z-0.2977
N707 X1.9819 Y1.8272 Z-0.3024
N708 X1.9037 Y1.782 Z-0.306
N709 X1.8183 Y1.7327 Z-0.3085
N710 X1.8066 Y1.726 Z-0.3087
N711 X1.8021 Y1.7234 Z-0.3086
N712 X1.7975 Y1.7207 Z-0.3078
N713 X1.7931 Y1.7182 Z-0.3065
N714 X1.7888 Y1.7157 Z-0.3047
N715 X1.7847 Y1.7133 Z-0.3023
N716 X1.7808 Y1.7111 Z-0.2995
N717 X1.7772 Y1.709 Z-0.2962
N718 X1.774 Y1.7071 Z-0.2925
N719 X1.7711 Y1.7054 Z-0.2884
N720 X1.7685 Y1.704 Z-0.284
N721 X1.7664 Y1.7028 Z-0.2793
N722 X1.7648 Y1.7018 Z-0.2744
N723 X1.7636 Y1.7011 Z-0.2693
N724 X1.7629 Y1.7007 Z-0.264
N725 X1.7626 Y1.7006 Z-0.2587
N726 G0 Z0.1969
N727 X1.4904 Y0.389
N728 Z-0.2264
N729 G1 Z-0.2526 F30
N730 X1.4901 Y0.3889 Z-0.258
N731 X1.4894 Y0.3885 Z-0.2633
N732 X1.4881 Y0.3877 Z-0.2686
N733 X1.4864 Y0.3867 Z-0.2736
N734 X1.4842 Y0.3855 Z-0.2784
N735 X1.4816 Y0.3839 Z-0.2828
N736 X1.4785 Y0.3822 Z-0.287
N737 X1.4751 Y0.3802 Z-0.2907
N738 X1.4714 Y0.3781 Z-0.294
N739 X1.4674 Y0.3758 Z-0.2968
N740 X1.4631 Y0.3733 Z-0.299
N741 X1.4587 Y0.3707 Z-0.3008
N742 X1.4541 Y0.3681 Z-0.3019
N743 X1.4495 Y0.3654 Z-0.3025
N744 X1.4448 Y0.3627
N745 X1.3602 Y0.3139 Z-0.2973 F50
N746 X1.2771 Y0.2659 Z-0.2908
N747 X1.1927 Y0.2172 Z-0.2829
N748 X1.1071 Y0.1678 Z-0.2732
N749 X1.0449 Y0.1319 Z-0.2653
N750 X0.9815 Y0.0952 Z-0.2565
N751 X0.9053 Y0.0512 Z-0.2448
N752 X0.884 Y0.039 Z-0.2414
N753 X0.8794 Y0.0363 Z-0.2403
N754 X0.8748 Y0.0337 Z-0.2386
N755 X0.8705 Y0.0311 Z-0.2364
N756 X0.8663 Y0.0288 Z-0.2337
N757 X0.8625 Y0.0265 Z-0.2304
N758 X0.859 Y0.0245 Z-0.2267
N759 X0.8559 Y0.0227 Z-0.2225
N760 X0.8532 Y0.0211 Z-0.218
N761 X0.8509 Y0.0198 Z-0.2132
N762 X0.8491 Y0.0188 Z-0.2081
N763 X0.8478 Y0.0181 Z-0.2028
N764 X0.847 Y0.0176 Z-0.1973
N765 X0.8468 Y0.0174 Z-0.1918
N766 G0 Z0.1969
N767 X0.3507 Y0.0196
N768 Z-0.0418
N769 G1 Z-0.0835 F30
N770 X0.3509 Y0.0198 Z-0.0891
N771 X0.3518 Y0.0202 Z-0.0946
N772 X0.3531 Y0.021 Z-0.1
N773 X0.3549 Y0.0221 Z-0.1051
N774 X0.3573 Y0.0234 Z-0.11
N775 X0.3601 Y0.0251 Z-0.1146
N776 X0.3633 Y0.0269 Z-0.1188
N777 X0.3669 Y0.029 Z-0.1225
N778 X0.3708 Y0.0313 Z-0.1258
N779 X0.3751 Y0.0337 Z-0.1285
N780 X0.3795 Y0.0363 Z-0.1306
N781 X0.3842 Y0.039 Z-0.1322
N782 X0.4257 Y0.063 Z-0.1433 F50
N783 X0.5009 Y0.1063 Z-0.1624
N784 X0.5762 Y0.1498 Z-0.1804
N785 X0.6633 Y0.2001 Z-0.1997
N786 X0.7391 Y0.2439 Z-0.2151
N787 X0.8021 Y0.2803 Z-0.227
N788 X0.8653 Y0.3167 Z-0.2381
N789 X0.9285 Y0.3533 Z-0.2485
N790 X0.9996 Y0.3943 Z-0.2592
N791 X1.0823 Y0.442 Z-0.2702
N792 X1.1639 Y0.4891 Z-0.2798
N793 X1.1669 Y0.4909 Z-0.2799
N794 X1.1699 Y0.4926 Z-0.2795
N795 X1.1728 Y0.4943 Z-0.2787
N796 X1.1756 Y0.4959 Z-0.2774
N797 X1.1787 Y0.4977 Z-0.276
N798 X1.1819 Y0.4995 Z-0.2751
N799 X1.1851 Y0.5014 Z-0.2748
N800 X1.188 Y0.5031
N801 X1.1908 Y0.505
N802 X1.1935 Y0.507
N803 X1.1961 Y0.5091 Z-0.2747
N804 X1.1986 Y0.5114
N805 X1.2011 Y0.5137 Z-0.2746
N806 X1.2034 Y0.5162 Z-0.2745
N807 X1.2056 Y0.5187 Z-0.2744
N808 X1.2077 Y0.5213 Z-0.2743
N809 X1.2096 Y0.5241 Z-0.2742
N810 X1.2115 Y0.5269 Z-0.2741
N811 X1.2132 Y0.5298 Z-0.2739
N812 X1.2147 Y0.5328 Z-0.2738
N813 X1.2162 Y0.5358 Z-0.2736
N814 X1.2175 Y0.5389 Z-0.2734
N815 X1.2186 Y0.5421 Z-0.2733
N816 X1.2197 Y0.5453 Z-0.2731
N817 X1.2205 Y0.5485 Z-0.2729
N818 X1.2213 Y0.5518 Z-0.2726
N819 X1.2218 Y0.5551 Z-0.2724
N820 X1.2223 Y0.5584 Z-0.2722
N821 X1.2226 Y0.5618 Z-0.272
N822 X1.2227 Y0.5651 Z-0.2717
N823 Y0.5685 Z-0.2715
N824 X1.2225 Y0.5718 Z-0.2712
N825 X1.2222 Y0.5752 Z-0.2709
N826 X1.2217 Y0.5785 Z-0.2707
N827 X1.2211 Y0.5818 Z-0.2704
N828 X1.2203 Y0.585 Z-0.2701
N829 X1.2194 Y0.5883 Z-0.2699
N830 X1.2183 Y0.5915 Z-0.2696
N831 X1.2171 Y0.5946 Z-0.2693
N832 X1.2158 Y0.5977 Z-0.269
N833 X1.2143 Y0.6007 Z-0.2687
N834 X1.2127 Y0.6036 Z-0.2684
N835 X1.1625 Y0.6906 Z-0.2598
N836 X1.1607 Y0.6935 Z-0.2596
N837 X1.1589 Y0.6963 Z-0.2593
N838 X1.1569 Y0.699 Z-0.259
N839 X1.1548 Y0.7016 Z-0.2587
N840 X1.1525 Y0.7041 Z-0.2584
N841 X1.1502 Y0.7065 Z-0.2581
N842 X1.1478 Y0.7088 Z-0.2579
N843 X1.1452 Y0.711 Z-0.2576
N844 X1.1426 Y0.713 Z-0.2573
N845 X1.1398 Y0.715 Z-0.2571
N846 X1.137 Y0.7168 Z-0.2568
N847 X1.1341 Y0.7185 Z-0.2566
N848 X1.1312 Y0.7201 Z-0.2563
N849 X1.1281 Y0.7215 Z-0.2561
N850 X1.125 Y0.7228 Z-0.2559
N851 X1.1219 Y0.7239 Z-0.2556
N852 X1.1187 Y0.725 Z-0.2554
N853 X1.1154 Y0.7258 Z-0.2552
N854 X1.1121 Y0.7265 Z-0.255
N855 X1.1088 Y0.7271 Z-0.2548
N856 X1.1055 Y0.7275 Z-0.2547
N857 X1.1021 Y0.7278 Z-0.2545
N858 X1.0988 Y0.7279 Z-0.2544
N859 X1.0954 Z-0.2542
N860 X1.0921 Y0.7277 Z-0.2541
N861 X1.0887 Y0.7274 Z-0.254
N862 X1.0854 Y0.7269 Z-0.2539
N863 X1.0821 Y0.7263 Z-0.2538
N864 X1.0788 Y0.7255 Z-0.2537
N865 X1.0756 Y0.7246 Z-0.2536
N866 X1.0724 Y0.7235
N867 X1.0692 Y0.7223 Z-0.2535
N868 X1.0661 Y0.7209
N869 X1.0631 Y0.7195
N870 X1.0602 Y0.7178 Z-0.2534
N871 X1.0156 Y0.6921
N872 X1.0123 Y0.6902 Z-0.2537
N873 X1.0091 Y0.6884 Z-0.2546
N874 X1.0061 Y0.6866 Z-0.256
N875 X1.0031 Y0.6849 Z-0.2574
N876 X1 Y0.6831 Z-0.2582
N877 X0.9969 Y0.6813 Z-0.2585
N878 X0.9937 Y0.6795 Z-0.2583
N879 X0.9111 Y0.6318 Z-0.2458
N880 X0.8234 Y0.5811 Z-0.2309
N881 X0.7487 Y0.538 Z-0.217
N882 X0.6858 Y0.5017 Z-0.2043
N883 X0.623 Y0.4654 Z-0.1909
N884 X0.5603 Y0.4292 Z-0.1767
N885 X0.4849 Y0.3857 Z-0.1585
N886 X0.3984 Y0.3358 Z-0.1361
N887 X0.3236 Y0.2926 Z-0.1153
N888 X0.249 Y0.2495 Z-0.0935
N889 X0.1634 Y0.2001 Z-0.0668
N890 X0.1132 Y0.1711 Z-0.0505
N891 X0.1006 Y0.1638 Z-0.047
N892 X0.0879 Y0.1565 Z-0.0441
N893 X0.075 Y0.1491 Z-0.0419
N894 X0.0621 Y0.1416 Z-0.0404
N895 X0.0442 Y0.1313 Z-0.0394
N896 X0.039 Y0.1283
N897 X0.0358 Y0.1264 Z-0.0391
N898 X0.0326 Y0.1246 Z-0.0382
N899 X0.0296 Y0.1229 Z-0.0368
N900 X0.0266 Y0.1211 Z-0.0354
N901 X0.0234 Y0.1193 Z-0.0346
N902 X0.0201 Y0.1174 Z-0.0343
N903 G2 X-0.0823 Y0.1448 I-0.0375 J0.065
N904 G1 X-0.1323 Y0.2314
N905 G2 X-0.1048 Y0.3338 I0.065 J0.0375
N906 G1 X0.0202 Y0.406
N907 X0.0235 Y0.4079 Z-0.0346
N908 X0.0267 Y0.4097 Z-0.0354
N909 X0.0297 Y0.4115 Z-0.0368
N910 X0.0327 Y0.4132 Z-0.0382
N911 X0.0358 Y0.415 Z-0.0391
N912 X0.039 Y0.4169 Z-0.0394
N913 X0.0462 Y0.421 Z-0.0395
N914 X0.0592 Y0.4285 Z-0.0402
N915 X0.0722 Y0.436 Z-0.0415
N916 X0.0851 Y0.4434 Z-0.0436
N917 X0.0978 Y0.4508 Z-0.0463
N918 X0.1104 Y0.4581 Z-0.0497
N919 X0.1908 Y0.5045 Z-0.0755
N920 X0.2652 Y0.5475 Z-0.0983
N921 X0.3398 Y0.5905 Z-0.12
N922 X0.4261 Y0.6404 Z-0.1434
N923 X0.5013 Y0.6838 Z-0.1625
N924 X0.5766 Y0.7273 Z-0.1805
N925 X0.6637 Y0.7775 Z-0.1997
N926 X0.7395 Y0.8213 Z-0.2152
N927 X0.8154 Y0.8651 Z-0.2295
N928 X0.9018 Y0.915 Z-0.2443
N929 X0.905 Y0.9169 Z-0.2446
N930 X0.9083 Y0.9187 Z-0.2443
N931 X0.9115 Y0.9206 Z-0.2434
N932 X0.9145 Y0.9223 Z-0.242
N933 X0.9149 Y0.9225 Z-0.2418
N934 X0.9179 Y0.9243 Z-0.2404
N935 X0.9211 Y0.9261 Z-0.2395
N936 X0.9244 Y0.928 Z-0.2393
N937 X1.0477 Y0.9992
N938 G3 X1.0751 Y1.1017 I-0.0375 J0.065
N939 G1 X1.0252 Y1.1882
N940 G3 X0.9227 Y1.2157 I-0.065 J-0.0375
N941 G1 X0.9194 Y1.2138 Z-0.2395
N942 X0.9162 Y1.2119 Z-0.2404
N943 X0.9132 Y1.2102 Z-0.2418
N944 X0.9102 Y1.2084 Z-0.2432
N945 X0.907 Y1.2066 Z-0.2441
N946 X0.9037 Y1.2047 Z-0.2444
N947 X0.9005 Y1.2028 Z-0.2441
N948 X0.8127 Y1.1522 Z-0.229
N949 X0.7497 Y1.1158 Z-0.2172
N950 X0.6867 Y1.0794 Z-0.2045
N951 X0.6239 Y1.0431 Z-0.1911
N952 X0.5612 Y1.0069 Z-0.1769
N953 X0.4859 Y0.9635 Z-0.1587
N954 X0.3994 Y0.9135 Z-0.1363
N955 X0.3246 Y0.8703 Z-0.1156
N956 X0.25 Y0.8273 Z-0.0938
N957 X0.1644 Y0.7778 Z-0.0671
N958 X0.1141 Y0.7488 Z-0.0508
N959 X0.1016 Y0.7416 Z-0.0472
N960 X0.0888 Y0.7342 Z-0.0443
N961 X0.076 Y0.7268 Z-0.0421
N962 X0.063 Y0.7193 Z-0.0405
N963 X0.0447 Y0.7088 Z-0.0394
N964 X0.039 Y0.7055
N965 X0.0358 Y0.7036 Z-0.0391
N966 X0.0327 Y0.7018 Z-0.0382
N967 X0.0297 Y0.7001 Z-0.0368
N968 X0.0266 Y0.6983 Z-0.0354
N969 X0.0234 Y0.6964 Z-0.0346
N970 X0.0201 Y0.6946 Z-0.0343
N971 G2 X-0.0823 Y0.722 I-0.0375 J0.065
N972 G1 X-0.1323 Y0.8085
N973 G2 X-0.1048 Y0.911 I0.065 J0.0375
N974 G1 X0.0206 Y0.9834
N975 X0.0239 Y0.9853 Z-0.0346
N976 X0.0271 Y0.9871 Z-0.0354
N977 X0.0301 Y0.9889 Z-0.0368
N978 X0.033 Y0.9906 Z-0.0382
N979 X0.0359 Y0.9923 Z-0.039
N980 X0.039 Y0.994 Z-0.0394
N981 X0.057 Y1.0045 Z-0.04
N982 X0.07 Y1.0119 Z-0.0413
N983 X0.0829 Y1.0194 Z-0.0432
N984 X0.0957 Y1.0268 Z-0.0458
N985 X0.1083 Y1.0341 Z-0.0491
N986 X0.1397 Y1.0522 Z-0.0591
N987 X0.2013 Y1.0877 Z-0.0788
N988 X0.2631 Y1.1234 Z-0.0977
N989 X0.325 Y1.1592 Z-0.1158
N990 X0.3999 Y1.2024 Z-0.1365
N991 X0.4864 Y1.2523 Z-0.1589
N992 X0.5617 Y1.2958 Z-0.177
N993 X0.6244 Y1.332 Z-0.1912
N994 X0.6872 Y1.3683 Z-0.2046
N995 X0.7501 Y1.4046 Z-0.2172
N996 X0.8132 Y1.441 Z-0.2291
N997 X0.8996 Y1.4909 Z-0.2439
N998 X0.9808 Y1.5378 Z-0.2565
N999 X1.0623 Y1.5848 Z-0.2677
N1000 X1.1438 Y1.6319 Z-0.2776
N1001 X1.2268 Y1.6798 Z-0.2863
N1002 X1.3112 Y1.7285 Z-0.2937
N1003 X1.3944 Y1.7766 Z-0.2996
N1004 X1.4789 Y1.8254 Z-0.3042
N1005 X1.5636 Y1.8743 Z-0.3074
N1006 X1.6463 Y1.922 Z-0.3092
N1007 X1.7316 Y1.9713 Z-0.3096
N1008 X1.8181 Y2.0212 Z-0.3085
N1009 X1.9037 Y2.0706 Z-0.306
N1010 X1.9819 Y2.1158 Z-0.3024
N1011 X2.0601 Y2.1609 Z-0.2977
N1012 X2.1381 Y2.206 Z-0.2917
N1013 X2.2161 Y2.251 Z-0.2845
N1014 X2.307 Y2.3035 Z-0.2746
N1015 X2.3848 Y2.3484 Z-0.2648
N1016 X2.4625 Y2.3932 Z-0.2538
N1017 X2.5529 Y2.4454 Z-0.2394
N1018 X2.6302 Y2.4901 Z-0.2257
N1019 X2.7074 Y2.5346 Z-0.211
N1020 X2.7844 Y2.5791 Z-0.1949
N1021 X2.8612 Y2.6234 Z-0.1776
N1022 X2.9378 Y2.6677 Z-0.1592
N1023 X3.0268 Y2.7191 Z-0.1361
N1024 X3.1029 Y2.763 Z-0.115
N1025 X3.1661 Y2.7995 Z-0.0965
N1026 X3.2291 Y2.8358 Z-0.0772
N1027 X3.3032 Y2.8786 Z-0.0534
N1028 X3.3203 Y2.8885 Z-0.0481
N1029 X3.3375 Y2.8984 Z-0.0441
N1030 X3.355 Y2.9085 Z-0.0413
N1031 X3.3725 Y2.9186 Z-0.0397
N1032 X3.3862 Y2.9265 Z-0.0394
N1033 X3.3893 Y2.9283 Z-0.039
N1034 X3.3923 Y2.9301 Z-0.0382
N1035 X3.3952 Y2.9318 Z-0.0368
N1036 X3.3983 Y2.9335 Z-0.0354
N1037 X3.4015 Y2.9354 Z-0.0346
N1038 X3.4048 Y2.9373 Z-0.0343
N1039 X3.5297 Y3.0094
N1040 G3 X3.5572 Y3.1119 I-0.0375 J0.065
N1041 G1 X3.5072 Y3.1984
N1042 G3 X3.4048 Y3.2259 I-0.065 J-0.0375
N1043 G1 X3.4015 Y3.224 Z-0.0346
N1044 X3.3983 Y3.2221 Z-0.0354
N1045 X3.3952 Y3.2204 Z-0.0368
N1046 X3.3923 Y3.2187 Z-0.0382
N1047 X3.3893 Y3.2169 Z-0.039
N1048 X3.3862 Y3.2151 Z-0.0394
N1049 X3.3725 Y3.2072 Z-0.0397
N1050 X3.355 Y3.1971 Z-0.0413
N1051 X3.3375 Y3.187 Z-0.0441
N1052 X3.3203 Y3.1771 Z-0.0481
N1053 X3.3032 Y3.1672 Z-0.0534
N1054 X3.2291 Y3.1244 Z-0.0772
N1055 X3.1661 Y3.0881 Z-0.0965
N1056 X3.1029 Y3.0516 Z-0.115
N1057 X3.0268 Y3.0077 Z-0.1361
N1058 X2.9378 Y2.9562 Z-0.1592
N1059 X2.8612 Y2.912 Z-0.1776
N1060 X2.7844 Y2.8677 Z-0.1949
N1061 X2.7074 Y2.8232 Z-0.211
N1062 X2.6302 Y2.7787 Z-0.2258
N1063 X2.5529 Y2.734 Z-0.2394
N1064 X2.4625 Y2.6818 Z-0.2538
N1065 X2.3848 Y2.637 Z-0.2648
N1066 X2.307 Y2.5921 Z-0.2746
N1067 X2.2161 Y2.5396 Z-0.2845
N1068 X2.1381 Y2.4946 Z-0.2917
N1069 X2.0601 Y2.4495 Z-0.2977
N1070 X1.9819 Y2.4044 Z-0.3024
N1071 X1.9037 Y2.3592 Z-0.306
N1072 X1.8181 Y2.3098 Z-0.3085
N1073 X1.7316 Y2.2599 Z-0.3096
N1074 X1.6511 Y2.2134 Z-0.3092
N1075 X1.5627 Y2.1623 Z-0.3074
N1076 X1.4781 Y2.1135 Z-0.3042
N1077 X1.3948 Y2.0654 Z-0.2996
N1078 X1.313 Y2.0182 Z-0.2938
N1079 X1.2286 Y1.9694 Z-0.2864
N1080 X1.1469 Y1.9223 Z-0.2779
N1081 X1.0654 Y1.8752 Z-0.2681
N1082 X0.984 Y1.8282 Z-0.2569
N1083 X0.9027 Y1.7813 Z-0.2444
N1084 X0.8176 Y1.7322 Z-0.2299
N1085 X0.7417 Y1.6883 Z-0.2156
N1086 X0.6788 Y1.652 Z-0.2029
N1087 X0.6031 Y1.6083 Z-0.1865
N1088 X0.5162 Y1.5582 Z-0.1662
N1089 X0.4411 Y1.5148 Z-0.1473
N1090 X0.3661 Y1.4715 Z-0.1273
N1091 X0.28 Y1.4218 Z-0.1027
N1092 X0.2056 Y1.3788 Z-0.0801
N1093 X0.1314 Y1.336 Z-0.0564
N1094 X0.1126 Y1.3251 Z-0.0503
N1095 X0.1 Y1.3178 Z-0.0468
N1096 X0.0873 Y1.3105 Z-0.044
N1097 X0.0744 Y1.3031 Z-0.0418
N1098 X0.0615 Y1.2956 Z-0.0403
N1099 X0.0485 Y1.2881 Z-0.0395
N1100 X0.039 Y1.2826 Z-0.0394
N1101 X0.0358 Y1.2808 Z-0.039
N1102 X0.0328 Y1.279 Z-0.0382
N1103 X0.0298 Y1.2773 Z-0.0368
N1104 X0.0268 Y1.2756 Z-0.0354
N1105 X0.0236 Y1.2737 Z-0.0346
N1106 X0.0203 Y1.2718 Z-0.0343
N1107 G2 X-0.0822 Y1.2993 I-0.0375 J0.065
N1108 G1 X-0.1321 Y1.3858
N1109 G2 X-0.1047 Y1.4883 I0.065 J0.0375
N1110 G1 X0.0206 Y1.5606
N1111 X0.0239 Y1.5625 Z-0.0346
N1112 X0.0271 Y1.5644 Z-0.0354
N1113 X0.0302 Y1.5661 Z-0.0368
N1114 X0.033 Y1.5678 Z-0.0382
N1115 X0.036 Y1.5695 Z-0.039
N1116 X0.039 Y1.5712 Z-0.0394
N1117 X0.0583 Y1.5824 Z-0.0401
N1118 X0.0713 Y1.5898 Z-0.0414
N1119 X0.0841 Y1.5973 Z-0.0434
N1120 X0.0969 Y1.6047 Z-0.0461
N1121 X0.1096 Y1.612 Z-0.0494
N1122 X0.19 Y1.6584 Z-0.0753
N1123 X0.2643 Y1.7013 Z-0.098
N1124 X0.339 Y1.7444 Z-0.1197
N1125 X0.4253 Y1.7942 Z-0.1432
N1126 X0.5004 Y1.8376 Z-0.1623
N1127 X0.5757 Y1.8811 Z-0.1803
N1128 X0.6628 Y1.9314 Z-0.1996
N1129 X0.7386 Y1.9751 Z-0.215
N1130 X0.8145 Y2.019 Z-0.2293
N1131 X0.9009 Y2.0688 Z-0.2442
N1132 X0.9822 Y2.1158 Z-0.2567
N1133 X1.0636 Y2.1628 Z-0.2679
N1134 X1.1464 Y2.2106 Z-0.2779
N1135 X1.2294 Y2.2585 Z-0.2865
N1136 X1.3125 Y2.3065 Z-0.2938
N1137 X1.3943 Y2.3537 Z-0.2996
N1138 X1.4776 Y2.4018 Z-0.3041
N1139 X1.5609 Y2.4499 Z-0.3073
N1140 X1.6493 Y2.5009 Z-0.3092
N1141 X1.7316 Y2.5485 Z-0.3096
N1142 X1.8181 Y2.5984 Z-0.3085
N1143 X1.9037 Y2.6478 Z-0.306
N1144 X1.9819 Y2.693 Z-0.3024
N1145 X2.0731 Y2.7456 Z-0.2968
N1146 X2.1511 Y2.7907 Z-0.2906
N1147 X2.2291 Y2.8357 Z-0.2832
N1148 X2.307 Y2.8807 Z-0.2746
N1149 X2.3848 Y2.9256 Z-0.2648
N1150 X2.4625 Y2.9704 Z-0.2538
N1151 X2.5529 Y3.0226 Z-0.2394
N1152 X2.6302 Y3.0673 Z-0.2258
N1153 X2.7074 Y3.1118 Z-0.211
N1154 X2.7844 Y3.1563 Z-0.1949
N1155 X2.8612 Y3.2006 Z-0.1776
N1156 X2.9378 Y3.2448 Z-0.1592
N1157 X3.0268 Y3.2963 Z-0.1361
N1158 X3.1029 Y3.3402 Z-0.115
N1159 X3.1661 Y3.3767 Z-0.0965
N1160 X3.2291 Y3.413 Z-0.0772
N1161 X3.3032 Y3.4558 Z-0.0534
N1162 X3.3203 Y3.4657 Z-0.0481
N1163 X3.3375 Y3.4756 Z-0.0441
N1164 X3.355 Y3.4857 Z-0.0413
N1165 X3.3725 Y3.4958 Z-0.0397
N1166 X3.3862 Y3.5037 Z-0.0394
N1167 X3.3893 Y3.5055 Z-0.039
N1168 X3.3923 Y3.5073 Z-0.0382
N1169 X3.3952 Y3.5089 Z-0.0368
N1170 X3.3983 Y3.5107 Z-0.0354
N1171 X3.4015 Y3.5126 Z-0.0346
N1172 X3.4048 Y3.5144 Z-0.0343
N1173 X3.5297 Y3.5866
N1174 G3 X3.5572 Y3.689 I-0.0375 J0.065
N1175 G1 X3.5072 Y3.7756
N1176 G3 X3.4048 Y3.803 I-0.065 J-0.0375
N1177 G1 X3.4015 Y3.8011 Z-0.0346
N1178 X3.3983 Y3.7993 Z-0.0354
N1179 X3.3952 Y3.7975 Z-0.0368
N1180 X3.3923 Y3.7959 Z-0.0382
N1181 X3.3893 Y3.7941 Z-0.039
N1182 X3.3862 Y3.7923 Z-0.0394
N1183 X3.3725 Y3.7844 Z-0.0397
N1184 X3.355 Y3.7743 Z-0.0413
N1185 X3.3375 Y3.7642 Z-0.0441
N1186 X3.3203 Y3.7542 Z-0.0481
N1187 X3.3032 Y3.7444 Z-0.0534
N1188 X3.2291 Y3.7016 Z-0.0772
N1189 X3.1661 Y3.6652 Z-0.0965
N1190 X3.1029 Y3.6288 Z-0.115
N1191 X3.0268 Y3.5848 Z-0.1361
N1192 X2.9378 Y3.5334 Z-0.1592
N1193 X2.8612 Y3.4892 Z-0.1776
N1194 X2.7844 Y3.4449 Z-0.1949
N1195 X2.7074 Y3.4004 Z-0.211
N1196 X2.6302 Y3.3559 Z-0.2258
N1197 X2.5529 Y3.3112 Z-0.2394
N1198 X2.4625 Y3.259 Z-0.2538
N1199 X2.3848 Y3.2142 Z-0.2648
N1200 X2.307 Y3.1693 Z-0.2746
N1201 X2.2291 Y3.1243 Z-0.2832
N1202 X2.1511 Y3.0793 Z-0.2905
N1203 X2.0731 Y3.0342 Z-0.2967
N1204 X1.9819 Y2.9816 Z-0.3024
N1205 X1.9037 Y2.9364 Z-0.306
N1206 X1.8181 Y2.887 Z-0.3085
N1207 X1.7316 Y2.837 Z-0.3096
N1208 X1.6541 Y2.7923 Z-0.3092
N1209 X1.5701 Y2.7438 Z-0.3076
N1210 X1.4879 Y2.6963 Z-0.3046
N1211 X1.4033 Y2.6475 Z-0.3001
N1212 X1.3215 Y2.6003 Z-0.2945
N1213 X1.2384 Y2.5523 Z-0.2873
N1214 X1.1554 Y2.5044 Z-0.2789
N1215 X1.0725 Y2.4565 Z-0.269
N1216 X0.9911 Y2.4095 Z-0.258
N1217 X0.9098 Y2.3626 Z-0.2456
N1218 X0.8234 Y2.3127 Z-0.2309
N1219 X0.7488 Y2.2696 Z-0.217
N1220 X0.6858 Y2.2333 Z-0.2044
N1221 X0.623 Y2.197 Z-0.1909
N1222 X0.5603 Y2.1608 Z-0.1767
N1223 X0.485 Y2.1173 Z-0.1585
N1224 X0.3985 Y2.0674 Z-0.1361
N1225 X0.3237 Y2.0242 Z-0.1154
N1226 X0.2491 Y1.9811 Z-0.0935
N1227 X0.1635 Y1.9317 Z-0.0668
N1228 X0.1133 Y1.9027 Z-0.0505
N1229 X0.1007 Y1.8954 Z-0.047
N1230 X0.0879 Y1.8881 Z-0.0441
N1231 X0.0751 Y1.8806 Z-0.0419
N1232 X0.0621 Y1.8732 Z-0.0404
N1233 X0.0443 Y1.8628 Z-0.0394
N1234 X0.039 Y1.8598
N1235 X0.0358 Y1.858 Z-0.0391
N1236 X0.0326 Y1.8561 Z-0.0382
N1237 X0.0296 Y1.8544 Z-0.0368
N1238 X0.0266 Y1.8526 Z-0.0354
N1239 X0.0234 Y1.8508 Z-0.0346
N1240 X0.0201 Y1.8489 Z-0.0343
N1241 G2 X-0.0823 Y1.8764 I-0.0375 J0.065
N1242 G1 X-0.1323 Y1.9629
N1243 G2 X-0.1048 Y2.0653 I0.065 J0.0375
N1244 G1 X0.0206 Y2.1378
N1245 X0.0239 Y2.1397 Z-0.0346
N1246 X0.0271 Y2.1415 Z-0.0354
N1247 X0.0301 Y2.1433 Z-0.0368
N1248 X0.033 Y2.1449 Z-0.0382
N1249 X0.0359 Y2.1466 Z-0.039
N1250 X0.039 Y2.1484 Z-0.0394
N1251 X0.057 Y2.1588 Z-0.04
N1252 X0.0699 Y2.1663 Z-0.0412
N1253 X0.0828 Y2.1737 Z-0.0432
N1254 X0.0956 Y2.1811 Z-0.0458
N1255 X0.1083 Y2.1884 Z-0.0491
N1256 X0.1334 Y2.2029 Z-0.0571
N1257 X0.2076 Y2.2457 Z-0.0807
N1258 X0.282 Y2.2887 Z-0.1033
N1259 X0.368 Y2.3384 Z-0.1278
N1260 X0.443 Y2.3817 Z-0.1478
N1261 X0.5182 Y2.4251 Z-0.1667
N1262 X0.6051 Y2.4752 Z-0.187
N1263 X0.6807 Y2.5189 Z-0.2033
N1264 X0.7437 Y2.5552 Z-0.216
N1265 X0.8067 Y2.5916 Z-0.2279
N1266 X0.8815 Y2.6348 Z-0.2409
N1267 X0.9511 Y2.675 Z-0.252
N1268 X1.0324 Y2.722 Z-0.2637
N1269 X1.1153 Y2.7698 Z-0.2742
N1270 X1.1865 Y2.8109 Z-0.2822
N1271 X1.2696 Y2.8589 Z-0.2902
N1272 X1.354 Y2.9076 Z-0.2969
N1273 X1.4255 Y2.9489 Z-0.3014
N1274 X1.5088 Y2.997 Z-0.3055
N1275 X1.5942 Y3.0463 Z-0.3082
N1276 X1.6722 Y3.0914 Z-0.3094
N1277 X1.7596 Y3.1418
N1278 X1.8394 Y3.1879 Z-0.308
N1279 X1.9181 Y3.2333 Z-0.3054
N1280 X2.0093 Y3.286 Z-0.3009
N1281 X2.0874 Y3.3311 Z-0.2957
N1282 X2.1525 Y3.3686 Z-0.2904
N1283 X2.2305 Y3.4136 Z-0.2831
N1284 X2.3084 Y3.4586 Z-0.2745
N1285 X2.3861 Y3.5035 Z-0.2646
N1286 X2.4638 Y3.5484 Z-0.2536
N1287 X2.5542 Y3.6006 Z-0.2392
N1288 X2.6315 Y3.6452 Z-0.2255
N1289 X2.7087 Y3.6898 Z-0.2107
N1290 X2.7857 Y3.7342 Z-0.1946
N1291 X2.8625 Y3.7785 Z-0.1773
N1292 X2.9391 Y3.8228 Z-0.1589
N1293 X3.0281 Y3.8742 Z-0.1358
N1294 X3.1029 Y3.9173 Z-0.115
N1295 X3.1661 Y3.9538 Z-0.0965
N1296 X3.2291 Y3.9902 Z-0.0772
N1297 X3.3032 Y4.033 Z-0.0534
N1298 X3.3203 Y4.0428 Z-0.0481
N1299 X3.3375 Y4.0528 Z-0.0441
N1300 X3.355 Y4.0629 Z-0.0413
N1301 X3.3725 Y4.073 Z-0.0397
N1302 X3.3862 Y4.0809 Z-0.0394
N1303 X3.3893 Y4.0827 Z-0.039
N1304 X3.3923 Y4.0844 Z-0.0382
N1305 X3.3952 Y4.0861 Z-0.0368
N1306 X3.3983 Y4.0879 Z-0.0354
N1307 X3.4015 Y4.0897 Z-0.0346
N1308 X3.4048 Y4.0916 Z-0.0343
N1309 X3.5297 Y4.1638
N1310 G3 X3.5572 Y4.2662 I-0.0375 J0.065
N1311 G1 X3.5072 Y4.3528
N1312 G3 X3.4048 Y4.3802 I-0.065 J-0.0375
N1313 G1 X3.4015 Y4.3783 Z-0.0346
N1314 X3.3983 Y4.3765 Z-0.0354
N1315 X3.3952 Y4.3747 Z-0.0368
N1316 X3.3923 Y4.373 Z-0.0382
N1317 X3.3893 Y4.3713 Z-0.039
N1318 X3.3862 Y4.3695 Z-0.0394
N1319 X3.3725 Y4.3616 Z-0.0397
N1320 X3.355 Y4.3515 Z-0.0413
N1321 X3.3375 Y4.3414 Z-0.0441
N1322 X3.3203 Y4.3314 Z-0.0481
N1323 X3.3032 Y4.3216 Z-0.0534
N1324 X3.2291 Y4.2788 Z-0.0772
N1325 X3.1661 Y4.2424 Z-0.0965
N1326 X3.1029 Y4.2059 Z-0.115
N1327 X3.0269 Y4.162 Z-0.1361
N1328 X2.9505 Y4.118 Z-0.156
N1329 X2.874 Y4.0738 Z-0.1746
N1330 X2.7972 Y4.0294 Z-0.1921
N1331 X2.7203 Y3.985 Z-0.2084
N1332 X2.6431 Y3.9405 Z-0.2234
N1333 X2.5658 Y3.8958 Z-0.2372
N1334 X2.4754 Y3.8436 Z-0.2518
N1335 X2.3978 Y3.7988 Z-0.2631
N1336 X2.32 Y3.7539 Z-0.2731
N1337 X2.2421 Y3.709 Z-0.2819
N1338 X2.1642 Y3.6639 Z-0.2894
N1339 X2.0861 Y3.6189 Z-0.2958
N1340 X2.008 Y3.5738 Z-0.301
N1341 X1.9168 Y3.5211 Z-0.3055
N1342 X1.8447 Y3.4795 Z-0.3078
N1343 X1.7715 Y3.4372 Z-0.3092
N1344 X1.6837 Y3.3866 Z-0.3095
N1345 X1.6047 Y3.341 Z-0.3084
N1346 X1.5317 Y3.2988 Z-0.3063
N1347 X1.4444 Y3.2484 Z-0.3025
N1348 X1.3599 Y3.1996 Z-0.2973
N1349 X1.2858 Y3.1568 Z-0.2916
N1350 X1.2001 Y3.1073 Z-0.2836
N1351 X1.1158 Y3.0587 Z-0.2743
N1352 X1.0433 Y3.0168 Z-0.2652
N1353 X0.9619 Y2.9698 Z-0.2537
N1354 X0.8807 Y2.9229 Z-0.2408
N1355 X0.8059 Y2.8798 Z-0.2277
N1356 X0.7429 Y2.8434 Z-0.2158
N1357 X0.6799 Y2.807 Z-0.2031
N1358 X0.6043 Y2.7634 Z-0.1868
N1359 X0.5174 Y2.7132 Z-0.1665
N1360 X0.4422 Y2.6698 Z-0.1476
N1361 X0.3673 Y2.6265 Z-0.1276
N1362 X0.2812 Y2.5768 Z-0.1031
N1363 X0.2068 Y2.5338 Z-0.0805
N1364 X0.1326 Y2.491 Z-0.0568
N1365 X0.1138 Y2.4802 Z-0.0507
N1366 X0.1012 Y2.4729 Z-0.0471
N1367 X0.0884 Y2.4655 Z-0.0442
N1368 X0.0756 Y2.4581 Z-0.042
N1369 X0.0626 Y2.4506 Z-0.0405
N1370 X0.0496 Y2.4431 Z-0.0396
N1371 X0.039 Y2.437 Z-0.0394
N1372 X0.0359 Y2.4352 Z-0.039
N1373 X0.0328 Y2.4334 Z-0.0382
N1374 X0.0298 Y2.4317 Z-0.0368
N1375 X0.0268 Y2.4299 Z-0.0354
N1376 X0.0236 Y2.4281 Z-0.0346
N1377 X0.0203 Y2.4262 Z-0.0343
N1378 G2 X-0.0821 Y2.4537 I-0.0375 J0.065
N1379 G1 X-0.1321 Y2.5402
N1380 G2 X-0.1046 Y2.6426 I0.065 J0.0375
N1381 G1 X0.0202 Y2.7147
N1382 X0.0235 Y2.7166 Z-0.0346
N1383 X0.0267 Y2.7185 Z-0.0354
N1384 X0.0297 Y2.7202 Z-0.0368
N1385 X0.0327 Y2.7219 Z-0.0382
N1386 X0.0358 Y2.7237 Z-0.0391
N1387 X0.039 Y2.7256 Z-0.0394
N1388 X0.0461 Y2.7297 Z-0.0395
N1389 X0.0591 Y2.7372 Z-0.0401
N1390 X0.072 Y2.7446 Z-0.0415
N1391 X0.0849 Y2.7521 Z-0.0436
N1392 X0.0977 Y2.7595 Z-0.0463
N1393 X0.1103 Y2.7667 Z-0.0496
N1394 X0.1907 Y2.8132 Z-0.0755
N1395 X0.2651 Y2.8561 Z-0.0983
N1396 X0.3397 Y2.8992 Z-0.1199
N1397 X0.426 Y2.949 Z-0.1434
N1398 X0.5011 Y2.9924 Z-0.1625
N1399 X0.5765 Y3.0359 Z-0.1805
N1400 X0.6636 Y3.0862 Z-0.1997
N1401 X0.7393 Y3.1299 Z-0.2151
N1402 X0.8153 Y3.1738 Z-0.2294
N1403 X0.9132 Y3.2303 Z-0.2461
N1404 X0.9945 Y3.2772 Z-0.2585
N1405 X1.076 Y3.3243 Z-0.2694
N1406 X1.1615 Y3.3736 Z-0.2795
N1407 X1.2355 Y3.4164 Z-0.287
N1408 X1.3082 Y3.4584 Z-0.2934
N1409 X1.381 Y3.5004 Z-0.2987
N1410 X1.4669 Y3.55 Z-0.3036
N1411 X1.5411 Y3.5928 Z-0.3066
N1412 X1.6156 Y3.6358 Z-0.3087
N1413 X1.6916 Y3.6797 Z-0.3096
N1414 X1.7715 Y3.7258 Z-0.3092
N1415 X1.8447 Y3.7681 Z-0.3078
N1416 X1.9168 Y3.8097 Z-0.3054
N1417 X2.008 Y3.8624 Z-0.301
N1418 X2.0861 Y3.9075 Z-0.2958
N1419 X2.1641 Y3.9525 Z-0.2894
N1420 X2.2421 Y3.9976 Z-0.2819
N1421 X2.32 Y4.0425 Z-0.2731
N1422 X2.3978 Y4.0874 Z-0.2631
N1423 X2.4754 Y4.1322 Z-0.2518
N1424 X2.5658 Y4.1844 Z-0.2372
N1425 X2.6431 Y4.2291 Z-0.2234
N1426 X2.7203 Y4.2736 Z-0.2084
N1427 X2.7972 Y4.318 Z-0.1921
N1428 X2.874 Y4.3624 Z-0.1747
N1429 X2.9505 Y4.4066 Z-0.156
N1430 X3.0269 Y4.4506 Z-0.1361
N1431 X3.1029 Y4.4945 Z-0.115
N1432 X3.1661 Y4.531 Z-0.0965
N1433 X3.2291 Y4.5674 Z-0.0772
N1434 X3.3032 Y4.6102 Z-0.0534
N1435 X3.3203 Y4.62 Z-0.0481
N1436 X3.3375 Y4.63 Z-0.0441
N1437 X3.355 Y4.6401 Z-0.0413
N1438 X3.3725 Y4.6502 Z-0.0397
N1439 X3.3862 Y4.6581 Z-0.0394
N1440 X3.3893 Y4.6599 Z-0.039
N1441 X3.3923 Y4.6616 Z-0.0382
N1442 X3.3952 Y4.6633 Z-0.0368
N1443 X3.3983 Y4.6651 Z-0.0354
N1444 X3.4015 Y4.6669 Z-0.0346
N1445 X3.4048 Y4.6688 Z-0.0343
N1446 X3.5297 Y4.741
N1447 G3 X3.5572 Y4.8434 I-0.0375 J0.065
N1448 G1 X3.5072 Y4.9299
N1449 G3 X3.4048 Y4.9574 I-0.065 J-0.0375
N1450 G1 X3.4015 Y4.9555 Z-0.0346
N1451 X3.3983 Y4.9537 Z-0.0354
N1452 X3.3952 Y4.9519 Z-0.0368
N1453 X3.3923 Y4.9502 Z-0.0382
N1454 X3.3893 Y4.9485 Z-0.039
N1455 X3.3862 Y4.9467 Z-0.0394
N1456 X3.3725 Y4.9388 Z-0.0397
N1457 X3.355 Y4.9287 Z-0.0413
N1458 X3.3375 Y4.9186 Z-0.0441
N1459 X3.3203 Y4.9086 Z-0.0481
N1460 X3.3032 Y4.8988 Z-0.0534
N1461 X3.2291 Y4.856 Z-0.0772
N1462 X3.1661 Y4.8196 Z-0.0965
N1463 X3.1029 Y4.7831 Z-0.115
N1464 X3.0269 Y4.7392 Z-0.1361
N1465 X2.9505 Y4.6951 Z-0.156
N1466 X2.874 Y4.651 Z-0.1747
N1467 X2.7972 Y4.6066 Z-0.1921
N1468 X2.7203 Y4.5622 Z-0.2084
N1469 X2.6431 Y4.5177 Z-0.2234
N1470 X2.5658 Y4.473 Z-0.2372
N1471 X2.4754 Y4.4208 Z-0.2518
N1472 X2.3978 Y4.376 Z-0.2631
N1473 X2.32 Y4.3311 Z-0.2731
N1474 X2.2421 Y4.2861 Z-0.2819
N1475 X2.1641 Y4.2411 Z-0.2894
N1476 X2.0861 Y4.1961 Z-0.2957
N1477 X2.008 Y4.151 Z-0.3009
N1478 X1.9168 Y4.0983 Z-0.3054
N1479 X1.8447 Y4.0567 Z-0.3078
N1480 X1.7781 Y4.0182 Z-0.3091
N1481 X1.7049 Y3.976 Z-0.3096
N1482 X1.6138 Y3.9234 Z-0.3086
N1483 X1.5498 Y3.8864 Z-0.3069
N1484 X1.4873 Y3.8503 Z-0.3045
N1485 X1.4248 Y3.8142 Z-0.3014
N1486 X1.3623 Y3.7782 Z-0.2974
N1487 X1.2999 Y3.7421 Z-0.2927
N1488 X1.2375 Y3.7061 Z-0.2872
N1489 X1.1635 Y3.6634 Z-0.2797
N1490 X1.078 Y3.614 Z-0.2697
N1491 X0.9966 Y3.567 Z-0.2587
N1492 X0.9153 Y3.5201 Z-0.2465
N1493 X0.8173 Y3.4635 Z-0.2298
N1494 X0.7426 Y3.4204 Z-0.2158
N1495 X0.6797 Y3.3841 Z-0.2031
N1496 X0.6041 Y3.3404 Z-0.1868
N1497 X0.5172 Y3.2902 Z-0.1665
N1498 X0.442 Y3.2468 Z-0.1476
N1499 X0.367 Y3.2036 Z-0.1275
N1500 X0.281 Y3.1539 Z-0.103
N1501 X0.2065 Y3.1109 Z-0.0804
N1502 X0.1324 Y3.0681 Z-0.0567
N1503 X0.1136 Y3.0572 Z-0.0506
N1504 X0.1009 Y3.0499 Z-0.0471
N1505 X0.0882 Y3.0426 Z-0.0442
N1506 X0.0754 Y3.0352 Z-0.042
N1507 X0.0624 Y3.0277 Z-0.0404
N1508 X0.0494 Y3.0202 Z-0.0396
N1509 X0.039 Y3.0142 Z-0.0394
N1510 X0.0359 Y3.0124 Z-0.039
N1511 X0.0328 Y3.0106 Z-0.0382
N1512 X0.0298 Y3.0089 Z-0.0368
N1513 X0.0268 Y3.0071 Z-0.0354
N1514 X0.0236 Y3.0053 Z-0.0346
N1515 X0.0203 Y3.0034 Z-0.0343
N1516 G2 X-0.0821 Y3.0308 I-0.0375 J0.065
N1517 G1 X-0.1321 Y3.1174
N1518 G2 X-0.1047 Y3.2198 I0.065 J0.0375
N1519 G1 X0.0202 Y3.2919
N1520 X0.0235 Y3.2938 Z-0.0346
N1521 X0.0267 Y3.2957 Z-0.0354
N1522 X0.0298 Y3.2974 Z-0.0368
N1523 X0.0327 Y3.2991 Z-0.0382
N1524 X0.0358 Y3.3009 Z-0.0391
N1525 X0.039 Y3.3028 Z-0.0394
N1526 X0.0472 Y3.3075 Z-0.0395
N1527 X0.0602 Y3.315 Z-0.0402
N1528 X0.0732 Y3.3225 Z-0.0417
N1529 X0.086 Y3.3299 Z-0.0438
N1530 X0.0988 Y3.3373 Z-0.0465
N1531 X0.1114 Y3.3446 Z-0.05
N1532 X0.1491 Y3.3663 Z-0.0622
N1533 X0.2233 Y3.4091 Z-0.0856
N1534 X0.3091 Y3.4587 Z-0.1112
N1535 X0.3839 Y3.5019 Z-0.1321
N1536 X0.4589 Y3.5452 Z-0.1519
N1537 X0.5456 Y3.5952 Z-0.1733
N1538 X0.6211 Y3.6388 Z-0.1905
N1539 X0.6839 Y3.6751 Z-0.204
N1540 X0.7468 Y3.7114 Z-0.2166
N1541 X0.8099 Y3.7478 Z-0.2284
N1542 X0.8847 Y3.791 Z-0.2415
N1543 X0.9659 Y3.8379 Z-0.2543
N1544 X1.0473 Y3.8849 Z-0.2657
N1545 X1.1211 Y3.9275 Z-0.2749
N1546 X1.1834 Y3.9635 Z-0.2818
N1547 X1.2457 Y3.9995 Z-0.288
N1548 X1.3094 Y4.0363 Z-0.2935
N1549 X1.3966 Y4.0866 Z-0.2997
N1550 X1.4721 Y4.1302 Z-0.3038
N1551 X1.5346 Y4.1663 Z-0.3064
N1552 X1.606 Y4.2074 Z-0.3084
N1553 X1.6715 Y4.2453 Z-0.3094
N1554 X1.7396 Y4.2846 Z-0.3095
N1555 X1.8261 Y4.3346 Z-0.3083
N1556 X1.9052 Y4.3802 Z-0.3059
N1557 X1.9703 Y4.4178 Z-0.303
N1558 X2.0355 Y4.4554 Z-0.2992
N1559 X2.1006 Y4.493 Z-0.2947
N1560 X2.1163 Y4.5021 Z-0.2935
N1561 X2.1166 Y4.5023
N1562 X2.1249 Y4.5071 Z-0.2928
N1563 X2.1262 Y4.5078 Z-0.2926
N1564 X2.1288 Y4.5093 Z-0.2924
N1565 X2.1298 Y4.5099
N1566 X2.1309 Y4.5105 Z-0.2923
N1567 X2.1319 Y4.5111 Z-0.2922
N1568 X2.133 Y4.5117 Z-0.2921
N1569 X2.134 Y4.5123 Z-0.292
N1570 X2.1351 Y4.5129
N1571 X2.1361 Y4.5135 Z-0.2919
N1572 X2.1371 Y4.5141 Z-0.2918
N1573 X2.1382 Y4.5147 Z-0.2917
N1574 X2.1392 Y4.5153
N1575 X2.1403 Y4.5159 Z-0.2916
N1576 X2.1413 Y4.5165 Z-0.2915
N1577 X2.1423 Y4.5171
N1578 X2.1434 Y4.5177 Z-0.2914
N1579 X2.1444 Y4.5183 Z-0.2913
N1580 X2.1455 Y4.5189
N1581 X2.1465 Y4.5195 Z-0.2912
N1582 X2.1476 Y4.5201
N1583 X2.1486 Y4.5207 Z-0.2911
N1584 X2.1496 Y4.5213 Z-0.291
N1585 X2.1507 Y4.5219
N1586 X2.1517 Y4.5225 Z-0.2909
N1587 X2.1528 Y4.5231
N1588 X2.1538 Y4.5237 Z-0.2908
N1589 X2.1549 Y4.5243
N1590 X2.1559 Y4.5249 Z-0.2907
N1591 X2.1569 Y4.5255
N1592 X2.158 Y4.5262 Z-0.2906
N1593 X2.159 Y4.5268
N1594 X2.1601 Y4.5274
N1595 X2.1611 Y4.528 Z-0.2905
N1596 X2.1621 Y4.5286
N1597 X2.1632 Y4.5292 Z-0.2904
N1598 X2.1643 Y4.5298
N1599 X2.1653 Y4.5304
N1600 X2.1664 Y4.531 Z-0.2903
N1601 X2.1674 Y4.5316
N1602 X2.1685 Y4.5322
N1603 X2.1696 Y4.5328
N1604 X2.1706 Y4.5334 Z-0.2902
N1605 X2.1717 Y4.5341
N1606 X2.1727 Y4.5347
N1607 X2.1738 Y4.5353
N1608 X2.1748 Y4.5359 Z-0.2901
N1609 X2.1759 Y4.5365
N1610 X2.1772 Y4.5373
N1611 X2.178 Y4.5377
N1612 X2.1791 Y4.5383 Z-0.29
N1613 X2.1801 Y4.539
N1614 X2.1812 Y4.5396
N1615 X2.1823 Y4.5402
N1616 X2.1833 Y4.5408
N1617 X2.1844 Y4.5414 Z-0.2899
N1618 X2.1855 Y4.542
N1619 X2.1865 Y4.5426
N1620 X2.1876 Y4.5433
N1621 X2.1887 Y4.5439
N1622 X2.1897 Y4.5445
N1623 X2.1908 Y4.5451 Z-0.2898
N1624 X2.1919 Y4.5457
N1625 X2.1929 Y4.5463
N1626 X2.194 Y4.5469
N1627 X2.1951 Y4.5476
N1628 X2.1961 Y4.5482
N1629 X2.1972 Y4.5488
N1630 X2.1983 Y4.5494
N1631 X2.1993 Y4.55
N1632 X2.2004 Y4.5506
N1633 X2.2015 Y4.5513
N1634 X2.2025 Y4.5519
N1635 X2.2036 Y4.5525 Z-0.2899
N1636 X2.2046 Y4.5531
N1637 X2.2057 Y4.5537
N1638 X2.2068 Y4.5543
N1639 X2.2078 Y4.5549
N1640 X2.2089 Y4.5556
N1641 X2.21 Y4.5562
N1642 X2.211 Y4.5568 Z-0.29
N1643 X2.2121 Y4.5574
N1644 X2.2132 Y4.558
N1645 X2.2142 Y4.5586
N1646 X2.2153 Y4.5592 Z-0.2901
N1647 X2.2159 Y4.5596
N1648 X2.216 Y4.5597
N1649 X2.4196 Y4.6772 Z-0.2601
N1650 X2.4197 Y4.6773 Z-0.26
N1651 X2.4208 Y4.6779 Z-0.2599
N1652 X2.4218 Y4.6785 Z-0.2597
N1653 X2.4229 Y4.6791 Z-0.2596
N1654 X2.4238 Y4.6796 Z-0.2594
N1655 X2.424 Y4.6797
N1656 X2.425 Y4.6803 Z-0.2593
N1657 X2.4372 Y4.6874 Z-0.2575
N1658 X2.4754 Y4.7094 Z-0.2518
N1659 X2.5658 Y4.7616 Z-0.2372
N1660 X2.6431 Y4.8062 Z-0.2234
N1661 X2.7203 Y4.8508 Z-0.2084
N1662 X2.7972 Y4.8952 Z-0.1921
N1663 X2.874 Y4.9395 Z-0.1747
N1664 X2.9505 Y4.9837 Z-0.156
N1665 X3.0269 Y5.0278 Z-0.1361
N1666 X3.1029 Y5.0717 Z-0.115
N1667 X3.1661 Y5.1082 Z-0.0965
N1668 X3.2291 Y5.1446 Z-0.0772
N1669 X3.3032 Y5.1873 Z-0.0534
N1670 X3.3203 Y5.1972 Z-0.0481
N1671 X3.3375 Y5.2072 Z-0.0441
N1672 X3.355 Y5.2172 Z-0.0413
N1673 X3.3725 Y5.2274 Z-0.0397
N1674 X3.3862 Y5.2353 Z-0.0394
N1675 X3.3893 Y5.2371 Z-0.039
N1676 X3.3923 Y5.2388 Z-0.0382
N1677 X3.3952 Y5.2405 Z-0.0368
N1678 X3.3983 Y5.2422 Z-0.0354
N1679 X3.4015 Y5.2441 Z-0.0346
N1680 X3.4048 Y5.246 Z-0.0343
N1681 X3.5297 Y5.3181
N1682 G3 X3.5572 Y5.4206 I-0.0375 J0.065
N1683 G1 X3.5072 Y5.5071
N1684 G3 X3.4048 Y5.5346 I-0.065 J-0.0375
N1685 G1 X3.4015 Y5.5327 Z-0.0346
N1686 X3.3983 Y5.5308 Z-0.0354
N1687 X3.3952 Y5.5291 Z-0.0368
N1688 X3.3923 Y5.5274 Z-0.0382
N1689 X3.3893 Y5.5256 Z-0.039
N1690 X3.3862 Y5.5239 Z-0.0394
N1691 X3.3725 Y5.516 Z-0.0397
N1692 X3.355 Y5.5058 Z-0.0413
N1693 X3.3375 Y5.4958 Z-0.0441
N1694 X3.3203 Y5.4858 Z-0.0481
N1695 X3.3032 Y5.4759 Z-0.0534
N1696 X3.2291 Y5.4332 Z-0.0772
N1697 X3.1661 Y5.3968 Z-0.0965
N1698 X3.1029 Y5.3603 Z-0.115
N1699 X3.0269 Y5.3164 Z-0.1361
N1700 X2.9505 Y5.2723 Z-0.156
N1701 X2.874 Y5.2281 Z-0.1747
N1702 X2.7972 Y5.1838 Z-0.1921
N1703 X2.7203 Y5.1394 Z-0.2084
N1704 X2.6431 Y5.0948 Z-0.2234
N1705 X2.5658 Y5.0502 Z-0.2372
N1706 X2.4754 Y4.998 Z-0.2518
N1707 X2.4379 Y4.9764 Z-0.2574
N1708 X2.4348 Y4.9745 Z-0.2576
N1709 X2.4316 Y4.9727 Z-0.2572
N1710 X2.4286 Y4.971 Z-0.2564
N1711 X2.4256 Y4.9693 Z-0.255
N1712 X2.4226 Y4.9675 Z-0.2536
N1713 X2.4194 Y4.9657 Z-0.2528
N1714 X2.4161 Y4.9638 Z-0.2525
N1715 G2 X2.3137 Y4.9912 I-0.0375 J0.065
N1716 G1 X2.2637 Y5.0778
N1717 G2 X2.2912 Y5.1802 I0.065 J0.0375
N1718 G1 X2.4161 Y5.2524
N1719 X2.4194 Y5.2543 Z-0.2528
N1720 X2.4226 Y5.2561 Z-0.2536
N1721 X2.4256 Y5.2579 Z-0.255
N1722 X2.4286 Y5.2596 Z-0.2564
N1723 X2.4316 Y5.2613 Z-0.2572
N1724 X2.4348 Y5.2631 Z-0.2576
N1725 X2.4379 Y5.265 Z-0.2574
N1726 X2.4754 Y5.2866 Z-0.2518
N1727 X2.5658 Y5.3388 Z-0.2372
N1728 X2.6431 Y5.3834 Z-0.2234
N1729 X2.7203 Y5.428 Z-0.2084
N1730 X2.7972 Y5.4724 Z-0.1921
N1731 X2.874 Y5.5167 Z-0.1747
N1732 X2.9505 Y5.5609 Z-0.156
N1733 X3.0269 Y5.605 Z-0.1361
N1734 X3.1029 Y5.6489 Z-0.115
N1735 X3.1661 Y5.6854 Z-0.0965
N1736 X3.2291 Y5.7218 Z-0.0772
N1737 X3.3032 Y5.7645 Z-0.0534
N1738 X3.3203 Y5.7744 Z-0.0481
N1739 X3.3375 Y5.7843 Z-0.0441
N1740 X3.355 Y5.7944 Z-0.0413
N1741 X3.3725 Y5.8045 Z-0.0397
N1742 X3.3862 Y5.8124 Z-0.0394
N1743 X3.3893 Y5.8142 Z-0.039
N1744 X3.3923 Y5.816 Z-0.0382
N1745 X3.3952 Y5.8177 Z-0.0368
N1746 X3.3983 Y5.8194 Z-0.0354
N1747 X3.4015 Y5.8213 Z-0.0346
N1748 X3.4048 Y5.8232 Z-0.0343
N1749 X3.5297 Y5.8953
N1750 G3 X3.5572 Y5.9978 I-0.0375 J0.065
N1751 G1 X3.5072 Y6.0843
N1752 G3 X3.4048 Y6.1118 I-0.065 J-0.0375
N1753 G1 X3.4015 Y6.1099 Z-0.0346
N1754 X3.3983 Y6.108 Z-0.0354
N1755 X3.3952 Y6.1063 Z-0.0368
N1756 X3.3923 Y6.1046 Z-0.0382
N1757 X3.3893 Y6.1028 Z-0.039
N1758 X3.3862 Y6.101 Z-0.0394
N1759 X3.3725 Y6.0931 Z-0.0397
N1760 X3.355 Y6.083 Z-0.0413
N1761 X3.3375 Y6.0729 Z-0.0441
N1762 X3.3203 Y6.063 Z-0.0481
N1763 X3.3032 Y6.0531 Z-0.0534
N1764 X3.2291 Y6.0103 Z-0.0772
N1765 X3.1661 Y5.974 Z-0.0965
N1766 X3.1029 Y5.9375 Z-0.115
N1767 X3.0563 Y5.9106 Z-0.1281
N1768 X3.0533 Y5.9089 Z-0.1287
N1769 X3.0503 Y5.9071 Z-0.1288
N1770 X3.0473 Y5.9054 Z-0.1284
N1771 X3.0444 Y5.9037 Z-0.1276
N1772 X3.0416 Y5.9021 Z-0.1263
N1773 X3.0386 Y5.9003 Z-0.1249
N1774 X3.0354 Y5.8985 Z-0.124
N1775 X3.0321 Y5.8966 Z-0.1237
N1776 G2 X2.9297 Y5.9241 I-0.0375 J0.065
N1777 G1 X2.8797 Y6.0106
N1778 G2 X2.9071 Y6.113 I0.065 J0.0375
N1779 G1 X3.0321 Y6.1852
N1780 X3.0354 Y6.1871 Z-0.124
N1781 X3.0386 Y6.1889 Z-0.1249
N1782 X3.0416 Y6.1907 Z-0.1263
N1783 X3.0444 Y6.1923 Z-0.1276
N1784 X3.0473 Y6.194 Z-0.1284
N1785 X3.0503 Y6.1957 Z-0.1288
N1786 X3.0533 Y6.1974 Z-0.1287
N1787 X3.0563 Y6.1992 Z-0.1281
N1788 X3.1029 Y6.2261 Z-0.115
N1789 X3.1661 Y6.2626 Z-0.0965
N1790 X3.2291 Y6.2989 Z-0.0772
N1791 X3.3032 Y6.3417 Z-0.0534
N1792 X3.3203 Y6.3516 Z-0.0481
N1793 X3.3375 Y6.3615 Z-0.0441
N1794 X3.355 Y6.3716 Z-0.0413
N1795 X3.3725 Y6.3817 Z-0.0397
N1796 X3.3862 Y6.3896 Z-0.0394
N1797 X3.3893 Y6.3914 Z-0.039
N1798 X3.3923 Y6.3932 Z-0.0382
N1799 X3.3952 Y6.3948 Z-0.0368
N1800 X3.3983 Y6.3966 Z-0.0354
N1801 X3.4015 Y6.3985 Z-0.0346
N1802 X3.4048 Y6.4003 Z-0.0343
N1803 X3.5297 Y6.4725
N1804 G3 X3.5572 Y6.5749 I-0.0375 J0.065
N1805 G1 X3.5072 Y6.6615
N1806 G3 X3.4048 Y6.6889 I-0.065 J-0.0375
N1807 G1 X3.4015 Y6.687 Z-0.0346
N1808 X3.3983 Y6.6852 Z-0.0354
N1809 X3.3952 Y6.6834 Z-0.0368
N1810 X3.3923 Y6.6818 Z-0.0382
N1811 X3.3893 Y6.68 Z-0.039
N1812 X3.3862 Y6.6782 Z-0.0394
N1813 X3.3725 Y6.6703 Z-0.0397
N1814 X3.355 Y6.6602 Z-0.0413
N1815 X3.3375 Y6.6501 Z-0.0441
N1816 X3.3203 Y6.6401 Z-0.0481
N1817 X3.3032 Y6.6303 Z-0.0534
N1818 X3.2291 Y6.5875 Z-0.0772
N1819 X3.1661 Y6.5512 Z-0.0965
N1820 X3.1029 Y6.5147 Z-0.115
N1821 X3.0563 Y6.4877 Z-0.1281
N1822 X3.0533 Y6.486 Z-0.1287
N1823 X3.0503 Y6.4843 Z-0.1288
N1824 X3.0473 Y6.4826 Z-0.1284
N1825 X3.0444 Y6.4809 Z-0.1276
N1826 X3.0416 Y6.4793 Z-0.1263
N1827 X3.0386 Y6.4775 Z-0.1249
N1828 X3.0354 Y6.4757 Z-0.124
N1829 X3.0321 Y6.4738 Z-0.1237
N1830 G2 X2.9297 Y6.5012 I-0.0375 J0.065
N1831 G1 X2.8797 Y6.5878
N1832 G2 X2.9071 Y6.6902 I0.065 J0.0375
N1833 G1 X3.0321 Y6.7624
N1834 X3.0354 Y6.7643 Z-0.124
N1835 X3.0386 Y6.7661 Z-0.1249
N1836 X3.0416 Y6.7679 Z-0.1263
N1837 X3.0444 Y6.7695 Z-0.1276
N1838 X3.0473 Y6.7712 Z-0.1284
N1839 X3.0503 Y6.7729 Z-0.1288
N1840 X3.0533 Y6.7746 Z-0.1287
N1841 X3.0563 Y6.7763 Z-0.1281
N1842 X3.1029 Y6.8032 Z-0.115
N1843 X3.1661 Y6.8397 Z-0.0965
N1844 X3.2291 Y6.8761 Z-0.0772
N1845 X3.3032 Y6.9189 Z-0.0534
N1846 X3.3203 Y6.9287 Z-0.0481
N1847 X3.3375 Y6.9387 Z-0.0441
N1848 X3.355 Y6.9488 Z-0.0413
N1849 X3.3725 Y6.9589 Z-0.0397
N1850 X3.3862 Y6.9668 Z-0.0394
N1851 X3.3893 Y6.9686 Z-0.039
N1852 X3.3923 Y6.9704 Z-0.0382
N1853 X3.3952 Y6.972 Z-0.0368
N1854 X3.3983 Y6.9738 Z-0.0354
N1855 X3.4015 Y6.9756 Z-0.0346
N1856 X3.4048 Y6.9775 Z-0.0343
N1857 X3.5297 Y7.0497
N1858 G3 X3.5572 Y7.1521 I-0.0375 J0.065
N1859 G1 X3.5072 Y7.2387
N1860 G3 X3.4048 Y7.2661 I-0.065 J-0.0375
N1861 G1 X3.4015 Y7.2642 Z-0.0346
N1862 X3.3983 Y7.2624 Z-0.0354
N1863 X3.3952 Y7.2606 Z-0.0368
N1864 X3.3923 Y7.2589 Z-0.0382
N1865 X3.3893 Y7.2572 Z-0.039
N1866 X3.3862 Y7.2554 Z-0.0394
N1867 X3.3725 Y7.2475 Z-0.0397
N1868 X3.355 Y7.2374 Z-0.0413
N1869 X3.3375 Y7.2273 Z-0.0441
N1870 X3.3203 Y7.2173 Z-0.0481
N1871 X3.3032 Y7.2075 Z-0.0534
N1872 X3.2291 Y7.1647 Z-0.0772
N1873 X3.1661 Y7.1283 Z-0.0965
N1874 X3.1029 Y7.0918 Z-0.115
N1875 X3.0378 Y7.0542 Z-0.1332
N1876 X3.0348 Y7.0525 Z-0.1338
N1877 X3.0318 Y7.0508 Z-0.1339
N1878 X3.0288 Y7.0491 Z-0.1335
N1879 X3.0259 Y7.0474 Z-0.1326
N1880 X3.0231 Y7.0458 Z-0.1313
N1881 X3.0201 Y7.044 Z-0.1299
N1882 X3.0169 Y7.0422 Z-0.1291
N1883 X3.0136 Y7.0403 Z-0.1288
N1884 X2.996 Y7.0301
N1885 X2.993 Y7.0285
N1886 X2.99 Y7.027
N1887 X2.9869 Y7.0257 Z-0.1289
N1888 X2.9838 Y7.0244 Z-0.129
N1889 X2.9806 Y7.0234 Z-0.1291
N1890 X2.9774 Y7.0224 Z-0.1292
N1891 X2.9741 Y7.0217 Z-0.1293
N1892 X2.9708 Y7.021 Z-0.1295
N1893 X2.9675 Y7.0205 Z-0.1297
N1894 X2.9641 Y7.0202 Z-0.1299
N1895 X2.9608 Y7.02 Z-0.1301
N1896 X2.9574 Z-0.1303
N1897 X2.9541 Y7.0201 Z-0.1306
N1898 X2.9507 Y7.0203 Z-0.1309
N1899 X2.9474 Y7.0207 Z-0.1311
N1900 X2.9441 Y7.0213 Z-0.1315
N1901 X2.9408 Y7.022 Z-0.1318
N1902 X2.9376 Y7.0229 Z-0.1321
N1903 X2.9344 Y7.0239 Z-0.1325
N1904 X2.9312 Y7.025 Z-0.1329
N1905 X2.9281 Y7.0263 Z-0.1332
N1906 X2.9251 Y7.0277 Z-0.1336
N1907 X2.9222 Y7.0292 Z-0.1341
N1908 X2.9193 Y7.0309 Z-0.1345
N1909 X2.9165 Y7.0327 Z-0.1349
N1910 X2.9137 Y7.0346 Z-0.1354
N1911 X2.9111 Y7.0367 Z-0.1358
N1912 X2.9086 Y7.0389 Z-0.1363
N1913 X2.9061 Y7.0411 Z-0.1367
N1914 X2.9038 Y7.0435 Z-0.1372
N1915 X2.9016 Y7.046 Z-0.1377
N1916 X2.8995 Y7.0486 Z-0.1382
N1917 X2.8975 Y7.0513 Z-0.1386
N1918 X2.8957 Y7.054 Z-0.1391
N1919 X2.8939 Y7.0569 Z-0.1396
N1920 X2.8432 Y7.1448 Z-0.1544
N1921 X2.8416 Y7.1477 Z-0.1549
N1922 X2.8401 Y7.1507 Z-0.1554
N1923 X2.8388 Y7.1537 Z-0.1559
N1924 X2.8376 Y7.1569 Z-0.1563
N1925 X2.8365 Y7.16 Z-0.1568
N1926 X2.8356 Y7.1632 Z-0.1573
N1927 X2.8349 Y7.1665 Z-0.1577
N1928 X2.8343 Y7.1698 Z-0.1582
N1929 X2.8338 Y7.1731 Z-0.1586
N1930 X2.8335 Y7.1764 Z-0.1591
N1931 X2.8333 Y7.1797 Z-0.1595
N1932 Y7.183 Z-0.1599
N1933 X2.8335 Y7.1864 Z-0.1604
N1934 X2.8338 Y7.1897 Z-0.1608
N1935 X2.8342 Y7.193 Z-0.1611
N1936 X2.8348 Y7.1963 Z-0.1615
N1937 X2.8355 Y7.1996 Z-0.1619
N1938 X2.8364 Y7.2028 Z-0.1622
N1939 X2.8374 Y7.206 Z-0.1625
N1940 X2.8386 Y7.2091 Z-0.1629
N1941 X2.8399 Y7.2122 Z-0.1631
N1942 X2.8414 Y7.2153 Z-0.1634
N1943 X2.843 Y7.2182 Z-0.1637
N1944 X2.8447 Y7.2211 Z-0.1639
N1945 X2.8465 Y7.2239 Z-0.1641
N1946 X2.8485 Y7.2266 Z-0.1643
N1947 X2.8506 Y7.2293 Z-0.1645
N1948 X2.8528 Y7.2318 Z-0.1647
N1949 X2.8551 Y7.2343 Z-0.1648
N1950 X2.8575 Y7.2366 Z-0.1649
N1951 X2.86 Y7.2388 Z-0.165
N1952 X2.8626 Y7.2409 Z-0.1651
N1953 X2.8653 Y7.2429 Z-0.1652
N1954 X2.8681 Y7.2448
N1955 X2.871 Y7.2465
N1956 X2.8743 Y7.2484 Z-0.1655
N1957 X2.8775 Y7.2503 Z-0.1664
N1958 X2.8805 Y7.252 Z-0.1678
N1959 X2.8832 Y7.2536 Z-0.169
N1960 X2.886 Y7.2552 Z-0.1699
N1961 X2.8889 Y7.2568 Z-0.1703
N1962 X2.8917 Y7.2585 Z-0.1702
N1963 X2.8946 Y7.2602 Z-0.1698
N1964 X2.9505 Y7.2925 Z-0.156
N1965 X3.0268 Y7.3365 Z-0.1361
N1966 X3.1029 Y7.3804 Z-0.115
N1967 X3.1661 Y7.4169 Z-0.0965
N1968 X3.2291 Y7.4533 Z-0.0772
N1969 X3.3032 Y7.4961 Z-0.0534
N1970 X3.3203 Y7.5059 Z-0.0481
N1971 X3.3375 Y7.5159 Z-0.0441
N1972 X3.355 Y7.526 Z-0.0413
N1973 X3.3725 Y7.5361 Z-0.0397
N1974 X3.3862 Y7.544 Z-0.0394
N1975 X3.391 Y7.5467 Z-0.0389
N1976 X3.3957 Y7.5495 Z-0.0379
N1977 X3.4002 Y7.5521 Z-0.0363
N1978 X3.4046 Y7.5546 Z-0.0341
N1979 X3.4088 Y7.557 Z-0.0313
N1980 X3.4127 Y7.5593 Z-0.0281
N1981 X3.4162 Y7.5613 Z-0.0243
N1982 X3.4193 Y7.5631 Z-0.0202
N1983 X3.4221 Y7.5647 Z-0.0156
N1984 X3.4244 Y7.566 Z-0.0108
N1985 X3.4262 Y7.5671 Z-0.0057
N1986 X3.4275 Y7.5678 Z-0.0004
N1987 X3.4283 Y7.5683 Z0.0051
N1988 X3.4285 Y7.5684 Z0.0106
N1989 G0 Z0.1969
N1990 X2.5795 Y5.6353
N1991 Z-0.1576
N1992 G1 Z-0.1917 F30
N1993 X2.5792 Y5.6351 Z-0.1972
N1994 X2.5784 Y5.6347 Z-0.2026
N1995 X2.5771 Y5.6339 Z-0.208
N1996 X2.5753 Y5.6329 Z-0.2131
N1997 X2.5731 Y5.6316 Z-0.2179
N1998 X2.5703 Y5.63 Z-0.2224
N1999 X2.5672 Y5.6282 Z-0.2266
N2000 X2.5637 Y5.6262 Z-0.2303
N2001 X2.5598 Y5.6239 Z-0.2336
N2002 X2.5557 Y5.6215 Z-0.2363
N2003 X2.5513 Y5.619 Z-0.2386
N2004 X2.5467 Y5.6164 Z-0.2402
N2005 X2.542 Y5.6137 Z-0.2412
N2006 X2.4645 Y5.5689 Z-0.2534 F50
N2007 X2.4379 Y5.5535 Z-0.2574
N2008 X2.4348 Y5.5517 Z-0.2576
N2009 X2.4316 Y5.5499 Z-0.2572
N2010 X2.4286 Y5.5481 Z-0.2564
N2011 X2.4256 Y5.5465 Z-0.255
N2012 X2.4226 Y5.5447 Z-0.2536
N2013 X2.4194 Y5.5428 Z-0.2528
N2014 X2.4161 Y5.541 Z-0.2525
N2015 G2 X2.3137 Y5.5684 I-0.0375 J0.065
N2016 G1 X2.2637 Y5.6549
N2017 G2 X2.2911 Y5.7574 I0.065 J0.0375
N2018 G1 X2.4161 Y5.8295
N2019 X2.4194 Y5.8314 Z-0.2528
N2020 X2.4226 Y5.8333 Z-0.2536
N2021 X2.4256 Y5.835 Z-0.255
N2022 X2.4286 Y5.8367 Z-0.2564
N2023 X2.4316 Y5.8385 Z-0.2572
N2024 X2.4347 Y5.8403 Z-0.2576
N2025 X2.4379 Y5.8421 Z-0.2574
N2026 X2.4645 Y5.8575 Z-0.2534
N2027 X2.542 Y5.9023 Z-0.2412
N2028 X2.5467 Y5.905 Z-0.2402
N2029 X2.5513 Y5.9076 Z-0.2386
N2030 X2.5557 Y5.9101 Z-0.2363
N2031 X2.5598 Y5.9125 Z-0.2336
N2032 X2.5637 Y5.9147 Z-0.2303
N2033 X2.5672 Y5.9168 Z-0.2266
N2034 X2.5703 Y5.9186 Z-0.2224
N2035 X2.5731 Y5.9202 Z-0.2179
N2036 X2.5753 Y5.9215 Z-0.2131
N2037 X2.5771 Y5.9225 Z-0.208
N2038 X2.5784 Y5.9233 Z-0.2026
N2039 X2.5792 Y5.9237 Z-0.1972
N2040 X2.5795 Y5.9239 Z-0.1917
N2041 G0 Z0.1969
N2042 X2.3891 Y6.1026
N2043 Z-0.1858
N2044 G1 Z-0.2078 F30
N2045 X2.3894 Y6.1027 Z-0.2131
N2046 X2.3901 Y6.1031 Z-0.2183
N2047 X2.3913 Y6.1038 Z-0.2234
N2048 X2.393 Y6.1048 Z-0.2284
N2049 X2.3951 Y6.106 Z-0.2331
N2050 X2.3976 Y6.1074 Z-0.2375
N2051 X2.4005 Y6.1091 Z-0.2416
N2052 X2.4038 Y6.111 Z-0.2453
N2053 X2.4074 Y6.1131 Z-0.2486
N2054 X2.4113 Y6.1154 Z-0.2514
N2055 X2.4154 Y6.1177 Z-0.2538
N2056 X2.4197 Y6.1202 Z-0.2556
N2057 X2.4242 Y6.1228 Z-0.2569
N2058 X2.4287 Y6.1254 Z-0.2576
N2059 X2.4333 Y6.1281 Z-0.2578
N2060 X2.4379 Y6.1307 Z-0.2574
N2061 X2.4645 Y6.1461 Z-0.2534 F50
N2062 X2.542 Y6.1908 Z-0.2412
N2063 X2.5467 Y6.1936 Z-0.2402
N2064 X2.5513 Y6.1962 Z-0.2386
N2065 X2.5557 Y6.1987 Z-0.2363
N2066 X2.5598 Y6.2011 Z-0.2336
N2067 X2.5637 Y6.2033 Z-0.2303
N2068 X2.5672 Y6.2054 Z-0.2266
N2069 X2.5703 Y6.2072 Z-0.2224
N2070 X2.5731 Y6.2088 Z-0.2179
N2071 X2.5753 Y6.2101 Z-0.2131
N2072 X2.5771 Y6.2111 Z-0.208
N2073 X2.5784 Y6.2119 Z-0.2026
N2074 X2.5792 Y6.2123 Z-0.1972
N2075 X2.5795 Y6.2125 Z-0.1917
N2076 G0 Z0.1969
N2077 X2.3891 Y6.3911
N2078 Z-0.1858
N2079 G1 Z-0.2078 F30
N2080 X2.3894 Y6.3913 Z-0.2131
N2081 X2.3901 Y6.3917 Z-0.2183
N2082 X2.3913 Y6.3924 Z-0.2234
N2083 X2.393 Y6.3934 Z-0.2284
N2084 X2.3951 Y6.3946 Z-0.2331
N2085 X2.3976 Y6.396 Z-0.2375
N2086 X2.4005 Y6.3977 Z-0.2416
N2087 X2.4038 Y6.3996 Z-0.2453
N2088 X2.4074 Y6.4017 Z-0.2486
N2089 X2.4113 Y6.4039 Z-0.2514
N2090 X2.4154 Y6.4063 Z-0.2538
N2091 X2.4197 Y6.4088 Z-0.2556
N2092 X2.4242 Y6.4114 Z-0.2569
N2093 X2.4287 Y6.414 Z-0.2576
N2094 X2.4333 Y6.4167 Z-0.2578
N2095 X2.4379 Y6.4193 Z-0.2574
N2096 X2.4645 Y6.4347 Z-0.2534 F50
N2097 X2.542 Y6.4794 Z-0.2412
N2098 X2.5467 Y6.4821 Z-0.2402
N2099 X2.5513 Y6.4848 Z-0.2386
N2100 X2.5557 Y6.4873 Z-0.2363
N2101 X2.5598 Y6.4897 Z-0.2336
N2102 X2.5637 Y6.4919 Z-0.2303
N2103 X2.5672 Y6.494 Z-0.2266
N2104 X2.5703 Y6.4958 Z-0.2224
N2105 X2.5731 Y6.4973 Z-0.2179
N2106 X2.5753 Y6.4987 Z-0.2131
N2107 X2.5771 Y6.4997 Z-0.208
N2108 X2.5784 Y6.5004 Z-0.2026
N2109 X2.5792 Y6.5009 Z-0.1972
N2110 X2.5795 Y6.5011 Z-0.1917
N2111 G0 Z0.1969
N2112 X2.3891 Y6.6797
N2113 Z-0.1858
N2114 G1 Z-0.2078 F30
N2115 X2.3894 Y6.6799 Z-0.2131
N2116 X2.3901 Y6.6803 Z-0.2183
N2117 X2.3913 Y6.681 Z-0.2234
N2118 X2.393 Y6.682 Z-0.2284
N2119 X2.3951 Y6.6832 Z-0.2331
N2120 X2.3976 Y6.6846 Z-0.2375
N2121 X2.4006 Y6.6863 Z-0.2416
N2122 X2.4038 Y6.6882 Z-0.2453
N2123 X2.4074 Y6.6903 Z-0.2486
N2124 X2.4113 Y6.6925 Z-0.2514
N2125 X2.4154 Y6.6949 Z-0.2537
N2126 X2.4198 Y6.6974 Z-0.2556
N2127 X2.4242 Y6.7 Z-0.2569
N2128 X2.4288 Y6.7026 Z-0.2576
N2129 X2.4333 Y6.7053 Z-0.2578
N2130 X2.4379 Y6.7079 Z-0.2574
N2131 X2.4646 Y6.7233 Z-0.2534 F50
N2132 X2.5421 Y6.768 Z-0.2412
N2133 X2.5468 Y6.7707 Z-0.2402
N2134 X2.5513 Y6.7734 Z-0.2385
N2135 X2.5557 Y6.7759 Z-0.2363
N2136 X2.5598 Y6.7783 Z-0.2336
N2137 X2.5637 Y6.7805 Z-0.2303
N2138 X2.5672 Y6.7826 Z-0.2266
N2139 X2.5704 Y6.7844 Z-0.2224
N2140 X2.5731 Y6.7859 Z-0.2179
N2141 X2.5754 Y6.7873 Z-0.2131
N2142 X2.5772 Y6.7883 Z-0.2079
N2143 X2.5785 Y6.7891 Z-0.2026
N2144 X2.5793 Y6.7895 Z-0.1972
N2145 X2.5795 Y6.7897 Z-0.1917
N2146 G0 Z0.1969
N2147 X2.3892 Y6.9683
N2148 Z-0.1858
N2149 G1 Z-0.2078 F30
N2150 X2.3894 Y6.9685 Z-0.2131
N2151 X2.3901 Y6.9689 Z-0.2183
N2152 X2.3913 Y6.9696 Z-0.2234
N2153 X2.393 Y6.9706 Z-0.2284
N2154 X2.3951 Y6.9718 Z-0.2331
N2155 X2.3976 Y6.9732 Z-0.2375
N2156 X2.4006 Y6.9749 Z-0.2416
N2157 X2.4038 Y6.9768 Z-0.2453
N2158 X2.4074 Y6.9789 Z-0.2486
N2159 X2.4113 Y6.9811 Z-0.2514
N2160 X2.4154 Y6.9835 Z-0.2537
N2161 X2.4198 Y6.986 Z-0.2556
N2162 X2.4242 Y6.9886 Z-0.2569
N2163 X2.4288 Y6.9912 Z-0.2576
N2164 X2.4333 Y6.9939 Z-0.2578
N2165 X2.4379 Y6.9965 Z-0.2574
N2166 X2.4646 Y7.0119 Z-0.2534 F50
N2167 X2.5421 Y7.0566 Z-0.2412
N2168 X2.5468 Y7.0593 Z-0.2402
N2169 X2.5513 Y7.062 Z-0.2385
N2170 X2.5557 Y7.0645 Z-0.2363
N2171 X2.5599 Y7.0669 Z-0.2336
N2172 X2.5637 Y7.0691 Z-0.2303
N2173 X2.5672 Y7.0712 Z-0.2266
N2174 X2.5704 Y7.073 Z-0.2224
N2175 X2.5731 Y7.0745 Z-0.2179
N2176 X2.5754 Y7.0759 Z-0.2131
N2177 X2.5772 Y7.0769 Z-0.2079
N2178 X2.5785 Y7.0776 Z-0.2026
N2179 X2.5793 Y7.0781 Z-0.1972
N2180 X2.5795 Y7.0783 Z-0.1917
N2181 G0 Z0.1969
N2182 X2.3891 Y7.2569
N2183 Z-0.1858
N2184 G1 Z-0.2078 F30
N2185 X2.3894 Y7.2571 Z-0.2131
N2186 X2.3901 Y7.2575 Z-0.2183
N2187 X2.3913 Y7.2582 Z-0.2234
N2188 X2.393 Y7.2591 Z-0.2284
N2189 X2.3951 Y7.2604 Z-0.2331
N2190 X2.3976 Y7.2618 Z-0.2375
N2191 X2.4005 Y7.2635 Z-0.2416
N2192 X2.4038 Y7.2654 Z-0.2453
N2193 X2.4074 Y7.2675 Z-0.2486
N2194 X2.4113 Y7.2697 Z-0.2514
N2195 X2.4154 Y7.2721 Z-0.2537
N2196 X2.4197 Y7.2746 Z-0.2556
N2197 X2.4242 Y7.2772 Z-0.2569
N2198 X2.4287 Y7.2798 Z-0.2576
N2199 X2.4333 Y7.2824 Z-0.2578
N2200 X2.4379 Y7.2851 Z-0.2574
N2201 X2.4431 Y7.2881 Z-0.2566 F50
N2202 X2.5142 Y7.3291 Z-0.2457
N2203 X2.5787 Y7.3664 Z-0.235
N2204 X2.656 Y7.411 Z-0.221
N2205 X2.7331 Y7.4555 Z-0.2057
N2206 X2.81 Y7.4999 Z-0.1893
N2207 X2.8868 Y7.5442 Z-0.1716
N2208 X2.9633 Y7.5884 Z-0.1528
N2209 X3.0395 Y7.6324 Z-0.1326
N2210 X3.1029 Y7.669 Z-0.115
N2211 X3.1661 Y7.7055 Z-0.0965
N2212 X3.2291 Y7.7419 Z-0.0772
N2213 X3.3032 Y7.7847 Z-0.0534
N2214 X3.3203 Y7.7945 Z-0.0481
N2215 X3.3375 Y7.8045 Z-0.0441
N2216 X3.355 Y7.8146 Z-0.0413
N2217 X3.3725 Y7.8247 Z-0.0397
N2218 X3.3862 Y7.8326 Z-0.0394
N2219 X3.391 Y7.8353 Z-0.0389
N2220 X3.3957 Y7.838 Z-0.0379
N2221 X3.4002 Y7.8407 Z-0.0363
N2222 X3.4046 Y7.8432 Z-0.0341
N2223 X3.4088 Y7.8456 Z-0.0313
N2224 X3.4127 Y7.8478 Z-0.0281
N2225 X3.4162 Y7.8499 Z-0.0243
N2226 X3.4193 Y7.8517 Z-0.0202
N2227 X3.4221 Y7.8533 Z-0.0156
N2228 X3.4244 Y7.8546 Z-0.0108
N2229 X3.4262 Y7.8556 Z-0.0057
N2230 X3.4275 Y7.8564 Z-0.0004
N2231 X3.4283 Y7.8569 Z0.0051
N2232 X3.4285 Y7.857 Z0.0106
N2233 G0 Z0.1969
N2234 X3.0608 Y7.9333
N2235 Z-0.0457
N2236 G1 Z-0.0872 F30
N2237 X3.0606 Y7.9332 Z-0.0924
N2238 X3.0599 Y7.9328 Z-0.0976
N2239 X3.0587 Y7.9321 Z-0.1026
N2240 X3.0571 Y7.9312 Z-0.1074
N2241 X3.0551 Y7.93 Z-0.1121
N2242 X3.0527 Y7.9286 Z-0.1164
N2243 X3.0499 Y7.927 Z-0.1205
N2244 X3.0467 Y7.9252 Z-0.1242
N2245 X3.0432 Y7.9232 Z-0.1275
N2246 X3.0395 Y7.921 Z-0.1303
N2247 X3.0355 Y7.9187 Z-0.1327
N2248 X3.0313 Y7.9163 Z-0.1346
N2249 X3.027 Y7.9138 Z-0.136
N2250 X2.9392 Y7.8631 Z-0.1588 F50
N2251 X2.8754 Y7.8263 Z-0.1743
N2252 X2.8115 Y7.7894 Z-0.1889
N2253 X2.7474 Y7.7524 Z-0.2027
N2254 X2.6703 Y7.7078 Z-0.2182
N2255 X2.5801 Y7.6558 Z-0.2347
N2256 X2.5156 Y7.6185 Z-0.2455
N2257 X2.451 Y7.5812 Z-0.2554
N2258 X2.3733 Y7.5364 Z-0.2663
N2259 X2.3285 Y7.5105 Z-0.272
N2260 X2.3237 Y7.5077 Z-0.2723
N2261 X2.3188 Y7.5049 Z-0.272
N2262 X2.314 Y7.5022 Z-0.2711
N2263 X2.3094 Y7.4995 Z-0.2695
N2264 X2.3049 Y7.4969 Z-0.2673
N2265 X2.3007 Y7.4944 Z-0.2646
N2266 X2.2967 Y7.4922 Z-0.2614
N2267 X2.2931 Y7.4901 Z-0.2576
N2268 X2.2899 Y7.4882 Z-0.2535
N2269 X2.2871 Y7.4866 Z-0.2489
N2270 X2.2847 Y7.4852 Z-0.244
N2271 X2.2829 Y7.4842 Z-0.2388
N2272 X2.2815 Y7.4834 Z-0.2334
N2273 X2.2807 Y7.4829 Z-0.2279
N2274 X2.2805 Y7.4828 Z-0.2223
N2275 G0 Z0.1969
N2276 X1.8235 Y7.5075
N2277 Z-0.2298
N2278 G1 Z-0.2572 F30
N2279 X1.8237 Y7.5076 Z-0.2626
N2280 X1.8244 Y7.5081 Z-0.2678
N2281 X1.8257 Y7.5088 Z-0.273
N2282 X1.8274 Y7.5098 Z-0.278
N2283 X1.8295 Y7.511 Z-0.2827
N2284 X1.8321 Y7.5125 Z-0.2872
N2285 X1.835 Y7.5142 Z-0.2913
N2286 X1.8384 Y7.5161 Z-0.295
N2287 X1.842 Y7.5182 Z-0.2983
N2288 X1.8459 Y7.5205 Z-0.3011
N2289 X1.8501 Y7.5229 Z-0.3034
N2290 X1.8545 Y7.5254 Z-0.3052
N2291 X1.859 Y7.528 Z-0.3064
N2292 X1.8636 Y7.5307 Z-0.3071
N2293 X1.8682 Y7.5333 Z-0.3072
N2294 X1.9442 Y7.5772 Z-0.3043 F50
N2295 X2.0224 Y7.6224 Z-0.3001
N2296 X2.1005 Y7.6675 Z-0.2947
N2297 X2.1655 Y7.705 Z-0.2893
N2298 X2.2435 Y7.75 Z-0.2817
N2299 X2.3214 Y7.795 Z-0.2728
N2300 X2.3862 Y7.8324 Z-0.2645
N2301 X2.4509 Y7.8698 Z-0.2554
N2302 X2.5271 Y7.9138 Z-0.2436
N2303 X2.5318 Y7.9165 Z-0.2426
N2304 X2.5364 Y7.9191 Z-0.241
N2305 X2.5408 Y7.9217 Z-0.2388
N2306 X2.545 Y7.9241 Z-0.236
N2307 X2.5488 Y7.9263 Z-0.2328
N2308 X2.5524 Y7.9283 Z-0.229
N2309 X2.5555 Y7.9302 Z-0.2249
N2310 X2.5582 Y7.9317 Z-0.2203
N2311 X2.5605 Y7.9331 Z-0.2155
N2312 X2.5623 Y7.9341 Z-0.2104
N2313 X2.5636 Y7.9349 Z-0.2051
N2314 X2.5644 Y7.9353 Z-0.1996
N2315 X2.5647 Y7.9355 Z-0.1941
N2316 G0 Z0.1969
N2317 X2.0685 Y7.9376
N2318 Z-0.219
N2319 G1 Z-0.2498 F30
N2320 X2.0682 Y7.9374 Z-0.2552
N2321 X2.0675 Y7.937 Z-0.2606
N2322 X2.0662 Y7.9363 Z-0.2658
N2323 X2.0645 Y7.9352 Z-0.2709
N2324 X2.0623 Y7.934 Z-0.2757
N2325 X2.0596 Y7.9324 Z-0.2802
N2326 X2.0565 Y7.9307 Z-0.2843
N2327 X2.0531 Y7.9287 Z-0.288
N2328 X2.0494 Y7.9265 Z-0.2913
N2329 X2.0453 Y7.9242 Z-0.2941
N2330 X2.041 Y7.9217 Z-0.2963
N2331 X2.0366 Y7.9191 Z-0.298
N2332 X2.032 Y7.9165 Z-0.2992
N2333 X2.0273 Y7.9138 Z-0.2997
N2334 X1.9635 Y7.8769 Z-0.3033 F50
N2335 X1.8983 Y7.8393 Z-0.3061
N2336 X1.8193 Y7.7937 Z-0.3084
N2337 X1.7328 Y7.7437 Z-0.3095
N2338 X1.6597 Y7.7016 Z-0.3093
N2339 X1.5875 Y7.6599 Z-0.308
N2340 X1.5059 Y7.6128 Z-0.3054
N2341 X1.4304 Y7.5692 Z-0.3017
N2342 X1.3684 Y7.5334 Z-0.2978
N2343 X1.3637 Y7.5307 Z-0.2972
N2344 X1.3591 Y7.528 Z-0.2961
N2345 X1.3547 Y7.5254 Z-0.2944
N2346 X1.3504 Y7.523 Z-0.2921
N2347 X1.3464 Y7.5207 Z-0.2893
N2348 X1.3427 Y7.5185 Z-0.286
N2349 X1.3393 Y7.5165 Z-0.2823
N2350 X1.3362 Y7.5148 Z-0.2782
N2351 X1.3336 Y7.5133 Z-0.2737
N2352 X1.3314 Y7.512 Z-0.2689
N2353 X1.3297 Y7.511 Z-0.2639
N2354 X1.3284 Y7.5103 Z-0.2587
N2355 X1.3276 Y7.5098 Z-0.2533
N2356 X1.3274 Y7.5097 Z-0.2479
N2357 G0 Z0.1969
N2358 X1.6451 Y4.5186
N2359 Z-0.2306
N2360 G1 Z-0.2583 F30
N2361 X1.6449 Y4.5185 Z-0.2636
N2362 X1.6441 Y4.5181 Z-0.2689
N2363 X1.6429 Y4.5174 Z-0.274
N2364 X1.6412 Y4.5164 Z-0.2789
N2365 X1.6391 Y4.5152 Z-0.2837
N2366 X1.6366 Y4.5137 Z-0.2881
N2367 X1.6336 Y4.512 Z-0.2922
N2368 X1.6303 Y4.5101 Z-0.2959
N2369 X1.6267 Y4.508 Z-0.2992
N2370 X1.6228 Y4.5058 Z-0.302
N2371 X1.6187 Y4.5034 Z-0.3043
N2372 X1.6144 Y4.5009 Z-0.3062
N2373 X1.6099 Y4.4983 Z-0.3074
N2374 X1.6053 Y4.4957 Z-0.3081
N2375 X1.6007 Y4.493 Z-0.3083
N2376 X1.5361 Y4.4557 Z-0.3064 F50
N2377 X1.4722 Y4.4188 Z-0.3038
N2378 X1.4084 Y4.382 Z-0.3004
N2379 X1.3316 Y4.3376 Z-0.2952
N2380 X1.2548 Y4.2933 Z-0.2888
N2381 X1.1809 Y4.2506 Z-0.2815
N2382 X1.1173 Y4.2139 Z-0.2744
N2383 X1.0434 Y4.1713 Z-0.2652
N2384 X0.962 Y4.1243 Z-0.2537
N2385 X0.8808 Y4.0774 Z-0.2408
N2386 X0.8061 Y4.0342 Z-0.2277
N2387 X0.743 Y3.9978 Z-0.2158
N2388 X0.6801 Y3.9615 Z-0.2032
N2389 X0.6044 Y3.9178 Z-0.1868
N2390 X0.5175 Y3.8676 Z-0.1665
N2391 X0.4424 Y3.8242 Z-0.1477
N2392 X0.3674 Y3.7809 Z-0.1276
N2393 X0.2813 Y3.7312 Z-0.1031
N2394 X0.2069 Y3.6883 Z-0.0805
N2395 X0.1327 Y3.6455 Z-0.0568
N2396 X0.1139 Y3.6346 Z-0.0507
N2397 X0.1013 Y3.6273 Z-0.0472
N2398 X0.0886 Y3.62 Z-0.0443
N2399 X0.0757 Y3.6126 Z-0.042
N2400 X0.0628 Y3.6051 Z-0.0405
N2401 X0.0498 Y3.5976 Z-0.0396
N2402 X0.039 Y3.5914 Z-0.0394
N2403 X0.0359 Y3.5895 Z-0.039
N2404 X0.0328 Y3.5878 Z-0.0382
N2405 X0.0299 Y3.5861 Z-0.0368
N2406 X0.0268 Y3.5843 Z-0.0354
N2407 X0.0236 Y3.5825 Z-0.0346
N2408 X0.0203 Y3.5806 Z-0.0343
N2409 G2 X-0.0821 Y3.608 I-0.0375 J0.065
N2410 G1 X-0.1321 Y3.6946
N2411 G2 X-0.1046 Y3.797 I0.065 J0.0375
N2412 G1 X0.0206 Y3.8693
N2413 X0.0239 Y3.8712 Z-0.0346
N2414 X0.0271 Y3.8731 Z-0.0354
N2415 X0.0301 Y3.8748 Z-0.0368
N2416 X0.0302
N2417 X0.033 Y3.8765 Z-0.0382
N2418 X0.036 Y3.8782 Z-0.039
N2419 X0.039 Y3.8799 Z-0.0394
N2420 X0.0579 Y3.8909 Z-0.0401
N2421 X0.0709 Y3.8984 Z-0.0414
N2422 X0.0838 Y3.9058 Z-0.0433
N2423 X0.0966 Y3.9132 Z-0.046
N2424 X0.1092 Y3.9205 Z-0.0493
N2425 X0.1896 Y3.9669 Z-0.0751
N2426 X0.264 Y4.0098 Z-0.0979
N2427 X0.3386 Y4.0529 Z-0.1196
N2428 X0.4249 Y4.1027 Z-0.1431
N2429 X0.5 Y4.1461 Z-0.1622
N2430 X0.5626 Y4.1822 Z-0.1772
N2431 X0.6368 Y4.2251 Z-0.194
N2432 X0.7254 Y4.2762 Z-0.2124
N2433 X0.8013 Y4.3201 Z-0.2269
N2434 X0.8774 Y4.364 Z-0.2402
N2435 X0.947 Y4.4041 Z-0.2514
N2436 X1.0283 Y4.4511 Z-0.2632
N2437 X1.1009 Y4.493 Z-0.2725
N2438 X1.1039 Y4.4948 Z-0.2726
N2439 X1.107 Y4.4965 Z-0.2722
N2440 X1.1099 Y4.4982 Z-0.2714
N2441 X1.1128 Y4.4999 Z-0.2701
N2442 X1.1158 Y4.5016 Z-0.2687
N2443 X1.119 Y4.5035 Z-0.2678
N2444 X1.1223 Y4.5054 Z-0.2675
N2445 X1.1252 Y4.5071
N2446 X1.128 Y4.509
N2447 X1.1307 Y4.511 Z-0.2674
N2448 X1.1333 Y4.5131
N2449 X1.1358 Y4.5153 Z-0.2673
N2450 X1.1382 Y4.5177 Z-0.2672
N2451 X1.1406 Y4.5201 Z-0.2671
N2452 X1.1428 Y4.5227 Z-0.2669
N2453 X1.1448 Y4.5253 Z-0.2668
N2454 X1.1468 Y4.528 Z-0.2666
N2455 X1.1486 Y4.5309 Z-0.2664
N2456 X1.1503 Y4.5337 Z-0.2662
N2457 X1.1519 Y4.5367 Z-0.266
N2458 X1.1534 Y4.5397 Z-0.2658
N2459 X1.1547 Y4.5428 Z-0.2655
N2460 X1.1558 Y4.546 Z-0.2653
N2461 X1.1569 Y4.5492 Z-0.265
N2462 X1.1577 Y4.5524 Z-0.2647
N2463 X1.1585 Y4.5557 Z-0.2644
N2464 X1.1591 Y4.559 Z-0.2641
N2465 X1.1595 Y4.5623 Z-0.2638
N2466 X1.1598 Y4.5656 Z-0.2634
N2467 X1.1599 Y4.569 Z-0.2631
N2468 Y4.5723 Z-0.2628
N2469 X1.1597 Y4.5757 Z-0.2624
N2470 X1.1594 Y4.579 Z-0.262
N2471 X1.159 Y4.5823 Z-0.2616
N2472 X1.1584 Y4.5856 Z-0.2613
N2473 X1.1576 Y4.5889 Z-0.2609
N2474 X1.1567 Y4.5921 Z-0.2605
N2475 X1.1556 Y4.5952 Z-0.2601
N2476 X1.1544 Y4.5984 Z-0.2597
N2477 X1.1531 Y4.6014 Z-0.2593
N2478 X1.1516 Y4.6044 Z-0.2589
N2479 X1.15 Y4.6074 Z-0.2585
N2480 X1.0995 Y4.6949 Z-0.2462
N2481 X1.0978 Y4.6977 Z-0.2458
N2482 X1.0959 Y4.7005 Z-0.2454
N2483 X1.0939 Y4.7032 Z-0.245
N2484 X1.0918 Y4.7058 Z-0.2446
N2485 X1.0896 Y4.7083 Z-0.2442
N2486 X1.0873 Y4.7107 Z-0.2438
N2487 X1.0848 Y4.7129 Z-0.2434
N2488 X1.0823 Y4.7151 Z-0.243
N2489 X1.0797 Y4.7172 Z-0.2426
N2490 X1.0769 Y4.7191 Z-0.2423
N2491 X1.0741 Y4.7209 Z-0.2419
N2492 X1.0712 Y4.7226 Z-0.2415
N2493 X1.0683 Y4.7242 Z-0.2412
N2494 X1.0652 Y4.7256 Z-0.2409
N2495 X1.0621 Y4.7269 Z-0.2405
N2496 X1.059 Y4.728 Z-0.2402
N2497 X1.0558 Y4.729 Z-0.2399
N2498 X1.0525 Y4.7299 Z-0.2396
N2499 X1.0493 Y4.7306 Z-0.2394
N2500 X1.046 Y4.7311 Z-0.2391
N2501 X1.0426 Y4.7316 Z-0.2389
N2502 X1.0393 Y4.7318 Z-0.2386
N2503 X1.0359 Y4.7319 Z-0.2384
N2504 X1.0326 Z-0.2382
N2505 X1.0292 Y4.7317 Z-0.238
N2506 X1.0259 Y4.7314 Z-0.2379
N2507 X1.0225 Y4.7309 Z-0.2377
N2508 X1.0192 Y4.7303 Z-0.2376
N2509 X1.016 Y4.7295 Z-0.2375
N2510 X1.0127 Y4.7286 Z-0.2374
N2511 X1.0095 Y4.7275 Z-0.2373
N2512 X1.0064 Y4.7263 Z-0.2372
N2513 X1.0033 Y4.7249
N2514 X1.0003 Y4.7234 Z-0.2371
N2515 X0.9973 Y4.7218
N2516 X0.9099 Y4.6713
N2517 X0.9066 Y4.6694 Z-0.2374
N2518 X0.9034 Y4.6676 Z-0.2383
N2519 X0.9004 Y4.6658 Z-0.2397
N2520 X0.8973 Y4.6641 Z-0.2411
N2521 X0.8941 Y4.6622 Z-0.2419
N2522 X0.8909 Y4.6604 Z-0.2422
N2523 X0.8876 Y4.6585 Z-0.242
N2524 X0.8115 Y4.6145 Z-0.2287
N2525 X0.7484 Y4.5781 Z-0.2169
N2526 X0.6854 Y4.5418 Z-0.2043
N2527 X0.6226 Y4.5055 Z-0.1909
N2528 X0.5599 Y4.4693 Z-0.1766
N2529 X0.4846 Y4.4258 Z-0.1584
N2530 X0.3981 Y4.3759 Z-0.136
N2531 X0.3233 Y4.3327 Z-0.1153
N2532 X0.2487 Y4.2896 Z-0.0934
N2533 X0.1631 Y4.2402 Z-0.0667
N2534 X0.1129 Y4.2112 Z-0.0504
N2535 X0.1003 Y4.2039 Z-0.0469
N2536 X0.0875 Y4.1966 Z-0.0441
N2537 X0.0747 Y4.1891 Z-0.0419
N2538 X0.0617 Y4.1817 Z-0.0404
N2539 X0.0487 Y4.1742 Z-0.0395
N2540 X0.039 Y4.1685 Z-0.0394
N2541 X0.0358 Y4.1667 Z-0.039
N2542 X0.0328 Y4.1649 Z-0.0382
N2543 X0.0298 Y4.1632 Z-0.0368
N2544 X0.0268 Y4.1615 Z-0.0354
N2545 X0.0236 Y4.1596 Z-0.0346
N2546 X0.0203 Y4.1577 Z-0.0343
N2547 G2 X-0.0822 Y4.1852 I-0.0375 J0.065
N2548 G1 X-0.1321 Y4.2717
N2549 G2 X-0.1047 Y4.3742 I0.065 J0.0375
N2550 G1 X0.0204 Y4.4464
N2551 X0.0236 Y4.4483 Z-0.0346
N2552 X0.0268 Y4.4501 Z-0.0354
N2553 X0.0299 Y4.4519 Z-0.0368
N2554 X0.0328 Y4.4535 Z-0.0382
N2555 X0.0359 Y4.4553 Z-0.039
N2556 X0.039 Y4.4571 Z-0.0394
N2557 X0.0508 Y4.464 Z-0.0396
N2558 X0.0638 Y4.4715 Z-0.0406
N2559 X0.0768 Y4.4789 Z-0.0422
N2560 X0.0896 Y4.4863 Z-0.0445
N2561 X0.1023 Y4.4937 Z-0.0474
N2562 X0.1149 Y4.501 Z-0.0511
N2563 X0.1827 Y4.5401 Z-0.073
N2564 X0.2571 Y4.583 Z-0.0959
N2565 X0.319 Y4.6188 Z-0.114
N2566 X0.3811 Y4.6546 Z-0.1314
N2567 X0.4434 Y4.6906 Z-0.1479
N2568 X0.5173 Y4.7333 Z-0.1665
N2569 X0.6055 Y4.7842 Z-0.1871
N2570 X0.6811 Y4.8279 Z-0.2034
N2571 X0.7441 Y4.8642 Z-0.2161
N2572 X0.8071 Y4.9006 Z-0.2279
N2573 X0.8832 Y4.9445 Z-0.2412
N2574 X0.8865 Y4.9464 Z-0.2415
N2575 X0.8898 Y4.9483 Z-0.2412
N2576 X0.893 Y4.9502 Z-0.2403
N2577 X0.896 Y4.9519 Z-0.2389
N2578 X0.8991 Y4.9537 Z-0.2375
N2579 X0.9023 Y4.9555 Z-0.2367
N2580 X0.9055 Y4.9574 Z-0.2364
N2581 X1.0305 Y5.0296
N2582 G3 X1.058 Y5.132 I-0.0375 J0.065
N2583 G1 X1.008 Y5.2186
N2584 G3 X0.9055 Y5.246 I-0.065 J-0.0375
N2585 G1 X0.9023 Y5.2441 Z-0.2367
N2586 X0.8991 Y5.2423 Z-0.2375
N2587 X0.896 Y5.2405 Z-0.2389
N2588 X0.893 Y5.2388 Z-0.2403
N2589 X0.8898 Y5.2369 Z-0.2412
N2590 X0.8865 Y5.235 Z-0.2415
N2591 X0.8832 Y5.2331 Z-0.2412
N2592 X0.8071 Y5.1892 Z-0.2279
N2593 X0.7441 Y5.1528 Z-0.2161
N2594 X0.6811 Y5.1164 Z-0.2034
N2595 X0.6055 Y5.0728 Z-0.1871
N2596 X0.5173 Y5.0218 Z-0.1665
N2597 X0.4434 Y4.9792 Z-0.1479
N2598 X0.3811 Y4.9432 Z-0.1314
N2599 X0.319 Y4.9074 Z-0.114
N2600 X0.2571 Y4.8716 Z-0.0959
N2601 X0.1827 Y4.8287 Z-0.073
N2602 X0.1149 Y4.7895 Z-0.0511
N2603 X0.1023 Y4.7823 Z-0.0474
N2604 X0.0896 Y4.7749 Z-0.0445
N2605 X0.0768 Y4.7675 Z-0.0422
N2606 X0.0638 Y4.76 Z-0.0406
N2607 X0.0508 Y4.7525 Z-0.0396
N2608 X0.039 Y4.7457 Z-0.0394
N2609 X0.0359 Y4.7439 Z-0.039
N2610 X0.0328 Y4.7421 Z-0.0382
N2611 X0.0299 Y4.7405 Z-0.0368
N2612 X0.0268 Y4.7387 Z-0.0354
N2613 X0.0236 Y4.7368 Z-0.0346
N2614 X0.0204 Y4.735 Z-0.0343
N2615 G2 X-0.0821 Y4.7624 I-0.0375 J0.065
N2616 G1 X-0.1321 Y4.8489
N2617 G2 X-0.1046 Y4.9514 I0.065 J0.0375
N2618 G1 X0.0204 Y5.0235
N2619 X0.0236 Y5.0254 Z-0.0346
N2620 X0.0268 Y5.0273 Z-0.0354
N2621 X0.0299 Y5.029 Z-0.0368
N2622 X0.0328 Y5.0307 Z-0.0382
N2623 X0.0359 Y5.0325 Z-0.039
N2624 X0.039 Y5.0343 Z-0.0394
N2625 X0.0508 Y5.0411 Z-0.0396
N2626 X0.0638 Y5.0486 Z-0.0406
N2627 X0.0768 Y5.0561 Z-0.0422
N2628 X0.0896 Y5.0635 Z-0.0445
N2629 X0.1023 Y5.0709 Z-0.0474
N2630 X0.1149 Y5.0781 Z-0.0511
N2631 X0.1827 Y5.1173 Z-0.073
N2632 X0.2571 Y5.1602 Z-0.0959
N2633 X0.319 Y5.196 Z-0.114
N2634 X0.3811 Y5.2318 Z-0.1314
N2635 X0.4434 Y5.2678 Z-0.1479
N2636 X0.5173 Y5.3104 Z-0.1665
N2637 X0.6055 Y5.3614 Z-0.1871
N2638 X0.6811 Y5.405 Z-0.2034
N2639 X0.7441 Y5.4414 Z-0.2161
N2640 X0.8071 Y5.4778 Z-0.2279
N2641 X0.8832 Y5.5217 Z-0.2412
N2642 X0.8865 Y5.5236 Z-0.2415
N2643 X0.8898 Y5.5255 Z-0.2412
N2644 X0.893 Y5.5273 Z-0.2403
N2645 X0.896 Y5.5291 Z-0.2389
N2646 X0.8991 Y5.5309 Z-0.2375
N2647 X0.9023 Y5.5327 Z-0.2367
N2648 X0.9055 Y5.5346 Z-0.2364
N2649 X1.0305 Y5.6067
N2650 G3 X1.0579 Y5.7092 I-0.0375 J0.065
N2651 G1 X1.008 Y5.7957
N2652 G3 X0.9055 Y5.8232 I-0.065 J-0.0375
N2653 G1 X0.9022 Y5.8213 Z-0.2367
N2654 X0.899 Y5.8194 Z-0.2375
N2655 X0.896 Y5.8177 Z-0.2389
N2656 X0.8929 Y5.8159 Z-0.2403
N2657 X0.8898 Y5.8141 Z-0.2412
N2658 X0.8865 Y5.8122 Z-0.2415
N2659 X0.8832 Y5.8103 Z-0.2412
N2660 X0.8071 Y5.7664 Z-0.2279
N2661 X0.7441 Y5.73 Z-0.2161
N2662 X0.6812 Y5.6936 Z-0.2034
N2663 X0.6055 Y5.65 Z-0.1871
N2664 X0.5173 Y5.599 Z-0.1665
N2665 X0.4434 Y5.5564 Z-0.1479
N2666 X0.3812 Y5.5204 Z-0.1314
N2667 X0.319 Y5.4846 Z-0.114
N2668 X0.2571 Y5.4488 Z-0.0959
N2669 X0.1827 Y5.4059 Z-0.073
N2670 X0.1149 Y5.3667 Z-0.0511
N2671 X0.1023 Y5.3595 Z-0.0474
N2672 X0.0896 Y5.3521 Z-0.0445
N2673 X0.0768 Y5.3447 Z-0.0422
N2674 X0.0639 Y5.3372 Z-0.0406
N2675 X0.0509 Y5.3297 Z-0.0396
N2676 X0.039 Y5.3229 Z-0.0394
N2677 X0.0359 Y5.3211 Z-0.039
N2678 X0.0328 Y5.3193 Z-0.0382
N2679 X0.0299 Y5.3176 Z-0.0368
N2680 X0.0268 Y5.3159 Z-0.0354
N2681 X0.0236 Y5.314 Z-0.0346
N2682 X0.0204 Y5.3121 Z-0.0343
N2683 G2 X-0.0821 Y5.3396 I-0.0375 J0.065
N2684 G1 X-0.1321 Y5.4261
N2685 G2 X-0.1046 Y5.5286 I0.065 J0.0375
N2686 G1 X0.0204 Y5.6007
N2687 X0.0236 Y5.6026 Z-0.0346
N2688 X0.0268 Y5.6045 Z-0.0354
N2689 X0.0299 Y5.6062 Z-0.0368
N2690 X0.0328 Y5.6079 Z-0.0382
N2691 X0.0359 Y5.6097 Z-0.039
N2692 X0.039 Y5.6115 Z-0.0394
N2693 X0.0509 Y5.6183 Z-0.0396
N2694 X0.0639 Y5.6258 Z-0.0406
N2695 X0.0768 Y5.6333 Z-0.0422
N2696 X0.0896 Y5.6407 Z-0.0445
N2697 X0.1023 Y5.648 Z-0.0474
N2698 X0.1149 Y5.6553 Z-0.0511
N2699 X0.1828 Y5.6945 Z-0.073
N2700 X0.2571 Y5.7374 Z-0.0959
N2701 X0.319 Y5.7732 Z-0.114
N2702 X0.3812 Y5.809 Z-0.1314
N2703 X0.4434 Y5.845 Z-0.1479
N2704 X0.5173 Y5.8876 Z-0.1665
N2705 X0.6055 Y5.9386 Z-0.1871
N2706 X0.6812 Y5.9822 Z-0.2034
N2707 X0.7441 Y6.0186 Z-0.2161
N2708 X0.8071 Y6.055 Z-0.2279
N2709 X0.8832 Y6.0989 Z-0.2412
N2710 X0.8865 Y6.1008 Z-0.2415
N2711 X0.8898 Y6.1027 Z-0.2412
N2712 X0.8929 Y6.1045 Z-0.2403
N2713 X0.896 Y6.1063 Z-0.2389
N2714 X0.899 Y6.108 Z-0.2375
N2715 X0.9022 Y6.1099 Z-0.2367
N2716 X0.9055 Y6.1118 Z-0.2364
N2717 X1.0305 Y6.1839
N2718 G3 X1.0579 Y6.2864 I-0.0375 J0.065
N2719 G1 X1.008 Y6.3729
N2720 G3 X0.9055 Y6.4004 I-0.065 J-0.0375
N2721 G1 X0.9022 Y6.3985 Z-0.2367
N2722 X0.899 Y6.3966 Z-0.2375
N2723 X0.896 Y6.3948 Z-0.2389
N2724 X0.8929 Y6.3931 Z-0.2403
N2725 X0.8898 Y6.3913 Z-0.2412
N2726 X0.8865 Y6.3894 Z-0.2415
N2727 X0.8832 Y6.3875 Z-0.2412
N2728 X0.8071 Y6.3435 Z-0.2279
N2729 X0.744 Y6.3071 Z-0.2161
N2730 X0.6811 Y6.2708 Z-0.2034
N2731 X0.6055 Y6.2271 Z-0.1871
N2732 X0.5172 Y6.1762 Z-0.1665
N2733 X0.4434 Y6.1335 Z-0.1479
N2734 X0.3811 Y6.0976 Z-0.1314
N2735 X0.319 Y6.0617 Z-0.114
N2736 X0.257 Y6.026 Z-0.0959
N2737 X0.1827 Y5.983 Z-0.073
N2738 X0.1149 Y5.9439 Z-0.051
N2739 X0.1023 Y5.9366 Z-0.0474
N2740 X0.0896 Y5.9293 Z-0.0445
N2741 X0.0767 Y5.9219 Z-0.0422
N2742 X0.0638 Y5.9144 Z-0.0406
N2743 X0.0508 Y5.9069 Z-0.0396
N2744 X0.039 Y5.9001 Z-0.0394
N2745 X0.0359 Y5.8983 Z-0.039
N2746 X0.0328 Y5.8965 Z-0.0382
N2747 X0.0299 Y5.8948 Z-0.0368
N2748 X0.0268 Y5.893 Z-0.0354
N2749 X0.0236 Y5.8912 Z-0.0346
N2750 X0.0204 Y5.8893 Z-0.0343
N2751 G2 X-0.0821 Y5.9168 I-0.0375 J0.065
N2752 G1 X-0.1321 Y6.0033
N2753 G2 X-0.1046 Y6.1058 I0.065 J0.0375
N2754 G1 X0.0204 Y6.1779
N2755 X0.0236 Y6.1798 Z-0.0346
N2756 X0.0268 Y6.1816 Z-0.0354
N2757 X0.0299 Y6.1834 Z-0.0368
N2758 X0.0328 Y6.1851 Z-0.0382
N2759 X0.0359 Y6.1869 Z-0.039
N2760 X0.039 Y6.1887 Z-0.0394
N2761 X0.0508 Y6.1955 Z-0.0396
N2762 X0.0638 Y6.203 Z-0.0406
N2763 X0.0767 Y6.2105 Z-0.0422
N2764 X0.0896 Y6.2179 Z-0.0445
N2765 X0.1023 Y6.2252 Z-0.0474
N2766 X0.1149 Y6.2325 Z-0.0511
N2767 X0.1827 Y6.2716 Z-0.073
N2768 X0.2571 Y6.3146 Z-0.0959
N2769 X0.319 Y6.3503 Z-0.114
N2770 X0.3811 Y6.3862 Z-0.1314
N2771 X0.4434 Y6.4221 Z-0.1479
N2772 X0.5173 Y6.4648 Z-0.1665
N2773 X0.6055 Y6.5157 Z-0.1871
N2774 X0.6811 Y6.5594 Z-0.2034
N2775 X0.7441 Y6.5957 Z-0.2161
N2776 X0.8071 Y6.6321 Z-0.2279
N2777 X0.8832 Y6.6761 Z-0.2412
N2778 X0.8865 Y6.678 Z-0.2415
N2779 X0.8898 Y6.6799 Z-0.2412
N2780 X0.893 Y6.6817 Z-0.2403
N2781 X0.896 Y6.6835 Z-0.2389
N2782 X0.8991 Y6.6852 Z-0.2375
N2783 X0.9023 Y6.6871 Z-0.2367
N2784 X0.9055 Y6.689 Z-0.2364
N2785 X1.0305 Y6.7611
N2786 G3 X1.0579 Y6.8635 I-0.0375 J0.065
N2787 G1 X1.008 Y6.9501
N2788 G3 X0.9055 Y6.9775 I-0.065 J-0.0375
N2789 G1 X0.9022 Y6.9756 Z-0.2367
N2790 X0.899 Y6.9738 Z-0.2375
N2791 X0.896 Y6.972 Z-0.2389
N2792 X0.8929 Y6.9703 Z-0.2403
N2793 X0.8898 Y6.9684 Z-0.2412
N2794 X0.8865 Y6.9665 Z-0.2415
N2795 X0.8832 Y6.9647 Z-0.2412
N2796 X0.8071 Y6.9207 Z-0.2279
N2797 X0.7441 Y6.8843 Z-0.2161
N2798 X0.6812 Y6.848 Z-0.2034
N2799 X0.6055 Y6.8043 Z-0.1871
N2800 X0.5173 Y6.7534 Z-0.1665
N2801 X0.4434 Y6.7107 Z-0.1479
N2802 X0.3812 Y6.6748 Z-0.1314
N2803 X0.319 Y6.6389 Z-0.114
N2804 X0.2571 Y6.6032 Z-0.0959
N2805 X0.1828 Y6.5602 Z-0.073
N2806 X0.1149 Y6.5211 Z-0.0511
N2807 X0.1023 Y6.5138 Z-0.0474
N2808 X0.0896 Y6.5065 Z-0.0445
N2809 X0.0768 Y6.4991 Z-0.0422
N2810 X0.0639 Y6.4916 Z-0.0406
N2811 X0.0509 Y6.4841 Z-0.0396
N2812 X0.039 Y6.4773 Z-0.0394
N2813 X0.0359 Y6.4754 Z-0.039
N2814 X0.0328 Y6.4737 Z-0.0382
N2815 X0.0299 Y6.472 Z-0.0368
N2816 X0.0268 Y6.4702 Z-0.0354
N2817 X0.0236 Y6.4684 Z-0.0346
N2818 X0.0204 Y6.4665 Z-0.0343
N2819 G2 X-0.0821 Y6.4939 I-0.0375 J0.065
N2820 G1 X-0.132 Y6.5805
N2821 G2 X-0.1046 Y6.6829 I0.065 J0.0375
N2822 G1 X0.0204 Y6.7551
N2823 X0.0236 Y6.757 Z-0.0346
N2824 X0.0268 Y6.7588 Z-0.0354
N2825 X0.0299 Y6.7606 Z-0.0368
N2826 X0.0328 Y6.7623 Z-0.0382
N2827 X0.0359 Y6.764 Z-0.039
N2828 X0.039 Y6.7658 Z-0.0394
N2829 X0.0509 Y6.7727 Z-0.0396
N2830 X0.0639 Y6.7802 Z-0.0406
N2831 X0.0768 Y6.7877 Z-0.0422
N2832 X0.0896 Y6.7951 Z-0.0445
N2833 X0.1024 Y6.8024 Z-0.0474
N2834 X0.115 Y6.8097 Z-0.0511
N2835 X0.1828 Y6.8488 Z-0.073
N2836 X0.2571 Y6.8918 Z-0.0959
N2837 X0.3191 Y6.9275 Z-0.114
N2838 X0.3812 Y6.9634 Z-0.1314
N2839 X0.4434 Y6.9993 Z-0.1479
N2840 X0.5173 Y7.042 Z-0.1665
N2841 X0.6055 Y7.0929 Z-0.1871
N2842 X0.6812 Y7.1366 Z-0.2034
N2843 X0.7441 Y7.1729 Z-0.2161
N2844 X0.8072 Y7.2093 Z-0.2279
N2845 X0.8832 Y7.2533 Z-0.2412
N2846 X0.8879 Y7.2559 Z-0.2417
N2847 X0.8925 Y7.2586
N2848 X0.8971 Y7.2613 Z-0.241
N2849 X0.9017 Y7.2639 Z-0.2398
N2850 X0.9061 Y7.2665 Z-0.2381
N2851 X0.9103 Y7.2689 Z-0.2358
N2852 X0.9143 Y7.2712 Z-0.233
N2853 X0.9179 Y7.2733 Z-0.2297
N2854 X0.9213 Y7.2752 Z-0.226
N2855 X0.9243 Y7.277 Z-0.2218
N2856 X0.9269 Y7.2785 Z-0.2174
N2857 X0.9291 Y7.2797 Z-0.2126
N2858 X0.9308 Y7.2807 Z-0.2076
N2859 X0.932 Y7.2814 Z-0.2024
N2860 X0.9328 Y7.2819 Z-0.1971
N2861 X0.933 Y7.282 Z-0.1918
N2862 G0 Z0.1969
N2863 X-0.0029 Y7.0302
N2864 Z0.0366
N2865 G1 Z0.0106 F30
N2866 X-0.0027 Y7.0304 Z0.0051
N2867 X-0.0019 Y7.0308 Z-0.0003
N2868 X-0.0006 Y7.0316 Z-0.0056
N2869 X0.0012 Y7.0326 Z-0.0107
N2870 X0.0035 Y7.0339 Z-0.0155
N2871 X0.0062 Y7.0355 Z-0.02
N2872 X0.0093 Y7.0373 Z-0.0242
N2873 X0.0128 Y7.0393 Z-0.0279
N2874 X0.0166 Y7.0415 Z-0.0312
N2875 X0.0207 Y7.0439 Z-0.0339
N2876 X0.0251 Y7.0464 Z-0.0362
N2877 X0.0296 Y7.049 Z-0.0378
N2878 X0.0343 Y7.0517 Z-0.0389
N2879 X0.039 Y7.0544 Z-0.0394
N2880 X0.0582 Y7.0655 Z-0.0401 F50
N2881 X0.0711 Y7.073 Z-0.0414
N2882 X0.084 Y7.0804 Z-0.0434
N2883 X0.0968 Y7.0878 Z-0.0461
N2884 X0.1094 Y7.0951 Z-0.0494
N2885 X0.1898 Y7.1415 Z-0.0752
N2886 X0.2642 Y7.1845 Z-0.098
N2887 X0.3388 Y7.2275 Z-0.1197
N2888 X0.4251 Y7.2774 Z-0.1432
N2889 X0.5003 Y7.3207 Z-0.1623
N2890 X0.5756 Y7.3642 Z-0.1803
N2891 X0.6627 Y7.4145 Z-0.1995
N2892 X0.7385 Y7.4583 Z-0.215
N2893 X0.8144 Y7.5021 Z-0.2293
N2894 X0.8892 Y7.5453 Z-0.2422
N2895 X0.9717 Y7.5929 Z-0.2551
N2896 X1.0531 Y7.6399 Z-0.2665
N2897 X1.127 Y7.6826 Z-0.2756
N2898 X1.2139 Y7.7328 Z-0.2849
N2899 X1.2879 Y7.7755 Z-0.2917
N2900 X1.3634 Y7.8191 Z-0.2975
N2901 X1.4506 Y7.8694 Z-0.3028
N2902 X1.5274 Y7.9138 Z-0.3061
N2903 X1.5321 Y7.9165
N2904 X1.5367 Y7.9191 Z-0.3054
N2905 X1.5412 Y7.9217 Z-0.3042
N2906 X1.5456 Y7.9243 Z-0.3024
N2907 X1.5498 Y7.9267 Z-0.3001
N2908 X1.5537 Y7.929 Z-0.2973
N2909 X1.5574 Y7.9311 Z-0.294
N2910 X1.5607 Y7.933 Z-0.2903
N2911 X1.5637 Y7.9347 Z-0.2862
N2912 X1.5663 Y7.9362 Z-0.2817
N2913 X1.5685 Y7.9375 Z-0.277
N2914 X1.5702 Y7.9384 Z-0.272
N2915 X1.5714 Y7.9392 Z-0.2668
N2916 X1.5721 Y7.9396 Z-0.2615
N2917 X1.5724 Y7.9397 Z-0.2562
N2918 G0 Z0.1969
N2919 X1.0763 Y7.9419
N2920 Z-0.1913
N2921 G1 Z-0.2134 F30
N2922 X1.076 Y7.9418 Z-0.2187
N2923 X1.0753 Y7.9413 Z-0.2239
N2924 X1.0741 Y7.9406 Z-0.229
N2925 X1.0724 Y7.9397 Z-0.234
N2926 X1.0703 Y7.9385 Z-0.2387
N2927 X1.0678 Y7.937 Z-0.2431
N2928 X1.0649 Y7.9353 Z-0.2472
N2929 X1.0616 Y7.9334 Z-0.2509
N2930 X1.058 Y7.9314 Z-0.2542
N2931 X1.0542 Y7.9291 Z-0.257
N2932 X1.05 Y7.9267 Z-0.2594
N2933 X1.0457 Y7.9243 Z-0.2612
N2934 X1.0413 Y7.9217 Z-0.2625
N2935 X1.0367 Y7.9191 Z-0.2632
N2936 X1.0322 Y7.9164 Z-0.2634
N2937 X1.0276 Y7.9138 Z-0.263
N2938 X0.9396 Y7.863 Z-0.2502 F50
N2939 X0.8648 Y7.8198 Z-0.2381
N2940 X0.8016 Y7.7833 Z-0.2269
N2941 X0.7257 Y7.7395 Z-0.2125
N2942 X0.6371 Y7.6883 Z-0.1941
N2943 X0.5629 Y7.6455 Z-0.1773
N2944 X0.5004 Y7.6094 Z-0.1623
N2945 X0.4252 Y7.566 Z-0.1432
N2946 X0.3389 Y7.5162 Z-0.1197
N2947 X0.2643 Y7.4731 Z-0.098
N2948 X0.1899 Y7.4302 Z-0.0752
N2949 X0.1095 Y7.3837 Z-0.0494
N2950 X0.0969 Y7.3764 Z-0.0461
N2951 X0.0841 Y7.3691 Z-0.0434
N2952 X0.0712 Y7.3616 Z-0.0414
N2953 X0.0583 Y7.3541 Z-0.0401
N2954 X0.039 Y7.343 Z-0.0394
N2955 X0.036 Y7.3413 Z-0.039
N2956 X0.033 Y7.3396 Z-0.0382
N2957 X0.0302 Y7.3379 Z-0.0368
N2958 X0.0271 Y7.3362 Z-0.0354
N2959 X0.0239 Y7.3343 Z-0.0346
N2960 X0.0206 Y7.3324 Z-0.0343
N2961 G2 X-0.0818 Y7.3599 I-0.0375 J0.065
N2962 G1 X-0.1318 Y7.4464
N2963 G2 X-0.1043 Y7.5489 I0.065 J0.0375
N2964 G1 X0.0202 Y7.6208
N2965 X0.0235 Y7.6227 Z-0.0346
N2966 X0.0267 Y7.6245 Z-0.0354
N2967 X0.0298 Y7.6263 Z-0.0368
N2968 X0.0327 Y7.628 Z-0.0382
N2969 X0.0358 Y7.6298 Z-0.0391
N2970 X0.039 Y7.6316 Z-0.0394
N2971 X0.0472 Y7.6363 Z-0.0395
N2972 X0.0602 Y7.6438 Z-0.0402
N2973 X0.0731 Y7.6513 Z-0.0417
N2974 X0.086 Y7.6588 Z-0.0438
N2975 X0.0988 Y7.6661 Z-0.0465
N2976 X0.1114 Y7.6734 Z-0.05
N2977 X0.1428 Y7.6915 Z-0.0601
N2978 X0.2044 Y7.7271 Z-0.0798
N2979 X0.2662 Y7.7628 Z-0.0986
N2980 X0.3281 Y7.7985 Z-0.1166
N2981 X0.3902 Y7.8344 Z-0.1339
N2982 X0.4525 Y7.8704 Z-0.1503
N2983 X0.5277 Y7.9138 Z-0.1691
N2984 X0.5325 Y7.9165 Z-0.1699
N2985 X0.5373 Y7.9193 Z-0.1702
N2986 X0.5421 Y7.9221 Z-0.1698
N2987 X0.5469 Y7.9248 Z-0.1688
N2988 X0.5515 Y7.9275 Z-0.1673
N2989 X0.5559 Y7.9301 Z-0.1651
N2990 X0.5602 Y7.9325 Z-0.1624
N2991 X0.5641 Y7.9348 Z-0.1591
N2992 X0.5677 Y7.9368 Z-0.1554
N2993 X0.5708 Y7.9387 Z-0.1512
N2994 X0.5736 Y7.9403 Z-0.1466
N2995 X0.5759 Y7.9416 Z-0.1418
N2996 X0.5778 Y7.9427 Z-0.1366
N2997 X0.5791 Y7.9434 Z-0.1312
N2998 X0.5799 Y7.9439 Z-0.1258
N2999 X0.5802 Y7.9441 Z-0.1202
N3000 G0 Z0.5906
(Parallel2 (2))
N3002 X0.2131 Y0.0072
N3003 Z0.5906
N3004 Z-0.0016
N3005 G1 Z-0.0169 F30
N3006 X0.2128 Y0.0074 Z-0.0224
N3007 X0.2121 Y0.0078 Z-0.0277
N3008 X0.2108 Y0.0085 Z-0.0329
N3009 X0.2091 Y0.0095 Z-0.038
N3010 X0.2069 Y0.0108 Z-0.0428
N3011 X0.2042 Y0.0123 Z-0.0472
N3012 X0.2012 Y0.0141 Z-0.0514
N3013 X0.1978 Y0.0161 Z-0.0551
N3014 X0.194 Y0.0182 Z-0.0584
N3015 X0.19 Y0.0205 Z-0.0612
N3016 X0.1857 Y0.023 Z-0.0634
N3017 X0.1813 Y0.0256 Z-0.0652
N3018 X0.1767 Y0.0282 Z-0.0663
N3019 X0.172 Y0.0309 Z-0.0669
N3020 X0.1673 Y0.0336
N3021 X0.1627 Y0.0363 Z-0.0663
N3022 X0.1581 Y0.039 Z-0.0651
N3023 X0.1141 Y0.0643 Z-0.0508 F86.06
N3024 X0.1015 Y0.0716 Z-0.0472
N3025 X0.0888 Y0.079 Z-0.0443
N3026 X0.076 Y0.0864 Z-0.0421
N3027 X0.063 Y0.0939 Z-0.0405
N3028 X0.05 Y0.1014 Z-0.0396
N3029 X0.039 Y0.1077 Z-0.0394
N3030 X0.0359 Y0.1095 Z-0.039
N3031 X0.0328 Y0.1113 Z-0.0382
N3032 X0.0299 Y0.113 Z-0.0368
N3033 X0.0268 Y0.1148 Z-0.0354
N3034 X0.0236 Y0.1166 Z-0.0346
N3035 X0.0203 Y0.1185 Z-0.0343
N3036 X-0.0089 Y0.1354
N3037 G2 X-0.0197 Y0.1757 I0.0148 J0.0256
N3038 X0.0206 Y0.1865 I0.0256 J-0.0148
N3039 G1 X0.0239 Y0.1846 Z-0.0346
N3040 X0.0271 Y0.1828 Z-0.0354
N3041 X0.0301 Y0.181 Z-0.0368
N3042 X0.033 Y0.1794 Z-0.0382
N3043 X0.036 Y0.1777 Z-0.039
N3044 X0.039 Y0.1759 Z-0.0394
N3045 X0.0575 Y0.1652 Z-0.04
N3046 X0.0705 Y0.1578 Z-0.0413
N3047 X0.0833 Y0.1503 Z-0.0433
N3048 X0.0961 Y0.1429 Z-0.0459
N3049 X0.1088 Y0.1356 Z-0.0492
N3050 X0.1527 Y0.1103 Z-0.0633
N3051 X0.2144 Y0.0747 Z-0.0829
N3052 X0.2762 Y0.039 Z-0.1016
N3053 X0.2792 Y0.0372 Z-0.1022
N3054 X0.2823 Y0.0355 Z-0.1024
N3055 X0.2854 Y0.0337 Z-0.102
N3056 X0.2883 Y0.032 Z-0.1012
N3057 X0.2912 Y0.0303 Z-0.0998
N3058 X0.2943 Y0.0285 Z-0.0984
N3059 X0.2975 Y0.0267 Z-0.0976
N3060 X0.3007 Y0.0248 Z-0.0973
N3061 X0.3889 Y-0.0261
N3062 X0.3908 Y-0.0271
N3063 X0.3928 Y-0.0281 Z-0.0974
N3064 X0.3949 Y-0.0289 Z-0.0976
N3065 X0.397 Y-0.0296 Z-0.0979
N3066 X0.3991 Y-0.0302 Z-0.0982
N3067 X0.4012 Y-0.0306 Z-0.0986
N3068 X0.4034 Y-0.0309 Z-0.099
N3069 X0.4055 Y-0.0311 Z-0.0995
N3070 X0.4076 Y-0.0312 Z-0.1001
N3071 X0.4098 Y-0.0311 Z-0.1007
N3072 X0.4119 Y-0.0309 Z-0.1014
N3073 X0.4139 Y-0.0306 Z-0.1022
N3074 X0.4159 Y-0.0301 Z-0.103
N3075 X0.4179 Y-0.0295 Z-0.1038
N3076 X0.4198 Y-0.0288 Z-0.1047
N3077 X0.4216 Y-0.028 Z-0.1056
N3078 X0.4234 Y-0.027 Z-0.1066
N3079 X0.4251 Y-0.0259 Z-0.1076
N3080 X0.4267 Y-0.0248 Z-0.1086
N3081 X0.4281 Y-0.0235 Z-0.1096
N3082 X0.4295 Y-0.0221 Z-0.1107
N3083 X0.4308 Y-0.0206 Z-0.1118
N3084 X0.4319 Y-0.0191 Z-0.1128
N3085 X0.433 Y-0.0174 Z-0.1139
N3086 X0.4339 Y-0.0157 Z-0.115
N3087 X0.4346 Y-0.014 Z-0.1161
N3088 X0.4353 Y-0.0121 Z-0.1172
N3089 X0.4358 Y-0.0103 Z-0.1182
N3090 X0.4361 Y-0.0083 Z-0.1193
N3091 X0.4364 Y-0.0064 Z-0.1203
N3092 X0.4365 Y-0.0044 Z-0.1213
N3093 X0.4364 Y-0.0024 Z-0.1222
N3094 X0.4362 Y-0.0004 Z-0.1232
N3095 X0.4359 Y0.0016 Z-0.124
N3096 X0.4354 Y0.0036 Z-0.1249
N3097 X0.4348 Y0.0056 Z-0.1257
N3098 X0.4341 Y0.0075 Z-0.1264
N3099 X0.4332 Y0.0095 Z-0.1271
N3100 X0.4322 Y0.0113 Z-0.1277
N3101 X0.4311 Y0.0132 Z-0.1283
N3102 X0.4298 Y0.0149 Z-0.1288
N3103 X0.4285 Y0.0166 Z-0.1293
N3104 X0.427 Y0.0183 Z-0.1297
N3105 X0.4255 Y0.0198 Z-0.13
N3106 X0.4238 Y0.0213 Z-0.1302
N3107 X0.4221 Y0.0226 Z-0.1304
N3108 X0.4203 Y0.0239 Z-0.1305
N3109 X0.4184 Y0.0251
N3110 X0.4151 Y0.027 Z-0.1308
N3111 X0.4119 Y0.0288 Z-0.1317
N3112 X0.4089 Y0.0306 Z-0.1331
N3113 X0.4061 Y0.0322 Z-0.1344
N3114 X0.4032 Y0.0338 Z-0.1352
N3115 X0.4002 Y0.0355 Z-0.1356
N3116 X0.3972 Y0.0373 Z-0.1355
N3117 X0.3943 Y0.039 Z-0.135
N3118 X0.3321 Y0.0749 Z-0.1178
N3119 X0.2702 Y0.1106 Z-0.0998
N3120 X0.2084 Y0.1463 Z-0.081
N3121 X0.1468 Y0.1819 Z-0.0614
N3122 X0.1154 Y0.2 Z-0.0512
N3123 X0.1028 Y0.2073 Z-0.0475
N3124 X0.0901 Y0.2146 Z-0.0446
N3125 X0.0772 Y0.222 Z-0.0423
N3126 X0.0643 Y0.2295 Z-0.0406
N3127 X0.0513 Y0.237 Z-0.0397
N3128 X0.039 Y0.2441 Z-0.0394
N3129 X0.0359 Y0.2459 Z-0.039
N3130 X0.0328 Y0.2477 Z-0.0382
N3131 X0.0299 Y0.2493 Z-0.0368
N3132 X0.0269 Y0.2511 Z-0.0354
N3133 X0.0237 Y0.253 Z-0.0346
N3134 X0.0204 Y0.2548 Z-0.0343
N3135 X-0.0089 Y0.2718
N3136 G2 X-0.0197 Y0.3121 I0.0148 J0.0256
N3137 X0.0206 Y0.3229 I0.0256 J-0.0148
N3138 G1 X0.0239 Y0.321 Z-0.0346
N3139 X0.0271 Y0.3192 Z-0.0354
N3140 X0.0301 Y0.3174 Z-0.0368
N3141 X0.033 Y0.3158 Z-0.0382
N3142 X0.036 Y0.314 Z-0.039
N3143 X0.039 Y0.3123 Z-0.0394
N3144 X0.0575 Y0.3016 Z-0.04
N3145 X0.0705 Y0.2941 Z-0.0413
N3146 X0.0834 Y0.2867 Z-0.0433
N3147 X0.0961 Y0.2793 Z-0.0459
N3148 X0.1088 Y0.272 Z-0.0492
N3149 X0.1402 Y0.2539 Z-0.0593
N3150 X0.2018 Y0.2183 Z-0.0789
N3151 X0.2636 Y0.1826 Z-0.0978
N3152 X0.3255 Y0.1469 Z-0.1159
N3153 X0.3876 Y0.111 Z-0.1332
N3154 X0.4499 Y0.075 Z-0.1496
N3155 X0.5124 Y0.039 Z-0.1653
N3156 X0.5152 Y0.0373 Z-0.1658
N3157 X0.5181 Y0.0356
N3158 X0.521 Y0.034 Z-0.1654
N3159 X0.5238 Y0.0324 Z-0.1646
N3160 X0.5265 Y0.0308 Z-0.1633
N3161 X0.5296 Y0.0291 Z-0.1619
N3162 X0.5328 Y0.0272 Z-0.161
N3163 X0.536 Y0.0253 Z-0.1607
N3164 X0.6242 Y-0.0256
N3165 X0.6261 Y-0.0266 Z-0.1608
N3166 X0.6281 Y-0.0275 Z-0.1609
N3167 X0.6302 Y-0.0283 Z-0.161
N3168 X0.6323 Y-0.029 Z-0.1612
N3169 X0.6344 Y-0.0295 Z-0.1615
N3170 X0.6366 Y-0.0299 Z-0.1619
N3171 X0.6388 Y-0.0302 Z-0.1623
N3172 X0.6409 Y-0.0303 Z-0.1627
N3173 X0.6431 Z-0.1632
N3174 X0.6452 Y-0.0301 Z-0.1638
N3175 X0.6474 Y-0.0298 Z-0.1644
N3176 X0.6494 Y-0.0293 Z-0.1651
N3177 X0.6514 Y-0.0287 Z-0.1658
N3178 X0.6534 Y-0.028 Z-0.1665
N3179 X0.6553 Y-0.0272 Z-0.1673
N3180 X0.6571 Y-0.0262 Z-0.1681
N3181 X0.6589 Y-0.0251 Z-0.1689
N3182 X0.6605 Y-0.0239 Z-0.1698
N3183 X0.6621 Y-0.0225 Z-0.1707
N3184 X0.6635 Y-0.0211 Z-0.1716
N3185 X0.6648 Y-0.0196 Z-0.1725
N3186 X0.666 Y-0.018 Z-0.1734
N3187 X0.6671 Y-0.0162 Z-0.1743
N3188 X0.668 Y-0.0145 Z-0.1753
N3189 X0.6688 Y-0.0126 Z-0.1762
N3190 X0.6695 Y-0.0107 Z-0.1771
N3191 X0.67 Y-0.0087 Z-0.178
N3192 X0.6704 Y-0.0067 Z-0.1789
N3193 X0.6706 Y-0.0047 Z-0.1798
N3194 X0.6707 Y-0.0027 Z-0.1806
N3195 Y-0.0006 Z-0.1814
N3196 X0.6704 Y0.0015 Z-0.1822
N3197 X0.6701 Y0.0035 Z-0.1829
N3198 X0.6696 Y0.0056 Z-0.1836
N3199 X0.6689 Y0.0076 Z-0.1843
N3200 X0.6681 Y0.0096 Z-0.1849
N3201 X0.6672 Y0.0115 Z-0.1855
N3202 X0.6662 Y0.0134 Z-0.186
N3203 X0.665 Y0.0152 Z-0.1864
N3204 X0.6637 Y0.017 Z-0.1868
N3205 X0.6623 Y0.0187 Z-0.1872
N3206 X0.6607 Y0.0202 Z-0.1874
N3207 X0.6591 Y0.0217 Z-0.1877
N3208 X0.6574 Y0.0231 Z-0.1878
N3209 X0.6556 Y0.0244 Z-0.1879
N3210 X0.6537 Y0.0256
N3211 X0.6504 Y0.0275 Z-0.1882
N3212 X0.6472 Y0.0293 Z-0.1891
N3213 X0.6442 Y0.0311 Z-0.1905
N3214 X0.6416 Y0.0326 Z-0.1917
N3215 X0.6389 Y0.0341 Z-0.1926
N3216 X0.6361 Y0.0357 Z-0.193
N3217 X0.6333 Y0.0374
N3218 X0.6305 Y0.039 Z-0.1926
N3219 X0.5678 Y0.0752 Z-0.1784
N3220 X0.5052 Y0.1113 Z-0.1635
N3221 X0.4428 Y0.1473 Z-0.1478
N3222 X0.3678 Y0.1906 Z-0.1278
N3223 X0.2817 Y0.2403 Z-0.1032
N3224 X0.2073 Y0.2833 Z-0.0807
N3225 X0.1332 Y0.3261 Z-0.057
N3226 X0.1081 Y0.3406 Z-0.049
N3227 X0.0954 Y0.3479 Z-0.0457
N3228 X0.0826 Y0.3553 Z-0.0431
N3229 X0.0697 Y0.3627 Z-0.0412
N3230 X0.0568 Y0.3702 Z-0.04
N3231 X0.039 Y0.3805 Z-0.0394
N3232 X0.0359 Y0.3822 Z-0.039
N3233 X0.033 Y0.384 Z-0.0382
N3234 X0.0301 Y0.3856 Z-0.0368
N3235 X0.027 Y0.3874 Z-0.0354
N3236 X0.0238 Y0.3892 Z-0.0346
N3237 X0.0206 Y0.3911 Z-0.0343
N3238 X-0.0094 Y0.4084
N3239 G2 X-0.0202 Y0.4488 I0.0148 J0.0256
N3240 X0.0201 Y0.4596 I0.0256 J-0.0148
N3241 G1 X0.0234 Y0.4577 Z-0.0346
N3242 X0.0266 Y0.4558 Z-0.0354
N3243 X0.0296 Y0.4541 Z-0.0368
N3244 X0.0326 Y0.4523 Z-0.0382
N3245 X0.0358 Y0.4505 Z-0.0391
N3246 X0.039 Y0.4487 Z-0.0394
N3247 X0.0442 Y0.4457
N3248 X0.0619 Y0.4354 Z-0.0404
N3249 X0.0749 Y0.4279 Z-0.0419
N3250 X0.0877 Y0.4205 Z-0.0441
N3251 X0.1005 Y0.4132 Z-0.047
N3252 X0.1131 Y0.4059 Z-0.0505
N3253 X0.1633 Y0.3769 Z-0.0668
N3254 X0.2489 Y0.3275 Z-0.0934
N3255 X0.3235 Y0.2844 Z-0.1153
N3256 X0.3983 Y0.2412 Z-0.1361
N3257 X0.4848 Y0.1913 Z-0.1585
N3258 X0.5601 Y0.1478 Z-0.1767
N3259 X0.6228 Y0.1116 Z-0.1909
N3260 X0.6856 Y0.0753 Z-0.2043
N3261 X0.7486 Y0.039 Z-0.2169
N3262 X0.752 Y0.037 Z-0.2173
N3263 X0.7554 Y0.0351 Z-0.2171
N3264 X0.7587 Y0.0332 Z-0.2162
N3265 X0.7618 Y0.0313 Z-0.2148
N3266 X0.7649 Y0.0296 Z-0.2134
N3267 X0.7681 Y0.0277 Z-0.2125
N3268 X0.7713 Y0.0258 Z-0.2122
N3269 X0.8595 Y-0.025
N3270 X0.8614 Y-0.0261
N3271 X0.8633 Y-0.0269 Z-0.2123
N3272 X0.8653 Y-0.0277 Z-0.2124
N3273 X0.8674 Y-0.0283 Z-0.2126
N3274 X0.8694 Y-0.0288 Z-0.2128
N3275 X0.8715 Y-0.0292 Z-0.2131
N3276 X0.8736 Y-0.0294 Z-0.2134
N3277 X0.8758 Y-0.0295 Z-0.2138
N3278 X0.8779 Y-0.0294 Z-0.2142
N3279 X0.88 Y-0.0292 Z-0.2146
N3280 X0.882 Y-0.0289 Z-0.2151
N3281 X0.884 Y-0.0284 Z-0.2156
N3282 X0.886 Y-0.0278 Z-0.2162
N3283 X0.8879 Y-0.027 Z-0.2167
N3284 X0.8898 Y-0.0262 Z-0.2173
N3285 X0.8916 Y-0.0252 Z-0.218
N3286 X0.8933 Y-0.0241 Z-0.2186
N3287 X0.8949 Y-0.0228 Z-0.2193
N3288 X0.8964 Y-0.0215 Z-0.22
N3289 X0.8979 Y-0.0201 Z-0.2207
N3290 X0.8992 Y-0.0185 Z-0.2214
N3291 X0.9004 Y-0.0169 Z-0.2222
N3292 X0.9014 Y-0.0152 Z-0.2229
N3293 X0.9024 Y-0.0134 Z-0.2236
N3294 X0.9032 Y-0.0115 Z-0.2243
N3295 X0.9039 Y-0.0096 Z-0.2251
N3296 X0.9044 Y-0.0077 Z-0.2258
N3297 X0.9048 Y-0.0057 Z-0.2265
N3298 X0.9051 Y-0.0037 Z-0.2271
N3299 X0.9052 Y-0.0017 Z-0.2278
N3300 X0.9051 Y0.0004 Z-0.2284
N3301 X0.905 Y0.0024 Z-0.2291
N3302 X0.9047 Y0.0045 Z-0.2296
N3303 X0.9042 Y0.0065 Z-0.2302
N3304 X0.9036 Y0.0085 Z-0.2307
N3305 X0.9029 Y0.0104 Z-0.2312
N3306 X0.902 Y0.0124 Z-0.2316
N3307 X0.901 Y0.0142 Z-0.232
N3308 X0.8999 Y0.016 Z-0.2324
N3309 X0.8986 Y0.0177 Z-0.2327
N3310 X0.8973 Y0.0194 Z-0.233
N3311 X0.8958 Y0.0209 Z-0.2332
N3312 X0.8942 Y0.0224 Z-0.2333
N3313 X0.8926 Y0.0237 Z-0.2335
N3314 X0.8908 Y0.025
N3315 X0.889 Y0.0261 Z-0.2336
N3316 X0.8857 Y0.028 Z-0.2339
N3317 X0.8825 Y0.0298 Z-0.2347
N3318 X0.8795 Y0.0316 Z-0.2361
N3319 X0.8764 Y0.0334 Z-0.2375
N3320 X0.8732 Y0.0352 Z-0.2384
N3321 X0.87 Y0.0371 Z-0.2387
N3322 X0.8667 Y0.039 Z-0.2384
N3323 X0.8035 Y0.0754 Z-0.2273
N3324 X0.7405 Y0.1118 Z-0.2154
N3325 X0.6647 Y0.1556 Z-0.2
N3326 X0.5776 Y0.2059 Z-0.1808
N3327 X0.5023 Y0.2494 Z-0.1628
N3328 X0.4271 Y0.2927 Z-0.1437
N3329 X0.3408 Y0.3426 Z-0.1203
N3330 X0.2662 Y0.3857 Z-0.0986
N3331 X0.2044 Y0.4213 Z-0.0798
N3332 X0.1428 Y0.4569 Z-0.0601
N3333 X0.1115 Y0.475 Z-0.05
N3334 X0.0988 Y0.4823 Z-0.0465
N3335 X0.0861 Y0.4897 Z-0.0438
N3336 X0.0732 Y0.4971 Z-0.0417
N3337 X0.0603 Y0.5046 Z-0.0402
N3338 X0.0473 Y0.5121 Z-0.0395
N3339 X0.039 Y0.5168 Z-0.0394
N3340 X0.0358 Y0.5187 Z-0.0391
N3341 X0.0327 Y0.5205 Z-0.0382
N3342 X0.0298 Y0.5222 Z-0.0368
N3343 X0.0267 Y0.5239 Z-0.0354
