%
(G-code intro program)
(9/18/2017)
( 4mm flat mill)
(4 min)
N01 G90 G17 G21 (Absolute positioning , XY plane , Inch)
N02 M06 T01 ( Toll change- tool 1)
N03 M03 S10000 ( Turn spindle on W at ### RPM’s)
N04 G0 X24.0 Y42.0 ( Rapid to Position A )
N05 z2.0 ( Move 2.0 above stock)
N06 z-1.5 F300.0 (  Plunge into stock move 1.5 above stock )
N07  G01 X12.0 Y42.0 F750 ( Move to position B feed rate)
N08  G03 X8.0 Y38.0 I -2.0 J -2.0 F750  ( Move to postion C D )
N09  G01 X8.0 Y12.0  F300.0 ( move to position E )
N10  G03 X12.0 Y8.0  I 2.0 J -2.0 F750  ( move to position G)
N14   G01 X24.0 Y8.0 ( Move to position H)
N15 G00 Z4.00 F750 (above stock)
N16 X48.0 Y42. F750 ( Move to position I)
 z-1.5 F300.0 (  Plunge into stock move 1.5 above stock )
N17 G01 X32.0 Y42.0 F750 ( Move to postion J)
N18 X32.0 Y26.0 F750 ( move to position K)
N19 X42.0 Y26.0 F750  ( move to position L )
N20 X32.0 Y26.0 F750 ( move back to position K)
N21 X32.0 Y8.0 F750  ( move to position M )
N22 X48.0 Y8.0 F750  ( move to position N )
N23 G00 Z2.00 (retracting tool from stock)
N24 G01 X72 Y42 (postion O)
N25 Z-1.5  F300  ( plunge into stock move 1.5 above stock)
N26 X56 Y42 F750 (position P)
N27 X56 Y24 F750 (Postion Q)
N28 X68 Y24 F750 (Position R)
N29 X56 Y24 F750 (back to position Q)
N30 X56 Y8 F750 (position S)
N31 X72 Y8 F750 (Positon T)
N32 G00 Z 4.0  (retract stock)
N33   Y100  ( Go back to origin) 
N32  M05  ( spindle stop)
N33 M30 ( program stop)
%
